; HEADER_BLOCK_START
; generated by OrcaSlicer 1.6.3 on 2023-06-09 at 14:14:44
; total layer number: 49
; HEADER_BLOCK_END

; THUMBNAIL_BLOCK_START
; THUMBNAIL_BLOCK_END

; external perimeters extrusion width = 0.40mm
; perimeters extrusion width = 0.45mm
; infill extrusion width = 0.45mm
; solid infill extrusion width = 0.40mm
; top infill extrusion width = 0.40mm
; support material extrusion width = 0.40mm
; first layer extrusion width = 0.50mm

; external perimeters extrusion width = 0.40mm
; perimeters extrusion width = 0.45mm
; infill extrusion width = 0.45mm
; solid infill extrusion width = 0.40mm
; top infill extrusion width = 0.40mm
; support material extrusion width = 0.40mm
; first layer extrusion width = 0.50mm

; external perimeters extrusion width = 0.40mm
; perimeters extrusion width = 0.45mm
; infill extrusion width = 0.45mm
; solid infill extrusion width = 0.40mm
; top infill extrusion width = 0.40mm
; support material extrusion width = 0.40mm
; first layer extrusion width = 0.50mm

; EXECUTABLE_BLOCK_START
EXCLUDE_OBJECT_DEFINE NAME=(Unsaved).stl_id_0_copy_0 CENTER=87.3878,60 POLYGON=[[77.7015,54.75],[80.5365,42.15],[81.3886,38.4571],[81.3979,38.4169],[81.4244,38.3389],[81.4609,38.265],[81.4826,38.23],[81.561,38.1345],[81.6564,38.0562],[81.6915,38.0344],[81.7654,37.9979],[81.8434,37.9715],[81.8835,37.9621],[81.9447,37.953],[82.0065,37.95],[86.2006,37.95],[86.3548,37.9557],[86.447,37.9645],[86.5082,37.9726],[86.6599,38.0008],[86.69,38.0078],[86.8092,38.0401],[86.9262,38.0793],[86.9551,38.0902],[87.097,38.1509],[87.1524,38.1781],[87.234,38.2219],[87.3655,38.3027],[93.4515,42.36],[95.3513,43.6266],[95.5844,43.8068],[95.7899,44.0178],[95.9639,44.2555],[96.1029,44.5153],[96.2042,44.7919],[96.2658,45.08],[96.2865,45.3739],[97.074,61.05],[97.0742,61.2208],[97.073,61.3677],[97.0705,61.4954],[97.0668,61.6075],[96.2865,79.95],[96.2685,80.2241],[96.2667,80.237],[96.2149,80.4935],[96.208,80.5187],[96.1266,80.7536],[96.1113,80.7897],[96.0051,81],[95.9785,81.0449],[95.9214,81.1332],[95.828,81.2597],[95.812,81.2795],[95.7254,81.3789],[95.615,81.4892],[95.6146,81.4896],[95.4642,81.6165],[95.4125,81.6549],[95.3031,81.7285],[95.1909,81.7942],[95.1323,81.8249],[94.9538,81.9048],[94.9533,81.905],[94.7675,81.968],[94.7047,81.985],[94.5766,82.0134],[94.4476,82.0337],[94.3824,82.0408],[94.1865,82.05],[82.1115,82.05],[81.9056,82.0399],[81.8471,82.0333],[81.7017,82.0096],[81.5869,81.9834],[81.5018,81.9595],[81.3351,81.9012],[81.3077,81.8901],[81.1214,81.8019],[81.0956,81.788],[80.9446,81.696],[80.8723,81.6455],[80.779,81.5731],[80.6688,81.476],[80.6276,81.4336],[80.4891,81.2814],[80.4465,81.2279],[80.3216,81.0467],[80.2937,81],[80.2382,80.8978],[80.1885,80.7927],[80.1879,80.7913],[80.1447,80.685],[80.0905,80.5199],[80.071,80.4459],[80.0313,80.2377],[80.0264,80.1997],[77.7015,56.325],[77.7015,54.75]]
EXCLUDE_OBJECT_DEFINE NAME=(Unsaved).stl_id_1_copy_0 CENTER=58.4763,61.05 POLYGON=[[49.2512,56.05],[51.9512,44.05],[52.7627,40.533],[52.7717,40.4947],[52.7969,40.4204],[52.8316,40.35],[52.8523,40.3167],[52.9269,40.2257],[53.0179,40.1511],[53.0512,40.1304],[53.1216,40.0957],[53.1959,40.0704],[53.2342,40.0615],[53.2924,40.0529],[53.3512,40.05],[57.3457,40.05],[57.4925,40.0554],[57.5803,40.0638],[57.6386,40.0716],[57.7831,40.0984],[57.8117,40.1051],[57.9252,40.1358],[58.0367,40.1732],[58.0642,40.1835],[58.1993,40.2414],[58.2521,40.2672],[58.3299,40.3089],[58.4551,40.3859],[64.2512,44.25],[66.0606,45.4563],[66.2826,45.6279],[66.4783,45.8289],[66.644,46.0553],[66.7764,46.3027],[66.8729,46.5661],[66.9315,46.8405],[66.9512,47.1204],[67.7012,62.05],[67.7014,62.2126],[67.7003,62.3526],[67.6979,62.4742],[67.6944,62.5809],[66.9512,80.05],[66.9341,80.3111],[66.9324,80.3234],[66.8831,80.5676],[66.8765,80.5916],[66.799,80.8154],[66.7844,80.8497],[66.6833,81.05],[66.6579,81.0927],[66.6036,81.1768],[66.5146,81.2973],[66.4993,81.3162],[66.4169,81.4108],[66.3117,81.5159],[66.3113,81.5163],[66.1681,81.6372],[66.1189,81.6738],[66.0147,81.7438],[65.9079,81.8064],[65.852,81.8356],[65.682,81.9117],[65.6815,81.9119],[65.5046,81.9719],[65.4448,81.9881],[65.3228,82.0152],[65.1999,82.0345],[65.1378,82.0413],[64.9512,82.05],[53.4512,82.05],[53.2551,82.0404],[53.1994,82.0341],[53.061,82.0116],[52.9517,81.9866],[52.8705,81.9639],[52.7118,81.9083],[52.6857,81.8977],[52.5083,81.8138],[52.4838,81.8005],[52.3399,81.7128],[52.2711,81.6647],[52.1822,81.5959],[52.0772,81.5033],[52.038,81.463],[51.9061,81.318],[51.8656,81.2671],[51.7466,81.0945],[51.72,81.05],[51.6672,80.9527],[51.6198,80.8526],[51.6192,80.8512],[51.5781,80.75],[51.5265,80.5927],[51.5079,80.5223],[51.4701,80.324],[51.4654,80.2878],[49.2512,57.55],[49.2512,56.05]]
EXCLUDE_OBJECT_DEFINE NAME=(Unsaved).stl_id_2_copy_0 CENTER=31.2284,62.4701 POLYGON=[[22.9258,57.9701],[25.3558,47.1701],[26.0862,44.0048],[26.0942,43.9704],[26.1169,43.9035],[26.1481,43.8401],[26.1668,43.8101],[26.2339,43.7283],[26.3158,43.6611],[26.3458,43.6425],[26.4091,43.6112],[26.476,43.5885],[26.5104,43.5805],[26.5629,43.5727],[26.6158,43.5701],[30.2108,43.5701],[30.343,43.575],[30.422,43.5826],[30.4744,43.5896],[30.6045,43.6137],[30.6303,43.6197],[30.7324,43.6474],[30.8327,43.681],[30.8575,43.6903],[30.9791,43.7424],[31.0266,43.7656],[31.0966,43.8032],[31.2092,43.8724],[36.4258,47.3501],[38.0542,48.4358],[38.254,48.5902],[38.4302,48.7711],[38.5793,48.9749],[38.6985,49.1975],[38.7853,49.4346],[38.8381,49.6816],[38.8558,49.9335],[39.5308,63.3701],[39.531,63.5165],[39.5299,63.6424],[39.5278,63.7519],[39.5247,63.848],[38.8558,79.5701],[38.8404,79.8051],[38.8389,79.8162],[38.7944,80.036],[38.7885,80.0576],[38.7188,80.259],[38.7056,80.2898],[38.6146,80.4701],[38.5918,80.5086],[38.5429,80.5843],[38.4628,80.6927],[38.4491,80.7097],[38.3749,80.7949],[38.2802,80.8895],[38.2799,80.8898],[38.151,80.9986],[38.1067,81.0315],[38.0129,81.0946],[37.9168,81.1509],[37.8665,81.1772],[37.7135,81.2457],[37.713,81.2459],[37.5538,81.2999],[37.5,81.3145],[37.3902,81.3388],[37.2796,81.3562],[37.2237,81.3623],[37.0558,81.3701],[26.7058,81.3701],[26.5293,81.3615],[26.4792,81.3558],[26.3546,81.3355],[26.2562,81.3131],[26.1832,81.2926],[26.0403,81.2426],[26.0168,81.2331],[25.8571,81.1575],[25.8351,81.1455],[25.7056,81.0667],[25.6437,81.0234],[25.5637,80.9614],[25.4692,80.8781],[25.4339,80.8418],[25.3152,80.7113],[25.2787,80.6655],[25.1716,80.5102],[25.1477,80.4701],[25.1001,80.3825],[25.0575,80.2925],[25.057,80.2912],[25.02,80.2001],[24.9735,80.0586],[24.9568,79.9952],[24.9228,79.8167],[24.9186,79.7842],[22.9258,59.3201],[22.9258,57.9701]]
M73 P0 R20
;TYPE:Custom
START_PRINT T_BED=110 T_EXTRUDER=260
G90
G21
M83 ; use relative distances for extrusion
; Filament gcode

    PRESSURE_ADVANCE_SELECT FILAMENT=ABS
M106 S0
;LAYER_CHANGE
;Z:0.2
;HEIGHT:0.2
;BEFORE_LAYER_CHANGE
;0.2
G92 E0

;AFTER_LAYER_CHANGE
;0.2
M204 S500
; printing object (Unsaved).stl id:0 copy 0
EXCLUDE_OBJECT_START NAME=(Unsaved).stl_id_0_copy_0
G1 E-.5 F3000
G1 Z.2 F21000
G1 X77.351 Y56.47
G1 E.5 F1800
;TYPE:Support
;WIDTH:0.5
G1 F3000
G1 X77.556 Y56.675 E.0102
G1 X78.253 Y56.675 E.02452
G1 X78.451 Y56.501 E.00927
G1 X78.498 Y56.239 E.00937
G1 X78.56 Y56.176 E.00313
G1 X78.646 Y56.153 E.00313
G1 X78.732 Y56.176 E.00313
G1 X78.795 Y56.239 E.00313
G1 X78.844 Y56.505 E.00951
G1 X79.041 Y56.675 E.00916
G1 X79.174 Y56.675 E.00466
G1 X79.136 Y57.267 E.02088
G1 X79.136 Y64.786 E.26461
G1 X76.888 Y64.786 E.07913
G1 X76.888 Y55.475 E.32767
G1 X77.351 Y55.475 E.01631
G1 X77.351 Y56.401 E.0326
G1 X78.725 Y57.263 F21000
G1 F3000
G1 X78.725 Y64.374 E.25025
G1 X77.3 Y64.374 E.05017
G1 X77.3 Y57 E.25953
G1 X77.386 Y57.086 E.00431
G1 X78.408 Y57.086 E.03597
G1 X78.646 Y56.877 E.01115
G1 X78.735 Y56.954 E.00414
G1 X78.725 Y57.263 E.01088
G1 E-.5
G1 Z.4 F21000
G1 X92.173 Y38.072
G1 Z.2
G1 E.5 F1800
G1 F3000
G1 X97.888 Y38.072 E.2011
G1 X97.888 Y40.929 E.10055
G1 X100.745 Y40.929 E.10055
G1 X100.745 Y64.786 E.8396
G1 X97.888 Y64.786 E.10055
G1 X97.888 Y67.643 E.10055
G1 X95.03 Y67.643 E.10055
G1 X95.03 Y72.357 E.16592
G1 X100.745 Y72.357 E.2011
G1 X100.745 Y81.928 E.33684
G1 X95.631 Y81.928 E.17997
G1 X95.862 Y81.737 E.01055
G1 X96.076 Y81.51 E.01098
G1 X96.272 Y81.236 E.01184
G1 X96.428 Y80.94 E.0118
G1 X96.54 Y80.631 E.01155
G1 X96.615 Y80.273 E.01289
G1 X96.646 Y79.822 E.0159
G1 X96.439 Y79.6 E.0107
G1 X91.496 Y79.6 E.17393
G1 X89.601 Y77.705 E.09432
G1 X89.601 Y69.2 E.29932
G1 X89.396 Y68.995 E.0102
G1 X84.221 Y68.995 E.18216
G1 X83.864 Y68.976 E.01257
G1 X83.533 Y68.924 E.01179
G1 X83.184 Y68.832 E.01272
G1 X82.859 Y68.707 E.01223
G1 X82.549 Y68.549 E.01225
G1 X82.268 Y68.367 E.01179
G1 X81.986 Y68.14 E.01272
G1 X81.741 Y67.895 E.01223
G1 X81.522 Y67.624 E.01225
G1 X81.332 Y67.332 E.01225
G1 X81.174 Y67.022 E.01225
G1 X81.05 Y66.697 E.01225
G1 X80.96 Y66.361 E.01225
G1 X80.905 Y66.017 E.01225
G1 X80.886 Y65.661 E.01257
G1 X80.886 Y57.279 E.29498
G1 X80.905 Y56.922 E.01257
G1 X80.96 Y56.579 E.01225
G1 X81.05 Y56.243 E.01225
G1 X81.174 Y55.918 E.01225
G1 X81.332 Y55.608 E.01225
G1 X81.522 Y55.316 E.01225
G1 X81.741 Y55.045 E.01225
G1 X81.987 Y54.799 E.01225
G1 X82.257 Y54.58 E.01225
G1 X82.549 Y54.391 E.01225
G1 X82.848 Y54.239 E.01179
G1 X83.185 Y54.108 E.01272
G1 X83.52 Y54.018 E.01222
G1 X83.864 Y53.964 E.01225
G1 X84.221 Y53.945 E.01257
G1 X91.706 Y53.945 E.26345
G1 X91.911 Y53.74 E.0102
G1 X91.911 Y50.307 E.12081
G1 X91.957 Y50.099 E.00751
G1 X92.078 Y49.947 E.00682
G1 X92.252 Y49.863 E.00682
G1 X92.369 Y49.85 E.00413
G1 X96.431 Y49.85 E.14299
G1 X96.636 Y49.645 E.0102
G1 X96.636 Y46.73 E.10259
G1 X96.431 Y46.525 E.0102
G1 X91.496 Y46.525 E.17368
G1 X89.601 Y44.63 E.09432
G1 X89.601 Y39.472 E.18152
G1 X89.519 Y39.317 E.00618
G1 X87.555 Y38.009 E.08304
G1 X87.305 Y37.863 E.0102
G1 X87.039 Y37.748 E.01021
G1 X86.781 Y37.67 E.00948
G1 X86.501 Y37.618 E.01002
G1 X86.211 Y37.6 E.0102
G1 X85.459 Y37.6 E.02646
G1 X85.459 Y35.215 E.08395
G1 X92.173 Y35.215 E.23629
G1 X92.173 Y38.003 E.09814
G1 E-.5
G1 Z.4 F21000
G1 X84.231 Y54.356
G1 Z.2
G1 E.5 F1800
G1 F3000
G1 X91.877 Y54.356 E.26907
G1 X92.323 Y53.91 E.0222
G1 X92.323 Y50.33 E.126
G1 X92.336 Y50.271 E.00214
G1 X96.602 Y50.261 E.15014
G1 X97.048 Y49.815 E.0222
G1 X97.048 Y46.56 E.11458
G1 X96.602 Y46.114 E.0222
G1 X91.667 Y46.114 E.17368
G1 X90.013 Y44.46 E.08232
G1 X90.013 Y39.369 E.17916
G1 X89.833 Y39.032 E.01344
G1 X87.779 Y37.663 E.08688
G1 X87.52 Y37.511 E.01054
G1 X87.169 Y37.358 E.01348
G1 X86.845 Y37.262 E.01191
G1 X86.517 Y37.206 E.01171
G1 X85.871 Y37.189 E.02275
G1 X85.871 Y35.626 E.05499
G1 X91.762 Y35.626 E.20733
G1 X91.762 Y38.483 E.10055
G1 X97.476 Y38.483 E.2011
G1 X97.476 Y41.34 E.10055
G1 X100.333 Y41.34 E.10055
G1 X100.333 Y64.374 E.81064
G1 X97.476 Y64.374 E.10055
G1 X97.476 Y67.231 E.10055
G1 X94.619 Y67.231 E.10055
G1 X94.619 Y72.768 E.19487
G1 X100.333 Y72.768 E.2011
G1 X100.333 Y81.517 E.30789
G1 X96.577 Y81.517 E.13219
M73 P1 R20
G1 X96.799 Y81.117 E.0161
G1 X96.946 Y80.707 E.01531
G1 X97.025 Y80.315 E.01406
G1 X97.069 Y79.672 E.02269
G1 X96.617 Y79.189 E.02328
G1 X91.667 Y79.189 E.17422
G1 X90.013 Y77.535 E.08232
G1 X90.013 Y69.03 E.29932
G1 X89.567 Y68.584 E.0222
G1 X84.231 Y68.584 E.18777
G1 X83.907 Y68.567 E.01143
G1 X83.618 Y68.521 E.0103
G1 X83.31 Y68.44 E.0112
G1 X83.027 Y68.331 E.01068
G1 X82.755 Y68.192 E.01073
G1 X82.51 Y68.033 E.0103
G1 X82.262 Y67.834 E.0112
G1 X82.047 Y67.619 E.01068
G1 X81.855 Y67.382 E.01073
G1 X81.689 Y67.126 E.01073
G1 X81.551 Y66.855 E.01073
G1 X81.441 Y66.57 E.01073
G1 X81.363 Y66.276 E.01073
G1 X81.315 Y65.974 E.01073
G1 X81.298 Y65.65 E.01143
G1 X81.298 Y57.29 E.29423
G1 X81.315 Y56.966 E.01143
G1 X81.363 Y56.664 E.01073
G1 X81.441 Y56.37 E.01073
G1 X81.551 Y56.085 E.01073
G1 X81.689 Y55.814 E.01073
G1 X81.855 Y55.558 E.01073
G1 X82.047 Y55.321 E.01073
G1 X82.263 Y55.106 E.01073
G1 X82.499 Y54.914 E.01073
G1 X82.755 Y54.748 E.01073
G1 X83.016 Y54.615 E.0103
G1 X83.313 Y54.5 E.0112
G1 X83.606 Y54.421 E.01068
G1 X83.907 Y54.373 E.01073
G1 X84.231 Y54.356 E.01143
G1 X84.245 Y54.864 F21000
G1 F3000
G1 X92.087 Y54.864 E.27601
G1 X92.831 Y54.121 E.03701
G1 X92.831 Y50.769 E.11795
G1 X96.812 Y50.769 E.14012
G1 X97.556 Y50.026 E.03701
G1 X97.556 Y46.349 E.12939
G1 X96.812 Y45.606 E.03701
G1 X91.877 Y45.606 E.17368
G1 X90.521 Y44.249 E.06752
G1 X90.521 Y39.242 E.17623
G1 X90.22 Y38.68 E.0224
G1 X88.054 Y37.236 E.09163
G1 X87.764 Y37.065 E.01184
G1 X87.402 Y36.902 E.01399
G1 X87.021 Y36.782 E.01404
G1 X86.379 Y36.678 E.02291
G1 X86.379 Y36.134 E.01915
G1 X91.254 Y36.134 E.17159
G1 X91.254 Y38.991 E.10055
G1 X96.968 Y38.991 E.2011
G1 X96.968 Y41.848 E.10055
G1 X99.825 Y41.848 E.10055
G1 X99.825 Y63.866 E.7749
G1 X96.968 Y63.866 E.10055
G1 X96.968 Y66.723 E.10055
G1 X94.111 Y66.723 E.10055
G1 X94.111 Y73.276 E.23062
G1 X99.825 Y73.276 E.2011
G1 X99.825 Y81.009 E.27214
G1 X97.401 Y81.009 E.08533
G1 X97.53 Y80.368 E.02301
G1 X97.59 Y79.487 E.03108
G1 X96.838 Y78.681 E.03881
G1 X91.877 Y78.681 E.17458
G1 X90.521 Y77.324 E.06752
G1 X90.521 Y68.819 E.29932
G1 X89.777 Y68.076 E.03701
G1 X84.245 Y68.076 E.19471
G1 X83.96 Y68.061 E.01003
G1 X83.723 Y68.023 E.00846
G1 X83.466 Y67.956 E.00933
G1 X83.234 Y67.866 E.00878
G1 X83.009 Y67.752 E.00886
G1 X82.808 Y67.621 E.00846
G1 X82.601 Y67.455 E.00933
G1 X82.425 Y67.279 E.00878
G1 X82.267 Y67.083 E.00886
G1 X82.13 Y66.872 E.00886
G1 X82.015 Y66.648 E.00886
G1 X81.925 Y66.413 E.00886
G1 X81.86 Y66.17 E.00886
G1 X81.821 Y65.921 E.00886
G1 X81.806 Y65.637 E.01003
G1 X81.806 Y57.303 E.29329
G1 X81.821 Y57.019 E.01003
G1 X81.86 Y56.77 E.00886
G1 X81.925 Y56.527 E.00886
G1 X82.015 Y56.292 E.00886
G1 X82.13 Y56.068 E.00886
G1 X82.267 Y55.857 E.00885
G1 X82.425 Y55.661 E.00886
G1 X82.603 Y55.483 E.00886
G1 X82.798 Y55.325 E.00885
G1 X83.009 Y55.188 E.00886
G1 X83.224 Y55.079 E.00846
G1 X83.471 Y54.983 E.00933
G1 X83.712 Y54.919 E.00878
G1 X83.96 Y54.879 E.00886
G1 X84.245 Y54.864 E.01003
G1 X84.258 Y55.372 F21000
G1 F3000
G1 X92.298 Y55.372 E.28294
G1 X93.339 Y54.331 E.05181
G1 X93.339 Y51.277 E.10748
G1 X97.023 Y51.277 E.12965
G1 X98.064 Y50.236 E.05181
G1 X98.064 Y46.139 E.1442
G1 X97.023 Y45.098 E.05181
G1 X92.088 Y45.098 E.17368
G1 X91.029 Y44.039 E.05271
G1 X91.029 Y39.499 E.15977
G1 X96.46 Y39.499 E.19117
G1 X96.46 Y42.356 E.10055
G1 X99.317 Y42.356 E.10055
G1 X99.317 Y63.358 E.73915
G1 X96.46 Y63.358 E.10055
G1 X96.46 Y66.216 E.10055
G1 X93.603 Y66.216 E.10055
G1 X93.603 Y73.784 E.26637
G1 X99.317 Y73.784 E.2011
G1 X99.317 Y80.501 E.23639
G1 X98.03 Y80.501 E.04531
G1 X98.112 Y79.301 E.04231
G1 X97.058 Y78.173 E.05434
G1 X92.088 Y78.173 E.17495
G1 X91.029 Y77.114 E.05271
G1 X91.029 Y68.609 E.29932
M73 P1 R19
G1 X89.988 Y67.568 E.05181
G1 X84.258 Y67.568 E.20165
G1 X84.013 Y67.555 E.00862
G1 X83.623 Y67.472 E.01406
G1 X83.264 Y67.312 E.01383
G1 X82.941 Y67.076 E.01406
G1 X82.678 Y66.784 E.01383
G1 X82.57 Y66.618 E.00698
G1 X82.409 Y66.256 E.01395
G1 X82.357 Y66.064 E.00698
G1 X82.314 Y65.623 E.01558
G1 X82.314 Y57.317 E.29235
G1 X82.326 Y57.072 E.00862
G1 X82.409 Y56.684 E.01395
G1 X82.57 Y56.322 E.01395
G1 X82.803 Y56.002 E.01395
G1 X82.943 Y55.861 E.00698
G1 X83.264 Y55.628 E.01395
G1 X83.629 Y55.466 E.01406
G1 X84.013 Y55.385 E.01383
G1 X84.258 Y55.372 E.00862
G1 X84.271 Y55.88 F21000
G1 F3000
G1 X92.508 Y55.88 E.28988
G1 X93.846 Y54.541 E.06662
G1 X93.846 Y51.785 E.09701
G1 X97.233 Y51.785 E.11918
G1 X98.81 Y50.208 E.07848
G1 X98.81 Y62.851 E.44493
G1 X95.953 Y62.851 E.10055
G1 X95.953 Y65.708 E.10055
G1 X93.095 Y65.708 E.10055
G1 X93.095 Y74.292 E.30211
G1 X98.81 Y74.292 E.2011
M73 P2 R19
G1 X98.81 Y79.304 E.1764
G1 X97.279 Y77.665 E.07893
G1 X92.298 Y77.665 E.17531
G1 X91.536 Y76.904 E.0379
G1 X91.536 Y68.399 E.29932
G1 X90.198 Y67.06 E.06662
G1 X84.066 Y67.049 E.21579
G1 X83.779 Y66.988 E.01035
G1 X83.647 Y66.937 E.00497
G1 X83.404 Y66.797 E.00987
G1 X83.181 Y66.598 E.01053
G1 X83.01 Y66.363 E.0102
G1 X82.892 Y66.099 E.0102
G1 X82.855 Y65.958 E.00511
G1 X82.821 Y65.61 E.01231
G1 X82.832 Y57.125 E.29862
G1 X82.892 Y56.841 E.0102
G1 X83.01 Y56.577 E.0102
G1 X83.181 Y56.342 E.0102
G1 X83.283 Y56.239 E.00511
G1 X83.518 Y56.069 E.0102
