; HEADER_BLOCK_START
; generated by OrcaSlicer 1.6.3 on 2023-06-19 at 15:57:41
; total layer number: 232
; HEADER_BLOCK_END

; THUMBNAIL_BLOCK_START
; THUMBNAIL_BLOCK_END

; external perimeters extrusion width = 0.40mm
; perimeters extrusion width = 0.45mm
; infill extrusion width = 0.45mm
; solid infill extrusion width = 0.40mm
; top infill extrusion width = 0.40mm
; support material extrusion width = 0.40mm
; first layer extrusion width = 0.50mm

; EXECUTABLE_BLOCK_START
EXCLUDE_OBJECT_DEFINE NAME=(Unsaved).stl_id_0_copy_0 CENTER=60,60 POLYGON=[[49.801,50.075],[49.839,49.685],[51.999,35.001],[60.699,35.001],[62.199,36.501],[69.861,48.965],[69.961,49.129],[70.045,49.309],[70.113,49.499],[70.161,49.691],[70.199,50.075],[70.199,75.073],[70.161,75.459],[70.113,75.651],[70.045,75.839],[69.961,76.019],[69.861,76.185],[69.613,76.487],[60.699,84.999],[51.999,84.999],[49.839,75.465],[49.801,75.073],[49.801,50.075]]
M73 P0 R37
;TYPE:Custom
START_PRINT T_BED=110 T_EXTRUDER=260
G90
G21
M83 ; use relative distances for extrusion
; Filament gcode

    PRESSURE_ADVANCE_SELECT FILAMENT=ABS
M106 S0
;LAYER_CHANGE
;Z:0.2
;HEIGHT:0.2
;BEFORE_LAYER_CHANGE
;0.2
G92 E0

;AFTER_LAYER_CHANGE
;0.2
SET_VELOCITY_LIMIT ACCEL_TO_DECEL=500
M204 S1000
G1 E-.5 F3000
G1 Z.2 F21000
G1 X47.211 Y33.411
G1 E.5 F1800
;TYPE:Skirt
;WIDTH:0.5
G1 F3000
G1 X48.425 Y32.506 E.05327
G1 X49.5 Y32.301 E.03854
G1 X64.786 Y32.301 E.53795
G1 X66.247 Y32.694 E.05327
G1 X67.516 Y34.196 E.06919
G1 X72.775 Y48.29 E.52944
G1 X73.058 Y49.388 E.03989
G1 X73.113 Y50.075 E.02427
G1 X73.113 Y75.073 E.87978
G1 X73.058 Y75.761 E.02428
G1 X72.833 Y76.689 E.0336
G1 X72.371 Y77.666 E.03805
G1 X67.295 Y86.266 E.35145
G1 X66.214 Y87.325 E.05327
G1 X64.786 Y87.699 E.05196
G1 X49.5 Y87.699 E.53795
G1 X48.039 Y87.306 E.05327
G1 X46.971 Y86.233 E.05327
G1 X46.643 Y85.357 E.03293
G1 X43.786 Y71.071 E.51271
G1 X43.729 Y70.5 E.02021
G1 X43.758 Y54.802 E.55245
G1 X46.615 Y34.803 E.71101
G1 X47.188 Y33.466 E.05116
G1 X47.618 Y33.663 F21000
G1 F3000
G1 X47.644 Y33.605 E.00223
G1 X49.5 Y32.758 E.07181
G1 X64.786 Y32.758 E.53795
G1 X66.117 Y33.15 E.04884
G1 X67.088 Y34.356 E.05449
G1 X72.347 Y48.45 E.52944
G1 X72.603 Y49.434 E.0358
G1 X72.656 Y50.075 E.02262
G1 X72.656 Y75.073 E.87978
G1 X72.603 Y75.714 E.02265
G1 X72.395 Y76.555 E.03049
G1 X71.977 Y77.434 E.03424
G1 X66.902 Y86.034 E.35145
G1 X65.888 Y86.981 E.04884
G1 X64.786 Y87.242 E.03986
G1 X49.5 Y87.242 E.53795
G1 X48.169 Y86.85 E.04884
G1 X47.091 Y85.267 E.06742
G1 X44.186 Y70.5 E.52968
G1 X44.211 Y54.867 E.55018
G1 X47.068 Y34.867 E.71101
G1 X47.593 Y33.717 E.04449
; printing object (Unsaved).stl id:0 copy 0
EXCLUDE_OBJECT_START NAME=(Unsaved).stl_id_0_copy_0
G1 E-.5
G1 Z.4 F21000
G1 X52.337 Y50.077
G1 Z.2
G1 E.5 F1800
;TYPE:Support
G1 F3000
G1 X52.401 Y50.115 E.00261
G1 X52.444 Y50.217 E.00391
G1 X52.401 Y50.319 E.00391
G1 X52.299 Y50.362 E.00389
G1 X52.195 Y50.319 E.00393
G1 X52.152 Y50.217 E.00391
G1 X52.195 Y50.115 E.00391
G1 X52.269 Y50.076 E.00291
G1 E-.5
G1 Z.4 F21000
G1 X52.217 Y49.376
G1 X52.299 Y49.37
G1 X52.521 Y49.387
G1 X52.747 Y49.439
G1 X52.976 Y49.54
G1 X53.194 Y49.698
G1 X59.563 Y55.71
G1 X60.922 Y56.759
G1 Z.2
G1 E.5 F1800
G1 F3000
G1 X61.36 Y56.822 E.01558
G1 X61.789 Y56.947 E.0157
G1 X62.195 Y57.131 E.01572
G1 X62.571 Y57.369 E.01567
G1 X62.909 Y57.659 E.01566
G1 X63.204 Y57.994 E.01571
G1 X63.557 Y58.531 E.02262
G1 X63.824 Y58.675 E.01066
G1 X65.597 Y58.675 E.06241
G1 X65.597 Y66.475 E.27451
G1 X63.876 Y66.475 E.06055
G1 X63.525 Y66.826 E.01749
G1 X63.525 Y77.322 E.36936
G1 X63.876 Y77.673 E.01749
G1 X66.705 Y77.673 E.09954
G1 X68.103 Y79.071 E.06958
G1 X64.786 Y79.071 E.11674
G1 X64.786 Y84.785 E.2011
G1 X49.5 Y84.785 E.53795
G1 X49.5 Y76.266 E.29983
G1 X49.654 Y76.543 E.01116
G1 X49.94 Y76.89 E.01583
G1 X50.331 Y77.219 E.01799
G1 X50.779 Y77.464 E.01796
G1 X51.321 Y77.629 E.01995
G1 X51.784 Y77.673 E.01638
G1 X56.05 Y77.673 E.15011
G1 X56.401 Y77.322 E.01749
G1 X56.401 Y66.826 E.36936
G1 X56.05 Y66.475 E.01749
G1 X51.901 Y66.475 E.146
G1 X51.901 Y58.675 E.27451
G1 X57.572 Y58.675 E.1996
G1 X57.839 Y58.531 E.01066
G1 X58.192 Y57.994 E.02262
G1 X58.487 Y57.659 E.01571
G1 X58.825 Y57.369 E.01566
G1 X59.201 Y57.131 E.01566
G1 X59.607 Y56.947 E.01572
G1 X60.036 Y56.823 E.0157
G1 X60.478 Y56.759 E.01571
G1 X60.853 Y56.759 E.01321
G1 X58.126 Y58.844 F21000
G1 F3000
G1 X58.52 Y58.245 E.02526
G1 X58.777 Y57.953 E.01369
G1 X59.07 Y57.701 E.0136
G1 X59.397 Y57.494 E.01361
G1 X59.75 Y57.333 E.01367
G1 X60.123 Y57.226 E.01365
G1 X60.507 Y57.17 E.01366
G1 X60.892 Y57.171 E.01355
G1 X61.273 Y57.226 E.01354
G1 X61.646 Y57.333 E.01365
G1 X61.999 Y57.494 E.01367
G1 X62.326 Y57.701 E.01361
G1 X62.619 Y57.953 E.01359
G1 X62.876 Y58.245 E.01369
G1 X63.271 Y58.844 E.02526
G1 X63.72 Y59.086 E.01796
G1 X65.186 Y59.086 E.05159
G1 X65.186 Y66.064 E.24556
G1 X63.706 Y66.064 E.05207
G1 X63.114 Y66.656 E.02949
G1 X63.114 Y77.492 E.38136
G1 X63.706 Y78.084 E.02949
G1 X66.534 Y78.084 E.09954
G1 X67.11 Y78.66 E.02863
G1 X64.374 Y78.66 E.09627
G1 X64.374 Y84.374 E.2011
G1 X49.912 Y84.374 E.50899
G1 X49.912 Y77.407 E.24518
G1 X50.17 Y77.606 E.01147
G1 X50.693 Y77.874 E.02071
G1 X51.261 Y78.037 E.02077
G1 X51.774 Y78.084 E.01815
G1 X56.22 Y78.084 E.15645
G1 X56.812 Y77.492 E.02949
G1 X56.812 Y66.656 E.38136
G1 X56.22 Y66.064 E.02949
G1 X52.312 Y66.064 E.13752
G1 X52.312 Y59.086 E.24556
G1 X57.676 Y59.086 E.18877
G1 X58.126 Y58.844 E.01796
G1 X58.479 Y59.23 F21000
G1 F3000
G1 X58.925 Y58.554 E.02852
G1 X59.135 Y58.315 E.01119
G1 X59.373 Y58.11 E.01105
G1 X59.639 Y57.942 E.01106
G1 X59.927 Y57.811 E.01114
G1 X60.23 Y57.723 E.01111
G1 X60.543 Y57.678 E.01114
G1 X60.856 Y57.678 E.01098
G1 X61.165 Y57.723 E.01102
G1 X61.469 Y57.811 E.01112
G1 X61.757 Y57.942 E.01115
G1 X62.023 Y58.11 E.01106
G1 X62.261 Y58.315 E.01105
G1 X62.471 Y58.554 E.0112
G1 X62.917 Y59.23 E.02852
G1 X63.592 Y59.594 E.02698
G1 X64.678 Y59.594 E.03822
G1 X64.678 Y65.556 E.20981
G1 X63.496 Y65.556 E.0416
G1 X62.606 Y66.446 E.04429
G1 X62.606 Y77.702 E.39616
G1 X63.496 Y78.592 E.04429
G1 X63.866 Y78.592 E.01304
G1 X63.866 Y83.866 E.1856
G1 X50.42 Y83.866 E.47324
G1 X50.42 Y78.322 E.19512
G1 X51.038 Y78.51 E.02277
G1 X51.186 Y78.54 E.00532
G1 X51.762 Y78.592 E.02034
G1 X56.43 Y78.592 E.16429
G1 X57.32 Y77.702 E.04429
G1 X57.32 Y66.446 E.39616
G1 X56.43 Y65.556 E.04429
G1 X52.82 Y65.556 E.12705
G1 X52.82 Y59.594 E.20981
G1 X57.804 Y59.594 E.17541
G1 X58.479 Y59.23 E.02698
G1 X58.833 Y59.617 F21000
G1 F3000
G1 X59.329 Y58.862 E.03178
G1 X59.493 Y58.677 E.0087
G1 X59.676 Y58.519 E.0085
G1 X59.881 Y58.39 E.00852
G1 X60.103 Y58.289 E.00861
G1 X60.338 Y58.221 E.00858
G1 X60.58 Y58.186 E.00861
G1 X60.819 Y58.186 E.00842
G1 X61.058 Y58.221 E.0085
G1 X61.293 Y58.289 E.00859
G1 X61.515 Y58.39 E.00862
G1 X61.72 Y58.519 E.00852
G1 X61.903 Y58.677 E.0085
G1 X62.067 Y58.862 E.0087
G1 X62.563 Y59.617 E.03178
G1 X63.463 Y60.102 E.036
G1 X64.17 Y60.102 E.02486
G1 X64.17 Y65.048 E.17406
G1 X63.285 Y65.048 E.03113
G1 X62.098 Y66.235 E.0591
G1 X62.098 Y77.913 E.41097
G1 X63.358 Y79.173 E.06274
G1 X63.358 Y83.358 E.14728
G1 X50.927 Y83.358 E.43749
G1 X50.927 Y79.025 E.1525
G1 X51.75 Y79.1 E.02906
G1 X56.641 Y79.1 E.17213
G1 X57.828 Y77.913 E.0591
G1 X57.828 Y66.235 E.41097
G1 X56.641 Y65.048 E.0591
G1 X53.328 Y65.048 E.11658
G1 X53.328 Y60.102 E.17406
G1 X57.933 Y60.102 E.16205
G1 X58.833 Y59.617 E.036
G1 X59.187 Y60.003 F21000
G1 F3000
G1 X59.734 Y59.171 E.03504
G1 X59.979 Y58.929 E.01213
G1 X60.28 Y58.766 E.01203
G1 X60.445 Y58.719 E.00604
G1 X60.616 Y58.694 E.00608
G1 X60.782 Y58.694 E.00586
G1 X61.116 Y58.766 E.01202
G1 X61.417 Y58.929 E.01203
G1 X61.545 Y59.039 E.00595
G1 X61.662 Y59.171 E.00621
G1 X62.209 Y60.003 E.03504
G1 X63.335 Y60.61 E.04502
G1 X63.662 Y60.61 E.0115
G1 X63.662 Y64.54 E.13831
G1 X63.075 Y64.54 E.02066
G1 X61.59 Y66.025 E.07391
G1 X61.59 Y78.123 E.42578
G1 X62.851 Y79.384 E.06274
G1 X62.851 Y82.85 E.122
G1 X51.435 Y82.85 E.40175
G1 X51.435 Y79.593 E.11462
G1 X51.737 Y79.608 E.01065
G1 X56.851 Y79.608 E.17997
G1 X58.336 Y78.123 E.07391
G1 X58.336 Y66.025 E.42578
G1 X56.851 Y64.54 E.07391
G1 X53.836 Y64.54 E.10611
G1 X53.836 Y60.61 E.13831
G1 X58.061 Y60.61 E.14868
G1 X59.187 Y60.003 E.04502
G1 X59.541 Y60.389 F21000
G1 F3000
G1 X60.139 Y59.48 E.0383
G1 X60.209 Y59.401 E.00371
G1 X60.282 Y59.338 E.00341
G1 X60.456 Y59.244 E.00697
G1 X60.652 Y59.202 E.00704
G1 X60.843 Y59.216 E.00674
G1 X60.94 Y59.244 E.00353
G1 X61.114 Y59.338 E.00697
G1 X61.257 Y59.48 E.0071
G1 X61.855 Y60.389 E.0383
G1 X63.154 Y61.089 E.05193
G1 X63.154 Y64.032 E.10357
G1 X62.865 Y64.032 E.01019
G1 X61.082 Y65.815 E.08872
G1 X61.082 Y78.333 E.44058
G1 X62.343 Y79.594 E.06274
G1 X62.343 Y82.342 E.09673
G1 X51.943 Y82.342 E.366
G1 X51.943 Y80.116 E.07836
G1 X57.061 Y80.116 E.18013
G1 X58.844 Y78.333 E.08872
G1 X58.844 Y65.815 E.44058
G1 X57.061 Y64.032 E.08872
G1 X54.344 Y64.032 E.09564
G1 X54.344 Y61.118 E.10257
G1 X58.189 Y61.118 E.13532
G1 X59.541 Y60.389 E.05404
G1 X59.894 Y60.776 F21000
G1 F3000
G1 X60.698 Y59.554 E.05145
G1 X61.502 Y60.775 E.05144
G1 X62.646 Y61.392 E.04576
G1 X62.646 Y63.532 E.07531
G1 X60.574 Y65.604 E.10313
G1 X60.574 Y78.544 E.45539
G1 X61.835 Y79.804 E.06274
G1 X61.835 Y81.834 E.07145
G1 X52.451 Y81.834 E.33025
M73 P1 R37
G1 X52.451 Y80.624 E.04261
G1 X57.272 Y80.624 E.16966
G1 X59.352 Y78.544 E.10352
G1 X59.352 Y65.604 E.45539
G1 X57.272 Y63.524 E.10352
G1 X54.852 Y63.524 E.08517
G1 X54.852 Y61.626 E.06682
G1 X58.317 Y61.626 E.12196
G1 X59.894 Y60.776 E.06306
G1 X59.963 Y78.651 F21000
G1 F3000
G1 X61.327 Y80.015 E.06789
G1 X61.327 Y81.327 E.04617
G1 X57.287 Y81.327 E.14218
G1 X59.963 Y78.651 E.13318
G1 X59.963 Y79.369 F21000
G1 F3000
G1 X60.819 Y80.225 E.04261
G1 X60.819 Y80.819 E.02089
G1 X58.513 Y80.819 E.08115
G1 X59.963 Y79.369 E.07216
G1 X59.963 Y65.497 F21000
G1 F3000
G1 X57.482 Y63.016 E.12348
G1 X55.36 Y63.016 E.0747
G1 X55.36 Y62.134 E.03107
G1 X58.445 Y62.134 E.10859
G1 X60.248 Y61.162 E.07209
G1 X60.698 Y60.478 E.0288
G1 X61.148 Y61.162 E.0288
G1 X62.138 Y61.696 E.0396
G1 X62.138 Y63.322 E.05723
G1 X59.963 Y65.497 E.10828
G1 X59.963 Y64.779 F21000
G1 F3000
G1 X57.825 Y62.641 E.10639
G1 X58.573 Y62.641 E.02632
G1 X60.698 Y61.496 E.08495
G1 X61.631 Y61.999 E.03728
G1 X61.631 Y63.112 E.03916
G1 X59.963 Y64.779 E.083
G1 X59.963 Y64.061 F21000
G1 F3000
G1 X58.929 Y63.027 E.05147
G1 X60.698 Y62.073 E.07073
G1 X61.123 Y62.302 E.01698
G1 X61.123 Y62.901 E.02108
G1 X59.963 Y64.061 E.05772
G1 E-.5
G1 Z.4 F21000
G1 X53.922 Y67.675
G1 X50.401 Y70.051
G1 X49.201 Y70.5
G1 Z.2
G1 E.5 F1800
G1 F3000
G1 X46.643 Y70.5 E.09002
G1 X46.643 Y55.214 E.53795
G1 X49.201 Y55.214 E.09002
G1 X49.201 Y70.431 E.53553
G1 X48.79 Y55.626 F21000
G1 F3000
G1 X48.79 Y70.088 E.50899
G1 X47.055 Y70.088 E.06106
G1 X47.055 Y55.626 E.50899
G1 X48.79 Y55.626 E.06106
G1 X48.282 Y56.134 F21000
G1 F3000
G1 X48.282 Y69.58 E.47324
G1 X47.562 Y69.58 E.02531
G1 X47.562 Y56.134 E.47324
G1 X48.282 Y56.134 E.02531
G1 E-.5
G1 Z.4 F21000
G1 X50.401 Y55.258
G1 X63.446 Y48.675
G1 X64.786 Y47.475
G1 Z.2
G1 E.5 F1800
G1 F3000
G1 X51.784 Y47.475 E.45756
G1 X51.321 Y47.519 E.01638
G1 X50.893 Y47.643 E.01569
G1 X49.5 Y47.643 E.04901
G1 X49.5 Y35.215 E.43739
G1 X64.786 Y35.215 E.53795
G1 X64.786 Y47.407 E.42908
G1 X64.374 Y47.064 F21000
G1 F3000
G1 X51.774 Y47.064 E.44343
G1 X51.261 Y47.111 E.01815
G1 X50.832 Y47.232 E.01569
G1 X49.912 Y47.232 E.03238
G1 X49.912 Y35.626 E.40844
G1 X64.374 Y35.626 E.50899
G1 X64.374 Y47.064 E.40253
G1 X63.866 Y46.556 F21000
G1 F3000
G1 X51.762 Y46.556 E.42599
G1 X51.186 Y46.608 E.02034
G1 X50.756 Y46.724 E.01569
G1 X50.42 Y46.724 E.01184
G1 X50.42 Y36.134 E.37269
G1 X63.866 Y36.134 E.47324
G1 X63.866 Y46.556 E.36678
G1 X63.358 Y46.048 F21000
G1 F3000
G1 X51.75 Y46.048 E.40855
G1 X50.927 Y46.123 E.02906
G1 X50.927 Y36.642 E.33368
G1 X63.358 Y36.642 E.43749
G1 X63.358 Y46.048 E.33104
G1 X62.851 Y45.54 F21000
G1 F3000
G1 X51.737 Y45.54 E.39111
G1 X51.435 Y45.555 E.01065
G1 X51.435 Y37.15 E.2958
G1 X62.851 Y37.15 E.40175
G1 X62.851 Y45.54 E.29529
G1 X62.343 Y45.032 F21000
G1 F3000
G1 X51.943 Y45.032 E.366
G1 X51.943 Y37.658 E.25953
G1 X62.343 Y37.658 E.366
G1 X62.343 Y45.032 E.25954
G1 X61.835 Y44.524 F21000
G1 F3000
G1 X52.451 Y44.524 E.33025
G1 X52.451 Y38.166 E.22379
G1 X61.835 Y38.166 E.33025
G1 X61.835 Y44.524 E.22379
G1 X61.327 Y44.017 F21000
G1 F3000
G1 X52.959 Y44.016 E.29451
G1 X52.959 Y38.673 E.18804
G1 X61.327 Y38.673 E.29451
G1 X61.327 Y44.017 E.18805
G1 X60.819 Y43.509 F21000
G1 F3000
G1 X53.467 Y43.509 E.25876
G1 X53.467 Y39.181 E.15229
G1 X60.819 Y39.181 E.25876
G1 X60.819 Y43.509 E.1523
G1 X60.311 Y43.001 F21000
G1 F3000
G1 X53.975 Y43.001 E.22301
G1 X53.975 Y39.689 E.11655
G1 X60.311 Y39.689 E.22301
G1 X60.311 Y43.001 E.11655
G1 X59.803 Y42.493 F21000
G1 F3000
G1 X54.482 Y42.493 E.18726
G1 X54.482 Y40.197 E.0808
G1 X59.803 Y40.197 E.18726
G1 X59.803 Y42.493 E.0808
G1 X59.296 Y41.985 F21000
G1 F3000
G1 X54.99 Y41.985 E.15152
G1 X54.99 Y40.705 E.04505
G1 X59.296 Y40.705 E.15152
G1 X59.296 Y41.985 E.04505
G1 E-.5
G1 Z.4 F21000
G1 X65.442 Y48.48
G1 X67.265 Y49.377
G1 X67.213 Y50.077
G1 Z.2
G1 E.5 F1800
G1 F3000
G1 X67.299 Y50.144 E.00385
G1 X67.314 Y50.256 E.00396
G1 X67.247 Y50.343 E.00386
G1 X67.175 Y50.362 E.00261
G1 X67.071 Y50.319 E.00394
G1 X67.03 Y50.217 E.00389
G1 X67.071 Y50.115 E.00389
G1 X67.145 Y50.076 E.00291
G1 E-.5
G1 Z.4 F21000
G1 X67.092 Y49.376
G1 X67.175 Y49.37
G1 X67.397 Y49.387
G1 X67.623 Y49.439
G1 X67.852 Y49.54
G1 X68.07 Y49.698
G1 X68.264 Y49.926
G1 X68.398 Y50.217
G1 X68.436 Y50.553
G1 X67.209 Y73.206
G1 X67.213 Y74.417
G1 Z.2
G1 E.5 F1800
G1 F3000
G1 X67.299 Y74.484 E.00385
G1 X67.314 Y74.595 E.00392
G1 X67.277 Y74.659 E.00261
G1 X67.175 Y74.702 E.00388
G1 X67.071 Y74.659 E.00395
G1 X67.03 Y74.557 E.00387
G1 X67.071 Y74.455 E.00389
G1 X67.145 Y74.416 E.00291
G1 E-.5
G1 Z.4 F21000
G1 X65.883 Y74.417
G1 X64.725 Y67.675
G1 X66.797 Y67.675
G1 X66.797 Y57.475
G1 X62.206 Y55.818
G1 X61.614 Y55.647
G1 X61.008 Y55.559
G1 X60.392 Y55.559
G1 X59.782 Y55.647
G1 X52.061 Y57.539
G1 X51.151 Y57.925
G1 X51.151 Y67.225
G1 X55.201 Y74.417
G1 X53.636 Y74.417
G1 X52.337 Y74.417
G1 Z.2
G1 E.5 F1800
G1 F3000
G1 X52.401 Y74.455 E.00261
G1 X52.444 Y74.557 E.00391
G1 X52.401 Y74.659 E.00388
G1 X52.299 Y74.702 E.0039
G1 X52.195 Y74.659 E.00394
G1 X52.152 Y74.557 E.00388
G1 X52.195 Y74.455 E.00391
G1 X52.269 Y74.416 E.00291
G1 E-.5
G1 Z.4 F21000
G1 X52.813 Y73.316
G1 X51.151 Y67.225
G1 X51.151 Y57.925
G1 X64.197 Y50.296
G1 Z.2
G1 E.5 F1800
;TYPE:Inner wall
G1 F3000
G1 X64.282 Y50.986 E.02445
G1 X64.586 Y51.715 E.02781
G1 X65.057 Y52.33 E.02725
G1 X65.683 Y52.811 E.0278
G1 X66.406 Y53.105 E.02745
G1 X67.175 Y53.208 E.02731
G1 X67.978 Y53.101 E.0285
G1 X67.978 Y55.854 E.0969
G1 X65.078 Y55.854 E.10206
G1 X64.897 Y55.648 E.00965
G1 X64.255 Y55.096 E.02981
G1 X63.539 Y54.643 E.02979
G1 X62.769 Y54.293 E.02977
G1 X61.957 Y54.058 E.02976
G1 X61.125 Y53.938 E.02957
G1 X60.277 Y53.938 E.02987
G1 X59.44 Y54.058 E.02975
G1 X58.627 Y54.293 E.02978
G1 X57.857 Y54.643 E.02978
G1 X57.141 Y55.096 E.02979
G1 X56.499 Y55.648 E.02981
G1 X56.318 Y55.854 E.00965
G1 X52.022 Y55.854 E.15119
G1 X52.022 Y53.171 E.09442
G1 X52.301 Y53.208 E.00988
G1 X53.072 Y53.104 E.02741
G1 X53.792 Y52.809 E.02739
G1 X54.415 Y52.33 E.02764
G1 X54.886 Y51.715 E.02725
G1 X55.186 Y50.996 E.0274
G1 X55.279 Y50.296 E.02486
G1 X64.137 Y50.296 E.31172
G1 E-.5
G1 Z.4 F21000
G1 X66.797 Y57.475
G1 X66.797 Y67.675
G1 X66.346 Y71.677
G1 Z.2
G1 E.5 F1800
G1 F3000
G1 X66.346 Y69.296 E.08379
G1 X67.978 Y69.296 E.05742
G1 X67.978 Y71.673 E.08366
G1 X67.175 Y71.566 E.0285
G1 X66.406 Y71.669 E.02732
G1 E-.5
G1 Z.4 F21000
G1 X66.797 Y67.675
G1 X66.797 Y57.475
G1 X64.694 Y49.839
G1 Z.2
G1 E.5 F1800
G1 F3000
G1 X64.647 Y50.217 E.01339
G1 X64.728 Y50.868 E.02307
G1 X64.985 Y51.484 E.02351
G1 X65.384 Y52.004 E.02305
G1 X65.913 Y52.411 E.0235
G1 X66.524 Y52.66 E.02323
G1 X67.175 Y52.747 E.0231
G1 X67.829 Y52.659 E.02323
G1 X68.435 Y52.41 E.02305
G1 X68.435 Y72.364 E.70224
M73 P2 R37
G1 X67.829 Y72.115 E.02305
