; HEADER_BLOCK_START
; generated by OrcaSlicer 1.6.3 on 2023-06-03 at 08:25:21
; total layer number: 151
; HEADER_BLOCK_END

; THUMBNAIL_BLOCK_START
; THUMBNAIL_BLOCK_END

; external perimeters extrusion width = 0.40mm
; perimeters extrusion width = 0.45mm
; infill extrusion width = 0.45mm
; solid infill extrusion width = 0.40mm
; top infill extrusion width = 0.40mm
; first layer extrusion width = 0.50mm

; EXECUTABLE_BLOCK_START
EXCLUDE_OBJECT_DEFINE NAME=(Unsaved).stl_id_0_copy_0 CENTER=60,60 POLYGON=[[47.338,29.55],[47.3811,29.0025],[47.5093,28.4684],[47.7195,27.961],[48.0064,27.4927],[48.3631,27.0751],[48.7808,26.7184],[49.249,26.4315],[49.7564,26.2213],[50.2905,26.0931],[50.838,26.05],[69.162,26.05],[69.7095,26.0931],[70.2436,26.2213],[70.751,26.4315],[71.2193,26.7184],[71.6369,27.0751],[71.9936,27.4927],[72.2805,27.961],[72.4907,28.4684],[72.6189,29.0025],[72.662,29.55],[72.662,91.95],[72.6236,92.3402],[72.6236,92.3402],[72.6119,92.395],[72.5098,92.7154],[72.4639,92.8178],[72.407,92.9204],[72.3304,93.0527],[72.3249,93.0611],[72.2257,93.197],[72.0762,93.3642],[71.909,93.5137],[71.7731,93.6129],[71.7144,93.6499],[71.5298,93.7519],[71.4274,93.7978],[71.1564,93.8877],[71.107,93.8999],[71.0522,93.9116],[70.662,93.95],[49.338,93.95],[48.9478,93.9116],[48.893,93.8999],[48.8436,93.8877],[48.5726,93.7978],[48.4702,93.7519],[48.2856,93.6499],[48.2269,93.6129],[48.091,93.5137],[47.9238,93.3642],[47.7743,93.197],[47.6751,93.0611],[47.6696,93.0527],[47.593,92.9204],[47.5361,92.8178],[47.4902,92.7154],[47.3881,92.395],[47.3764,92.3402],[47.3764,92.3402],[47.338,91.95],[47.338,29.55]]
M73 P0 R37
;TYPE:Custom
START_PRINT T_BED=110 T_EXTRUDER=260
G90
G21
M83 ; use relative distances for extrusion
; Filament gcode

    PRESSURE_ADVANCE_SELECT FILAMENT=ABS
M106 S0
;LAYER_CHANGE
;Z:0.2
;HEIGHT:0.2
;BEFORE_LAYER_CHANGE
;0.2
G92 E0

;AFTER_LAYER_CHANGE
;0.2
SET_VELOCITY_LIMIT ACCEL_TO_DECEL=500
M204 S1000
G1 E-.5 F3000
G1 Z.2 F21000
G1 X46.493 Y27.08
G1 E.5 F1800
;TYPE:Skirt
;WIDTH:0.5
G1 F3000
G1 X46.933 Y26.43 E.0276
G1 X47.469 Y25.858 E.0276
G1 X48.088 Y25.376 E.0276
G1 X48.775 Y24.998 E.0276
G1 X50.05 Y24.611 E.04689
G1 X50.833 Y24.543 E.02765
G1 X64.479 Y24.534 E.48026
G1 X69.392 Y24.548 E.1729
G1 X70.487 Y24.731 E.0391
G1 X71.225 Y24.998 E.0276
G1 X72.282 Y25.645 E.04362
G1 X73.067 Y26.43 E.03908
G1 X73.714 Y27.487 E.04362
G1 X74.101 Y28.762 E.04689
G1 X74.168 Y29.476 E.02524
G1 X74.178 Y33.943 E.1572
G1 X74.189 Y81.115 E1.66017
G1 X74.079 Y81.914 E.0284
G1 X73.854 Y82.548 E.02367
G1 X73.131 Y83.6 E.04492
G1 X72.038 Y84.337 E.0464
G1 X71.441 Y84.546 E.02224
G1 X70.682 Y84.649 E.02697
G1 X50.292 Y84.653 E.7176
G1 X49.265 Y84.628 E.03615
G1 X48.463 Y84.504 E.02857
G1 X47.635 Y84.182 E.03126
G1 X46.597 Y83.315 E.04758
G1 X46.082 Y82.401 E.03696
G1 X45.912 Y81.804 E.02185
G1 X45.831 Y81.127 E.02398
M73 P0 R36
G1 X45.831 Y29.544 E1.81539
G1 X46.019 Y28.225 E.04692
G1 X46.47 Y27.135 E.04151
G1 X46.883 Y27.318 F21000
G1 F3000
G1 X47.281 Y26.727 E.02508
G1 X47.766 Y26.206 E.02508
G1 X48.327 Y25.766 E.02508
G1 X48.95 Y25.42 E.02508
G1 X50.122 Y25.062 E.04314
G1 X50.834 Y25 E.02513
G1 X64.478 Y24.991 E.48021
G1 X69.38 Y25.005 E.17252
G1 X70.381 Y25.175 E.03572
G1 X71.05 Y25.42 E.02508
G1 X71.985 Y25.993 E.03858
G1 X72.719 Y26.727 E.03655
G1 X73.292 Y27.662 E.03858
G1 X73.65 Y28.834 E.04314
G1 X73.711 Y29.488 E.02309
G1 X73.721 Y33.943 E.15682
G1 X73.731 Y81.115 E1.66015
G1 X73.635 Y81.805 E.02453
G1 X73.431 Y82.376 E.02134
G1 X72.799 Y83.286 E.03898
G1 X71.841 Y83.924 E.0405
G1 X71.321 Y84.105 E.01939
G1 X70.681 Y84.192 E.02274
G1 X50.292 Y84.196 E.71756
G1 X49.277 Y84.171 E.03575
G1 X48.565 Y84.058 E.02536
G1 X47.84 Y83.774 E.02741
G1 X46.949 Y83.023 E.04102
G1 X46.514 Y82.252 E.03116
G1 X46.288 Y81.126 E.0404
G1 X46.288 Y29.545 E1.81533
G1 X46.463 Y28.331 E.04317
G1 X46.86 Y27.374 E.03647
; printing object (Unsaved).stl id:0 copy 0
EXCLUDE_OBJECT_START NAME=(Unsaved).stl_id_0_copy_0
G1 E-.5
G1 Z.4 F21000
G1 X63.201 Y29.679
G1 Z.2
G1 E.5 F1800
;TYPE:Inner wall
;WIDTH:0.499999
G1 F3000
G1 X63.044 Y30.061 E.01452
G1 X62.862 Y30.811 E.02716
G1 X62.818 Y31.364 E.01954
G1 X62.847 Y52.647 E.74904
G1 X62.915 Y53.366 E.02541
G1 X63.077 Y53.951 E.02134
G1 X63.243 Y54.35 E.01521
G1 X63.493 Y54.801 E.01817
G1 X63.866 Y55.278 E.02131
G1 X64.163 Y55.575 E.01478
G1 X64.653 Y55.954 E.02182
G1 X65.094 Y56.195 E.01767
G1 X65.493 Y56.36 E.0152
G1 X66.243 Y56.542 E.02717
G1 X67.01 Y56.576 E.02703
G1 X67.764 Y56.46 E.02683
G1 X68.506 Y56.19 E.0278
G1 X69.031 Y55.879 E.02148
G1 X69.033 Y79.037 E.81502
G1 X68.436 Y78.872 E.02179
G1 X67.564 Y78.784 E.03084
G1 X66.708 Y78.843 E.03022
G1 X66.2 Y78.946 E.01822
G1 X65.807 Y79.067 E.01449
G1 X65.225 Y79.309 E.02218
G1 X64.846 Y79.515 E.01519
G1 X59.99 Y79.494 E.17089
G1 X55.127 Y79.514 E.17114
G1 X54.759 Y79.313 E.01478
G1 X53.799 Y78.951 E.03612
G1 X53.076 Y78.816 E.02586
G1 X52.335 Y78.784 E.02613
G1 X51.495 Y78.886 E.02977
G1 X50.966 Y79.03 E.01929
G1 X50.966 Y55.508 E.82784
G1 X51.349 Y55.912 E.01959
G1 X51.961 Y56.366 E.0268
G1 X52.674 Y56.703 E.02779
G1 X53.424 Y56.889 E.02718
G1 X54.192 Y56.926 E.02704
G1 X54.756 Y56.861 E.01999
G1 X55.289 Y56.712 E.01948
G1 X55.689 Y56.548 E.0152
G1 X56.158 Y56.289 E.01887
G1 X56.621 Y55.929 E.02063
G1 X56.919 Y55.633 E.01478
G1 X57.372 Y55.021 E.0268
G1 X57.615 Y54.559 E.01837
G1 X57.814 Y53.964 E.02209
G1 X57.896 Y53.557 E.01459
G1 X57.941 Y53.003 E.01956
G1 X58.007 Y31.568 E.75439
G1 X57.965 Y31.015 E.01953
G1 X57.784 Y30.265 E.02716
G1 X57.521 Y29.68 E.02255
G1 X63.141 Y29.679 E.19779
G1 X64.018 Y29.222 F21000
G1 F3000
G1 X63.781 Y29.561 E.01455
G1 X63.482 Y30.191 E.02456
G1 X63.317 Y30.855 E.02406
G1 X63.275 Y31.363 E.01796
G1 X63.313 Y52.812 E.75486
G1 X63.411 Y53.475 E.02359
G1 X63.645 Y54.132 E.02456
G1 X63.997 Y54.718 E.02406
G1 X64.452 Y55.221 E.02387
G1 X64.993 Y55.623 E.02372
G1 X65.452 Y55.86 E.01816
G1 X65.968 Y56.025 E.01906
G1 X66.635 Y56.121 E.02372
G1 X67.312 Y56.086 E.02388
G1 X67.975 Y55.919 E.02407
G1 X68.605 Y55.618 E.02456
G1 X69.144 Y55.215 E.02371
G1 X69.488 Y54.845 E.01776
G1 X69.49 Y78.879 E.84585
G1 X69.475 Y79.687 E.02842
G1 X68.727 Y79.412 E.02806
G1 X68.374 Y79.325 E.01278
G1 X67.58 Y79.241 E.02811
G1 X66.799 Y79.291 E.02755
G1 X65.982 Y79.489 E.02959
G1 X65.4 Y79.731 E.02218
G1 X64.983 Y79.973 E.01696
G1 X59.99 Y79.951 E.17575
G1 X54.992 Y79.972 E.17591
G1 X54.583 Y79.735 E.01661
G1 X53.702 Y79.398 E.03321
G1 X53.043 Y79.272 E.02362
G1 X52.368 Y79.24 E.02379
G1 X51.615 Y79.327 E.02665
G1 X50.885 Y79.526 E.02664
G1 X50.509 Y79.68 E.0143
G1 X50.509 Y54.181 E.89738
;WIDTH:0.526414
G1 X50.522 Y53.903 E.01037
;WIDTH:0.552828
G1 X50.535 Y53.625 E.01094
G1 X50.593 Y53.812 E.0077
;WIDTH:0.526535
G1 X50.837 Y54.467 E.02601
;WIDTH:0.499999
G1 X51.186 Y55.055 E.02407
G1 X51.64 Y55.56 E.02388
G1 X52.178 Y55.964 E.0237
G1 X52.807 Y56.266 E.02455
G1 X53.47 Y56.434 E.02407
G1 X54.148 Y56.471 E.02389
G1 X54.666 Y56.412 E.01834
G1 X55.159 Y56.274 E.01802
G1 X55.529 Y56.115 E.01418
G1 X56.061 Y55.795 E.02184
G1 X56.566 Y55.341 E.02388
G1 X56.97 Y54.803 E.0237
G1 X57.272 Y54.174 E.02455
G1 X57.441 Y53.511 E.02407
G1 X57.484 Y53.002 E.01798
G1 X57.55 Y31.567 E.75439
G1 X57.51 Y31.058 E.01795
G1 X57.346 Y30.395 E.02406
G1 X57.048 Y29.764 E.02456
G1 X56.648 Y29.224 E.02366
G1 X63.958 Y29.222 E.25727
G1 E-.5
G1 Z.4 F21000
G1 X54.067 Y29.325
G1 X53.633 Y29.351
G1 X53.187 Y29.433
G1 X52.739 Y29.581
G1 X52.357 Y29.847
G1 X50.539 Y31.668
G1 Z.2
G1 E.5 F1800
;WIDTH:0.55975
G1 F3000
G1 X50.516 Y31.595 E.00303
;WIDTH:0.514216
G1 X50.493 Y31.522 E.00277
;WIDTH:0.468681
G1 X50.471 Y31.449 E.0025
;WIDTH:0.423146
G1 X50.448 Y31.377 E.00223
;WIDTH:0.377611
G1 X50.434 Y31.204 E.00447
;WIDTH:0.350524
G1 X50.421 Y31.031 E.0041
;WIDTH:0.366993
G1 X50.443 Y30.682 E.00873
;WIDTH:0.410548
G1 X50.464 Y30.333 E.0099
;WIDTH:0.449681
G1 X50.489 Y30.14 E.0061
;WIDTH:0.488813
G1 X50.515 Y29.947 E.00669
;WIDTH:0.527946
G1 X50.54 Y29.753 E.00728
;WIDTH:0.567078
G1 X50.565 Y29.56 E.00786
;WIDTH:0.575124
G1 X50.654 Y29.366 E.00876
G1 X50.871 Y29.262 E.00985
G1 X51.392 Y29.262 E.02137
G1 X51.103 Y29.635 E.01934
G1 X51.011 Y29.849 E.00955
;WIDTH:0.530584
G1 X50.918 Y30.063 E.00875
;WIDTH:0.486043
G1 X50.861 Y30.288 E.00792
;WIDTH:0.44311
G1 X50.803 Y30.513 E.00715
;WIDTH:0.400177
G1 X50.745 Y30.737 E.00638
;WIDTH:0.357244
G1 X50.683 Y31.281 E.01325
;WIDTH:0.361106
G1 X50.654 Y31.359 E.00202
;WIDTH:0.410767
G1 X50.625 Y31.436 E.00233
;WIDTH:0.460428
G1 X50.596 Y31.513 E.00265
;WIDTH:0.510089
G1 X50.568 Y31.59 E.00296
;WIDTH:0.55975
G1 X50.56 Y31.611 E.00089
G1 E-.5
G1 Z.4 F21000
G1 X52.357 Y29.847
G1 X52.739 Y29.581
G1 X53.187 Y29.433
G1 X53.633 Y29.351
G1 X54.067 Y29.325
G1 X54.501 Y29.352
G1 X54.948 Y29.436
G1 X55.395 Y29.585
G1 X55.773 Y29.857
G1 X56.069 Y30.22
G1 X56.294 Y30.643
G1 X56.431 Y31.102
G1 X69.813 Y80.409
G1 Z.2
G1 E.5 F1800
;WIDTH:0.499999
G1 F3000
G1 X69.318 Y80.116 E.02026
G1 X68.313 Y79.777 E.03734
G1 X67.596 Y79.698 E.02538
G1 X66.89 Y79.739 E.02488
G1 X66.157 Y79.911 E.0265
G1 X65.575 Y80.153 E.02218
G1 X65.125 Y80.431 E.0186
G1 X59.989 Y80.408 E.18077
G1 X54.849 Y80.43 E.18089
G1 X54.408 Y80.157 E.01827
G1 X53.605 Y79.845 E.0303
G1 X53.009 Y79.728 E.02138
G1 X52.401 Y79.696 E.02145
G1 X51.736 Y79.768 E.02353
G1 X50.744 Y80.072 E.0365
G1 X50.052 Y80.421 E.02729
G1 X50.052 Y29.958 E1.776
G1 X50.089 Y29.434 E.01847
G1 X50.219 Y29.1 E.01261
G1 X50.495 Y28.877 E.01249
G1 X50.819 Y28.768 E.01202
G1 X52.89 Y28.767 E.0729
G1 X52.479 Y28.975 E.01621
G1 X52.011 Y29.327 E.02062
G1 X51.618 Y29.766 E.02071
G1 X51.314 Y30.278 E.02096
G1 X51.114 Y30.85 E.02132
G1 X51.026 Y31.547 E.02473
G1 X50.96 Y52.982 E.75439
G1 X51.044 Y53.679 E.02469
G1 X51.24 Y54.252 E.02132
G1 X51.541 Y54.766 E.02097
G1 X51.931 Y55.207 E.02073
G1 X52.396 Y55.562 E.0206
G1 X52.94 Y55.829 E.02132
G1 X53.517 Y55.98 E.02097
G1 X54.105 Y56.016 E.02074
G1 X54.685 Y55.937 E.0206
G1 X55.314 Y55.711 E.02352
G1 X55.772 Y55.441 E.01874
G1 X56.214 Y55.05 E.02073
G1 X56.568 Y54.585 E.0206
G1 X56.835 Y54.041 E.02132
G1 X56.977 Y53.536 E.01846
G1 X57.027 Y53.001 E.01893
G1 X57.087 Y31.445 E.75863
G1 X57.01 Y30.869 E.02047
G1 X56.813 Y30.296 E.02132
G1 X56.513 Y29.781 E.02097
G1 X56.123 Y29.34 E.02073
G1 X55.657 Y28.985 E.0206
G1 X55.228 Y28.767 E.01695
G1 X65.211 Y28.765 E.35133
G1 X64.707 Y29.139 E.02209
G1 X64.316 Y29.58 E.02073
G1 X64.014 Y30.093 E.02097
G1 X63.817 Y30.666 E.02131
G1 X63.732 Y31.363 E.02471
G1 X63.762 Y52.646 E.74904
G1 X63.848 Y53.343 E.02471
G1 X64.047 Y53.915 E.02132
G1 X64.35 Y54.428 E.02096
G1 X64.742 Y54.867 E.02072
G1 X65.209 Y55.22 E.02061
G1 X65.755 Y55.484 E.02132
G1 X66.331 Y55.633 E.02096
G1 X66.919 Y55.666 E.02073
G1 X67.5 Y55.585 E.02062
G1 X68.072 Y55.386 E.02132
G1 X68.585 Y55.083 E.02096
G1 X69.024 Y54.691 E.02072
G1 X69.377 Y54.224 E.02061
G1 X69.641 Y53.678 E.02132
G1 X69.663 Y53.513 E.00586
;WIDTH:0.452187
G1 X69.684 Y53.348 E.00525
;WIDTH:0.404374
G1 X69.706 Y53.183 E.00464
;WIDTH:0.356561
G1 X69.743 Y52.638 E.01319
;WIDTH:0.344021
G1 X69.721 Y31.355 E.49343
;WIDTH:0.364431
G1 X69.691 Y30.897 E.01134
;WIDTH:0.403638
G1 X69.636 Y30.61 E.00813
;WIDTH:0.442844
G1 X69.582 Y30.322 E.00901
;WIDTH:0.483341
G1 X69.528 Y30.169 E.00552
;WIDTH:0.523837
G1 X69.475 Y30.015 E.00603
;WIDTH:0.564334
G1 X69.422 Y29.861 E.00653
;WIDTH:0.60483
G1 X69.368 Y29.707 E.00704
;WIDTH:0.633601
G1 X69.041 Y29.261 E.02517
G1 X68.546 Y28.831 E.02981
G1 X68.951 Y28.831 E.01839
G1 X69.332 Y28.877 E.01745
G1 X69.605 Y29.019 E.014
G1 X69.828 Y29.33 E.01741
;WIDTH:0.62451
G1 X69.892 Y29.566 E.01093
;WIDTH:0.60483
G1 X69.909 Y29.703 E.00598
;WIDTH:0.57005
G1 X69.927 Y29.84 E.00561
;WIDTH:0.53527
G1 X69.944 Y29.977 E.00524
;WIDTH:0.50049
G1 X69.963 Y30.192 E.00762
;WIDTH:0.463621
G1 X69.981 Y30.408 E.00701
;WIDTH:0.426751
G1 X69.999 Y30.623 E.0064
;WIDTH:0.389881
G1 X70.022 Y31.354 E.01954
;WIDTH:0.344021
G1 X70.03 Y52.638 E.49343
;WIDTH:0.330006
G1 X70.03 Y52.639 E.00004
;WIDTH:0.356561
G1 X70.017 Y53.21 E.01378
;WIDTH:0.404374
G1 X69.993 Y53.381 E.0048
;WIDTH:0.452187
G1 X69.969 Y53.552 E.00544
;WIDTH:0.499999
G1 X69.946 Y53.723 E.00608
G1 X69.947 Y80.423 E.93967
G1 X69.873 Y80.415 E.00261
G1 X69.697 Y80.883 F21000
G1 F3000
G1 X69.161 Y80.545 E.02232
G1 X68.251 Y80.23 E.03388
G1 X67.611 Y80.154 E.02266
G1 X66.981 Y80.187 E.02221
G1 X66.332 Y80.333 E.02342
G1 X65.75 Y80.575 E.02218
G1 X65.267 Y80.889 E.02026
G1 X59.991 Y80.865 E.18569
G1 X54.707 Y80.887 E.18597
G1 X54.232 Y80.579 E.01994
G1 X53.509 Y80.291 E.02739
G1 X52.976 Y80.184 E.01914
G1 X52.434 Y80.152 E.01911
G1 X51.856 Y80.209 E.02042
G1 X50.962 Y80.474 E.03282
G1 X50.253 Y80.882 E.02879
G1 X49.595 Y80.869 E.02317
G1 X49.595 Y29.714 E1.80036
M73 P1 R36
G1 X49.669 Y29.174 E.01918
G1 X49.845 Y28.828 E.01365
G1 X50.116 Y28.557 E.01352
G1 X50.477 Y28.373 E.01426
G1 X50.77 Y28.311 E.01055
G1 X52.786 Y28.31 E.07092
;WIDTH:0.544669
G1 X53.088 Y28.332 E.01173
;WIDTH:0.589338
G1 X53.391 Y28.355 E.01277
;WIDTH:0.610575
G1 X53.96 Y28.365 E.02485
;WIDTH:0.628683
G1 X54.527 Y28.374 E.02558
G1 X54.72 Y28.353 E.00876
;WIDTH:0.585789
G1 X54.913 Y28.331 E.00812
;WIDTH:0.542894
G1 X55.106 Y28.31 E.00748
;WIDTH:0.499999
G1 X65.527 Y28.308 E.36674
;WIDTH:0.52459
G1 X66.663 Y28.314 E.04213
;WIDTH:0.530002
G1 X67.77 Y28.307 E.04152
;WIDTH:0.499999
G1 X69.039 Y28.307 E.04467
G1 X69.538 Y28.381 E.01775
G1 X69.884 Y28.557 E.01365
G1 X70.155 Y28.828 E.01352
G1 X70.339 Y29.189 E.01426
G1 X70.401 Y29.566 E.01342
G1 X70.404 Y80.874 E1.80573
G1 X69.757 Y80.882 E.02277
G1 X69.458 Y81.327 F21000
;TYPE:Outer wall
;WIDTH:0.585841
G1 F3000
G1 X68.989 Y81.014 E.02357
G1 X68.183 Y80.726 E.03576
G1 X67.629 Y80.654 E.02337
G1 X67.081 Y80.677 E.02291
G1 X66.443 Y80.829 E.02741
G1 X65.891 Y81.064 E.02509
G1 X65.423 Y81.389 E.02383
G1 X59.989 Y81.365 E.22715
G1 X54.552 Y81.388 E.2273
G1 X54.04 Y81.04 E.02586
G1 X53.529 Y80.828 E.02312
G1 X52.976 Y80.688 E.02384
G1 X52.509 Y80.651 E.01959
G1 X51.988 Y80.691 E.02185
G1 X51.2 Y80.914 E.03422
G1 X50.65 Y81.211 E.02614
G1 X50.42 Y81.385 E.01208
G1 X49.453 Y81.367 E.04043
G1 X49.154 Y81.28 E.01299
G1 X49.095 Y81.076 E.0089
G1 X49.095 Y29.573 E2.15299
G1 X49.188 Y29.015 E.02364
G1 X49.435 Y28.531 E.02273
G1 X49.819 Y28.147 E.02268
G1 X50.309 Y27.898 E.02299
G1 X50.718 Y27.811 E.01748
G1 X69.139 Y27.807 E.77007
G1 X69.697 Y27.9 E.02363
G1 X70.181 Y28.147 E.02273
G1 X70.565 Y28.531 E.02268
G1 X70.814 Y29.021 E.02299
G1 X70.901 Y29.566 E.02305
G1 X70.904 Y81.062 E2.15274
G1 X70.856 Y81.256 E.00833
G1 X70.663 Y81.37 E.00939
G1 X69.545 Y81.385 E.04671
G1 X69.508 Y81.36 E.00189
G1 X69.448 Y81.248
G1 E-.5
G1 Z.4 F21000
G1 X68.627 Y29.598
G1 Z.2
G1 E.5 F1800
;TYPE:Inner wall
;WIDTH:0.499999
G1 F3000
G1 X68.677 Y29.643 E.00238
G1 X68.941 Y29.987 E.01526
G1 X69.171 Y30.446 E.01808
G1 X69.304 Y30.936 E.01786
G1 X69.342 Y31.355 E.01481
G1 X69.371 Y52.64 E.74908
G1 X69.306 Y53.204 E.02
G1 X69.144 Y53.691 E.01808
G1 X68.891 Y54.132 E.01786
G1 X68.564 Y54.509 E.01758
G1 X68.171 Y54.813 E.0175
G1 X67.711 Y55.044 E.01808
G1 X67.221 Y55.176 E.01786
G1 X66.723 Y55.211 E.01759
G1 X66.229 Y55.149 E.01751
G1 X65.742 Y54.987 E.01808
G1 X65.301 Y54.734 E.01786
G1 X64.924 Y54.407 E.01758
G1 X64.62 Y54.014 E.0175
G1 X64.39 Y53.557 E.01798
G1 X64.257 Y53.067 E.01787
G1 X64.219 Y52.646 E.01491
G1 X64.19 Y31.362 E.74904
G1 X64.226 Y30.943 E.01481
G1 X64.358 Y30.453 E.01785
G1 X64.587 Y29.993 E.01808
G1 X64.997 Y29.492 E.0228
G1 X65.39 Y29.187 E.0175
G1 X65.85 Y28.957 E.01808
;WIDTH:0.530542
G1 X66.338 Y28.809 E.01916
G1 X66.839 Y28.783 E.01883
;WIDTH:0.514858
G1 X67.334 Y28.845 E.01813
G1 X67.819 Y29.014 E.01867
;WIDTH:0.499999
G1 X68.259 Y29.266 E.01786
G1 X68.582 Y29.558 E.0153
G1 X68.304 Y29.977 F21000
;TYPE:Outer wall
;WIDTH:0.585841
G1 F3000
G1 X68.501 Y30.224 E.01322
G1 X68.693 Y30.591 E.01727
G1 X68.807 Y30.986 E.01719
G1 X68.842 Y31.356 E.01554
G1 X68.871 Y52.64 E.88973
G1 X68.827 Y53.061 E.01771
G1 X68.703 Y53.455 E.01727
G1 X68.504 Y53.815 E.01719
G1 X68.246 Y54.123 E.0168
G1 X67.933 Y54.373 E.01676
G1 X67.567 Y54.565 E.01727
G1 X67.172 Y54.679 E.01719
