; HEADER_BLOCK_START
; generated by OrcaSlicer 1.6.3 on 2023-06-25 at 13:38:19
; total layer number: 56
; HEADER_BLOCK_END

; THUMBNAIL_BLOCK_START
; THUMBNAIL_BLOCK_END

; external perimeters extrusion width = 0.40mm
; perimeters extrusion width = 0.45mm
; infill extrusion width = 0.45mm
; solid infill extrusion width = 0.40mm
; top infill extrusion width = 0.40mm
; support material extrusion width = 0.40mm
; first layer extrusion width = 0.50mm

; EXECUTABLE_BLOCK_START
EXCLUDE_OBJECT_DEFINE NAME=(Unsaved).stl_id_0_copy_0 CENTER=59.9998,51.1591 POLYGON=[[39.3866,55.8326],[39.4354,55.4308],[39.5377,55.0391],[39.6919,54.6648],[39.8951,54.3146],[40.1435,53.995],[43.2168,50.7167],[43.5077,50.4534],[53.3039,43.1052],[53.72,42.8005],[53.9561,42.6406],[54.3817,42.3739],[54.6404,42.2247],[55.0722,41.9958],[55.3532,41.8596],[55.7879,41.6679],[56.0907,41.5474],[56.5253,41.3921],[56.8489,41.2897],[57.2805,41.1698],[57.6238,41.0878],[58.0496,41.002],[58.4114,40.9428],[58.8288,40.8897],[59.2074,40.8555],[59.6141,40.8334],[60.0077,40.8264],[60.4013,40.8334],[60.808,40.8555],[61.1866,40.8897],[61.604,40.9428],[61.9658,41.002],[62.3916,41.0878],[62.7349,41.1698],[63.1665,41.2897],[63.4901,41.3921],[63.9247,41.5474],[64.2275,41.6679],[64.6622,41.8596],[64.9432,41.9958],[65.3749,42.2247],[65.6337,42.3739],[66.0593,42.6406],[66.2953,42.8005],[66.7115,43.1052],[76.4949,50.4583],[76.7862,50.7235],[79.8633,54.0282],[80.1121,54.3515],[80.3147,54.7055],[80.4675,55.0837],[80.5675,55.4791],[80.613,55.8844],[80.603,56.2922],[80.5379,56.6949],[80.4187,57.085],[80.2477,57.4553],[80.0281,57.799],[79.7017,58.1959],[79.3364,58.5573],[78.9359,58.8792],[78.5045,59.1583],[78.0467,59.3917],[77.5673,59.5769],[77.0715,59.7119],[76.5645,59.7953],[64.9313,61.4508],[64.5159,61.4918],[55.4994,61.4918],[55.0841,61.4508],[43.3204,59.7789],[42.8228,59.6839],[42.3375,59.5391],[41.8692,59.346],[41.4229,59.1064],[41.0032,58.823],[40.6142,58.4985],[40.2601,58.1363],[39.9445,57.7402],[39.7313,57.396],[39.5664,57.0263],[39.4528,56.6377],[39.3925,56.2374],[39.3866,55.8326]]
M73 P0 R15
;TYPE:Custom
START_PRINT T_BED=110 T_EXTRUDER=260
G90
G21
M83 ; use relative distances for extrusion
; Filament gcode

    PRESSURE_ADVANCE_SELECT FILAMENT=ABS
M106 S0
;LAYER_CHANGE
;Z:0.2
;HEIGHT:0.2
;BEFORE_LAYER_CHANGE
;0.2
G92 E0

;AFTER_LAYER_CHANGE
;0.2
SET_VELOCITY_LIMIT ACCEL_TO_DECEL=500
M204 S1000
G1 E-.5 F3000
G1 Z.2 F21000
G1 X41.759 Y48.122
G1 E.5 F1800
;TYPE:Skirt
;WIDTH:0.5
G1 F3000
G1 X51.545 Y40.782 E.4305
G1 X53.334 Y39.619 E.0751
G1 X55.134 Y38.796 E.06966
G1 X57.08 Y38.226 E.07138
G1 X58.871 Y37.96 E.06372
G1 X60.889 Y37.942 E.07101
G1 X62.154 Y38.081 E.04481
G1 X63.922 Y38.476 E.06374
G1 X65.08 Y38.871 E.04307
G1 X66.901 Y39.742 E.07105
G1 X68.473 Y40.784 E.06637
G1 X78.246 Y48.129 E.43024
G1 X78.919 Y48.738 E.03195
G1 X82.427 Y52.582 E.18317
G1 X83.017 Y53.614 E.04183
G1 X83.393 Y54.764 E.04259
G1 X83.509 Y55.56 E.02828
G1 X83.516 Y56.363 E.02828
G1 X83.325 Y57.546 E.04218
G1 X83.064 Y58.307 E.02828
G1 X82.703 Y59.025 E.02828
G1 X81.751 Y60.268 E.05512
G1 X80.762 Y61.151 E.04666
G1 X80.088 Y61.605 E.02862
G1 X79.097 Y62.11 E.03914
G1 X77.837 Y62.524 E.04666
G1 X64.516 Y64.406 E.47348
G1 X55.208 Y64.391 E.32757
G1 X42.91 Y62.664 E.43706
G1 X41.504 Y62.332 E.05085
G1 X40.491 Y61.914 E.03858
G1 X39.372 Y61.238 E.046
G1 X38.531 Y60.536 E.03858
G1 X37.467 Y59.275 E.05805
G1 X37.07 Y58.583 E.02807
G1 X36.769 Y57.844 E.02807
G1 X36.57 Y57.067 E.02824
G1 X36.479 Y56.274 E.02808
G1 X36.494 Y55.482 E.02789
G1 X36.616 Y54.694 E.02807
G1 X36.997 Y53.555 E.04227
G1 X37.594 Y52.526 E.04186
G1 X41.091 Y48.724 E.1818
G1 X41.715 Y48.162 E.02953
G1 X42.014 Y48.558 F21000
G1 F3000
G1 X51.819 Y41.148 E.43254
G1 X53.542 Y40.026 E.07236
G1 X55.281 Y39.228 E.06735
G1 X57.162 Y38.675 E.06901
G1 X58.921 Y38.415 E.06255
G1 X60.873 Y38.399 E.0687
G1 X62.071 Y38.53 E.04242
G1 X63.977 Y38.97 E.06885
G1 X65.799 Y39.681 E.06885
G1 X67.462 Y40.625 E.06727
G1 X77.971 Y48.494 E.46207
G1 X78.584 Y49.049 E.02911
G1 X81.662 Y52.354 E.15892
G1 X82.247 Y53.135 E.03436
G1 X82.746 Y54.164 E.04022
G1 X83.009 Y55.205 E.03782
G1 X83.059 Y56.352 E.0404
G1 X82.888 Y57.413 E.03782
G1 X82.478 Y58.485 E.0404
G1 X81.926 Y59.359 E.03639
G1 X81.064 Y60.304 E.04501
G1 X80.271 Y60.942 E.03583
G1 X79.163 Y61.581 E.04501
G1 X78.213 Y61.948 E.03583
G1 X76.911 Y62.228 E.04688
G1 X64.757 Y63.937 E.43194
G1 X55.499 Y63.949 E.32581
G1 X42.362 Y62.097 E.46692
G1 X41.4 Y61.811 E.03532
G1 X40.261 Y61.271 E.04437
G1 X39.429 Y60.71 E.03532
G1 X38.503 Y59.854 E.04437
G1 X37.643 Y58.69 E.05095
G1 X37.094 Y57.327 E.05169
G1 X36.93 Y55.868 E.05169
G1 X37.161 Y54.418 E.05169
G1 X37.567 Y53.432 E.03753
G1 X38.204 Y52.487 E.0401
G1 X41.568 Y48.895 E.17321
G1 X41.966 Y48.594 E.01754
; printing object (Unsaved).stl id:0 copy 0
EXCLUDE_OBJECT_START NAME=(Unsaved).stl_id_0_copy_0
G1 E-.5
G1 Z.4 F21000
G1 X54.665 Y43.994
G1 Z.2
G1 E.5 F1800
;TYPE:Support
G1 F3000
G1 X54.97 Y44.06 E.01101
G1 X55.264 Y44.17 E.01104
G1 X55.539 Y44.32 E.01104
G1 X55.791 Y44.508 E.01104
G1 X56.012 Y44.73 E.01104
G1 X56.196 Y44.975 E.01079
G1 X56.351 Y45.257 E.01132
G1 X56.46 Y45.55 E.01101
G1 X56.527 Y45.857 E.01104
G1 X56.549 Y46.169 E.01104
G1 X56.527 Y46.482 E.01104
G1 X56.46 Y46.789 E.01104
G1 X56.351 Y47.083 E.01104
G1 X56.2 Y47.358 E.01104
G1 X56.012 Y47.609 E.01104
G1 X55.791 Y47.831 E.01104
G1 X55.545 Y48.015 E.01079
G1 X55.263 Y48.17 E.01132
G1 X54.97 Y48.279 E.01101
G1 X54.664 Y48.346 E.01104
G1 X54.351 Y48.368 E.01104
G1 X54.038 Y48.346 E.01104
G1 X53.731 Y48.279 E.01104
G1 X53.438 Y48.169 E.01104
G1 X53.162 Y48.019 E.01104
G1 X52.911 Y47.831 E.01104
G1 X52.689 Y47.609 E.01104
G1 X52.506 Y47.364 E.01079
G1 X52.351 Y47.082 E.01132
G1 X52.241 Y46.789 E.01101
G1 X52.176 Y46.489 E.01079
G1 X52.152 Y46.169 E.01132
G1 X52.175 Y45.857 E.01101
G1 X52.241 Y45.55 E.01104
G1 X52.349 Y45.263 E.01079
G1 X52.502 Y44.98 E.01132
G1 X52.689 Y44.73 E.01101
G1 X52.911 Y44.508 E.01104
G1 X53.157 Y44.324 E.01079
G1 X53.438 Y44.169 E.01132
G1 X53.731 Y44.06 E.01101
G1 X54.038 Y43.993 E.01104
G1 X54.344 Y43.972 E.01079
G1 X54.596 Y43.989 E.00891
G1 X55.701 Y47.339 F21000
G1 F3000
G1 X55.52 Y47.519 E.00897
G1 X55.322 Y47.668 E.00874
G1 X55.091 Y47.795 E.00925
G1 X54.854 Y47.883 E.00892
G1 X54.605 Y47.937 E.00897
G1 X54.351 Y47.956 E.00897
G1 X54.097 Y47.937 E.00897
G1 X53.848 Y47.883 E.00897
G1 X53.609 Y47.794 E.00897
G1 X53.385 Y47.672 E.00897
G1 X53.181 Y47.519 E.00897
G1 X53.001 Y47.339 E.00897
G1 X52.852 Y47.14 E.00874
G1 X52.726 Y46.91 E.00925
G1 X52.637 Y46.673 E.00892
G1 X52.584 Y46.43 E.00874
G1 X52.565 Y46.168 E.00925
G1 X52.583 Y45.915 E.00892
G1 X52.637 Y45.666 E.00897
G1 X52.724 Y45.434 E.00874
G1 X52.849 Y45.203 E.00925
G1 X53.001 Y45 E.00892
G1 X53.181 Y44.82 E.00897
G1 X53.38 Y44.671 E.00874
G1 X53.61 Y44.544 E.00925
G1 X53.848 Y44.456 E.00892
G1 X54.097 Y44.402 E.00897
G1 X54.344 Y44.384 E.00874
G1 X54.606 Y44.402 E.00925
G1 X54.854 Y44.456 E.00892
G1 X55.093 Y44.545 E.00897
G1 X55.316 Y44.667 E.00897
G1 X55.52 Y44.82 E.00897
G1 X55.701 Y45 E.00897
G1 X55.849 Y45.199 E.00874
G1 X55.976 Y45.429 E.00925
G1 X56.065 Y45.666 E.00892
G1 X56.119 Y45.915 E.00897
G1 X56.137 Y46.169 E.00897
G1 X56.119 Y46.424 E.00897
G1 X56.065 Y46.673 E.00897
G1 X55.975 Y46.911 E.00897
G1 X55.853 Y47.135 E.00897
G1 X55.701 Y47.339 E.00897
G1 X55.316 Y47.006 F21000
G1 F3000
G1 X55.187 Y47.134 E.00641
G1 X55.046 Y47.24 E.00621
G1 X54.879 Y47.332 E.00669
G1 X54.711 Y47.395 E.00634
G1 X54.533 Y47.433 E.00641
G1 X54.351 Y47.446 E.00641
G1 X54.169 Y47.433 E.00641
G1 X53.991 Y47.395 E.00641
G1 X53.82 Y47.331 E.00641
G1 X53.661 Y47.244 E.00641
G1 X53.515 Y47.135 E.00641
G1 X53.386 Y47.006 E.00641
G1 X53.28 Y46.865 E.00621
G1 X53.189 Y46.698 E.00669
G1 X53.126 Y46.529 E.00634
G1 X53.088 Y46.357 E.00621
G1 X53.074 Y46.167 E.00669
G1 X53.087 Y45.988 E.00634
G1 X53.126 Y45.81 E.00641
G1 X53.187 Y45.645 E.0062
G1 X53.278 Y45.477 E.00669
G1 X53.386 Y45.333 E.00634
G1 X53.515 Y45.204 E.00641
G1 X53.656 Y45.099 E.00621
G1 X53.822 Y45.007 E.00669
G1 X53.991 Y44.944 E.00634
G1 X54.169 Y44.906 E.00641
G1 X54.345 Y44.893 E.00621
G1 X54.535 Y44.906 E.00669
G1 X54.711 Y44.944 E.00634
G1 X54.881 Y45.008 E.00641
G1 X55.041 Y45.095 E.00641
G1 X55.187 Y45.205 E.00641
G1 X55.316 Y45.333 E.00641
G1 X55.422 Y45.474 E.00621
G1 X55.513 Y45.641 E.00669
G1 X55.576 Y45.81 E.00634
G1 X55.615 Y45.988 E.00641
G1 X55.628 Y46.169 E.00641
G1 X55.615 Y46.351 E.00641
G1 X55.576 Y46.529 E.00641
G1 X55.512 Y46.7 E.00641
G1 X55.425 Y46.86 E.00641
G1 X55.316 Y47.006 E.00641
G1 X54.931 Y46.672 F21000
G1 F3000
G1 X54.77 Y46.812 E.00751
G1 X54.667 Y46.869 E.00413
G1 X54.46 Y46.929 E.00759
G1 X54.351 Y46.937 E.00386
G1 X54.242 Y46.929 E.00386
G1 X54.032 Y46.868 E.00769
G1 X53.848 Y46.75 E.00769
G1 X53.708 Y46.589 E.00751
G1 X53.652 Y46.486 E.00413
G1 X53.592 Y46.284 E.00741
G1 X53.583 Y46.167 E.00413
G1 X53.591 Y46.06 E.00376
G1 X53.651 Y45.855 E.00751
G1 X53.771 Y45.667 E.00787
G1 X53.932 Y45.527 E.00751
G1 X54.035 Y45.47 E.00413
G1 X54.135 Y45.433 E.00375
G1 X54.346 Y45.402 E.00751
G1 X54.567 Y45.433 E.00787
G1 X54.766 Y45.524 E.00769
G1 X54.854 Y45.589 E.00386
G1 X54.994 Y45.75 E.00751
G1 X55.05 Y45.853 E.00413
G1 X55.111 Y46.06 E.00759
G1 X55.119 Y46.169 E.00386
G1 X55.087 Y46.386 E.00769
G1 X55.049 Y46.488 E.00386
G1 X54.931 Y46.672 E.00769
G1 X54.546 Y46.339 F21000
G1 F3000
G1 X54.442 Y46.413 E.00452
G1 X54.351 Y46.428 E.00324
G1 X54.278 Y46.418 E.00259
G1 X54.182 Y46.365 E.00387
G1 X54.099 Y46.246 E.0051
G1 X54.091 Y46.152 E.00332
G1 X54.143 Y46.013 E.00519
G1 X54.192 Y45.963 E.00247
G1 X54.329 Y45.91 E.00517
G1 X54.406 Y45.915 E.00274
G1 X54.52 Y45.974 E.00451
G1 X54.595 Y46.079 E.00452
G1 X54.609 Y46.17 E.00324
G1 X54.586 Y46.277 E.00387
G1 X54.546 Y46.339 E.00259
G1 E-.5
G1 Z.4 F21000
G1 X54.581 Y48.953
G1 X56.538 Y50.198
G1 X56.655 Y50.621
G1 X56.694 Y51.046
G1 X56.707 Y51.434
G1 X56.708 Y51.826
G1 X56.707 Y52.219
G1 X56.694 Y52.607
G1 X56.655 Y53.032
G1 X56.538 Y53.455
G1 X54.792 Y54.721
G1 X54.665 Y55.307
G1 Z.2
G1 E.5 F1800
G1 F3000
G1 X54.97 Y55.374 E.01101
G1 X55.264 Y55.483 E.01104
G1 X55.539 Y55.634 E.01104
G1 X55.791 Y55.822 E.01104
G1 X56.012 Y56.044 E.01104
G1 X56.196 Y56.289 E.01079
G1 X56.351 Y56.571 E.01132
G1 X56.46 Y56.864 E.01101
G1 X56.527 Y57.17 E.01104
G1 X56.549 Y57.483 E.01104
G1 X56.527 Y57.796 E.01104
G1 X56.46 Y58.103 E.01104
G1 X56.353 Y58.39 E.01079
G1 X56.2 Y58.672 E.01132
G1 X56.012 Y58.923 E.01101
G1 X55.791 Y59.145 E.01104
G1 X55.545 Y59.328 E.01079
G1 X55.263 Y59.483 E.01132
G1 X54.97 Y59.593 E.01101
G1 X54.671 Y59.658 E.01079
G1 X54.35 Y59.682 E.01132
G1 X54.038 Y59.659 E.01101
G1 X53.731 Y59.593 E.01104
G1 X53.438 Y59.483 E.01104
G1 X53.162 Y59.333 E.01104
G1 X52.911 Y59.145 E.01104
G1 X52.689 Y58.923 E.01104
G1 X52.501 Y58.672 E.01104
G1 X52.351 Y58.396 E.01104
G1 X52.244 Y58.109 E.01079
G1 X52.175 Y57.795 E.01132
G1 X52.152 Y57.483 E.01101
G1 X52.175 Y57.17 E.01104
G1 X52.241 Y56.864 E.01104
G1 X52.349 Y56.577 E.01079
G1 X52.502 Y56.294 E.01132
G1 X52.689 Y56.044 E.01101
G1 X52.911 Y55.822 E.01104
G1 X53.157 Y55.638 E.01079
G1 X53.438 Y55.483 E.01132
G1 X53.731 Y55.374 E.01101
G1 X54.038 Y55.307 E.01104
G1 X54.344 Y55.285 E.01079
G1 X54.596 Y55.303 E.00891
G1 X55.52 Y56.133 F21000
G1 F3000
G1 X55.701 Y56.314 E.00897
G1 X55.849 Y56.512 E.00874
G1 X55.976 Y56.743 E.00925
G1 X56.065 Y56.98 E.00892
G1 X56.119 Y57.229 E.00897
G1 X56.137 Y57.483 E.00897
G1 X56.119 Y57.737 E.00897
G1 X56.065 Y57.986 E.00897
G1 X55.978 Y58.219 E.00874
G1 X55.853 Y58.45 E.00925
G1 X55.701 Y58.653 E.00892
G1 X55.52 Y58.833 E.00897
G1 X55.322 Y58.982 E.00874
G1 X55.091 Y59.108 E.00925
G1 X54.854 Y59.197 E.00892
G1 X54.611 Y59.25 E.00874
G1 X54.349 Y59.269 E.00925
G1 X54.097 Y59.251 E.00892
G1 X53.848 Y59.197 E.00897
G1 X53.609 Y59.108 E.00897
G1 X53.385 Y58.986 E.00897
G1 X53.181 Y58.833 E.00897
G1 X53.001 Y58.653 E.00897
G1 X52.848 Y58.449 E.00897
G1 X52.726 Y58.225 E.00897
G1 X52.639 Y57.993 E.00874
G1 X52.583 Y57.736 E.00925
G1 X52.565 Y57.483 E.00892
G1 X52.583 Y57.229 E.00897
G1 X52.637 Y56.98 E.00897
G1 X52.724 Y56.747 E.00874
G1 X52.849 Y56.516 E.00925
G1 X53.001 Y56.314 E.00892
G1 X53.181 Y56.133 E.00897
G1 X53.38 Y55.985 E.00874
G1 X53.61 Y55.858 E.00925
G1 X53.848 Y55.77 E.00892
G1 X54.097 Y55.715 E.00897
G1 X54.344 Y55.698 E.00874
G1 X54.606 Y55.716 E.00925
G1 X54.854 Y55.77 E.00892
G1 X55.093 Y55.859 E.00897
G1 X55.316 Y55.981 E.00897
G1 X55.52 Y56.133 E.00897
G1 X55.187 Y56.518 F21000
G1 F3000
G1 X55.316 Y56.647 E.00641
G1 X55.422 Y56.788 E.00621
G1 X55.513 Y56.955 E.00669
G1 X55.576 Y57.123 E.00634
G1 X55.615 Y57.301 E.00641
G1 X55.628 Y57.483 E.00641
G1 X55.615 Y57.665 E.00641
G1 X55.576 Y57.843 E.00641
G1 X55.514 Y58.008 E.00621
G1 X55.424 Y58.175 E.00669
G1 X55.316 Y58.319 E.00634
G1 X55.187 Y58.448 E.00641
G1 X55.046 Y58.554 E.00621
G1 X54.879 Y58.645 E.00669
G1 X54.711 Y58.708 E.00634
G1 X54.538 Y58.746 E.0062
G1 X54.349 Y58.76 E.00669
G1 X54.169 Y58.747 E.00634
G1 X53.991 Y58.708 E.00641
G1 X53.82 Y58.645 E.00641
G1 X53.66 Y58.557 E.00641
G1 X53.515 Y58.448 E.00641
G1 X53.386 Y58.319 E.00641
G1 X53.277 Y58.174 E.00641
G1 X53.189 Y58.014 E.00641
G1 X53.128 Y57.848 E.00621
G1 X53.087 Y57.663 E.00669
G1 X53.074 Y57.483 E.00634
G1 X53.087 Y57.301 E.00641
G1 X53.126 Y57.123 E.00641
G1 X53.187 Y56.958 E.0062
G1 X53.278 Y56.791 E.00669
G1 X53.386 Y56.647 E.00634
G1 X53.515 Y56.518 E.00641
G1 X53.656 Y56.413 E.00621
G1 X53.822 Y56.321 E.00669
G1 X53.991 Y56.258 E.00634
G1 X54.169 Y56.219 E.00641
G1 X54.345 Y56.207 E.00621
G1 X54.535 Y56.22 E.00669
G1 X54.711 Y56.258 E.00634
G1 X54.881 Y56.322 E.00641
G1 X55.041 Y56.409 E.00641
G1 X55.187 Y56.518 E.00641
G1 X54.854 Y56.903 F21000
G1 F3000
G1 X54.994 Y57.064 E.00751
G1 X55.05 Y57.167 E.00413
G1 X55.111 Y57.374 E.00759
G1 X55.119 Y57.483 E.00386
G1 X55.111 Y57.592 E.00386
G1 X55.051 Y57.797 E.00751
G1 X54.931 Y57.986 E.00787
G1 X54.77 Y58.126 E.00751
G1 X54.667 Y58.183 E.00413
G1 X54.465 Y58.242 E.00741
G1 X54.348 Y58.251 E.00413
G1 X54.135 Y58.22 E.00759
G1 X54.032 Y58.182 E.00385
G1 X53.848 Y58.063 E.00769
G1 X53.705 Y57.898 E.00769
G1 X53.653 Y57.802 E.00386
G1 X53.591 Y57.59 E.00779
G1 X53.583 Y57.483 E.00376
G1 X53.591 Y57.374 E.00386
G1 X53.651 Y57.169 E.00751
G1 X53.771 Y56.98 E.00787
G1 X53.932 Y56.84 E.00751
G1 X54.035 Y56.784 E.00413
G1 X54.135 Y56.747 E.00375
G1 X54.346 Y56.716 E.00751
G1 X54.567 Y56.747 E.00787
G1 X54.766 Y56.837 E.00769
G1 X54.854 Y56.903 E.00386
G1 X54.52 Y57.288 F21000
G1 F3000
G1 X54.595 Y57.392 E.00452
G1 X54.607 Y57.445 E.00191
G1 X54.596 Y57.572 E.00447
G1 X54.559 Y57.639 E.0027
G1 X54.427 Y57.735 E.00574
G1 X54.279 Y57.732 E.00521
G1 X54.182 Y57.679 E.00391
G1 X54.108 Y57.577 E.00443
G1 X54.091 Y57.502 E.0027
G1 X54.106 Y57.395 E.0038
G1 X54.143 Y57.327 E.0027
G1 X54.192 Y57.277 E.00247
G1 X54.329 Y57.224 E.00517
G1 X54.406 Y57.229 E.00274
G1 X54.52 Y57.288 E.00451
G1 E-.5
G1 Z.4 F21000
G1 X57.663 Y56.745
G1 X64.876 Y54.797
G1 X65.266 Y54.712
G1 X65.657 Y54.684
G1 X66.063 Y54.712
G1 X66.106 Y54.721
G1 X65.978 Y55.307
G1 Z.2
G1 E.5 F1800
G1 F3000
G1 X66.284 Y55.374 E.01101
G1 X66.578 Y55.483 E.01104
G1 X66.847 Y55.63 E.01079
G1 X67.105 Y55.822 E.01132
G1 X67.326 Y56.044 E.01101
G1 X67.514 Y56.295 E.01104
G1 X67.664 Y56.57 E.01104
G1 X67.774 Y56.864 E.01104
G1 X67.841 Y57.17 E.01104
G1 X67.863 Y57.483 E.01104
G1 X67.841 Y57.796 E.01104
G1 X67.774 Y58.103 E.01104
G1 X67.667 Y58.39 E.01079
G1 X67.514 Y58.672 E.01132
G1 X67.326 Y58.923 E.01101
G1 X67.104 Y59.145 E.01104
G1 X66.859 Y59.328 E.01079
G1 X66.577 Y59.483 E.01132
G1 X66.284 Y59.593 E.01101
G1 X65.977 Y59.659 E.01104
G1 X65.665 Y59.682 E.01104
M73 P1 R15
G1 X65.352 Y59.659 E.01104
G1 X65.052 Y59.594 E.01079
G1 X64.751 Y59.483 E.01132
G1 X64.476 Y59.333 E.01101
G1 X64.225 Y59.145 E.01104
G1 X64.008 Y58.928 E.01079
G1 X63.815 Y58.671 E.01132
G1 X63.665 Y58.396 E.01101
G1 X63.555 Y58.103 E.01104
G1 X63.488 Y57.796 E.01104
G1 X63.466 Y57.483 E.01104
G1 X63.488 Y57.17 E.01104
G1 X63.555 Y56.864 E.01104
G1 X63.662 Y56.577 E.01079
