; HEADER_BLOCK_START
; generated by OrcaSlicer 1.6.3 on 2023-06-20 at 07:15:43
; total layer number: 234
; HEADER_BLOCK_END

; THUMBNAIL_BLOCK_START
; THUMBNAIL_BLOCK_END

; external perimeters extrusion width = 0.40mm
; perimeters extrusion width = 0.45mm
; infill extrusion width = 0.45mm
; solid infill extrusion width = 0.40mm
; top infill extrusion width = 0.40mm
; support material extrusion width = 0.40mm
; first layer extrusion width = 0.50mm

; EXECUTABLE_BLOCK_START
EXCLUDE_OBJECT_DEFINE NAME=(Unsaved).stl_id_0_copy_0 CENTER=60,60 POLYGON=[[49.801,50.075],[49.811,49.885],[49.827,49.763],[49.839,49.691],[49.887,49.499],[49.901,49.457],[49.955,49.309],[50.019,49.167],[50.039,49.129],[57.801,36.501],[59.301,35.001],[68.001,35.001],[70.179,49.783],[70.199,50.075],[70.199,75.073],[70.179,75.365],[70.177,75.377],[70.175,75.387],[68.001,84.999],[59.301,84.999],[50.387,76.487],[50.259,76.347],[50.185,76.249],[50.143,76.189],[50.039,76.019],[50.019,75.981],[49.955,75.839],[49.901,75.691],[49.887,75.651],[49.839,75.459],[49.827,75.387],[49.811,75.265],[49.801,75.073],[49.801,50.075]]
M73 P0 R38
;TYPE:Custom
START_PRINT T_BED=110 T_EXTRUDER=260
G90
G21
M83 ; use relative distances for extrusion
; Filament gcode

    PRESSURE_ADVANCE_SELECT FILAMENT=ABS
M106 S0
;LAYER_CHANGE
;Z:0.2
;HEIGHT:0.2
;BEFORE_LAYER_CHANGE
;0.2
G92 E0

;AFTER_LAYER_CHANGE
;0.2
SET_VELOCITY_LIMIT ACCEL_TO_DECEL=500
M204 S1000
G1 E-.5 F3000
G1 Z.2 F21000
G1 X52.484 Y34.196
G1 E.5 F1800
;TYPE:Skirt
;WIDTH:0.5
G1 F3000
G1 X53.363 Y32.964 E.05327
G1 X55.214 Y32.301 E.0692
G1 X70.5 Y32.301 E.53795
G1 X71.961 Y32.694 E.05327
G1 X73.029 Y33.767 E.05327
G1 X73.414 Y35.215 E.05272
G1 X73.414 Y84.785 E1.74457
M73 P0 R37
G1 X73.021 Y86.247 E.05327
G1 X71.947 Y87.314 E.05327
G1 X70.5 Y87.699 E.05272
G1 X55.214 Y87.699 E.53795
G1 X53.753 Y87.306 E.05327
G1 X52.705 Y86.266 E.05196
G1 X47.509 Y77.462 E.35978
G1 X47.202 Y76.789 E.02604
G1 X46.996 Y76.076 E.02612
G1 X46.887 Y75.073 E.03551
G1 X46.887 Y50.075 E.87978
G1 X46.994 Y49.078 E.03529
G1 X47.171 Y48.438 E.02335
G1 X52.463 Y34.252 E.53287
G1 X52.891 Y34.412 F21000
G1 F3000
G1 X52.912 Y34.356 E.00211
G1 X53.745 Y33.246 E.04884
G1 X55.214 Y32.758 E.0545
G1 X70.5 Y32.758 E.53795
G1 X71.831 Y33.15 E.04884
G1 X72.737 Y34.2 E.04884
G1 X72.957 Y35.215 E.03653
G1 X72.957 Y84.785 E1.74457
G1 X72.565 Y86.116 E.04884
G1 X71.514 Y87.023 E.04884
G1 X70.5 Y87.242 E.03653
G1 X55.214 Y87.242 E.53795
G1 X53.883 Y86.85 E.04884
G1 X53.098 Y86.034 E.03986
G1 X47.903 Y77.23 E.35978
G1 X47.44 Y75.968 E.0473
G1 X47.344 Y75.073 E.03168
G1 X47.344 Y50.075 E.87978
G1 X47.439 Y49.185 E.03148
G1 X47.599 Y48.598 E.02142
G1 X52.87 Y34.468 E.53076
; printing object (Unsaved).stl id:0 copy 0
EXCLUDE_OBJECT_START NAME=(Unsaved).stl_id_0_copy_0
G1 E-.5
G1 Z.4 F21000
G1 X52.864 Y50.078
G1 Z.2
G1 E.5 F1800
;TYPE:Support
G1 F3000
G1 X52.951 Y50.144 E.00387
G1 X52.966 Y50.256 E.00396
G1 X52.9 Y50.342 E.00382
G1 X52.825 Y50.362 E.00272
G1 X52.723 Y50.319 E.00387
G1 X52.682 Y50.217 E.00389
G1 X52.723 Y50.115 E.00389
G1 X52.796 Y50.076 E.00288
G1 E-.5
G1 Z.4 F21000
G1 X52.743 Y49.376
G1 X52.825 Y49.37
G1 X53.047 Y49.387
G1 X53.274 Y49.439
G1 X53.504 Y49.54
G1 X53.722 Y49.698
G1 X53.916 Y49.926
G1 X58.584 Y55.609
G1 X59.824 Y56.795
G1 Z.2
G1 E.5 F1800
G1 F3000
G1 X60.167 Y56.872 E.01236
G1 X60.505 Y56.989 E.01259
G1 X60.822 Y57.142 E.01241
G1 X61.121 Y57.328 E.01239
G1 X61.397 Y57.549 E.01245
G1 X61.642 Y57.791 E.01212
G1 X61.865 Y58.072 E.01262
G1 X62.156 Y58.527 E.01902
G1 X62.425 Y58.675 E.01082
G1 X67.401 Y58.675 E.17511
G1 X67.401 Y66.475 E.27451
G1 X63.95 Y66.475 E.12144
G1 X63.599 Y66.826 E.01749
G1 X63.599 Y77.322 E.36936
G1 X63.95 Y77.673 E.01749
G1 X68.213 Y77.673 E.15
G1 X68.551 Y77.648 E.01194
G1 X68.585 Y77.673 E.00149
G1 X69.22 Y77.466 E.0235
G1 X69.541 Y77.3 E.01272
G1 X69.732 Y77.174 E.00806
G1 X69.883 Y77.055 E.00674
G1 X70.148 Y76.796 E.01305
G1 X70.369 Y76.509 E.01276
G1 X70.5 Y76.283 E.0092
G1 X70.5 Y84.785 E.29924
G1 X55.214 Y84.785 E.53795
G1 X55.214 Y79.071 E.2011
G1 X51.897 Y79.071 E.11674
G1 X53.295 Y77.673 E.06958
G1 X56.124 Y77.673 E.09954
G1 X56.475 Y77.322 E.01749
G1 X56.475 Y66.826 E.36936
G1 X56.124 Y66.475 E.01749
G1 X54.403 Y66.475 E.06055
G1 X54.403 Y58.675 E.27451
G1 X56.179 Y58.675 E.06251
G1 X56.45 Y58.526 E.01086
G1 X56.737 Y58.072 E.0189
G1 X56.958 Y57.796 E.01246
G1 X57.207 Y57.549 E.01236
G1 X57.489 Y57.325 E.01265
G1 X57.782 Y57.142 E.01216
G1 X58.1 Y56.989 E.01243
G1 X58.432 Y56.873 E.01237
G1 X58.774 Y56.796 E.01234
G1 X59.126 Y56.757 E.01246
G1 X59.478 Y56.757 E.0124
G1 X59.756 Y56.788 E.00982
G1 X61.866 Y58.837 F21000
G1 F3000
G1 X62.32 Y59.086 E.01823
G1 X66.99 Y59.086 E.16434
G1 X66.99 Y66.064 E.24556
G1 X63.78 Y66.064 E.11296
G1 X63.188 Y66.656 E.02949
G1 X63.188 Y77.492 E.38136
G1 X63.78 Y78.084 E.02949
G1 X68.22 Y78.084 E.15627
G1 X68.429 Y78.07 E.00737
G1 X68.507 Y78.127 E.00339
G1 X69.386 Y77.842 E.03253
G1 X69.749 Y77.655 E.01439
G1 X70.088 Y77.419 E.01454
G1 X70.088 Y84.374 E.24477
G1 X55.626 Y84.374 E.50899
G1 X55.626 Y78.66 E.2011
G1 X52.89 Y78.66 E.09627
G1 X53.466 Y78.084 E.02863
G1 X56.294 Y78.084 E.09954
G1 X56.886 Y77.492 E.02949
G1 X56.886 Y66.656 E.38136
G1 X56.294 Y66.064 E.02949
G1 X54.814 Y66.064 E.05207
G1 X54.814 Y59.086 E.24556
G1 X56.285 Y59.086 E.05176
G1 X56.741 Y58.835 E.01831
G1 X57.072 Y58.312 E.0218
G1 X57.265 Y58.072 E.01083
G1 X57.481 Y57.857 E.01076
G1 X57.726 Y57.661 E.01102
G1 X57.98 Y57.503 E.01054
G1 X58.257 Y57.369 E.01082
G1 X58.545 Y57.269 E.01072
G1 X58.842 Y57.202 E.0107
G1 X59.148 Y57.168 E.01085
G1 X59.456 Y57.168 E.01081
G1 X59.756 Y57.201 E.01064
G1 X60.054 Y57.268 E.01074
G1 X60.347 Y57.37 E.01093
G1 X60.623 Y57.503 E.01078
G1 X60.883 Y57.665 E.01076
G1 X61.124 Y57.857 E.01085
G1 X61.336 Y58.066 E.01048
G1 X61.53 Y58.311 E.01099
G1 X61.866 Y58.837 E.02198
G1 X61.508 Y59.22 F21000
G1 F3000
G1 X62.19 Y59.594 E.02739
G1 X66.482 Y59.594 E.15105
G1 X66.482 Y65.556 E.20981
G1 X63.57 Y65.556 E.10249
G1 X62.68 Y66.446 E.04429
G1 X62.68 Y77.702 E.39616
G1 X63.57 Y78.592 E.04429
G1 X68.282 Y78.592 E.16583
G1 X68.41 Y78.687 E.00563
G1 X69.58 Y78.322 E.04315
G1 X69.58 Y83.866 E.19511
G1 X56.134 Y83.866 E.47324
G1 X56.134 Y78.592 E.1856
G1 X56.504 Y78.592 E.01304
G1 X57.394 Y77.702 E.04429
G1 X57.394 Y66.446 E.39616
G1 X56.504 Y65.556 E.04429
G1 X55.322 Y65.556 E.0416
G1 X55.322 Y59.594 E.20981
G1 X56.416 Y59.594 E.03848
G1 X57.1 Y59.217 E.0275
G1 X57.486 Y58.608 E.02539
G1 X57.643 Y58.412 E.00882
G1 X57.82 Y58.236 E.00878
G1 X58.02 Y58.077 E.00901
G1 X58.226 Y57.948 E.00854
G1 X58.452 Y57.839 E.00883
G1 X58.685 Y57.758 E.00869
G1 X58.926 Y57.704 E.00868
G1 X59.176 Y57.676 E.00887
G1 X59.428 Y57.676 E.00885
G1 X59.673 Y57.703 E.00867
G1 X59.915 Y57.757 E.00873
G1 X60.153 Y57.84 E.00888
G1 X60.378 Y57.948 E.00878
G1 X60.589 Y58.08 E.00874
G1 X60.786 Y58.237 E.00888
G1 X60.957 Y58.406 E.00847
G1 X61.116 Y58.606 E.00899
G1 X61.508 Y59.22 E.02563
G1 X61.149 Y59.603 F21000
G1 F3000
G1 X62.06 Y60.102 E.03654
G1 X65.974 Y60.102 E.13775
G1 X65.974 Y65.048 E.17406
G1 X63.359 Y65.048 E.09202
G1 X62.172 Y66.235 E.0591
G1 X62.172 Y77.913 E.41097
G1 X63.359 Y79.1 E.0591
G1 X68.114 Y79.1 E.16733
G1 X68.314 Y79.248 E.00874
G1 X69.073 Y79.016 E.02793
G1 X69.073 Y83.358 E.1528
G1 X56.642 Y83.358 E.43749
G1 X56.642 Y79.173 E.14728
G1 X57.902 Y77.913 E.06274
G1 X57.902 Y66.235 E.41097
G1 X56.715 Y65.048 E.0591
G1 X55.83 Y65.048 E.03113
G1 X55.83 Y60.102 E.17406
G1 X56.546 Y60.102 E.0252
G1 X57.459 Y59.599 E.03669
G1 X57.9 Y58.903 E.02897
G1 X58.158 Y58.616 E.0136
G1 X58.314 Y58.492 E.007
G1 X58.646 Y58.31 E.01336
G1 X59.01 Y58.206 E.0133
G1 X59.204 Y58.184 E.00688
G1 X59.4 Y58.184 E.00689
G1 X59.776 Y58.247 E.01341
G1 X59.959 Y58.31 E.00683
G1 X60.295 Y58.495 E.01348
G1 X60.578 Y58.746 E.01334
G1 X60.702 Y58.902 E.00698
G1 X61.149 Y59.603 E.02928
G1 X60.791 Y59.986 F21000
G1 F3000
G1 X61.93 Y60.61 E.0457
G1 X65.466 Y60.61 E.12445
G1 X65.466 Y64.54 E.13831
G1 X63.149 Y64.54 E.08155
G1 X61.664 Y66.025 E.07391
G1 X61.664 Y78.123 E.42578
G1 X63.149 Y79.608 E.07391
G1 X67.946 Y79.608 E.16884
G1 X68.217 Y79.808 E.01185
G1 X68.565 Y79.702 E.01279
G1 X68.565 Y82.85 E.11078
G1 X57.149 Y82.85 E.40175
G1 X57.149 Y79.384 E.122
G1 X58.41 Y78.123 E.06274
G1 X58.41 Y66.025 E.42578
G1 X56.925 Y64.54 E.07391
G1 X56.338 Y64.54 E.02066
G1 X56.338 Y60.61 E.13831
G1 X56.677 Y60.61 E.01193
G1 X57.819 Y59.981 E.04588
G1 X58.313 Y59.199 E.03256
G1 X58.399 Y59.093 E.00481
G1 X58.496 Y58.996 E.00483
G1 X58.716 Y58.84 E.0095
G1 X58.841 Y58.78 E.00486
G1 X59.094 Y58.707 E.00926
G1 X59.372 Y58.692 E.00981
G1 X59.637 Y58.736 E.00944
G1 X59.765 Y58.78 E.00478
G1 X60.001 Y58.91 E.00946
G1 X60.2 Y59.086 E.00936
G1 X60.288 Y59.197 E.00497
G1 X60.791 Y59.986 E.03294
G1 X60.433 Y60.369 F21000
G1 F3000
G1 X61.8 Y61.118 E.05485
G1 X64.958 Y61.118 E.11116
G1 X64.958 Y64.032 E.10257
G1 X62.939 Y64.032 E.07108
G1 X61.156 Y65.815 E.08872
G1 X61.156 Y78.333 E.44058
G1 X62.939 Y80.116 E.08872
G1 X67.779 Y80.116 E.17035
G1 X68.057 Y80.322 E.01217
G1 X68.057 Y82.342 E.07111
G1 X57.657 Y82.342 E.366
G1 X57.657 Y79.594 E.09673
G1 X58.918 Y78.333 E.06274
G1 X58.918 Y65.815 E.44058
G1 X57.135 Y64.032 E.08872
G1 X56.846 Y64.032 E.01019
G1 X56.846 Y61.097 E.10331
G1 X58.178 Y60.363 E.05354
G1 X58.777 Y59.433 E.03893
G1 X58.962 Y59.285 E.00832
G1 X59.178 Y59.209 E.00806
G1 X59.344 Y59.2 E.00587
G1 X59.498 Y59.225 E.00547
G1 X59.642 Y59.285 E.00549
G1 X59.772 Y59.378 E.00564
G1 X59.874 Y59.492 E.00538
G1 X60.433 Y60.369 E.03659
G1 X60.075 Y60.752 F21000
G1 F3000
G1 X61.67 Y61.626 E.064
G1 X64.45 Y61.626 E.09786
G1 X64.45 Y63.524 E.06682
G1 X62.728 Y63.524 E.06061
G1 X60.648 Y65.604 E.10352
G1 X60.648 Y78.544 E.45539
G1 X62.728 Y80.624 E.10352
G1 X67.549 Y80.624 E.16966
G1 X67.549 Y81.834 E.04261
G1 X58.165 Y81.834 E.33025
M73 P1 R37
G1 X58.165 Y79.804 E.07145
G1 X59.426 Y78.544 E.06274
G1 X59.426 Y65.604 E.45539
G1 X57.354 Y63.532 E.10313
G1 X57.354 Y61.397 E.07515
G1 X58.538 Y60.745 E.04757
G1 X59.301 Y59.538 E.05024
G1 X60.075 Y60.752 E.05065
G1 X60.037 Y78.651 F21000
G1 F3000
G1 X62.713 Y81.327 E.13318
G1 X58.673 Y81.327 E.14218
G1 X58.673 Y80.015 E.04617
G1 X60.037 Y78.651 E.06789
G1 X60.037 Y79.369 F21000
G1 F3000
G1 X61.487 Y80.819 E.07216
G1 X59.181 Y80.819 E.08115
G1 X59.181 Y80.225 E.02089
G1 X60.037 Y79.369 E.04261
G1 X60.037 Y65.497 F21000
G1 F3000
G1 X57.862 Y63.322 E.10828
G1 X57.862 Y61.697 E.05719
G1 X58.897 Y61.127 E.04161
G1 X59.303 Y60.485 E.0267
G1 X59.717 Y61.134 E.02709
G1 X61.54 Y62.134 E.07316
G1 X63.942 Y62.134 E.08456
G1 X63.942 Y63.016 E.03107
G1 X62.518 Y63.016 E.05014
G1 X60.037 Y65.497 E.12348
G1 X60.037 Y64.779 F21000
G1 F3000
G1 X58.369 Y63.112 E.083
G1 X58.369 Y61.997 E.03922
G1 X59.299 Y61.485 E.03737
G1 X61.41 Y62.641 E.08469
G1 X62.175 Y62.641 E.02693
G1 X60.037 Y64.779 E.10639
G1 X60.037 Y64.061 F21000
G1 F3000
G1 X58.877 Y62.901 E.05772
G1 X58.877 Y62.297 E.02126
G1 X59.3 Y62.064 E.01698
G1 X61.066 Y63.032 E.07087
G1 X60.037 Y64.061 E.0512
G1 E-.5
G1 Z.4 F21000
G1 X55.275 Y70.936
G1 X53.554 Y73.421
G1 X52.864 Y74.418
G1 Z.2
G1 E.5 F1800
G1 F3000
G1 X52.951 Y74.484 E.00387
G1 X52.966 Y74.595 E.00392
G1 X52.929 Y74.659 E.00261
G1 X52.825 Y74.702 E.00395
G1 X52.723 Y74.659 E.00388
G1 X52.682 Y74.557 E.00387
G1 X52.723 Y74.455 E.00389
G1 X52.796 Y74.416 E.00288
G1 E-.5
G1 Z.4 F21000
G1 X53.485 Y73.375
G1 X51.314 Y48.486
G1 X55.557 Y48.675
G1 X69.472 Y48.895
G1 X70.5 Y47.643
G1 Z.2
G1 E.5 F1800
G1 F3000
G1 X69.113 Y47.643 E.04882
G1 X68.602 Y47.471 E.01896
G1 X68.56 Y47.501 E.0018
G1 X68.219 Y47.475 E.01206
G1 X55.214 Y47.475 E.45766
G1 X55.214 Y35.215 E.43149
G1 X70.5 Y35.215 E.53795
G1 X70.5 Y47.574 E.43498
G1 X55.626 Y47.064 F21000
G1 F3000
G1 X55.626 Y35.626 E.40253
G1 X70.088 Y35.626 E.50899
G1 X70.088 Y47.232 E.40844
G1 X69.187 Y47.232 E.03171
G1 X68.535 Y47.013 E.02419
G1 X68.443 Y47.079 E.004
G1 X68.226 Y47.064 E.00764
G1 X55.626 Y47.064 E.44346
G1 X56.134 Y46.556 F21000
G1 F3000
G1 X56.134 Y36.134 E.36678
G1 X69.58 Y36.134 E.47324
G1 X69.58 Y46.724 E.37269
G1 X69.274 Y46.724 E.0108
G1 X68.453 Y46.448 E.03047
G1 X68.301 Y46.556 E.00656
G1 X56.134 Y46.556 E.42823
G1 X56.642 Y46.048 F21000
G1 F3000
G1 X56.642 Y36.642 E.33104
G1 X69.073 Y36.642 E.43749
G1 X69.073 Y46.124 E.3337
G1 X68.371 Y45.883 E.02611
G1 X68.139 Y46.048 E.01004
G1 X56.642 Y46.048 E.40463
G1 X57.149 Y45.54 F21000
G1 F3000
G1 X57.149 Y37.15 E.29529
G1 X68.565 Y37.15 E.40175
G1 X68.565 Y45.412 E.29079
G1 X68.289 Y45.317 E.01027
G1 X67.976 Y45.54 E.01351
G1 X57.149 Y45.54 E.38104
G1 X57.657 Y45.032 F21000
G1 F3000
G1 X57.657 Y37.658 E.25954
G1 X68.057 Y37.658 E.366
G1 X68.057 Y44.859 E.25344
G1 X67.814 Y45.033 E.01052
G1 X57.657 Y45.032 E.35744
G1 X58.165 Y44.525 F21000
G1 F3000
G1 X58.165 Y38.166 E.22379
G1 X67.549 Y38.166 E.33025
G1 X67.549 Y44.525 E.2238
G1 X58.165 Y44.525 E.33025
G1 X58.673 Y44.017 F21000
G1 F3000
G1 X58.673 Y38.673 E.18805
G1 X67.041 Y38.673 E.29451
G1 X67.041 Y44.017 E.18805
G1 X58.673 Y44.017 E.29451
G1 X59.181 Y43.509 F21000
G1 F3000
G1 X59.181 Y39.181 E.1523
G1 X66.533 Y39.181 E.25876
G1 X66.533 Y43.509 E.15231
G1 X59.181 Y43.509 E.25876
G1 X59.689 Y43.001 F21000
G1 F3000
G1 X59.689 Y39.689 E.11655
G1 X66.025 Y39.689 E.22301
G1 X66.025 Y43.001 E.11656
G1 X59.689 Y43.001 E.22301
G1 X60.197 Y42.493 F21000
G1 F3000
G1 X60.197 Y40.197 E.08081
G1 X65.518 Y40.197 E.18726
G1 X65.518 Y42.493 E.08081
G1 X60.197 Y42.493 E.18726
G1 X60.705 Y41.985 F21000
G1 F3000
G1 X60.705 Y40.705 E.04506
G1 X65.01 Y40.705 E.15152
G1 X65.01 Y41.985 E.04506
G1 X60.705 Y41.985 E.15152
G1 E-.5
G1 Z.4 F21000
G1 X64.497 Y48.675
G1 X67.978 Y53.863
G1 Z.2
G1 E.5 F1800
;TYPE:Inner wall
G1 F3000
G1 X67.978 Y55.854 E.07006
G1 X63.696 Y55.854 E.1507
G1 X63.274 Y55.438 E.02086
G1 X62.754 Y55.022 E.02342
G1 X62.185 Y54.667 E.02359
G1 X61.583 Y54.377 E.02354
G1 X60.939 Y54.154 E.02397
G1 X60.287 Y54.008 E.02351
G1 X59.633 Y53.936 E.02317
G1 X58.971 Y53.936 E.0233
G1 X58.307 Y54.009 E.02349
G1 X57.654 Y54.156 E.02357
G1 X57.02 Y54.378 E.02365
G1 X56.419 Y54.667 E.02346
G1 X55.858 Y55.017 E.02329
G1 X55.328 Y55.439 E.02383
G1 X54.911 Y55.854 E.0207
G1 X52.022 Y55.854 E.10166
G1 X52.022 Y53.101 E.0969
G1 X52.825 Y53.208 E.0285
G1 X53.594 Y53.105 E.02731
G1 X54.317 Y52.811 E.02745
G1 X54.943 Y52.33 E.0278
G1 X55.414 Y51.715 E.02725
G1 X55.718 Y50.986 E.02781
G1 X55.803 Y50.296 E.02445
G1 X64.721 Y50.297 E.31383
G1 X64.814 Y50.996 E.02485
G1 X65.114 Y51.715 E.0274
G1 X65.585 Y52.33 E.02725
G1 X66.208 Y52.809 E.02764
G1 X66.928 Y53.104 E.02739
G1 X67.699 Y53.208 E.02741
G1 X67.978 Y53.171 E.00988
G1 X67.978 Y53.803 E.02225
G1 E-.5
G1 Z.4 F21000
G1 X58.575 Y55.61
G1 X58.101 Y55.717
G1 X57.64 Y55.878
G1 X53.203 Y57.475
G1 X52.022 Y71.673
G1 Z.2
G1 E.5 F1800
G1 F3000
G1 X52.022 Y69.296 E.08366
G1 X53.654 Y69.296 E.05742
G1 X53.654 Y71.677 E.08379
G1 X52.825 Y71.566 E.02943
G1 X52.082 Y71.666 E.02639
G1 E-.5
G1 Z.4 F21000
G1 X53.203 Y57.475
G1 X57.64 Y55.878
G1 X58.101 Y55.717
G1 X68.435 Y53.119
G1 Z.2
G1 E.5 F1800
G1 F3000
G1 X68.435 Y56.311 E.11234
G1 X63.486 Y56.311 E.17418
G1 X63.405 Y56.209 E.00459
G1 X62.97 Y55.78 E.02149
G1 X62.489 Y55.396 E.02164
G1 X61.965 Y55.068 E.02178
G1 X61.408 Y54.8 E.02174
G1 X60.814 Y54.594 E.02213
G1 X60.212 Y54.459 E.0217
G1 X59.608 Y54.393 E.02139
G1 X58.996 Y54.393 E.02154
G1 X58.383 Y54.46 E.02171
G1 X57.78 Y54.596 E.02175
G1 X57.195 Y54.801 E.02183
G1 X56.64 Y55.068 E.02167
G1 X56.122 Y55.391 E.02148
G1 X55.633 Y55.781 E.02202
G1 X55.119 Y56.311 E.02596
G1 X52.039 Y56.311 E.10841
G1 X52.039 Y68.839 E.44092
G1 X54.111 Y68.839 E.07292
G1 X54.111 Y72.373 E.12435
G1 X53.476 Y72.114 E.02413
G1 X52.825 Y72.027 E.0231
G1 X52.171 Y72.115 E.02323
G1 X51.565 Y72.364 E.02305
G1 X51.565 Y52.41 E.70224
G1 X52.171 Y52.659 E.02305
G1 X52.825 Y52.747 E.02323
G1 X53.476 Y52.66 E.0231
G1 X54.087 Y52.411 E.02323
G1 X54.616 Y52.004 E.0235
G1 X55.015 Y51.484 E.02305
G1 X55.272 Y50.868 E.02351
G1 X55.353 Y50.217 E.02307
G1 X55.306 Y49.839 E.01339
G1 X65.222 Y49.84 E.34897
G1 X65.171 Y50.217 E.0134
