; HEADER_BLOCK_START
; generated by OrcaSlicer 1.6.4-beta2 on 2023-08-16 at 22:38:43
; total layer number: 125
; HEADER_BLOCK_END

; THUMBNAIL_BLOCK_START
; THUMBNAIL_BLOCK_END

; external perimeters extrusion width = 0.40mm
; perimeters extrusion width = 0.46mm
; infill extrusion width = 0.64mm
; solid infill extrusion width = 0.56mm
; top infill extrusion width = 0.40mm
; first layer extrusion width = 0.50mm

; EXECUTABLE_BLOCK_START
EXCLUDE_OBJECT_DEFINE NAME=(Unsaved).stl_id_0_copy_0 CENTER=60,60 POLYGON=[[30.85,54.3],[31.25,53.9],[88.75,53.9],[89.15,54.3],[89.15,62.1],[89.1288,62.5113],[89.1281,62.5181],[89.0654,62.9183],[89.0626,62.9316],[88.9605,63.3166],[88.9542,63.3361],[88.8152,63.7021],[88.8042,63.7269],[88.631,64.0705],[88.6141,64.1],[88.4099,64.418],[88.3861,64.4511],[88.1542,64.741],[88.1226,64.7765],[87.8667,65.0359],[87.8265,65.0726],[87.5504,65.2997],[87.5011,65.3361],[87.487,65.3463],[87.4241,65.3907],[87.3025,65.4715],[87.1902,65.5406],[87.15,65.5641],[87.0855,65.6005],[86.9836,65.6549],[86.8864,65.7035],[86.7962,65.7456],[86.7769,65.7542],[86.7151,65.7811],[86.3861,65.9042],[86.3379,65.9195],[85.9816,66.0126],[85.9487,66.0195],[85.5681,66.0781],[85.5514,66.0798],[85.15,66.1],[34.85,66.1],[34.4319,66.0781],[34.0184,66.0126],[33.6139,65.9042],[33.2231,65.7542],[32.85,65.5641],[32.4989,65.3361],[32.1735,65.0726],[31.8774,64.7765],[31.6139,64.4511],[31.3859,64.1],[31.1958,63.7269],[31.0458,63.3361],[30.9374,62.9316],[30.8719,62.5181],[30.85,62.1],[30.85,54.3]]
M73 P0 R21
;TYPE:Custom
START_PRINT T_BED=105 T_EXTRUDER=260
G90
G21
M83 ; use relative distances for extrusion
; Filament gcode
M106 S0
;LAYER_CHANGE
;Z:0.2
;HEIGHT:0.2
;BEFORE_LAYER_CHANGE
;0.2
G92 E0

;AFTER_LAYER_CHANGE
;0.2
SET_VELOCITY_LIMIT ACCEL=1000 ACCEL_TO_DECEL=500
G1 E-.8 F1800
G1 Z.2 F21000
G1 X28.889 Y52.139
G1 E.8 F1800
;TYPE:Skirt
;WIDTH:0.5
G1 F3000
G1 X30.95 Y51.286 E.07884
G1 X89.05 Y51.286 E2.0536
G1 X91.111 Y52.139 E.07884
G1 X91.211 Y52.239 E.005
G1 X92.064 Y54.3 E.07884
G1 X92.06 Y62.258 E.28129
G1 X91.941 Y63.387 E.04013
G1 X91.769 Y64.09 E.02556
G1 X91.519 Y64.783 E.02605
G1 X91.059 Y65.686 E.03583
G1 X90.388 Y66.609 E.04033
G1 X89.879 Y67.141 E.02603
G1 X89.089 Y67.78 E.03592
G1 X88.102 Y68.35 E.04026
G1 X87.429 Y68.625 E.02572
G1 X86.436 Y68.891 E.03632
G1 X85.15 Y69.014 E.04567
G1 X34.279 Y68.988 E1.79807
G1 X33.264 Y68.827 E.03633
G1 X31.9 Y68.351 E.05107
G1 X30.912 Y67.78 E.04034
G1 X30.113 Y67.133 E.03633
G1 X29.349 Y66.285 E.04034
G1 X28.789 Y65.423 E.03633
G1 X28.325 Y64.38 E.04034
G1 X28.059 Y63.388 E.03633
G1 X27.936 Y62.1 E.04572
G1 X27.936 Y54.3 E.2757
G1 X28.789 Y52.239 E.07884
G1 X28.861 Y52.168 E.00358
G1 X29.184 Y52.491 F21000
G1 F3000
G1 X29.213 Y52.463 E.00141
G1 X30.95 Y51.743 E.06647
G1 X89.05 Y51.743 E2.0536
G1 X90.787 Y52.463 E.06647
G1 X90.887 Y52.563 E.005
G1 X91.607 Y54.3 E.06647
G1 X91.603 Y62.233 E.28041
G1 X91.489 Y63.316 E.03847
G1 X91.328 Y63.971 E.02387
G1 X90.675 Y65.437 E.05671
G1 X90.033 Y66.322 E.03864
G1 X89.556 Y66.817 E.02431
G1 X88.84 Y67.397 E.03257
G1 X87.894 Y67.942 E.03858
G1 X86.365 Y68.44 E.05685
G1 X85.15 Y68.557 E.04314
G1 X34.303 Y68.532 E1.79722
G1 X33.382 Y68.386 E.03296
G1 X32.343 Y68.048 E.03865
G1 X31.512 Y67.625 E.03296
G1 X30.436 Y66.81 E.0477
G1 X29.704 Y65.997 E.03865
G1 X29.197 Y65.215 E.03296
G1 X28.752 Y64.217 E.03865
G1 X28.511 Y63.316 E.03295
G1 X28.393 Y62.1 E.04318
G1 X28.393 Y54.3 E.2757
G1 X29.113 Y52.563 E.06647
G1 X29.156 Y52.519 E.00217
; printing object (Unsaved).stl id:0 copy 0
EXCLUDE_OBJECT_START NAME=(Unsaved).stl_id_0_copy_0
G1 E-.8 F1800
G1 Z.4 F21000
G1 X73.382 Y63.017
G1 Z.2
G1 E.8 F1800
;TYPE:Outer wall
G1 F3000
G1 X71.04 Y59.672 E.14434
G1 X76.952 Y55.535 E.25505
G1 X77.809 Y54.992 E.03587
G1 X78.155 Y54.87 E.01296
G1 X78.605 Y55.364 E.02364
G1 X78.913 Y55.758 E.01766
G1 X80.509 Y58.027 E.09804
G1 X73.415 Y62.994 E.30611
G1 E-.8 F1800
G1 Z.4 F21000
G1 X71.701 Y63.879
G1 Z.2
G1 E.8 F1800
;TYPE:Inner wall
G1 F3000
G1 X37.616 Y63.879 E1.20476
G1 X37.554 Y63.691 E.00699
G1 X37.997 Y63.359 E.01959
G1 X38.461 Y62.895 E.02317
G1 X38.854 Y62.368 E.02327
G1 X39.163 Y61.801 E.0228
G1 X39.392 Y61.189 E.02308
G1 X39.53 Y60.551 E.02308
G1 X39.577 Y59.9 E.02308
G1 X39.53 Y59.249 E.02308
G1 X39.392 Y58.611 E.02308
G1 X39.162 Y57.996 E.02317
G1 X38.846 Y57.419 E.02327
G1 X38.459 Y56.903 E.0228
G1 X37.977 Y56.421 E.02407
G1 X72.087 Y56.421 E1.20563
G1 X72.147 Y56.613 E.00711
G1 X68.433 Y59.212 E.16024
G1 X71.678 Y63.846 E.19996
G1 E-.8 F1800
G1 Z.4 F21000
G1 X72.579 Y64.336
G1 Z.2
G1 E.8 F1800
G1 F3000
G1 X34.896 Y64.336 E1.33193
G1 X34.617 Y64.321 E.0099
G1 X34.386 Y64.285 E.00826
G1 X34.16 Y64.224 E.00826
G1 X33.899 Y64.124 E.00986
G1 X33.972 Y63.881 E.00898
G1 X34.414 Y63.977 E.01598
G1 X35 Y64.019 E.02077
G1 X35.586 Y63.977 E.02077
G1 X36.16 Y63.852 E.02077
G1 X36.711 Y63.646 E.02077
G1 X37.227 Y63.365 E.02077
G1 X37.697 Y63.013 E.02077
G1 X38.114 Y62.596 E.02084
G1 X38.468 Y62.12 E.02096
G1 X38.746 Y61.611 E.02051
G1 X38.952 Y61.06 E.02077
G1 X39.077 Y60.486 E.02077
G1 X39.119 Y59.9 E.02077
G1 X39.077 Y59.314 E.02077
G1 X38.952 Y58.74 E.02077
G1 X38.746 Y58.187 E.02084
G1 X38.46 Y57.667 E.02096
G1 X38.113 Y57.203 E.02051
G1 X37.696 Y56.786 E.02084
G1 X37.22 Y56.432 E.02096
G1 X36.742 Y56.171 E.01925
G1 X36.795 Y55.964 E.00753
G1 X73.538 Y55.964 E1.29871
G1 X73.598 Y56.156 E.00711
G1 X69.07 Y59.324 E.19535
G1 X72.556 Y64.303 E.21484
G1 E-.8 F1800
G1 Z.4 F21000
G1 X82.448 Y63.691
M73 P1 R21
G1 Z.2
G1 E.8 F1800
G1 F3000
G1 X82.385 Y63.879 E.007
G1 X75.748 Y63.879 E.23461
G1 X75.687 Y63.687 E.00711
G1 X80.429 Y60.366 E.20462
G1 X80.608 Y61.189 E.02977
G1 X80.837 Y61.801 E.02308
G1 X81.15 Y62.374 E.02308
G1 X81.541 Y62.897 E.02308
G1 X82.005 Y63.361 E.02317
G1 X82.415 Y63.667 E.01811
G1 E-.8 F1800
G1 Z.4 F21000
G1 X83.928 Y63.871
G1 Z.2
G1 E.8 F1800
G1 F3000
G1 X84.414 Y63.977 E.01759
G1 X85 Y64.019 E.02077
G1 X85.586 Y63.977 E.02077
G1 X86.028 Y63.881 E.01597
G1 X86.1 Y64.124 E.00898
G1 X85.839 Y64.224 E.00988
G1 X85.614 Y64.285 E.00825
G1 X85.383 Y64.321 E.00825
G1 X85.104 Y64.336 E.00989
G1 X74.298 Y64.336 E.38194
G1 X74.238 Y64.144 E.00711
G1 X80.912 Y59.471 E.288
G1 X80.881 Y59.9 E.01522
G1 X80.923 Y60.486 E.02077
G1 X81.048 Y61.06 E.02077
G1 X81.254 Y61.611 E.02077
G1 X81.535 Y62.127 E.02077
G1 X81.887 Y62.597 E.02077
G1 X82.304 Y63.014 E.02084
G1 X82.78 Y63.368 E.02096
G1 X83.289 Y63.646 E.02051
G1 X83.84 Y63.852 E.02077
G1 X83.888 Y63.862 E.00176
G1 E-.8 F1800
G1 Z.4 F21000
G1 X73.299 Y63.484
G1 X33.258 Y56.171
G1 Z.2
G1 E.8 F1800
G1 F3000
G1 X32.614 Y56.522 E.02592
G1 X32.614 Y55.964 E.01972
G1 X33.205 Y55.964 E.02089
G1 X33.248 Y56.132 E.00612
G1 E-.8 F1800
G1 Z.4 F21000
G1 X73.147 Y64.35
G1 Z.2
G1 E.8 F1800
G1 F3000
G1 X81.391 Y58.577 E.35572
G1 X81.55 Y58.701 E.00714
G1 X81.488 Y58.869 E.00633
G1 X81.377 Y59.379 E.01846
G1 X81.34 Y59.9 E.01846
G1 X81.377 Y60.421 E.01846
G1 X81.488 Y60.931 E.01846
G1 X81.67 Y61.421 E.01846
G1 X81.921 Y61.879 E.01846
G1 X82.234 Y62.297 E.01846
G1 X82.604 Y62.667 E.01851
G1 X83.027 Y62.983 E.01865
G1 X83.479 Y63.23 E.01822
G1 X83.969 Y63.412 E.01846
G1 X84.479 Y63.523 E.01846
G1 X85 Y63.56 E.01846
G1 X85.521 Y63.523 E.01846
G1 X86.031 Y63.412 E.01846
G1 X86.521 Y63.23 E.01846
G1 X86.979 Y62.979 E.01846
G1 X87.397 Y62.666 E.01846
G1 X87.626 Y62.438 E.01142
G1 X87.803 Y62.528 E.00704
G1 X87.71 Y62.93 E.01458
G1 X87.605 Y63.201 E.01024
G1 X87.481 Y63.445 E.0097
G1 X87.327 Y63.681 E.00996
G1 X87.151 Y63.899 E.00991
G1 X86.946 Y64.104 E.01023
G1 X86.732 Y64.277 E.00976
G1 X86.498 Y64.429 E.00984
G1 X86.245 Y64.558 E.01006
G1 X85.981 Y64.66 E.01
G1 X85.709 Y64.732 E.00994
G1 X85.431 Y64.776 E.00995
G1 X85.116 Y64.793 E.01116
G1 X34.884 Y64.793 E1.77548
G1 X34.569 Y64.776 E.01117
G1 X34.29 Y64.732 E.00996
G1 X34.018 Y64.659 E.00996
G1 X33.755 Y64.558 E.00996
G1 X33.504 Y64.431 E.00996
G1 X33.268 Y64.277 E.00996
G1 X33.049 Y64.1 E.00996
G1 X32.85 Y63.901 E.00996
G1 X32.673 Y63.682 E.00996
G1 X32.519 Y63.446 E.00996
G1 X32.392 Y63.195 E.00996
G1 X32.291 Y62.932 E.00996
G1 X32.218 Y62.66 E.00996
G1 X32.197 Y62.528 E.0047
G1 X32.374 Y62.438 E.00704
G1 X32.604 Y62.667 E.01147
G1 X33.027 Y62.983 E.01865
G1 X33.479 Y63.23 E.01822
G1 X33.969 Y63.412 E.01846
G1 X34.479 Y63.523 E.01846
G1 X35 Y63.56 E.01846
G1 X35.521 Y63.523 E.01846
G1 X36.031 Y63.412 E.01846
G1 X36.521 Y63.23 E.01846
G1 X36.979 Y62.979 E.01846
G1 X37.397 Y62.666 E.01846
G1 X37.767 Y62.296 E.01851
G1 X38.083 Y61.873 E.01865
G1 X38.33 Y61.421 E.01822
G1 X38.512 Y60.931 E.01846
G1 X38.623 Y60.421 E.01846
G1 X38.66 Y59.9 E.01846
G1 X38.623 Y59.379 E.01846
G1 X38.512 Y58.869 E.01846
G1 X38.329 Y58.378 E.01851
G1 X38.075 Y57.916 E.01865
G1 X37.766 Y57.503 E.01822
G1 X37.396 Y57.133 E.01851
G1 X36.973 Y56.817 E.01865
G1 X36.521 Y56.57 E.01822
G1 X36.031 Y56.388 E.01846
G1 X35.519 Y56.277 E.01851
G1 X34.993 Y56.24 E.01865
G1 X34.479 Y56.277 E.01822
G1 X33.969 Y56.388 E.01846
G1 X33.479 Y56.57 E.01846
G1 X33.021 Y56.821 E.01846
G1 X32.603 Y57.134 E.01846
G1 X32.157 Y57.579 E.02229
G1 X32.157 Y55.507 E.07325
G1 X74.988 Y55.507 E1.51391
G1 X75.049 Y55.699 E.00711
G1 X69.706 Y59.437 E.23046
G1 X73.124 Y64.317 E.21059
G1 E-.8 F1800
G1 Z.4 F21000
G1 X81.769 Y57.361
G1 Z.2
G1 E.8 F1800
G1 F3000
G1 X80.786 Y55.963 E.06039
G1 X83.207 Y55.963 E.08555
G1 X83.259 Y56.17 E.00753
G1 X82.773 Y56.435 E.01958
G1 X82.303 Y56.787 E.02077
G1 X81.887 Y57.203 E.02077
G1 X81.793 Y57.328 E.00555
G1 E-.8 F1800
G1 Z.4 F21000
G1 X87.386 Y56.522
G1 Z.2
G1 E.8 F1800
G1 F3000
G1 X86.742 Y56.17 E.02595
G1 X86.794 Y55.964 E.00753
G1 X87.386 Y55.964 E.02091
G1 X87.386 Y56.482 E.01831
G1 E-.8 F1800
G1 Z.4 F21000
G1 X81.783 Y58.174
G1 Z.2
G1 E.8 F1800
G1 F3000
G1 X79.906 Y55.506 E.1153
G1 X87.843 Y55.507 E.28053
G1 X87.843 Y57.58 E.07326
G1 X87.396 Y57.133 E.02234
G1 X86.973 Y56.817 E.01865
G1 X86.521 Y56.57 E.01822
G1 X86.031 Y56.388 E.01846
G1 X85.519 Y56.277 E.01851
G1 X84.993 Y56.24 E.01865
G1 X84.479 Y56.277 E.01822
G1 X83.969 Y56.388 E.01846
G1 X83.479 Y56.57 E.01846
G1 X83.021 Y56.821 E.01846
G1 X82.603 Y57.134 E.01846
G1 X82.234 Y57.503 E.01846
G1 X81.921 Y57.921 E.01846
G1 X81.802 Y58.139 E.00877
G1 E-.8 F1800
G1 Z.4 F21000
G1 X79.862 Y56.536
G1 X78.08 Y55.169
G1 X31.7 Y55.05
G1 Z.2
G1 E.8 F1800
G1 F3000
G1 X76.442 Y55.045 E1.58144
G1 X76.504 Y55.238 E.00716
G1 X70.343 Y59.549 E.26578
G1 X73.259 Y63.713 E.17969
G1 X81.206 Y58.149 E.34291
G1 X79.315 Y55.459 E.11621
G1 X78.974 Y55.024 E.01954
G1 X79.6 Y55.049 E.02217
G1 X88.3 Y55.05 E.3075
G1 X88.3 Y58.962 E.13829
G1 X88.074 Y59.003 E.0081
G1 X87.912 Y58.569 E.01638
G1 X87.69 Y58.164 E.01634
G1 X87.42 Y57.803 E.01592
G1 X87.096 Y57.479 E.01618
G1 X86.726 Y57.203 E.01634
G1 X86.33 Y56.987 E.01592
G1 X85.902 Y56.828 E.01615
G1 X85.455 Y56.73 E.01618
G1 X84.994 Y56.698 E.01634
G1 X84.544 Y56.73 E.01592
G1 X84.098 Y56.828 E.01615
G1 X83.67 Y56.987 E.01615
G1 X83.269 Y57.206 E.01615
G1 X82.903 Y57.48 E.01615
G1 X82.58 Y57.803 E.01615
G1 X82.306 Y58.169 E.01615
G1 X82.087 Y58.57 E.01615
G1 X81.928 Y58.998 E.01615
G1 X81.83 Y59.444 E.01615
G1 X81.798 Y59.9 E.01615
G1 X81.83 Y60.356 E.01615
G1 X81.928 Y60.802 E.01615
G1 X82.087 Y61.23 E.01615
G1 X82.306 Y61.631 E.01615
G1 X82.58 Y61.997 E.01615
G1 X82.904 Y62.321 E.01618
G1 X83.274 Y62.597 E.01634
G1 X83.67 Y62.813 E.01592
G1 X84.098 Y62.972 E.01615
G1 X84.544 Y63.07 E.01615
G1 X85 Y63.102 E.01615
G1 X85.456 Y63.07 E.01615
G1 X85.902 Y62.972 E.01615
G1 X86.33 Y62.813 E.01615
G1 X86.731 Y62.594 E.01615
G1 X87.097 Y62.32 E.01615
G1 X87.421 Y61.996 E.01618
G1 X87.697 Y61.626 E.01634
G1 X87.913 Y61.23 E.01592
G1 X88.074 Y60.797 E.01635
G1 X88.3 Y60.838 E.0081
G1 X88.3 Y62.077 E.04381
G1 X88.28 Y62.436 E.01272
G1 X88.23 Y62.754 E.01139
G1 X88.145 Y63.072 E.01162
G1 X88.023 Y63.387 E.01194
G1 X87.877 Y63.674 E.01138
G1 X87.698 Y63.95 E.01165
G1 X87.491 Y64.206 E.01162
G1 X87.252 Y64.444 E.01193
G1 X87.001 Y64.648 E.01144
G1 X86.727 Y64.825 E.01152
G1 X86.431 Y64.976 E.01176
G1 X86.122 Y65.095 E.0117
G1 X85.804 Y65.18 E.01163
G1 X85.479 Y65.232 E.01164
G1 X85.128 Y65.25 E.01242
G1 X34.872 Y65.25 E1.77633
G1 X34.521 Y65.232 E.01244
G1 X34.195 Y65.18 E.01165
G1 X33.877 Y65.095 E.01165
G1 X33.569 Y64.977 E.01165
G1 X33.276 Y64.827 E.01165
G1 X32.999 Y64.647 E.01165
G1 X32.743 Y64.44 E.01165
G1 X32.51 Y64.207 E.01165
G1 X32.303 Y63.951 E.01165
G1 X32.123 Y63.674 E.01165
G1 X31.973 Y63.381 E.01165
G1 X31.855 Y63.073 E.01165
G1 X31.77 Y62.755 E.01165
G1 X31.718 Y62.429 E.01165
G1 X31.7 Y62.078 E.01244
G1 X31.7 Y60.838 E.04384
G1 X31.926 Y60.797 E.0081
G1 X32.087 Y61.23 E.01635
G1 X32.306 Y61.631 E.01615
G1 X32.58 Y61.997 E.01615
G1 X32.904 Y62.321 E.01618
G1 X33.274 Y62.597 E.01634
G1 X33.67 Y62.813 E.01592
G1 X34.098 Y62.972 E.01615
G1 X34.544 Y63.07 E.01615
G1 X35 Y63.102 E.01615
G1 X35.456 Y63.07 E.01615
G1 X35.902 Y62.972 E.01615
G1 X36.33 Y62.813 E.01615
G1 X36.731 Y62.594 E.01615
G1 X37.097 Y62.32 E.01615
G1 X37.421 Y61.996 E.01618
G1 X37.697 Y61.626 E.01634
G1 X37.913 Y61.23 E.01592
G1 X38.072 Y60.802 E.01615
G1 X38.17 Y60.356 E.01615
G1 X38.202 Y59.9 E.01615
G1 X38.17 Y59.444 E.01615
G1 X38.072 Y58.998 E.01615
G1 X37.912 Y58.569 E.01618
G1 X37.69 Y58.164 E.01634
G1 X37.42 Y57.803 E.01592
G1 X37.096 Y57.479 E.01618
G1 X36.726 Y57.203 E.01634
G1 X36.33 Y56.987 E.01592
G1 X35.902 Y56.828 E.01615
G1 X35.455 Y56.73 E.01618
G1 X34.994 Y56.698 E.01634
G1 X34.544 Y56.73 E.01592
G1 X34.098 Y56.828 E.01615
G1 X33.67 Y56.987 E.01615
G1 X33.269 Y57.206 E.01615
G1 X32.903 Y57.48 E.01615
G1 X32.58 Y57.803 E.01615
G1 X32.306 Y58.169 E.01615
G1 X32.087 Y58.57 E.01615
G1 X31.926 Y59.003 E.01635
G1 X31.7 Y58.962 E.0081
G1 X31.7 Y55.09 E.13688
G1 E-.8 F1800
G1 Z.4 F21000
G1 X73.299 Y63.484
M73 P2 R21
G1 X84.182 Y62.823
G1 X84.253 Y62.495
G1 Z.2
M73 P2 R20
G1 E.8 F1800
;TYPE:Outer wall
G1 F3000
G1 X84.239 Y62.491 E.0005
G1 X83.878 Y62.357 E.01362
G1 X83.545 Y62.175 E.01342
G1 X83.232 Y61.941 E.01381
G1 X82.959 Y61.669 E.01363
G1 X82.728 Y61.36 E.01362
G1 X82.543 Y61.022 E.01362
G1 X82.409 Y60.661 E.01362
G1 X82.327 Y60.284 E.01362
G1 X82.299 Y59.9 E.01362
G1 X82.327 Y59.516 E.01362
G1 X82.409 Y59.139 E.01362
G1 X82.543 Y58.778 E.01362
G1 X82.728 Y58.44 E.01362
G1 X82.959 Y58.131 E.01362
G1 X83.231 Y57.859 E.01362
G1 X83.54 Y57.628 E.01362
G1 X83.878 Y57.443 E.01362
G1 X84.239 Y57.309 E.01362
G1 X84.616 Y57.227 E.01362
G1 X84.994 Y57.2 E.01342
G1 X85.384 Y57.227 E.01381
G1 X85.761 Y57.309 E.01363
G1 X86.122 Y57.443 E.01362
G1 X86.455 Y57.625 E.01342
G1 X86.768 Y57.859 E.01381
G1 X87.041 Y58.131 E.01363
G1 X87.269 Y58.435 E.01342
G1 X87.457 Y58.778 E.01381
G1 X87.591 Y59.139 E.01363
G1 X87.673 Y59.516 E.01362
G1 X87.701 Y59.9 E.01362
G1 X87.673 Y60.284 E.01362
G1 X87.591 Y60.661 E.01362
G1 X87.457 Y61.022 E.01362
G1 X87.275 Y61.355 E.01342
G1 X87.041 Y61.668 E.01381
G1 X86.769 Y61.941 E.01364
G1 X86.46 Y62.172 E.01362
G1 X86.122 Y62.357 E.01362
G1 X85.761 Y62.491 E.01362
G1 X85.384 Y62.573 E.01362
G1 X85 Y62.601 E.01362
G1 X84.616 Y62.573 E.01362
G1 X84.292 Y62.503 E.0117
G1 E-.8 F1800
G1 Z.4 F21000
G1 X84.221 Y62.831
G1 X73.299 Y63.484
G1 X37.923 Y60.715
G1 X37.595 Y60.643
G1 Z.2
G1 E.8 F1800
G1 F3000
G1 X37.591 Y60.661 E.00063
G1 X37.457 Y61.022 E.01362
G1 X37.275 Y61.355 E.01342
G1 X37.041 Y61.668 E.01381
G1 X36.769 Y61.941 E.01364
G1 X36.46 Y62.172 E.01362
G1 X36.122 Y62.357 E.01362
G1 X35.761 Y62.491 E.01362
G1 X35.384 Y62.573 E.01362
G1 X35 Y62.601 E.01362
G1 X34.616 Y62.573 E.01362
G1 X34.239 Y62.491 E.01362
G1 X33.878 Y62.357 E.01362
G1 X33.545 Y62.175 E.01342
G1 X33.232 Y61.941 E.01381
G1 X32.959 Y61.669 E.01363
G1 X32.728 Y61.36 E.01362
G1 X32.543 Y61.022 E.01362
G1 X32.409 Y60.661 E.01362
G1 X32.327 Y60.284 E.01362
G1 X32.299 Y59.9 E.01362
G1 X32.327 Y59.516 E.01362
G1 X32.409 Y59.139 E.01362
G1 X32.543 Y58.778 E.01362
G1 X32.728 Y58.44 E.01362
G1 X32.959 Y58.131 E.01362
G1 X33.231 Y57.859 E.01362
G1 X33.54 Y57.628 E.01362
G1 X33.878 Y57.443 E.01362
G1 X34.239 Y57.309 E.01362
G1 X34.616 Y57.227 E.01362
G1 X34.994 Y57.2 E.01342
G1 X35.384 Y57.227 E.01381
G1 X35.761 Y57.309 E.01363
