; HEADER_BLOCK_START
; generated by OrcaSlicer 1.7.0-beta on 2023-09-29 at 22:16:19
; total layer number: 50
; HEADER_BLOCK_END

; THUMBNAIL_BLOCK_START
; THUMBNAIL_BLOCK_END

; external perimeters extrusion width = 0.40mm
; perimeters extrusion width = 0.46mm
; infill extrusion width = 0.64mm
; solid infill extrusion width = 0.56mm
; top infill extrusion width = 0.40mm
; first layer extrusion width = 0.50mm

; EXECUTABLE_BLOCK_START
EXCLUDE_OBJECT_DEFINE NAME=Unsaved_.stl_id_0_copy_0 CENTER=60,60 POLYGON=[[33.8134,60],[33.8602,58.4336],[34.0007,56.8728],[34.2343,55.3231],[34.5601,53.7903],[34.977,52.2796],[35.4835,50.7966],[36.0778,49.3466],[36.7578,47.9346],[37.5209,46.5659],[38.3646,45.2452],[39.2857,43.9774],[40.281,42.7669],[41.347,41.6182],[42.4797,40.5352],[43.6751,39.5219],[44.929,38.5819],[46.2369,37.7186],[47.5941,36.935],[48.9957,36.234],[50.4367,35.6181],[51.9119,35.0895],[53.4162,34.65],[54.944,34.3013],[56.49,34.0445],[58.0485,33.8807],[59.614,33.8104],[61.181,33.8339],[62.7437,33.951],[64.2967,34.1613],[65.8342,34.4642],[67.351,34.8585],[68.8414,35.3427],[70.3002,35.9153],[71.7221,36.574],[73.1021,37.3166],[74.4352,38.1404],[75.7167,39.0425],[76.9419,40.0196],[78.1065,41.0682],[79.2063,42.1846],[80.2374,43.3647],[81.196,44.6044],[82.0788,45.8993],[82.8826,47.2445],[83.6045,48.6355],[84.2419,50.0671],[84.7925,51.5343],[85.2545,53.0318],[85.626,54.5543],[85.9058,56.0962],[86.0929,57.6521],[86.1866,59.2164],[86.1866,60.7836],[86.0929,62.3479],[85.9058,63.9038],[85.626,65.4457],[85.2545,66.9682],[84.7925,68.4657],[84.2419,69.9329],[83.6045,71.3645],[82.8826,72.7555],[82.0788,74.1007],[81.196,75.3956],[80.2374,76.6353],[79.2063,77.8154],[78.1065,78.9318],[76.9419,79.9804],[75.7167,80.9575],[74.4352,81.8596],[73.1021,82.6834],[71.7221,83.426],[70.3002,84.0847],[68.8414,84.6573],[67.351,85.1415],[65.8342,85.5358],[64.2967,85.8387],[62.7437,86.049],[61.181,86.1661],[59.614,86.1896],[58.0485,86.1193],[56.49,85.9555],[54.944,85.6987],[53.4162,85.35],[51.9119,84.9105],[50.4367,84.3819],[48.9957,83.766],[47.5941,83.065],[46.2369,82.2814],[44.929,81.4181],[43.6751,80.4781],[42.4797,79.4648],[41.347,78.3818],[40.281,77.2331],[39.2857,76.0226],[38.3646,74.7548],[37.5209,73.4341],[36.7578,72.0654],[36.0778,70.6534],[35.4835,69.2034],[34.977,67.7204],[34.5601,66.2097],[34.2343,64.6769],[34.0007,63.1272],[33.8602,61.5664],[33.8134,60]]
M73 P0 R29
;TYPE:Custom
START_PRINT T_BED=110 T_EXTRUDER=260
G90
G21
M83 ; use relative distances for extrusion
; Filament gcode

    PRESSURE_ADVANCE_SELECT FILAMENT=ABS
M106 S0
;LAYER_CHANGE
;Z:0.2
;HEIGHT:0.2
;BEFORE_LAYER_CHANGE
;0.2
G92 E0

;AFTER_LAYER_CHANGE
;0.2
;_SET_FAN_SPEED_CHANGING_LAYER
SET_VELOCITY_LIMIT ACCEL=1000 ACCEL_TO_DECEL=500
SET_VELOCITY_LIMIT SQUARE_CORNER_VELOCITY=9
G1 E-.5 F3000
G1 Z.2 F21000
G1 X39.748 Y39.158
G1 Z.2
G1 E.5 F1800
;TYPE:Skirt
;WIDTH:0.5
G1 F3000
G1 X40.466 Y38.429 E.036
G1 X41.791 Y37.299 E.06129
G1 X43.181 Y36.25 E.06129
G1 X44.78 Y35.195 E.06742
G1 X47.692 Y33.628 E.11639
G1 X49.455 Y32.874 E.06748
G1 X51.11 Y32.288 E.06178
G1 X52.768 Y31.809 E.06074
G1 X56.013 Y31.17 E.11639
G1 X57.919 Y30.969 E.06748
G1 X61.225 Y30.92 E.11633
G1 X63.135 Y31.063 E.06742
G1 X66.397 Y31.605 E.11639
G1 X68.251 Y32.087 E.06742
G1 X69.906 Y32.63 E.06129
G1 X71.525 Y33.271 E.06129
G1 X73.103 Y34.008 E.06129
G1 X74.634 Y34.838 E.06129
G1 X77.394 Y36.66 E.11639
G1 X78.904 Y37.864 E.06797
G1 X81.282 Y40.139 E.11584
G1 X82.543 Y41.582 E.06742
G1 X84.496 Y44.273 E.117
G1 X85.384 Y45.75 E.06068
G1 X86.191 Y47.293 E.06129
G1 X86.97 Y49.043 E.06742
G1 X88.039 Y52.173 E.11639
G1 X88.457 Y53.863 E.06129
G1 X88.773 Y55.576 E.06129
G1 X89.002 Y57.478 E.06742
G1 X89.101 Y60.784 E.11639
G1 X89.002 Y62.522 E.06129
G1 X88.799 Y64.252 E.06129
G1 X88.457 Y66.137 E.06742
G1 X87.577 Y69.325 E.11639
G1 X86.898 Y71.132 E.06797
G1 X86.191 Y72.707 E.06074
G1 X85.384 Y74.25 E.06129
G1 X83.604 Y77.037 E.11639
G1 X82.422 Y78.564 E.06797
G1 X80.183 Y80.977 E.11584
G1 X78.747 Y82.269 E.06797
G1 X77.394 Y83.34 E.06074
G1 X75.967 Y84.339 E.06129
G1 X73.103 Y85.992 E.11639
G1 X71.365 Y86.797 E.06742
G1 X68.251 Y87.913 E.11639
G1 X66.567 Y88.356 E.06129
G1 X64.86 Y88.698 E.06129
G1 X62.946 Y88.956 E.06797
G1 X61.225 Y89.08 E.06074
G1 X59.483 Y89.101 E.06129
G1 X56.185 Y88.854 E.11639
G1 X54.467 Y88.574 E.06129
G1 X52.768 Y88.191 E.06129
G1 X50.914 Y87.649 E.06797
G1 X47.85 Y86.446 E.11584
G1 X46.137 Y85.589 E.06742
G1 X44.631 Y84.714 E.06129
G1 X43.181 Y83.75 E.06129
G1 X40.595 Y81.688 E.11639
G1 X39.211 Y80.364 E.06742
G1 X37.035 Y77.873 E.11639
G1 X35.908 Y76.322 E.06748
G1 X34.968 Y74.84 E.06178
G1 X34.132 Y73.33 E.06074
G1 X32.787 Y70.308 E.11639
G1 X32.168 Y68.496 E.06742
G1 X31.71 Y66.816 E.06129
G1 X31.353 Y65.111 E.06129
G1 X30.958 Y61.828 E.11639
G1 X30.901 Y59.911 E.06748
G1 X30.959 Y58.157 E.06178
G1 X31.119 Y56.438 E.06074
G1 X31.71 Y53.184 E.11639
G1 X32.22 Y51.336 E.06748
G1 X32.793 Y49.677 E.06178
G1 X33.452 Y48.082 E.06074
G1 X34.213 Y46.515 E.06129
G1 X35.065 Y44.997 E.06129
G1 X36.928 Y42.265 E.11639
G1 X38.145 Y40.785 E.06742
G1 X39.72 Y39.186 E.07898
G1 X40.045 Y39.507 F21000
G1 F3000
G1 X40.782 Y38.759 E.03693
G1 X42.086 Y37.648 E.06032
G1 X43.455 Y36.616 E.06032
G1 X45.008 Y35.591 E.0655
G1 X47.897 Y34.036 E.11543
G1 X49.609 Y33.305 E.06555
G1 X51.238 Y32.727 E.06082
G1 X52.869 Y32.255 E.05977
G1 X56.087 Y31.621 E.11543
G1 X57.94 Y31.426 E.06555
G1 X61.218 Y31.377 E.11538
G1 X62.927 Y31.501 E.06032
G1 X64.626 Y31.727 E.06032
G1 X66.452 Y32.086 E.0655
G1 X69.601 Y33.006 E.11543
G1 X71.333 Y33.686 E.0655
G1 X74.266 Y35.153 E.11543
G1 X75.727 Y36.05 E.06033
G1 X77.131 Y37.033 E.06032
G1 X78.598 Y38.204 E.06605
G1 X80.957 Y40.46 E.11488
G1 X82.181 Y41.862 E.0655
G1 X84.118 Y44.53 E.11603
G1 X84.992 Y45.984 E.05972
G1 X85.785 Y47.504 E.06032
G1 X86.542 Y49.204 E.0655
G1 X87.14 Y50.81 E.06033
G1 X87.641 Y52.449 E.06032
G1 X88.323 Y55.657 E.11543
G1 X88.546 Y57.505 E.0655
G1 X88.644 Y60.784 E.11543
G1 X88.546 Y62.495 E.06032
G1 X88.345 Y64.197 E.06033
G1 X88.013 Y66.028 E.0655
G1 X87.14 Y69.19 E.11543
M73 P0 R28
G1 X86.48 Y70.947 E.06605
G1 X85.785 Y72.496 E.05977
G1 X84.992 Y74.016 E.06032
G1 X83.226 Y76.78 E.11543
G1 X82.077 Y78.264 E.06605
G1 X79.857 Y80.656 E.11488
G1 X78.462 Y81.911 E.06605
G1 X75.85 Y83.869 E.11488
G1 X74.394 Y84.774 E.06032
G1 X72.886 Y85.59 E.06033
G1 X71.198 Y86.372 E.0655
G1 X68.11 Y87.478 E.11543
G1 X66.452 Y87.914 E.06032
G1 X64.772 Y88.249 E.06032
G1 X62.912 Y88.5 E.06605
G1 X61.218 Y88.623 E.05977
G1 X59.504 Y88.644 E.06033
G1 X56.233 Y88.399 E.11543
G1 X54.541 Y88.123 E.06032
G1 X52.869 Y87.745 E.06032
G1 X51.068 Y87.218 E.06605
G1 X48.03 Y86.025 E.11488
G1 X46.366 Y85.193 E.0655
G1 X43.575 Y83.469 E.11543
G1 X42.086 Y82.352 E.0655
G1 X40.782 Y81.241 E.06032
G1 X39.546 Y80.053 E.06032
G1 X37.388 Y77.583 E.11543
G1 X36.293 Y76.076 E.06555
G1 X35.367 Y74.617 E.06082
G1 X34.544 Y73.131 E.05977
G1 X33.21 Y70.135 E.11543
G1 X32.652 Y68.515 E.06032
G1 X32.192 Y66.863 E.06033
G1 X31.805 Y65.043 E.0655
G1 X31.413 Y61.787 E.11543
G1 X31.357 Y59.925 E.06555
G1 X31.414 Y58.198 E.06082
G1 X31.571 Y56.507 E.05977
G1 X32.157 Y53.279 E.11543
G1 X32.652 Y51.484 E.06555
G1 X33.216 Y49.85 E.06082
G1 X33.864 Y48.28 E.05977
G1 X35.375 Y45.369 E.11543
G1 X36.294 Y43.922 E.06032
G1 X37.298 Y42.533 E.06033
G1 X38.48 Y41.096 E.0655
G1 X40.017 Y39.535 E.07709
; printing object (Unsaved).stl id:0 copy 0
G1 E-.5
EXCLUDE_OBJECT_START NAME=Unsaved_.stl_id_0_copy_0
G1 Z.4 F21000
G1 X54.842 Y85.316 Z.4
G1 Z.2
G1 E.5 F1800
;TYPE:Outer wall
G1 F3000
G1 X53.504 Y85.011 E.04829
G1 X52.005 Y84.572 E.05497
G1 X50.565 Y84.056 E.05387
G1 X49.143 Y83.448 E.05442
G1 X47.76 Y82.757 E.05442
G1 X46.421 Y81.984 E.05442
G1 X45.131 Y81.132 E.05442
G1 X43.893 Y80.204 E.05441
G1 X42.714 Y79.205 E.05442
G1 X41.596 Y78.136 E.05442
G1 X40.545 Y77.003 E.05442
G1 X39.563 Y75.808 E.05442
G1 X38.654 Y74.558 E.05441
G1 X37.814 Y73.241 E.05497
G1 X37.069 Y71.904 E.05387
G1 X36.398 Y70.511 E.05442
G1 X35.811 Y69.08 E.05442
G1 X35.312 Y67.617 E.05442
G1 X34.9 Y66.127 E.05442
G1 X34.579 Y64.614 E.05442
G1 X34.348 Y63.085 E.05442
G1 X34.21 Y61.545 E.05442
G1 X34.164 Y60 E.05441
G1 X34.211 Y58.439 E.05497
G1 X34.348 Y56.915 E.05387
G1 X34.579 Y55.386 E.05442
G1 X34.9 Y53.873 E.05442
G1 X35.312 Y52.383 E.05441
G1 X35.817 Y50.905 E.05497
G1 X36.398 Y49.489 E.05387
G1 X37.069 Y48.096 E.05442
G1 X37.822 Y46.745 E.05442
G1 X38.654 Y45.442 E.05442
G1 X39.563 Y44.192 E.05442
G1 X40.545 Y42.997 E.05442
G1 X41.596 Y41.864 E.05441
G1 X42.714 Y40.795 E.05442
G1 X43.893 Y39.796 E.05442
G1 X45.131 Y38.868 E.05442
G1 X46.421 Y38.016 E.05442
G1 X47.76 Y37.243 E.05441
G1 X49.143 Y36.552 E.05442
G1 X50.565 Y35.944 E.05441
G1 X52.035 Y35.418 E.05497
G1 X53.504 Y34.989 E.05387
G1 X55.012 Y34.645 E.05442
G1 X56.537 Y34.392 E.05442
G1 X58.075 Y34.23 E.05441
G1 X59.635 Y34.161 E.05497
G1 X60.012 Y34.166 E.01329
G1 X61.165 Y34.184 E.04058
G1 X62.707 Y34.299 E.05442
G1 X64.239 Y34.507 E.05442
G1 X65.756 Y34.806 E.05442
G1 X67.253 Y35.195 E.05442
G1 X68.723 Y35.672 E.05442
G1 X70.163 Y36.237 E.05441
G1 X71.565 Y36.887 E.05442
G1 X72.927 Y37.62 E.05442
G1 X74.242 Y38.433 E.05442
G1 X75.507 Y39.323 E.05441
G1 X76.727 Y40.297 E.05497
G1 X77.865 Y41.321 E.05387
G1 X78.95 Y42.423 E.05442
G1 X79.967 Y43.587 E.05442
G1 X80.913 Y44.81 E.05441
G1 X81.792 Y46.101 E.05497
G1 X82.577 Y47.415 E.05387
G1 X83.289 Y48.787 E.05442
G1 X83.918 Y50.2 E.05442
G1 X84.461 Y51.648 E.05442
G1 X84.917 Y53.125 E.05441
G1 X85.283 Y54.627 E.05442
G1 X85.56 Y56.148 E.05442
G1 X85.744 Y57.684 E.05442
G1 X85.837 Y59.227 E.05442
G1 X85.837 Y60.773 E.05442
G1 X85.744 Y62.316 E.05442
G1 X85.56 Y63.852 E.05442
G1 X85.283 Y65.373 E.05442
G1 X84.917 Y66.875 E.05442
G1 X84.461 Y68.352 E.05441
G1 X83.912 Y69.814 E.05497
G1 X83.289 Y71.213 E.05387
G1 X82.577 Y72.585 E.05442
G1 X81.784 Y73.912 E.05442
G1 X80.913 Y75.19 E.05441
G1 X79.957 Y76.425 E.05497
G1 X78.95 Y77.577 E.05387
G1 X77.865 Y78.679 E.05441
G1 X76.703 Y79.723 E.05497
G1 X75.507 Y80.677 E.05387
G1 X74.242 Y81.567 E.05442
G1 X72.927 Y82.38 E.05441
G1 X71.565 Y83.113 E.05442
G1 X70.163 Y83.763 E.05442
G1 X68.723 Y84.328 E.05442
G1 X67.253 Y84.805 E.05442
G1 X65.756 Y85.194 E.05442
G1 X64.239 Y85.493 E.05441
G1 X62.692 Y85.702 E.05497
G1 X61.165 Y85.816 E.05387
G1 X59.619 Y85.839 E.05442
G1 X58.075 Y85.77 E.05442
G1 X56.537 Y85.608 E.05442
G1 X55.012 Y85.355 E.05442
G1 X54.881 Y85.325 E.00471
G1 X54.953 Y84.829 F21000
;TYPE:Inner wall
G1 F3000
G1 X53.63 Y84.527 E.04776
G1 X52.16 Y84.097 E.05391
G1 X50.747 Y83.59 E.05282
G1 X49.353 Y82.994 E.05336
G1 X47.997 Y82.316 E.05336
G1 X46.684 Y81.558 E.05336
G1 X45.418 Y80.723 E.05336
G1 X44.205 Y79.813 E.05336
G1 X43.049 Y78.833 E.05336
G1 X41.953 Y77.785 E.05336
G1 X40.921 Y76.674 E.05336
G1 X39.958 Y75.502 E.05336
G1 X39.067 Y74.276 E.05335
G1 X38.243 Y72.984 E.05391
G1 X37.513 Y71.674 E.05282
G1 X36.855 Y70.308 E.05336
G1 X36.28 Y68.905 E.05336
G1 X35.79 Y67.47 E.05336
G1 X35.386 Y66.008 E.05336
G1 X35.071 Y64.525 E.05336
G1 X34.845 Y63.026 E.05336
G1 X34.709 Y61.516 E.05336
G1 X34.664 Y60 E.05335
G1 X34.71 Y58.469 E.05391
G1 X34.845 Y56.974 E.05282
G1 X35.071 Y55.475 E.05336
G1 X35.386 Y53.992 E.05336
G1 X35.79 Y52.531 E.05335
G1 X36.286 Y51.081 E.05391
G1 X36.855 Y49.692 E.05282
G1 X37.513 Y48.326 E.05336
G1 X38.251 Y47.002 E.05336
G1 X39.067 Y45.724 E.05336
G1 X39.958 Y44.498 E.05336
G1 X40.921 Y43.326 E.05336
G1 X41.953 Y42.215 E.05336
G1 X43.049 Y41.167 E.05336
G1 X44.205 Y40.187 E.05336
G1 X45.418 Y39.277 E.05336
G1 X46.684 Y38.442 E.05336
G1 X47.997 Y37.684 E.05336
G1 X49.353 Y37.006 E.05336
G1 X50.747 Y36.41 E.05335
G1 X52.19 Y35.894 E.05391
G1 X53.63 Y35.473 E.05282
G1 X55.108 Y35.136 E.05336
G1 X56.604 Y34.887 E.05336
G1 X58.112 Y34.729 E.05335
G1 X59.642 Y34.661 E.05391
G1 X60.005 Y34.666 E.01276
G1 X61.143 Y34.683 E.04006
G1 X62.655 Y34.797 E.05336
G1 X64.157 Y35 E.05336
G1 X65.645 Y35.293 E.05336
G1 X67.112 Y35.675 E.05336
G1 X68.555 Y36.143 E.05336
G1 X69.966 Y36.697 E.05336
G1 X71.342 Y37.335 E.05336
G1 X72.677 Y38.053 E.05336
G1 X73.967 Y38.85 E.05336
G1 X75.206 Y39.723 E.05335
G1 X76.404 Y40.679 E.05391
G1 X77.519 Y41.683 E.05282
G1 X78.583 Y42.763 E.05336
G1 X79.581 Y43.905 E.05336
G1 X80.508 Y45.104 E.05335
G1 X81.37 Y46.37 E.05391
G1 X82.14 Y47.659 E.05282
G1 X82.838 Y49.004 E.05336
G1 X83.455 Y50.39 E.05336
G1 X83.988 Y51.809 E.05336
G1 X84.435 Y53.258 E.05336
G1 X84.794 Y54.731 E.05336
G1 X85.065 Y56.223 E.05336
G1 X85.246 Y57.728 E.05336
G1 X85.337 Y59.242 E.05336
G1 X85.337 Y60.758 E.05336
G1 X85.246 Y62.272 E.05336
G1 X85.065 Y63.777 E.05336
G1 X84.794 Y65.269 E.05336
G1 X84.435 Y66.742 E.05336
G1 X83.988 Y68.191 E.05335
G1 X83.449 Y69.624 E.05392
G1 X82.838 Y70.996 E.05282
G1 X82.14 Y72.341 E.05336
G1 X81.362 Y73.643 E.05336
G1 X80.508 Y74.896 E.05336
G1 X79.57 Y76.107 E.05391
G1 X78.583 Y77.237 E.05282
G1 X77.519 Y78.317 E.05335
G1 X76.38 Y79.341 E.05391
G1 X75.207 Y80.277 E.05282
G1 X73.967 Y81.15 E.05336
G1 X72.677 Y81.947 E.05336
G1 X71.342 Y82.665 E.05336
G1 X69.966 Y83.303 E.05336
G1 X68.555 Y83.857 E.05336
G1 X67.112 Y84.325 E.05336
G1 X65.645 Y84.707 E.05336
G1 X64.158 Y85 E.05335
G1 X62.639 Y85.204 E.05391
G1 X61.143 Y85.317 E.05282
G1 X59.627 Y85.339 E.05336
G1 X58.112 Y85.271 E.05336
G1 X56.604 Y85.113 E.05336
G1 X55.108 Y84.864 E.05336
G1 X54.992 Y84.838 E.00419
G1 X55.055 Y84.383 F21000
G1 F3000
G1 X53.746 Y84.084 E.04727
G1 X52.302 Y83.662 E.05295
G1 X50.914 Y83.165 E.05186
G1 X49.545 Y82.579 E.0524
G1 X48.214 Y81.913 E.0524
G1 X46.924 Y81.169 E.0524
G1 X45.682 Y80.349 E.0524
G1 X44.49 Y79.456 E.0524
G1 X43.355 Y78.493 E.0524
G1 X42.278 Y77.464 E.0524
G1 X41.266 Y76.373 E.0524
G1 X40.32 Y75.223 E.0524
G1 X39.445 Y74.018 E.05239
G1 X38.636 Y72.75 E.05295
G1 X37.918 Y71.463 E.05186
G1 X37.272 Y70.122 E.0524
G1 X36.708 Y68.744 E.0524
G1 X36.227 Y67.335 E.0524
G1 X35.83 Y65.9 E.0524
G1 X35.521 Y64.443 E.0524
G1 X35.299 Y62.971 E.0524
G1 X35.166 Y61.488 E.0524
G1 X35.121 Y60 E.05239
G1 X35.167 Y58.497 E.05295
G1 X35.299 Y57.029 E.05186
G1 X35.521 Y55.557 E.0524
G1 X35.83 Y54.1 E.0524
G1 X36.226 Y52.665 E.05238
G1 X36.714 Y51.242 E.05295
G1 X37.272 Y49.878 E.05186
G1 X37.918 Y48.537 E.0524
G1 X38.643 Y47.237 E.0524
G1 X39.445 Y45.982 E.0524
G1 X40.32 Y44.777 E.0524
G1 X41.266 Y43.627 E.0524
G1 X42.278 Y42.536 E.0524
G1 X43.355 Y41.507 E.0524
G1 X44.49 Y40.544 E.0524
G1 X45.682 Y39.651 E.0524
G1 X46.924 Y38.831 E.0524
G1 X48.214 Y38.087 E.0524
G1 X49.545 Y37.421 E.0524
G1 X50.914 Y36.836 E.05238
G1 X52.331 Y36.329 E.05295
G1 X53.745 Y35.916 E.05186
G1 X55.197 Y35.584 E.0524
G1 X56.666 Y35.34 E.0524
G1 X58.146 Y35.185 E.05238
G1 X59.649 Y35.118 E.05295
G1 X59.998 Y35.123 E.01229
G1 X61.122 Y35.14 E.03957
G1 X62.607 Y35.251 E.0524
G1 X64.082 Y35.451 E.0524
G1 X65.543 Y35.739 E.0524
G1 X66.984 Y36.114 E.0524
G1 X68.4 Y36.574 E.0524
G1 X69.786 Y37.118 E.0524
G1 X71.137 Y37.744 E.0524
G1 X72.448 Y38.449 E.0524
G1 X73.715 Y39.232 E.0524
G1 X74.932 Y40.089 E.05239
G1 X76.108 Y41.027 E.05295
G1 X77.203 Y42.013 E.05186
G1 X78.248 Y43.074 E.0524
G1 X79.227 Y44.195 E.0524
G1 X80.138 Y45.373 E.05239
G1 X80.985 Y46.616 E.05295
G1 X81.74 Y47.881 E.05186
G1 X82.426 Y49.203 E.0524
G1 X83.032 Y50.563 E.0524
G1 X83.555 Y51.957 E.0524
G1 X83.994 Y53.38 E.0524
G1 X84.347 Y54.826 E.0524
G1 X84.613 Y56.291 E.0524
G1 X84.791 Y57.769 E.0524
G1 X84.88 Y59.256 E.0524
G1 X84.88 Y60.744 E.0524
G1 X84.791 Y62.231 E.0524
G1 X84.613 Y63.709 E.0524
G1 X84.347 Y65.174 E.0524
G1 X83.994 Y66.62 E.0524
G1 X83.555 Y68.043 E.05238
G1 X83.026 Y69.451 E.05295
M73 P1 R28
G1 X82.426 Y70.797 E.05186
G1 X81.74 Y72.119 E.0524
G1 X80.977 Y73.397 E.0524
G1 X80.138 Y74.627 E.05239
G1 X79.217 Y75.816 E.05295
G1 X78.248 Y76.926 E.05186
G1 X77.203 Y77.986 E.05238
G1 X76.084 Y78.992 E.05295
G1 X74.932 Y79.911 E.05186
G1 X73.715 Y80.768 E.0524
G1 X72.448 Y81.551 E.0524
G1 X71.137 Y82.256 E.0524
G1 X69.786 Y82.882 E.0524
G1 X68.4 Y83.426 E.0524
G1 X66.984 Y83.886 E.0524
G1 X65.543 Y84.261 E.0524
G1 X64.083 Y84.549 E.05239
G1 X62.592 Y84.75 E.05295
