; HEADER_BLOCK_START
; generated by OrcaSlicer 1.6.3 on 2023-06-09 at 15:41:04
; total layer number: 29
; HEADER_BLOCK_END

; THUMBNAIL_BLOCK_START
; THUMBNAIL_BLOCK_END

; external perimeters extrusion width = 0.40mm
; perimeters extrusion width = 0.45mm
; infill extrusion width = 0.45mm
; solid infill extrusion width = 0.40mm
; top infill extrusion width = 0.40mm
; support material extrusion width = 0.40mm
; first layer extrusion width = 0.50mm

; external perimeters extrusion width = 0.40mm
; perimeters extrusion width = 0.45mm
; infill extrusion width = 0.45mm
; solid infill extrusion width = 0.40mm
; top infill extrusion width = 0.40mm
; support material extrusion width = 0.40mm
; first layer extrusion width = 0.50mm

; external perimeters extrusion width = 0.40mm
; perimeters extrusion width = 0.45mm
; infill extrusion width = 0.45mm
; solid infill extrusion width = 0.40mm
; top infill extrusion width = 0.40mm
; support material extrusion width = 0.40mm
; first layer extrusion width = 0.50mm

; EXECUTABLE_BLOCK_START
EXCLUDE_OBJECT_DEFINE NAME=(Unsaved).stl_id_0_copy_0 CENTER=88.2347,60 POLYGON=[[79.0097,55.001],[81.7077,43.001],[82.5197,39.483],[82.5297,39.445],[82.5537,39.371],[82.5897,39.301],[82.6097,39.267],[82.6837,39.175],[82.7757,39.101],[82.8077,39.081],[82.8797,39.045],[82.9537,39.021],[82.9917,39.011],[83.0497,39.003],[83.1097,39.001],[87.1037,39.001],[87.2497,39.005],[87.3377,39.013],[87.3957,39.021],[87.5417,39.049],[87.5697,39.055],[87.6817,39.087],[87.7937,39.123],[87.8217,39.133],[87.9577,39.191],[88.0097,39.217],[88.0877,39.259],[88.2117,39.335],[94.2097,43.333],[95.8177,44.407],[96.0397,44.577],[96.2357,44.779],[96.4017,45.005],[96.5337,45.253],[96.6297,45.517],[96.6897,45.791],[96.7077,46.071],[97.4577,61.001],[97.4597,61.163],[97.4577,61.303],[97.4557,61.425],[97.4517,61.531],[96.7077,79.001],[96.6917,79.261],[96.6897,79.273],[96.6397,79.517],[96.6337,79.541],[96.5557,79.765],[96.5417,79.799],[96.4417,80.001],[96.4157,80.043],[96.3617,80.127],[96.2577,80.267],[96.1737,80.361],[96.0697,80.465],[96.0677,80.467],[95.9257,80.587],[95.8757,80.623],[95.7717,80.693],[95.6657,80.757],[95.6097,80.785],[95.4397,80.863],[95.2617,80.921],[95.2017,80.937],[95.0797,80.965],[94.9577,80.985],[94.8957,80.991],[94.7097,80.999],[83.2077,80.999],[83.0117,80.991],[82.9577,80.985],[82.8177,80.961],[82.7097,80.937],[82.6277,80.913],[82.4697,80.859],[82.4437,80.847],[82.2657,80.763],[82.2417,80.751],[82.0977,80.663],[82.0277,80.615],[81.9397,80.545],[81.8357,80.453],[81.7957,80.413],[81.6637,80.267],[81.6237,80.217],[81.5037,80.045],[81.4777,80.001],[81.4237,79.903],[81.3757,79.801],[81.3357,79.701],[81.2837,79.543],[81.2657,79.473],[81.2277,79.273],[81.2237,79.237],[79.0097,56.501],[79.0097,55.001]]
EXCLUDE_OBJECT_DEFINE NAME=(Unsaved).stl_id_1_copy_0 CENTER=60,60 POLYGON=[[50.775,55.001],[53.473,43.001],[54.285,39.483],[54.295,39.445],[54.319,39.371],[54.355,39.301],[54.375,39.267],[54.449,39.175],[54.541,39.101],[54.573,39.081],[54.645,39.045],[54.719,39.021],[54.757,39.011],[54.815,39.003],[54.875,39.001],[58.869,39.001],[59.015,39.005],[59.103,39.013],[59.161,39.021],[59.307,39.049],[59.335,39.055],[59.447,39.087],[59.559,39.123],[59.587,39.133],[59.723,39.191],[59.775,39.217],[59.853,39.259],[59.977,39.335],[65.975,43.333],[67.583,44.407],[67.805,44.577],[68.001,44.779],[68.167,45.005],[68.299,45.253],[68.395,45.517],[68.455,45.791],[68.473,46.071],[69.223,61.001],[69.225,61.163],[69.223,61.303],[69.221,61.425],[69.217,61.531],[68.473,79.001],[68.457,79.261],[68.455,79.273],[68.405,79.517],[68.399,79.541],[68.321,79.765],[68.307,79.799],[68.207,80.001],[68.181,80.043],[68.127,80.127],[68.023,80.267],[67.939,80.361],[67.835,80.465],[67.833,80.467],[67.691,80.587],[67.641,80.623],[67.537,80.693],[67.431,80.757],[67.375,80.785],[67.205,80.863],[67.027,80.921],[66.967,80.937],[66.845,80.965],[66.723,80.985],[66.661,80.991],[66.475,80.999],[54.973,80.999],[54.777,80.991],[54.723,80.985],[54.583,80.961],[54.475,80.937],[54.393,80.913],[54.235,80.859],[54.209,80.847],[54.031,80.763],[54.007,80.751],[53.863,80.663],[53.793,80.615],[53.705,80.545],[53.601,80.453],[53.561,80.413],[53.429,80.267],[53.389,80.217],[53.269,80.045],[53.243,80.001],[53.189,79.903],[53.141,79.801],[53.101,79.701],[53.049,79.543],[53.031,79.473],[52.993,79.273],[52.989,79.237],[50.775,56.501],[50.775,55.001]]
EXCLUDE_OBJECT_DEFINE NAME=(Unsaved).stl_id_2_copy_0 CENTER=31.7652,60 POLYGON=[[22.5402,55.001],[25.2382,43.001],[26.0502,39.483],[26.0602,39.445],[26.0842,39.371],[26.1202,39.301],[26.1402,39.267],[26.2142,39.175],[26.3062,39.101],[26.3382,39.081],[26.4102,39.045],[26.4842,39.021],[26.5222,39.011],[26.5802,39.003],[26.6402,39.001],[30.6342,39.001],[30.7802,39.005],[30.8682,39.013],[30.9262,39.021],[31.0722,39.049],[31.1002,39.055],[31.2122,39.087],[31.3242,39.123],[31.3522,39.133],[31.4882,39.191],[31.5402,39.217],[31.6182,39.259],[31.7422,39.335],[37.7402,43.333],[39.3482,44.407],[39.5702,44.577],[39.7662,44.779],[39.9322,45.005],[40.0642,45.253],[40.1602,45.517],[40.2202,45.791],[40.2382,46.071],[40.9882,61.001],[40.9902,61.163],[40.9882,61.303],[40.9862,61.425],[40.9822,61.531],[40.2382,79.001],[40.2222,79.261],[40.2202,79.273],[40.1702,79.517],[40.1642,79.541],[40.0862,79.765],[40.0722,79.799],[39.9722,80.001],[39.9462,80.043],[39.8922,80.127],[39.7882,80.267],[39.7042,80.361],[39.6002,80.465],[39.5982,80.467],[39.4562,80.587],[39.4062,80.623],[39.3022,80.693],[39.1962,80.757],[39.1402,80.785],[38.9702,80.863],[38.7922,80.921],[38.7322,80.937],[38.6102,80.965],[38.4882,80.985],[38.4262,80.991],[38.2402,80.999],[26.7382,80.999],[26.5422,80.991],[26.4882,80.985],[26.3482,80.961],[26.2402,80.937],[26.1582,80.913],[26.0002,80.859],[25.9742,80.847],[25.7962,80.763],[25.7722,80.751],[25.6282,80.663],[25.5582,80.615],[25.4702,80.545],[25.3662,80.453],[25.3262,80.413],[25.1942,80.267],[25.1542,80.217],[25.0342,80.045],[25.0082,80.001],[24.9542,79.903],[24.9062,79.801],[24.8662,79.701],[24.8142,79.543],[24.7962,79.473],[24.7582,79.273],[24.7542,79.237],[22.5402,56.501],[22.5402,55.001]]
M73 P0 R19
;TYPE:Custom
START_PRINT T_BED=110 T_EXTRUDER=260
G90
G21
M83 ; use relative distances for extrusion
; Filament gcode

    PRESSURE_ADVANCE_SELECT FILAMENT=ABS
M106 S0
;LAYER_CHANGE
;Z:0.2
;HEIGHT:0.2
;BEFORE_LAYER_CHANGE
;0.2
G92 E0

;AFTER_LAYER_CHANGE
;0.2
M204 S500
; printing object (Unsaved).stl id:2 copy 0
EXCLUDE_OBJECT_START NAME=(Unsaved).stl_id_2_copy_0
G1 E-.5 F3000
G1 Z.2 F21000
G1 X39.408 Y40.929
G1 E.5 F1800
;TYPE:Support
;WIDTH:0.5
G1 F3000
G1 X42.265 Y40.929 E.10055
G1 X42.265 Y58.072 E.60331
G1 X45.122 Y58.072 E.10055
G1 X45.122 Y64.786 E.23629
G1 X39.408 Y64.786 E.2011
G1 X39.408 Y72.357 E.26647
G1 X42.265 Y72.357 E.10055
G1 X42.265 Y81.928 E.33684
G1 X38.119 Y81.928 E.1459
G1 X38.029 Y81.349 E.02062
G1 X38.549 Y81.33 E.0183
G1 X38.831 Y81.273 E.01015
G1 X39.1 Y81.186 E.00994
G1 X39.372 Y81.06 E.01056
G1 X39.621 Y80.9 E.0104
G1 X39.841 Y80.718 E.01005
G1 X40.064 Y80.482 E.01143
G1 X40.252 Y80.213 E.01156
G1 X40.389 Y79.948 E.0105
G1 X40.496 Y79.653 E.01103
G1 X40.569 Y79.308 E.01241
G1 X40.597 Y78.873 E.01536
G1 X40.39 Y78.651 E.01068
G1 X35.685 Y78.651 E.16558
G1 X33.888 Y76.856 E.08939
G1 X33.888 Y68.756 E.28507
G1 X33.683 Y68.551 E.0102
G1 X28.75 Y68.551 E.17363
G1 X28.41 Y68.533 E.01199
G1 X28.085 Y68.48 E.01157
G1 X27.766 Y68.396 E.0116
G1 X27.459 Y68.277 E.0116
G1 X27.165 Y68.127 E.01159
G1 X26.888 Y67.947 E.01163
G1 X26.633 Y67.741 E.01157
G1 X26.399 Y67.506 E.01165
G1 X26.192 Y67.251 E.01157
G1 X26.012 Y66.974 E.01163
G1 X25.862 Y66.68 E.0116
G1 X25.744 Y66.373 E.0116
G1 X25.659 Y66.054 E.0116
G1 X25.607 Y65.728 E.01164
G1 X25.588 Y65.391 E.01185
G1 X25.588 Y57.409 E.28095
G1 X25.607 Y57.072 E.01185
G1 X25.659 Y56.746 E.01164
G1 X25.744 Y56.427 E.0116
G1 X25.862 Y56.12 E.0116
G1 X26.012 Y55.826 E.01159
G1 X26.192 Y55.549 E.01165
G1 X26.399 Y55.292 E.0116
G1 X26.632 Y55.06 E.01158
G1 X26.888 Y54.853 E.01159
G1 X27.165 Y54.673 E.01163
G1 X27.459 Y54.523 E.0116
G1 X27.766 Y54.404 E.0116
G1 X28.085 Y54.32 E.0116
G1 X28.409 Y54.268 E.01153
G1 X28.749 Y54.251 E.01198
G1 X35.883 Y54.251 E.25109
G1 X36.088 Y54.046 E.0102
G1 X36.088 Y50.77 E.11529
G1 X36.132 Y50.577 E.00695
G1 X36.241 Y50.439 E.00621
G1 X36.403 Y50.362 E.0063
G1 X36.509 Y50.349 E.00378
G1 X40.383 Y50.349 E.13634
G1 X40.588 Y50.144 E.0102
G1 X40.588 Y47.356 E.09812
G1 X40.383 Y47.151 E.0102
G1 X35.685 Y47.151 E.16534
G1 X33.888 Y45.354 E.08944
G1 X33.888 Y40.445 E.17276
G1 X33.805 Y40.291 E.00618
G1 X31.932 Y39.041 E.07925
G1 X31.569 Y38.848 E.01446
G1 X31.805 Y38.072 E.02854
G1 X39.408 Y38.072 E.26759
G1 X39.408 Y40.861 E.09814
G1 E-.5
G1 Z.4 F21000
G1 X28.759 Y54.662
G1 Z.2
G1 E.5 F1800
G1 F3000
G1 X36.054 Y54.662 E.25673
G1 X36.5 Y54.216 E.0222
G1 X36.503 Y50.764 E.1215
G1 X40.554 Y50.76 E.14255
G1 X41 Y50.314 E.0222
G1 X41 Y47.186 E.11011
G1 X40.554 Y46.74 E.0222
G1 X35.856 Y46.74 E.16534
G1 X34.3 Y45.184 E.07744
G1 X34.3 Y40.342 E.17039
G1 X34.12 Y40.006 E.01344
G1 X32.062 Y38.64 E.0869
G1 X32.11 Y38.483 E.00577
G1 X38.996 Y38.483 E.24237
G1 X38.996 Y41.34 E.10055
G1 X41.854 Y41.34 E.10055
G1 X41.854 Y58.483 E.60331
G1 X44.711 Y58.483 E.10055
G1 X44.711 Y64.374 E.20733
G1 X38.996 Y64.374 E.2011
G1 X38.996 Y72.768 E.29542
G1 X41.854 Y72.768 E.10055
G1 X41.854 Y81.517 E.30789
G1 X39.366 Y81.517 E.08755
G1 X39.581 Y81.414 E.0084
G1 X39.836 Y81.252 E.01061
G1 X40.13 Y81.012 E.01337
G1 X40.391 Y80.732 E.01347
G1 X40.584 Y80.46 E.01173
G1 X40.781 Y80.078 E.01514
G1 X40.902 Y79.73 E.01297
G1 X40.971 Y79.404 E.01172
G1 X41.02 Y78.722 E.02407
G1 X40.568 Y78.24 E.02324
G1 X35.855 Y78.24 E.16587
G1 X34.3 Y76.685 E.07739
G1 X34.3 Y68.586 E.28506
G1 X33.854 Y68.14 E.0222
G1 X28.761 Y68.14 E.17923
G1 X28.454 Y68.123 E.01083
G1 X28.171 Y68.077 E.01008
G1 X27.894 Y68.004 E.01009
G1 X27.627 Y67.901 E.01007
G1 X27.371 Y67.771 E.01009
G1 X27.13 Y67.614 E.01011
G1 X26.908 Y67.434 E.01005
G1 X26.705 Y67.231 E.01013
G1 X26.525 Y67.009 E.01005
G1 X26.369 Y66.768 E.01011
G1 X26.238 Y66.512 E.01009
G1 X26.135 Y66.246 E.01007
G1 X26.062 Y65.969 E.01008
G1 X26.016 Y65.684 E.01016
G1 X26 Y65.38 E.0107
G1 X26 Y57.42 E.28015
G1 X26.016 Y57.116 E.0107
G1 X26.062 Y56.831 E.01016
G1 X26.135 Y56.554 E.01008
G1 X26.238 Y56.288 E.01007
G1 X26.369 Y56.032 E.01009
G1 X26.526 Y55.79 E.01016
G1 X26.705 Y55.567 E.01006
G1 X26.907 Y55.367 E.01004
G1 X27.13 Y55.186 E.0101
G1 X27.371 Y55.029 E.01011
G1 X27.627 Y54.899 E.01009
G1 X27.894 Y54.796 E.01007
G1 X28.171 Y54.723 E.01009
G1 X28.452 Y54.677 E.01001
G1 X28.759 Y54.662 E.01082
G1 X28.771 Y55.17 F21000
G1 F3000
G1 X36.264 Y55.17 E.2637
G1 X37.007 Y54.427 E.03701
G1 X37.007 Y51.268 E.11116
G1 X40.764 Y51.268 E.13221
G1 X41.346 Y50.687 E.02895
G1 X41.346 Y58.991 E.29226
G1 X44.203 Y58.991 E.10055
G1 X44.203 Y63.866 E.17159
G1 X38.489 Y63.866 E.2011
G1 X38.489 Y73.276 E.33117
M73 P1 R19
G1 X41.346 Y73.276 E.10055
G1 X41.346 Y78.327 E.17775
G1 X40.789 Y77.732 E.02869
G1 X36.066 Y77.732 E.16622
G1 X34.807 Y76.475 E.06259
G1 X34.807 Y68.375 E.28506
G1 X34.064 Y67.632 E.03701
G1 X28.775 Y67.632 E.18615
G1 X28.508 Y67.617 E.0094
G1 X28.051 Y67.52 E.01645
G1 X27.626 Y67.33 E.01639
G1 X27.429 Y67.203 E.00824
G1 X27.249 Y67.056 E.00818
G1 X27.083 Y66.891 E.00826
G1 X26.936 Y66.71 E.00818
G1 X26.809 Y66.514 E.00824
G1 X26.619 Y66.088 E.01639
G1 X26.559 Y65.863 E.00821
G1 X26.522 Y65.629 E.00833
G1 X26.507 Y65.366 E.00928
G1 X26.507 Y57.434 E.27917
G1 X26.522 Y57.171 E.00928
G1 X26.559 Y56.937 E.00833
G1 X26.619 Y56.712 E.00821
G1 X26.809 Y56.286 E.01639
G1 X27.083 Y55.908 E.01644
G1 X27.429 Y55.597 E.01638
G1 X27.626 Y55.47 E.00824
G1 X28.051 Y55.28 E.01639
G1 X28.505 Y55.183 E.01633
G1 X28.771 Y55.17 E.0094
G1 X28.784 Y55.678 F21000
G1 F3000
G1 X36.474 Y55.678 E.27066
G1 X37.515 Y54.637 E.05181
G1 X37.515 Y51.776 E.10069
G1 X40.838 Y51.776 E.11693
G1 X40.838 Y59.499 E.27179
G1 X43.695 Y59.499 E.10055
G1 X43.695 Y63.358 E.13584
G1 X37.981 Y63.358 E.2011
G1 X37.981 Y73.784 E.36692
G1 X40.838 Y73.784 E.10055
G1 X40.838 Y77.224 E.12106
G1 X36.276 Y77.224 E.16055
G1 X35.315 Y76.264 E.04778
G1 X35.315 Y68.165 E.28505
G1 X34.274 Y67.124 E.05181
G1 X28.562 Y67.112 E.20103
G1 X28.208 Y67.036 E.01275
G1 X27.88 Y66.89 E.01264
G1 X27.589 Y66.679 E.01265
G1 X27.461 Y66.55 E.00639
G1 X27.249 Y66.259 E.01265
G1 X27.103 Y65.931 E.01264
G1 X27.057 Y65.757 E.00633
G1 X27.015 Y65.352 E.01434
G1 X27.028 Y57.225 E.28603
G1 X27.103 Y56.869 E.01282
G1 X27.167 Y56.702 E.00628
G1 X27.35 Y56.386 E.01283
G1 X27.586 Y56.124 E.01245
G1 X27.88 Y55.91 E.01277
G1 X28.208 Y55.764 E.01264
G1 X28.558 Y55.689 E.01258
G1 X28.784 Y55.678 E.00797
G1 X28.796 Y56.186 F21000
G1 F3000
G1 X36.685 Y56.186 E.27763
G1 X38.023 Y54.847 E.06662
G1 X38.023 Y52.284 E.09022
G1 X40.33 Y52.284 E.08118
G1 X40.33 Y60.007 E.27179
G1 X43.187 Y60.007 E.10055
G1 X43.187 Y62.851 E.10009
G1 X37.473 Y62.851 E.2011
G1 X37.473 Y74.292 E.40267
G1 X40.33 Y74.292 E.10055
G1 X40.33 Y76.716 E.08531
G1 X36.486 Y76.716 E.13528
G1 X35.823 Y76.054 E.03297
G1 X35.823 Y67.955 E.28505
G1 X34.485 Y66.616 E.06662
G1 X28.617 Y66.606 E.20652
G1 X28.365 Y66.552 E.00906
G1 X28.134 Y66.449 E.0089
G1 X27.929 Y66.301 E.0089
G1 X27.839 Y66.21 E.00452
G1 X27.69 Y66.005 E.0089
G1 X27.587 Y65.774 E.0089
G1 X27.554 Y65.652 E.00446
G1 X27.523 Y65.338 E.01109
G1 X27.533 Y57.279 E.28363
G1 X27.587 Y57.026 E.00912
G1 X27.632 Y56.909 E.00439
G1 X27.761 Y56.685 E.00913
G1 X27.926 Y56.502 E.00864
G1 X28.134 Y56.351 E.00906
G1 X28.365 Y56.248 E.0089
G1 X28.61 Y56.195 E.00884
G1 X28.796 Y56.186 E.00654
G1 X28.808 Y56.694 F21000
G1 F3000
G1 X36.895 Y56.694 E.2846
G1 X38.531 Y55.058 E.08143
G1 X38.531 Y52.792 E.07975
G1 X39.822 Y52.792 E.04544
G1 X39.822 Y60.514 E.27179
G1 X42.679 Y60.514 E.10055
G1 X42.679 Y62.343 E.06435
G1 X36.965 Y62.343 E.2011
G1 X36.965 Y74.8 E.43841
G1 X39.822 Y74.8 E.10055
G1 X39.822 Y76.208 E.04957
G1 X36.696 Y76.208 E.11001
G1 X36.331 Y75.843 E.01817
G1 X36.331 Y67.744 E.28504
G1 X34.695 Y66.108 E.08143
G1 X28.671 Y66.1 E.21201
G1 X28.522 Y66.069 E.00536
G1 X28.388 Y66.009 E.00516
G1 X28.217 Y65.87 E.00778
G1 X28.13 Y65.751 E.00516
G1 X28.052 Y65.546 E.00772
G1 X28.031 Y65.324 E.00784
G1 X28.039 Y57.333 E.28123
G1 X28.096 Y57.116 E.00789
G1 X28.173 Y56.983 E.00543
G1 X28.265 Y56.881 E.00484
G1 X28.388 Y56.791 E.00535
G1 X28.522 Y56.731 E.00516
G1 X28.808 Y56.694 E.01017
G1 X28.821 Y57.202 F21000
G1 F3000
G1 X37.105 Y57.202 E.29156
G1 X39.314 Y54.993 E.10994
G1 X39.314 Y61.022 E.2122
G1 X42.171 Y61.022 E.10055
G1 X42.171 Y61.835 E.0286
G1 X36.457 Y61.835 E.2011
G1 X36.457 Y67.152 E.18713
G1 X34.905 Y65.6 E.07723
G1 X28.83 Y65.6 E.21382
G1 X28.554 Y65.585 E.00972
G1 X28.539 Y65.31 E.00969
G1 X28.539 Y57.49 E.27524
G1 X28.554 Y57.215 E.00969
G1 X28.821 Y57.202 E.0094
G1 X29.047 Y57.71 F21000
G1 F3000
G1 X37.316 Y57.71 E.29102
G1 X38.806 Y56.219 E.07419
M73 P2 R19
G1 X38.806 Y61.327 E.17977
G1 X35.949 Y61.327 E.10055
G1 X35.949 Y65.926 E.16185
G1 X35.116 Y65.092 E.04148
G1 X29.047 Y65.092 E.21359
G1 X29.047 Y57.71 E.25983
G1 X29.555 Y58.217 F21000
G1 F3000
G1 X37.526 Y58.217 E.28055
G1 X38.298 Y57.445 E.03844
G1 X38.298 Y60.819 E.11874
G1 X35.441 Y60.819 E.10055
G1 X35.441 Y64.585 E.13252
G1 X29.555 Y64.585 E.20718
G1 X29.555 Y58.217 E.22408
G1 X30.063 Y58.725 F21000
G1 F3000
G1 X37.791 Y58.725 E.27198
G1 X37.791 Y60.311 E.05582
G1 X34.934 Y60.311 E.10055
G1 X34.934 Y64.077 E.13252
G1 X30.063 Y64.077 E.17143
G1 X30.063 Y58.725 E.18834
G1 X30.57 Y59.233 F21000
G1 F3000
G1 X37.283 Y59.233 E.23623
G1 X37.283 Y59.803 E.02007
G1 X34.426 Y59.803 E.10055
G1 X34.426 Y63.569 E.13252
G1 X30.57 Y63.569 E.13568
G1 X30.57 Y59.233 E.15259
G1 X31.078 Y59.741 F21000
G1 F3000
G1 X33.918 Y59.741 E.09994
G1 X33.918 Y63.061 E.11684
G1 X31.078 Y63.061 E.09994
G1 X31.078 Y59.741 E.11684
G1 X31.586 Y60.249 F21000
G1 F3000
G1 X33.41 Y60.249 E.06419
G1 X33.41 Y62.553 E.08109
G1 X31.586 Y62.553 E.06419
G1 X31.586 Y60.249 E.08109
G1 X32.094 Y60.757 F21000
G1 F3000
G1 X32.902 Y60.757 E.02844
G1 X32.902 Y62.045 E.04535
