; HEADER_BLOCK_START
; generated by OrcaSlicer 1.7.0-beta on 2023-09-22 at 18:19:02
; total layer number: 105
; HEADER_BLOCK_END

; THUMBNAIL_BLOCK_START
; THUMBNAIL_BLOCK_END

; external perimeters extrusion width = 0.40mm
; perimeters extrusion width = 0.46mm
; infill extrusion width = 0.64mm
; solid infill extrusion width = 0.56mm
; top infill extrusion width = 0.40mm
; support material extrusion width = 0.46mm
; first layer extrusion width = 0.50mm

; EXECUTABLE_BLOCK_START
EXCLUDE_OBJECT_DEFINE NAME=Unsaved_.stl_id_0_copy_0 CENTER=60,60 POLYGON=[[33.93,53.8014],[33.9469,53.429],[33.9511,53.3724],[34.5063,48.1754],[34.6066,47.5903],[34.8044,47.0306],[35.0939,46.5123],[35.4668,46.0504],[49.4289,32.4877],[49.8747,32.1426],[50.3772,31.8871],[50.9187,31.73],[51.48,31.677],[68.52,31.677],[69.0813,31.73],[69.6228,31.8871],[70.1253,32.1426],[70.5711,32.4877],[84.3149,45.8449],[84.7257,46.2734],[85.0581,46.7653],[85.3026,47.3062],[85.4522,47.8807],[86.0488,53.3712],[86.053,53.4277],[86.07,53.8014],[86.07,57.0396],[86.0511,57.4954],[86.0468,57.5613],[86.0199,57.8131],[85.989,58.0211],[85.9795,58.0697],[85.8816,58.5314],[85.8706,58.5736],[85.7386,59.0046],[85.7315,59.0258],[85.6244,59.3086],[85.5456,59.4924],[85.5401,59.5038],[85.3135,59.956],[85.2856,60.0057],[68.0001,88.3229],[64.9869,88.323],[51.9999,88.3229],[34.7144,60.0057],[34.6861,59.9553],[34.4593,59.5025],[34.4538,59.4911],[34.3756,59.3086],[34.2682,59.025],[34.2611,59.0037],[34.1294,58.5736],[34.1183,58.5312],[34.0206,58.0695],[34.011,58.021],[33.9801,57.8131],[33.9532,57.5606],[33.9489,57.4946],[33.93,57.0396],[33.93,53.8014]]
M73 P0 R25
;TYPE:Custom
START_PRINT T_BED=110 T_EXTRUDER=260
G90
G21
M83 ; use relative distances for extrusion
; Filament gcode

    PRESSURE_ADVANCE_SELECT FILAMENT=ABS
M106 S0
;LAYER_CHANGE
;Z:0.2
;HEIGHT:0.2
;BEFORE_LAYER_CHANGE
;0.2
G92 E0

;AFTER_LAYER_CHANGE
;0.2
;_SET_FAN_SPEED_CHANGING_LAYER
SET_VELOCITY_LIMIT ACCEL=1000 ACCEL_TO_DECEL=500
SET_VELOCITY_LIMIT SQUARE_CORNER_VELOCITY=9
G1 E-.5 F3000
G1 Z.2 F21000
G1 X38.204 Y39.329
G1 Z.2
G1 E.5 F1800
;TYPE:Skirt
;WIDTH:0.5
G1 F3000
G1 X47.398 Y30.397 E.45113
G1 X48.091 Y29.838 E.03133
G1 X49.056 Y29.29 E.03907
G1 X50.107 Y28.931 E.03907
G1 X51.48 Y28.763 E.04869
G1 X68.794 Y28.776 E.60934
G1 X69.893 Y28.931 E.03907
G1 X70.944 Y29.29 E.03907
G1 X71.909 Y29.838 E.03907
G1 X72.602 Y30.398 E.03135
G1 X86.346 Y43.755 E.6745
G1 X86.83 Y44.257 E.02453
G1 X87.473 Y45.133 E.03825
G1 X87.958 Y46.106 E.03825
G1 X88.274 Y47.156 E.0386
G1 X88.926 Y52.915 E.20396
G1 X88.978 Y57.228 E.1518
G1 X88.879 Y58.375 E.04051
G1 X88.634 Y59.499 E.04051
G1 X88.245 Y60.583 E.04051
G1 X87.773 Y61.524 E.03707
G1 X70.487 Y89.841 E1.16759
G1 X69.39 Y90.884 E.05327
G1 X68 Y91.237 E.05048
G1 X52 Y91.237 E.56311
G1 X50.538 Y90.844 E.05327
G1 X49.513 Y89.841 E.05048
G1 X32.227 Y61.524 E1.16759
G1 X31.755 Y60.583 E.03707
G1 X31.27 Y59.135 E.05372
G1 X31.072 Y58.001 E.04051
G1 X31.016 Y53.801 E.14782
G1 X31.608 Y47.868 E.20987
G1 X31.859 Y46.619 E.04481
G1 X32.26 Y45.609 E.03825
G1 X32.55 Y45.091 E.02089
G1 X33.436 Y43.96 E.05057
G1 X38.175 Y39.357 E.23251
G1 X38.494 Y39.685 F21000
G1 F3000
G1 X47.717 Y30.725 E.45253
G1 X48.371 Y30.2 E.02953
G1 X49.263 Y29.697 E.03605
G1 X50.234 Y29.37 E.03605
G1 X51.48 Y29.22 E.04416
G1 X68.751 Y29.231 E.60783
G1 X69.766 Y29.37 E.03605
G1 X70.737 Y29.697 E.03605
G1 X71.629 Y30.2 E.03605
G1 X72.284 Y30.726 E.02955
G1 X86.027 Y44.083 E.6745
G1 X86.5 Y44.573 E.02396
G1 X87.094 Y45.389 E.03553
G1 X87.542 Y46.294 E.03553
G1 X87.896 Y47.622 E.04836
G1 X88.47 Y52.949 E.18856
G1 X88.522 Y57.198 E.14957
G1 X88.431 Y58.287 E.03843
G1 X88.2 Y59.354 E.03843
G1 X87.834 Y60.383 E.03843
G1 X87.383 Y61.286 E.03553
G1 X70.097 Y89.603 E1.16759
G1 X69.069 Y90.535 E.04884
G1 X68 Y90.78 E.0386
G1 X52 Y90.78 E.56311
G1 X50.669 Y90.388 E.04884
G1 X49.903 Y89.603 E.0386
G1 X32.617 Y61.286 E1.16759
G1 X32.166 Y60.383 E.03554
G1 X31.718 Y59.047 E.04957
G1 X31.528 Y57.972 E.03843
G1 X31.473 Y53.801 E.14679
G1 X32.063 Y47.916 E.20817
G1 X32.29 Y46.772 E.04106
G1 X32.488 Y46.212 E.02089
G1 X32.949 Y45.314 E.03553
G1 X33.755 Y44.288 E.04592
G1 X38.465 Y39.712 E.23111
; printing object (Unsaved).stl id:0 copy 0
G1 E-.5
EXCLUDE_OBJECT_START NAME=Unsaved_.stl_id_0_copy_0
G1 Z.4 F21000
G1 X84.318 Y50.661 Z.4
G1 Z.2
G1 E.5 F1800
;TYPE:Outer wall
G1 F3000
G1 X84.608 Y50.974 E.015
G1 X85.001 Y51.468 E.02224
G1 X85.31 Y52.005 E.02178
G1 X85.535 Y52.581 E.02178
G1 X85.673 Y53.184 E.02178
G1 X85.72 Y53.814 E.02224
G1 X85.72 Y57.028 E.11311
G1 X85.672 Y57.768 E.02608
G1 X85.532 Y58.484 E.02568
G1 X85.3 Y59.176 E.02568
G1 X84.981 Y59.832 E.02568
G1 X84.58 Y60.442 E.02568
G1 X84.103 Y60.995 E.02568
G1 X83.551 Y61.49 E.02608
G1 X72.077 Y70.504 E.51354
G1 X71.255 Y71.244 E.03893
G1 X70.519 Y72.049 E.03837
G1 X69.865 Y72.904 E.03789
G1 X69.284 Y73.801 E.03762
G1 X68.771 Y74.735 E.0375
G1 X68.327 Y75.704 E.0375
G1 X67.954 Y76.706 E.03763
G1 X67.65 Y77.776 E.03914
G1 X67.65 Y87.973 E.35888
G1 X52.35 Y87.973 E.53848
G1 X52.35 Y77.776 E.35888
G1 X52.046 Y76.706 E.03914
G1 X51.673 Y75.704 E.03763
G1 X51.229 Y74.735 E.0375
G1 X50.716 Y73.801 E.0375
G1 X50.135 Y72.904 E.03762
G1 X49.481 Y72.049 E.03789
G1 X48.745 Y71.244 E.03837
G1 X47.923 Y70.504 E.03893
G1 X36.449 Y61.49 E.51354
G1 X35.897 Y60.995 E.02608
G1 X35.42 Y60.442 E.02568
G1 X35.019 Y59.832 E.02568
G1 X34.7 Y59.176 E.02568
G1 X34.468 Y58.484 E.02568
G1 X34.328 Y57.768 E.02568
G1 X34.28 Y57.028 E.02608
G1 X34.28 Y53.814 E.11311
G1 X34.327 Y53.184 E.02224
G1 X34.465 Y52.581 E.02178
G1 X34.69 Y52.005 E.02178
G1 X34.999 Y51.468 E.02178
G1 X35.392 Y50.974 E.02224
G1 X35.688 Y50.654 E.01533
G1 X35.389 Y50.243 E.01788
G1 X35.124 Y49.769 E.01911
G1 X34.947 Y49.266 E.0188
G1 X34.856 Y48.739 E.0188
G1 X34.856 Y48.205 E.0188
G1 X34.947 Y47.679 E.0188
G1 X35.124 Y47.175 E.0188
G1 X35.385 Y46.709 E.0188
G1 X35.72 Y46.293 E.0188
G1 X36.121 Y45.941 E.0188
G1 X36.576 Y45.661 E.0188
G1 X37.072 Y45.462 E.01879
G1 X38.38 Y45.188 E.04703
G1 X39.227 Y44.945 E.03101
G1 X40.052 Y44.631 E.03107
G1 X40.848 Y44.247 E.03109
G1 X41.608 Y43.797 E.0311
G1 X42.327 Y43.283 E.03112
G1 X43 Y42.709 E.03113
G1 X43.614 Y42.085 E.03079
G1 X45.796 Y39.726 E.11311
G1 X46.502 Y38.896 E.03835
G1 X47.143 Y38.006 E.0386
G1 X47.707 Y37.066 E.0386
G1 X48.193 Y36.082 E.0386
G1 X48.597 Y35.062 E.0386
G1 X48.908 Y34.035 E.03777
G1 X49.086 Y33.545 E.01835
G1 X49.34 Y33.117 E.01752
G1 X49.669 Y32.744 E.01752
G1 X50.063 Y32.44 E.01752
G1 X50.506 Y32.214 E.01752
G1 X50.984 Y32.075 E.01752
G1 X51.496 Y32.027 E.0181
G1 X53.727 Y32.027 E.0785
G1 X53.727 Y41.827 E.3449
G1 X66.427 Y41.827 E.44696
G1 X66.427 Y32.027 E.3449
G1 X68.504 Y32.027 E.07308
G1 X69.016 Y32.075 E.0181
G1 X69.494 Y32.214 E.01752
G1 X69.937 Y32.44 E.01752
G1 X70.331 Y32.744 E.01752
G1 X70.66 Y33.117 E.01752
G1 X70.914 Y33.545 E.01752
G1 X71.092 Y34.035 E.01835
G1 X71.403 Y35.062 E.03777
G1 X71.807 Y36.082 E.0386
G1 X72.293 Y37.066 E.0386
G1 X72.857 Y38.006 E.0386
G1 X73.498 Y38.896 E.0386
G1 X74.204 Y39.726 E.03835
G1 X76.387 Y42.086 E.11315
G1 X77 Y42.71 E.03077
G1 X77.673 Y43.284 E.03111
G1 X78.392 Y43.797 E.0311
G1 X79.152 Y44.247 E.03109
G1 X79.947 Y44.631 E.03107
G1 X80.772 Y44.945 E.03106
G1 X81.62 Y45.188 E.03106
G1 X82.655 Y45.391 E.03711
G1 X83.177 Y45.551 E.0192
G1 X83.653 Y45.791 E.0188
G1 X84.083 Y46.109 E.0188
G1 X84.452 Y46.494 E.0188
G1 X84.751 Y46.937 E.0188
G1 X84.971 Y47.423 E.01879
G1 X85.106 Y47.945 E.01898
G1 X85.151 Y48.472 E.01862
G1 X85.106 Y49.004 E.0188
G1 X84.971 Y49.521 E.0188
G1 X84.751 Y50.009 E.01885
G1 X84.34 Y50.628 E.02612
G1 X83.718 Y50.748 F21000
;TYPE:Inner wall
G1 F3000
G1 X84.228 Y51.3 E.02644
G1 X84.586 Y51.75 E.02027
G1 X84.858 Y52.222 E.01915
G1 X85.056 Y52.728 E.01915
G1 X85.177 Y53.259 E.01915
G1 X85.22 Y53.833 E.02027
G1 X85.22 Y57.012 E.11188
G1 X85.175 Y57.703 E.02438
G1 X85.047 Y58.356 E.02341
G1 X84.836 Y58.986 E.02341
G1 X84.545 Y59.585 E.02341
G1 X84.18 Y60.14 E.02341
G1 X83.746 Y60.644 E.02341
G1 X83.23 Y61.106 E.02438
G1 X71.755 Y70.121 E.51357
G1 X70.903 Y70.889 E.04037
G1 X70.136 Y71.727 E.03999
G1 X69.456 Y72.615 E.03935
G1 X68.854 Y73.544 E.03895
G1 X68.324 Y74.51 E.03878
G1 X67.864 Y75.512 E.03879
G1 X67.479 Y76.55 E.03898
G1 X67.15 Y77.706 E.04228
G1 X67.15 Y87.473 E.34373
G1 X52.85 Y87.473 E.50328
G1 X52.85 Y77.706 E.34373
G1 X52.521 Y76.55 E.04228
G1 X52.136 Y75.512 E.03898
G1 X51.676 Y74.51 E.03879
G1 X51.146 Y73.544 E.03877
G1 X50.544 Y72.615 E.03895
G1 X49.864 Y71.727 E.03935
G1 X49.097 Y70.889 E.03999
G1 X48.245 Y70.121 E.04037
G1 X36.77 Y61.106 E.51357
G1 X36.254 Y60.644 E.02438
G1 X35.82 Y60.14 E.02341
G1 X35.455 Y59.585 E.02341
G1 X35.164 Y58.986 E.02341
G1 X34.953 Y58.356 E.02341
G1 X34.825 Y57.703 E.02341
G1 X34.78 Y57.012 E.02438
G1 X34.78 Y53.833 E.11188
G1 X34.823 Y53.259 E.02027
G1 X34.944 Y52.728 E.01915
G1 X35.142 Y52.222 E.01915
G1 X35.414 Y51.75 E.01915
G1 X35.772 Y51.3 E.02027
G1 X36.334 Y50.692 E.02913
G1 X35.811 Y49.973 E.03128
G1 X35.582 Y49.562 E.01656
M73 P1 R25
G1 X35.432 Y49.139 E.0158
G1 X35.356 Y48.697 E.0158
G1 X35.356 Y48.248 E.0158
G1 X35.432 Y47.805 E.0158
G1 X35.582 Y47.382 E.0158
G1 X35.801 Y46.99 E.0158
G1 X36.083 Y46.641 E.0158
G1 X36.42 Y46.344 E.0158
G1 X36.802 Y46.109 E.0158
G1 X37.217 Y45.942 E.01574
G1 X38.5 Y45.674 E.04613
G1 X39.385 Y45.42 E.0324
G1 X40.25 Y45.09 E.03257
G1 X41.084 Y44.688 E.03259
G1 X41.881 Y44.216 E.03261
G1 X42.636 Y43.678 E.03263
G1 X43.341 Y43.075 E.03265
G1 X43.976 Y42.431 E.03183
G1 X46.17 Y40.058 E.11374
G1 X46.896 Y39.205 E.03943
G1 X47.561 Y38.281 E.04005
G1 X48.147 Y37.306 E.04005
G1 X48.651 Y36.285 E.04005
G1 X49.069 Y35.227 E.04005
G1 X49.383 Y34.193 E.03802
G1 X49.54 Y33.76 E.01623
G1 X49.745 Y33.413 E.01419
G1 X50.013 Y33.111 E.01419
G1 X50.332 Y32.864 E.01419
G1 X50.691 Y32.681 E.01419
G1 X51.078 Y32.569 E.01419
G1 X51.52 Y32.527 E.01561
G1 X53.227 Y32.527 E.06008
G1 X53.227 Y42.327 E.3449
G1 X66.927 Y42.327 E.48216
G1 X66.927 Y32.527 E.3449
G1 X68.48 Y32.527 E.05466
G1 X68.922 Y32.569 E.01561
G1 X69.309 Y32.681 E.01419
G1 X69.668 Y32.864 E.0142
G1 X69.987 Y33.111 E.01419
G1 X70.255 Y33.413 E.01419
G1 X70.46 Y33.76 E.01419
G1 X70.617 Y34.193 E.01623
G1 X70.931 Y35.227 E.03802
G1 X71.349 Y36.285 E.04005
G1 X71.853 Y37.306 E.04005
G1 X72.439 Y38.281 E.04005
G1 X73.104 Y39.205 E.04005
G1 X73.83 Y40.058 E.03943
G1 X76.025 Y42.432 E.11379
G1 X76.659 Y43.076 E.03181
G1 X77.364 Y43.678 E.03263
G1 X78.119 Y44.217 E.03262
G1 X78.915 Y44.688 E.03259
G1 X79.749 Y45.09 E.03257
G1 X80.613 Y45.42 E.03255
G1 X81.503 Y45.675 E.03257
G1 X82.533 Y45.876 E.03696
G1 X82.989 Y46.016 E.01679
G1 X83.39 Y46.218 E.0158
G1 X83.751 Y46.485 E.0158
G1 X84.062 Y46.809 E.0158
G1 X84.313 Y47.181 E.0158
G1 X84.498 Y47.59 E.01578
G1 X84.612 Y48.03 E.01599
G1 X84.649 Y48.472 E.01563
G1 X84.611 Y48.92 E.0158
G1 X84.498 Y49.354 E.0158
G1 X84.312 Y49.766 E.01593
G1 X83.684 Y50.712 E.03994
G1 X83.691 Y50.719 E.00034
G1 E-.5
G1 Z.4 F21000
G1 X83.815 Y48.472 Z.4
G1 X83.788 Y48.166
G1 X83.711 Y47.869
G1 X83.584 Y47.589
G1 X83.412 Y47.334
G1 X83.2 Y47.112
G1 X82.953 Y46.929
G1 X82.678 Y46.791
G1 X82.384 Y46.701
G1 X82.08 Y46.65
G1 X81.767 Y46.634
G1 X81.455 Y46.65
G1 X81.371 Y46.663
G1 X81.382 Y46.734
G1 Z.2
G1 E.5 F1800
;TYPE:Outer wall
G1 F3000
G1 X81.463 Y46.702 E.00308
G1 X81.767 Y46.636 E.01096
G1 X82.081 Y46.623 E.01105
G1 X82.393 Y46.663 E.01105
G1 X82.693 Y46.754 E.01105
G1 X82.973 Y46.896 E.01105
G1 X83.226 Y47.083 E.01105
G1 X83.443 Y47.309 E.01105
G1 X83.619 Y47.569 E.01105
G1 X83.748 Y47.855 E.01105
G1 X83.827 Y48.159 E.01105
G1 X83.854 Y48.472 E.01105
G1 X83.827 Y48.785 E.01105
G1 X83.749 Y49.087 E.01099
G1 X83.617 Y49.377 E.0112
G1 X83.443 Y49.635 E.01096
G1 X83.226 Y49.862 E.01105
G1 X82.973 Y50.049 E.01105
G1 X82.693 Y50.19 E.01105
G1 X82.393 Y50.282 E.01105
G1 X82.081 Y50.322 E.01105
G1 X81.767 Y50.308 E.01105
G1 X81.46 Y50.242 E.01105
G1 X81.169 Y50.125 E.01105
G1 X80.902 Y49.961 E.01105
G1 X80.666 Y49.753 E.01105
G1 X80.469 Y49.509 E.01105
G1 X80.316 Y49.235 E.01105
G1 X80.211 Y48.939 E.01105
G1 X80.158 Y48.629 E.01105
G1 X80.158 Y48.315 E.01105
G1 X80.211 Y48.006 E.01105
G1 X80.316 Y47.71 E.01105
G1 X80.469 Y47.436 E.01105
G1 X80.666 Y47.191 E.01105
G1 X80.902 Y46.984 E.01105
G1 X81.168 Y46.82 E.011
G1 X81.345 Y46.749 E.00671
G1 X81.352 Y46.214 F21000
;TYPE:Inner wall
G1 F3000
G1 X81.704 Y46.138 E.01266
G1 X82.102 Y46.121 E.01405
G1 X82.498 Y46.172 E.01405
G1 X82.88 Y46.289 E.01405
G1 X83.236 Y46.469 E.01405
G1 X83.557 Y46.706 E.01405
G1 X83.833 Y46.994 E.01405
G1 X84.057 Y47.325 E.01405
G1 X84.221 Y47.688 E.01405
G1 X84.322 Y48.075 E.01405
G1 X84.356 Y48.472 E.01405
G1 X84.322 Y48.87 E.01405
G1 X84.222 Y49.255 E.01399
G1 X84.055 Y49.622 E.01419
G1 X83.833 Y49.95 E.01395
G1 X83.557 Y50.239 E.01405
G1 X83.236 Y50.476 E.01405
G1 X82.88 Y50.656 E.01405
G1 X82.498 Y50.772 E.01405
G1 X82.102 Y50.823 E.01405
G1 X81.704 Y50.806 E.01405
G1 X81.314 Y50.722 E.01405
G1 X80.943 Y50.573 E.01405
G1 X80.603 Y50.364 E.01405
G1 X80.304 Y50.1 E.01405
G1 X80.053 Y49.79 E.01405
G1 X79.858 Y49.441 E.01405
G1 X79.725 Y49.065 E.01405
G1 X79.658 Y48.672 E.01405
G1 X79.658 Y48.273 E.01405
G1 X79.725 Y47.879 E.01405
G1 X79.858 Y47.503 E.01405
G1 X80.053 Y47.155 E.01405
G1 X80.304 Y46.844 E.01405
G1 X80.603 Y46.58 E.01405
G1 X80.942 Y46.372 E.014
G1 X81.313 Y46.223 E.01407
G1 E-.5
G1 Z.4 F21000
G1 X82.678 Y46.791 Z.4
G1 X82.953 Y46.929
G1 X83.2 Y47.112
G1 X83.412 Y47.334
G1 X83.584 Y47.589
G1 X83.711 Y47.869
G1 X83.788 Y48.166
G1 X83.815 Y48.472
G1 X84.029 Y54.871
G1 X83.75 Y54.96
G1 Z.2
G1 E.5 F1800
;TYPE:Outer wall
G1 F3000
G1 X83.766 Y54.998 E.00146
G1 X83.828 Y55.471 E.01679
G1 X83.766 Y55.944 E.01679
G1 X83.583 Y56.385 E.01679
G1 X83.293 Y56.764 E.01679
G1 X82.914 Y57.054 E.01679
G1 X82.473 Y57.237 E.01679
G1 X82 Y57.299 E.0168
G1 X81.527 Y57.237 E.01679
G1 X81.086 Y57.054 E.01679
G1 X80.707 Y56.764 E.01679
G1 X80.417 Y56.385 E.01679
G1 X80.234 Y55.944 E.0168
G1 X80.172 Y55.471 E.01679
G1 X80.234 Y54.998 E.01679
G1 X80.417 Y54.557 E.01679
G1 X80.707 Y54.178 E.01679
G1 X81.086 Y53.888 E.01679
G1 X81.527 Y53.705 E.01679
G1 X82 Y53.643 E.01679
G1 X82.473 Y53.705 E.0168
G1 X82.914 Y53.888 E.01679
G1 X83.293 Y54.178 E.0168
G1 X83.583 Y54.557 E.01679
G1 X83.735 Y54.923 E.01393
G1 X84.234 Y54.821 F21000
;TYPE:Inner wall
G1 F3000
G1 X84.253 Y54.867 E.00178
G1 X84.332 Y55.471 E.02143
G1 X84.253 Y56.075 E.02143
G1 X84.02 Y56.637 E.02143
G1 X83.649 Y57.12 E.02143
G1 X83.166 Y57.491 E.02143
G1 X82.604 Y57.724 E.02143
G1 X82 Y57.803 E.02143
G1 X81.396 Y57.724 E.02143
G1 X80.834 Y57.491 E.02143
G1 X80.351 Y57.12 E.02143
G1 X79.98 Y56.637 E.02143
G1 X79.747 Y56.075 E.02143
G1 X79.668 Y55.471 E.02143
G1 X79.747 Y54.867 E.02143
G1 X79.98 Y54.305 E.02143
G1 X80.351 Y53.822 E.02143
G1 X80.834 Y53.451 E.02143
G1 X81.396 Y53.218 E.02143
G1 X82 Y53.139 E.02143
G1 X82.604 Y53.218 E.02143
G1 X83.166 Y53.451 E.02143
G1 X83.649 Y53.822 E.02143
G1 X84.02 Y54.305 E.02143
G1 X84.218 Y54.784 E.01824
G1 E-.5
G1 Z.4 F21000
G1 X83.532 Y53.939 Z.4
G1 X83.083 Y53.595
G1 X82.561 Y53.378
G1 X82 Y53.304
G1 X60.44 Y55.536
G1 X38 Y57.638
G1 X37.439 Y57.564
G1 X36.917 Y57.347
G1 X36.468 Y57.003
G1 X36.124 Y56.554
G1 X35.984 Y56.112
G1 X36.267 Y56.022
G1 Z.2
G1 E.5 F1800
;TYPE:Outer wall
G1 F3000
G1 X36.234 Y55.944 E.00298
G1 X36.172 Y55.471 E.01679
G1 X36.234 Y54.998 E.01679
G1 X36.417 Y54.557 E.01679
G1 X36.707 Y54.178 E.01679
G1 X37.086 Y53.888 E.01679
G1 X37.527 Y53.705 E.01679
G1 X38 Y53.643 E.0168
G1 X38.473 Y53.705 E.01679
G1 X38.914 Y53.888 E.01679
G1 X39.293 Y54.178 E.01679
G1 X39.583 Y54.557 E.01679
G1 X39.766 Y54.998 E.01679
G1 X39.828 Y55.471 E.01679
G1 X39.766 Y55.944 E.01679
G1 X39.583 Y56.385 E.01679
G1 X39.293 Y56.764 E.01679
G1 X38.914 Y57.054 E.01679
G1 X38.473 Y57.237 E.01679
G1 X38 Y57.299 E.01679
G1 X37.527 Y57.237 E.01679
G1 X37.086 Y57.054 E.01679
G1 X36.707 Y56.764 E.01679
G1 X36.417 Y56.385 E.01679
G1 X36.282 Y56.059 E.01241
G1 X35.767 Y56.122 F21000
;TYPE:Inner wall
G1 F3000
G1 X35.747 Y56.075 E.00182
G1 X35.668 Y55.471 E.02143
G1 X35.747 Y54.867 E.02143
