; HEADER_BLOCK_START
; generated by OrcaSlicer 1.6.3 on 2023-06-18 at 14:55:18
; total layer number: 53
; HEADER_BLOCK_END

; THUMBNAIL_BLOCK_START
; THUMBNAIL_BLOCK_END

; external perimeters extrusion width = 0.40mm
; perimeters extrusion width = 0.45mm
; infill extrusion width = 0.45mm
; solid infill extrusion width = 0.40mm
; top infill extrusion width = 0.40mm
; first layer extrusion width = 0.50mm

; EXECUTABLE_BLOCK_START
EXCLUDE_OBJECT_DEFINE NAME=(Unsaved).stl_id_0_copy_0 CENTER=60,60 POLYGON=[[37.4916,36.354],[37.4917,27.854],[37.5,26.375],[40.0307,26.375],[42.7147,26.375],[78.6722,26.375],[80.5513,26.375],[81.9029,26.375],[82.3906,26.375],[82.4995,26.375],[82.5079,37.354],[82.5084,45.8544],[82.5081,59.875],[65.9997,93.625],[53.9997,93.625],[37.5,59.875],[37.4916,36.354]]
M73 P0 R22
;TYPE:Custom
START_PRINT T_BED=110 T_EXTRUDER=260
G90
G21
M83 ; use relative distances for extrusion
; Filament gcode

    PRESSURE_ADVANCE_SELECT FILAMENT=ABS
M106 S0
;LAYER_CHANGE
;Z:0.2
;HEIGHT:0.2
;BEFORE_LAYER_CHANGE
;0.2
G92 E0

;AFTER_LAYER_CHANGE
;0.2
SET_VELOCITY_LIMIT ACCEL_TO_DECEL=500
M204 S1000
G1 E-.5 F3000
G1 Z.2 F21000
G1 X39.539 Y24.837
G1 E.5 F1800
;TYPE:Skirt
;WIDTH:0.5
G1 F3000
G1 X40.644 Y23.803 E.05327
G1 X42.014 Y23.461 E.04969
G1 X77.986 Y23.461 E1.26599
G1 X79.447 Y23.854 E.05327
G1 X80.515 Y24.927 E.05327
G1 X80.9 Y26.363 E.05231
G1 X80.9 Y59.884 E1.17975
M73 P0 R21
G1 X80.732 Y60.85 E.0345
G1 X68.746 Y94.6 E1.26047
G1 X67.886 Y95.846 E.05327
G1 X66 Y96.539 E.07073
G1 X54 Y96.539 E.42233
G1 X52.538 Y96.146 E.05327
G1 X51.254 Y94.6 E.07073
G1 X39.268 Y60.85 E1.26047
G1 X39.1 Y59.88 E.03466
G1 X39.064 Y27.55 E1.1378
G1 X39.101 Y26.286 E.04451
G1 X39.521 Y24.894 E.05116
G1 X39.97 Y25.042 F21000
G1 F3000
G1 X39.99 Y24.981 E.00223
G1 X41.068 Y24.107 E.04884
G1 X42.014 Y23.918 E.03395
G1 X77.986 Y23.918 E1.26599
G1 X79.317 Y24.31 E.04884
G1 X80.223 Y25.36 E.04884
G1 X80.443 Y26.365 E.03619
G1 X80.443 Y59.883 E1.17963
G1 X80.301 Y60.697 E.02909
G1 X68.315 Y94.447 E1.26047
G1 X67.5 Y95.571 E.04884
G1 X66 Y96.082 E.0558
G1 X54 Y96.082 E.42233
G1 X52.668 Y95.69 E.04884
G1 X51.684 Y94.447 E.0558
G1 X39.699 Y60.697 E1.26047
G1 X39.557 Y59.879 E.02922
G1 X39.521 Y27.55 E1.13777
G1 X39.558 Y26.3 E.04402
G1 X39.952 Y25.099 E.04449
; printing object (Unsaved).stl id:0 copy 0
EXCLUDE_OBJECT_START NAME=(Unsaved).stl_id_0_copy_0
G1 E-.5
G1 Z.4 F21000
G1 X60.386 Y54.283
G1 Z.2
G1 E.5 F1800
;TYPE:Outer wall
G1 F3000
G1 X60.464 Y54.292 E.00278
G1 X60.901 Y54.473 E.01664
G1 X61.275 Y54.759 E.01656
G1 X61.561 Y55.133 E.01657
G1 X61.741 Y55.568 E.01657
G1 X61.8 Y56.011 E.01575
G1 X61.8 Y90.398 E1.2102
G1 X61.741 Y90.842 E.01575
G1 X61.561 Y91.277 E.01657
G1 X61.275 Y91.65 E.01657
G1 X60.901 Y91.936 E.01657
G1 X60.466 Y92.117 E.01657
G1 X60 Y92.178 E.01657
G1 X59.533 Y92.117 E.01657
G1 X59.126 Y91.948 E.01549
G1 X58.726 Y91.652 E.01753
G1 X58.438 Y91.277 E.01664
G1 X58.258 Y90.842 E.01657
G1 X58.2 Y90.398 E.01575
G1 X58.2 Y56.011 E1.2102
G1 X58.258 Y55.568 E.01575
G1 X58.438 Y55.133 E.01657
G1 X58.725 Y54.759 E.01657
G1 X59.098 Y54.473 E.01657
G1 X59.533 Y54.293 E.01657
G1 X59.97 Y54.235 E.01549
G1 X60.326 Y54.276 E.01264
G1 X60.395 Y54.27
G1 E-.5
G1 Z.4 F21000
G1 X60.371 Y53.941
G1 X51.66 Y45.475
G1 X51.32 Y44.6
G1 X56.271 Y38.6
G1 Z.2
G1 E.5 F1800
;TYPE:Inner wall
G1 F3000
G1 X58.586 Y36.48 E.11048
G1 X58.934 Y36.232 E.01503
G1 X59.434 Y36.038 E.0189
G1 X59.967 Y35.971 E.0189
G1 X60.5 Y36.037 E.0189
G1 X61.001 Y36.232 E.0189
G1 X61.349 Y36.48 E.01503
G1 X68.317 Y42.865 E.33263
G1 X68.587 Y43.179 E.01459
G1 X68.823 Y43.644 E.01834
G1 X68.941 Y44.152 E.01834
G1 X68.935 Y44.673 E.01834
G1 X68.806 Y45.178 E.01834
G1 X68.56 Y45.638 E.01834
G1 X68.212 Y46.026 E.01834
G1 X67.782 Y46.32 E.01834
G1 X67.294 Y46.503 E.01834
G1 X66.883 Y46.553 E.01459
G1 X65.047 Y46.553 E.0646
G1 X64.697 Y46.232 E.01673
G1 X64.572 Y46.554 E.01216
G1 X60.895 Y46.551 E.12941
G1 X60.348 Y46.478 E.01941
G1 X60.218 Y46.423 E.00496
G1 X58.732 Y46.547 E.0525
G1 X56.366 Y46.547 E.08327
G1 X55.003 Y46.464 E.04804
G1 X54.675 Y46.526 E.01176
G1 X54.044 Y46.55 E.0222
G1 X50.923 Y46.555 E.10985
G1 X50.048 Y44.304 E.08502
G1 X56.227 Y38.641 E.29498
G1 X56.964 Y38.586 F21000
G1 F3000
G1 X58.874 Y36.836 E.09118
G1 X59.152 Y36.638 E.01203
G1 X59.547 Y36.484 E.0149
G1 X59.967 Y36.432 E.0149
G1 X60.388 Y36.484 E.0149
G1 X60.782 Y36.638 E.0149
G1 X61.061 Y36.836 E.01203
G1 X67.988 Y43.183 E.33067
M73 P1 R21
G1 X68.204 Y43.435 E.01168
G1 X68.39 Y43.802 E.01446
G1 X68.483 Y44.202 E.01446
G1 X68.479 Y44.613 E.01446
G1 X68.377 Y45.011 E.01446
G1 X68.183 Y45.373 E.01446
G1 X67.909 Y45.679 E.01446
G1 X67.57 Y45.911 E.01446
G1 X67.185 Y46.056 E.01446
G1 X66.856 Y46.096 E.01168
G1 X65.225 Y46.096 E.05738
G1 X64.513 Y45.443 E.03399
G1 X64.259 Y46.097 E.02466
G1 X60.925 Y46.094 E.11733
G1 X60.47 Y46.034 E.01616
G1 X60.119 Y45.884 E.01342
G1 X60.093 Y45.975 E.00333
G1 X58.71 Y46.09 E.04883
G1 X56.38 Y46.09 E.08199
G1 X54.974 Y46.004 E.04959
G1 X54.623 Y46.07 E.01257
G1 X54.035 Y46.092 E.0207
G1 X51.236 Y46.097 E.09854
G1 X50.587 Y44.429 E.06299
G1 X56.919 Y38.627 E.30228
G1 X57.656 Y38.572 F21000
G1 F3000
G1 X59.162 Y37.192 E.07188
G1 X59.371 Y37.043 E.00904
G1 X59.66 Y36.931 E.01091
G1 X59.967 Y36.892 E.01091
G1 X60.275 Y36.931 E.01091
G1 X60.564 Y37.043 E.01091
G1 X60.773 Y37.192 E.00904
G1 X67.659 Y43.502 E.32871
G1 X67.822 Y43.691 E.00877
G1 X67.957 Y43.959 E.01058
G1 X68.026 Y44.252 E.01058
G1 X68.022 Y44.553 E.01058
G1 X67.948 Y44.844 E.01058
G1 X67.806 Y45.109 E.01058
G1 X67.605 Y45.333 E.01058
G1 X67.357 Y45.503 E.01058
G1 X67.076 Y45.609 E.01058
G1 X66.828 Y45.639 E.00877
G1 X65.403 Y45.639 E.05016
G1 X64.329 Y44.655 E.05125
G1 X63.946 Y45.639 E.03716
G1 X60.956 Y45.637 E.10525
G1 X60.592 Y45.589 E.01292
G1 X60.204 Y45.423 E.01485
G1 X59.856 Y45.149 E.01559
G1 X59.741 Y45.546 E.01452
G1 X58.689 Y45.633 E.03718
G1 X56.395 Y45.633 E.08072
G1 X55.356 Y45.569 E.03664
G1 X55.308 Y45.346 E.00803
G1 X54.952 Y45.543 E.01429
G1 X54.572 Y45.615 E.01362
G1 X54.026 Y45.635 E.0192
G1 X51.548 Y45.64 E.08722
G1 X51.126 Y44.555 E.04096
G1 X57.612 Y38.612 E.30958
G1 E-.5
G1 Z.4 F21000
G1 X51.32 Y44.6
G1 X51.66 Y45.475
G1 X52.889 Y45.475
G1 X53.306 Y45.437
G1 X55.635 Y44.656
G1 Z.2
G1 E.5 F1800
;TYPE:Outer wall
G1 F3000
G1 X55.716 Y44.496 E.00631
G1 X57.282 Y43.061 E.07475
G1 X57.434 Y42.979 E.00607
G1 X57.638 Y42.979 E.0072
G1 X57.79 Y43.061 E.00607
G1 X59.365 Y44.504 E.07516
G1 X59.456 Y44.731 E.00862
G1 X59.357 Y45.076 E.01262
G1 X58.665 Y45.133 E.02442
G1 X58.207 Y45.139 E.0161
G1 X56.411 Y45.133 E.06322
G1 X55.764 Y45.094 E.02281
G1 X55.727 Y44.92 E.00624
G1 X55.662 Y44.864 E.00301
G1 X55.643 Y44.716 E.00526
G1 X55.608 Y44.632
G1 E-.5
G1 Z.4 F21000
G1 X58.128 Y42.464
G1 X60.783 Y44.895
G1 X60.997 Y45.022
G1 X61.355 Y45.231
G1 X61.772 Y45.439
G1 X62.188 Y45.475
G1 X62.605 Y45.475
G1 X63.022 Y45.459
G1 X63.778 Y44.693
G1 Z.2
G1 E.5 F1800
G1 F3000
G1 X63.604 Y45.139 E.01686
G1 X60.989 Y45.137 E.09204
G1 X60.725 Y45.102 E.00936
G1 X60.461 Y44.989 E.01012
G1 X60.252 Y44.825 E.00937
G1 X59.567 Y44.089 E.03536
G1 X58.13 Y42.772 E.0686
G1 X58.008 Y42.686 E.00527
G1 X57.883 Y42.637 E.00472
G1 X57.747 Y42.619 E.00484
G1 X57.614 Y42.636 E.00471
G1 X57.489 Y42.684 E.00472
G1 X57.364 Y42.772 E.00537
G1 X55.027 Y44.93 E.11196
G1 X54.78 Y45.066 E.00992
G1 X54.515 Y45.117 E.00949
G1 X54.017 Y45.135 E.01757
G1 X51.89 Y45.139 E.07485
G1 X51.716 Y44.693 E.01686
G1 X57.146 Y39.718 E.25917
G1 X57.747 Y39.166 E.02872
G1 X63.734 Y44.652 E.28577
G1 X63.85 Y44.728
G1 E-.5
G1 Z.4 F21000
G1 X58.413 Y38.556
G1 Z.2
G1 E.5 F1800
G1 F3000
G1 X59.477 Y37.581 E.05077
G1 X59.61 Y37.486 E.00576
G1 X59.783 Y37.419 E.00653
G1 X59.967 Y37.396 E.00653
G1 X60.152 Y37.419 E.00653
G1 X60.325 Y37.486 E.00653
G1 X60.458 Y37.581 E.00576
G1 X67.299 Y43.85 E.32656
G1 X67.403 Y43.971 E.0056
G1 X67.484 Y44.132 E.00634
G1 X67.525 Y44.307 E.00634
G1 X67.523 Y44.487 E.00634
G1 X67.478 Y44.662 E.00634
G1 X67.393 Y44.821 E.00634
G1 X67.273 Y44.955 E.00634
G1 X67.125 Y45.056 E.00634
G1 X66.956 Y45.12 E.00634
G1 X66.798 Y45.139 E.0056
G1 X65.597 Y45.139 E.04226
G1 X58.457 Y38.596 E.34082
G1 X58.356 Y38.5
G1 E-.5
G1 Z.4 F21000
G1 X75.77 Y57.654
G1 Z.2
G1 E.5 F1800
;TYPE:Inner wall
G1 F3000
G1 X69.911 Y57.654 E.20618
G1 X69.019 Y57.725 E.03151
G1 X68.074 Y57.952 E.03419
G1 X67.177 Y58.324 E.03419
G1 X66.345 Y58.832 E.03431
G1 X65.601 Y59.466 E.03438
G1 X64.957 Y60.219 E.03488
G1 X64.448 Y61.053 E.03438
G1 X64.075 Y61.954 E.03433
G1 X63.913 Y62.631 E.02451
G1 X63.671 Y62.603 E.00858
G1 X63.671 Y55.889 E.2363
G1 X63.564 Y55.079 E.02874
G1 X63.196 Y54.189 E.03391
G1 X62.609 Y53.425 E.03391
G1 X61.845 Y52.838 E.03391
G1 X60.938 Y52.463 E.03455
G1 X59.954 Y52.35 E.03487
G1 X59.045 Y52.47 E.03227
G1 X58.155 Y52.838 E.03391
G1 X57.39 Y53.425 E.03391
G1 X56.804 Y54.189 E.0339
G1 X56.435 Y55.079 E.03391
G1 X56.328 Y55.889 E.02874
G1 X56.328 Y62.603 E.2363
G1 X56.086 Y62.631 E.00858
G1 X55.924 Y61.954 E.02451
G1 X55.552 Y61.053 E.03433
G1 X55.042 Y60.219 E.03439
G1 X54.398 Y59.466 E.03488
G1 X53.655 Y58.832 E.03438
G1 X52.823 Y58.324 E.03431
G1 X51.925 Y57.952 E.03419
G1 X50.981 Y57.725 E.0342
G1 X50.088 Y57.654 E.03151
G1 X44.235 Y57.654 E.20598
G1 X44.235 Y48.112 E.33581
G1 X44.207 Y38.475 E.33916
G1 X46.019 Y38.475 E.06376
G1 X46.813 Y38.397 E.02807
G1 X47.682 Y38.133 E.03198
G1 X48.484 Y37.705 E.03198
G1 X49.185 Y37.129 E.03193
G1 X49.761 Y36.428 E.03193
G1 X50.189 Y35.627 E.03198
G1 X50.453 Y34.757 E.03198
G1 X50.531 Y33.963 E.02808
G1 X50.531 Y30.245 E.13087
G1 X50.453 Y29.451 E.02808
G1 X50.194 Y28.596 E.03143
G1 X75.771 Y28.596 E.90018
G1 X75.792 Y35.233 E.23357
G1 X73.981 Y35.233 E.06374
G1 X73.187 Y35.311 E.02808
G1 X72.317 Y35.575 E.03198
G1 X71.516 Y36.003 E.03198
G1 X70.814 Y36.579 E.03193
G1 X70.239 Y37.28 E.03193
G1 X69.81 Y38.081 E.03198
G1 X69.547 Y38.951 E.03198
G1 X69.469 Y39.745 E.02808
G1 X69.468 Y43.442 E.13011
G1 X69.258 Y43.492 E.00762
G1 X68.97 Y42.924 E.02243
G1 X68.646 Y42.546 E.01749
G1 X61.637 Y36.124 E.33459
G1 X61.22 Y35.827 E.01802
G1 X60.613 Y35.591 E.0229
G1 X59.967 Y35.511 E.0229
G1 X59.322 Y35.591 E.0229
G1 X58.715 Y35.827 E.0229
G1 X58.298 Y36.124 E.01802
G1 X49.508 Y44.178 E.41957
G1 X50.611 Y47.013 E.10705
G1 X54.053 Y47.007 E.12116
G1 X54.726 Y46.981 E.0237
G1 X55.032 Y46.923 E.01096
G1 X56.351 Y47.005 E.0465
G1 X58.753 Y47.004 E.08455
G1 X60.143 Y46.888 E.04909
G1 X60.226 Y46.923 E.00316
G1 X60.864 Y47.008 E.02266
G1 X66.91 Y47.01 E.21279
G1 X67.404 Y46.951 E.01749
G1 X67.995 Y46.728 E.02222
G1 X68.516 Y46.372 E.02222
G1 X68.937 Y45.902 E.02222
G1 X69.235 Y45.345 E.02222
G1 X69.392 Y44.733 E.02222
G1 X69.394 Y44.554 E.0063
G1 X69.627 Y44.521 E.00828
G1 X69.81 Y45.127 E.02227
G1 X70.239 Y45.928 E.03198
G1 X70.814 Y46.629 E.03193
G1 X71.516 Y47.205 E.03193
G1 X72.317 Y47.633 E.03198
G1 X73.187 Y47.897 E.03198
G1 X73.981 Y47.975 E.02808
G1 X75.793 Y47.975 E.06379
G1 X75.77 Y57.594 E.33851
G1 X76.226 Y58.111 F21000
G1 F3000
G1 X69.93 Y58.111 E.22158
G1 X69.091 Y58.178 E.02961
G1 X68.216 Y58.388 E.03167
G1 X67.384 Y58.732 E.03167
G1 X66.614 Y59.203 E.03179
G1 X65.925 Y59.79 E.03184
G1 X65.329 Y60.489 E.03233
G1 X64.857 Y61.261 E.03184
G1 X64.511 Y62.096 E.0318
G1 X64.301 Y62.974 E.0318
G1 X64.236 Y63.806 E.02936
G1 X64.236 Y91.861 E.98736
G1 X62.85 Y91.861 E.04877
G1 X63.119 Y91.211 E.02476
G1 X63.214 Y90.491 E.02557
G1 X63.214 Y55.919 E1.21672
G1 X63.119 Y55.198 E.02557
G1 X62.796 Y54.419 E.02967
G1 X62.283 Y53.751 E.02967
G1 X61.614 Y53.237 E.02967
G1 X60.822 Y52.909 E.03017
G1 X59.957 Y52.81 E.03064
G1 X59.164 Y52.915 E.02817
G1 X58.385 Y53.237 E.02967
G1 X57.716 Y53.751 E.02967
G1 X57.203 Y54.419 E.02967
G1 X56.88 Y55.198 E.02967
G1 X56.786 Y55.919 E.02556
G1 X56.786 Y90.491 E1.21673
G1 X56.88 Y91.211 E.02557
G1 X57.15 Y91.861 E.02476
G1 X55.764 Y91.861 E.04877
G1 X55.764 Y63.806 E.98736
M73 P2 R21
G1 X55.699 Y62.974 E.02936
G1 X55.488 Y62.096 E.0318
G1 X55.143 Y61.261 E.0318
G1 X54.671 Y60.489 E.03185
G1 X54.074 Y59.79 E.03233
G1 X53.386 Y59.203 E.03184
G1 X52.615 Y58.732 E.03179
G1 X51.784 Y58.388 E.03167
G1 X50.909 Y58.178 E.03167
G1 X50.07 Y58.111 E.02961
G1 X43.778 Y58.111 E.22143
G1 X43.778 Y48.113 E.35188
G1 X43.749 Y38.018 E.35526
G1 X45.997 Y38.018 E.07911
G1 X46.723 Y37.947 E.0257
G1 X47.507 Y37.709 E.02881
G1 X48.228 Y37.323 E.02881
G1 X48.86 Y36.805 E.02877
G1 X49.379 Y36.173 E.02877
G1 X49.765 Y35.451 E.02881
G1 X50.002 Y34.668 E.02881
G1 X50.074 Y33.941 E.0257
G1 X50.074 Y30.267 E.12929
G1 X50.002 Y29.54 E.0257
G1 X49.765 Y28.757 E.02881
G1 X49.434 Y28.139 E.02466
G1 X76.227 Y28.139 E.94294
G1 X76.25 Y35.69 E.26574
G1 X74.003 Y35.69 E.07909
G1 X73.276 Y35.761 E.0257
G1 X72.493 Y35.999 E.02881
G1 X71.771 Y36.385 E.02881
G1 X71.139 Y36.903 E.02877
G1 X70.621 Y37.535 E.02877
G1 X70.235 Y38.257 E.02881
G1 X69.997 Y39.041 E.02881
G1 X69.926 Y39.767 E.0257
G1 X69.926 Y43.441 E.12928
G1 X69.997 Y44.167 E.0257
G1 X70.235 Y44.951 E.02881
G1 X70.621 Y45.673 E.02881
G1 X71.139 Y46.305 E.02877
G1 X71.771 Y46.823 E.02877
G1 X72.493 Y47.209 E.02881
G1 X73.276 Y47.447 E.02881
G1 X74.003 Y47.518 E.0257
G1 X76.251 Y47.518 E.07912
G1 X76.226 Y58.051 E.37069
G1 X76.682 Y58.568 F21000
G1 F3000
G1 X69.948 Y58.568 E.23699
G1 X69.163 Y58.63 E.02771
G1 X68.358 Y58.824 E.02915
G1 X67.592 Y59.141 E.02915
G1 X66.883 Y59.575 E.02926
G1 X66.249 Y60.115 E.0293
G1 X65.7 Y60.758 E.02978
G1 X65.265 Y61.468 E.02931
G1 X64.948 Y62.237 E.02927
G1 X64.754 Y63.046 E.02927
G1 X64.693 Y63.824 E.02746
G1 X64.693 Y92.318 E1.00282
G1 X61.968 Y92.318 E.09587
G1 X62.397 Y91.759 E.02479
G1 X62.674 Y91.092 E.02543
G1 X62.757 Y90.461 E.02239
G1 X62.757 Y55.949 E1.21462
G1 X62.674 Y55.318 E.02239
G1 X62.397 Y54.65 E.02543
G1 X61.957 Y54.077 E.02543
G1 X61.384 Y53.637 E.02543
G1 X60.707 Y53.356 E.0258
G1 X59.961 Y53.271 E.0264
G1 X59.283 Y53.36 E.02407
G1 X58.616 Y53.637 E.02543
G1 X58.042 Y54.077 E.02543
G1 X57.602 Y54.65 E.02543
G1 X57.326 Y55.318 E.02543
G1 X57.243 Y55.949 E.02239
G1 X57.243 Y90.461 E1.21462
G1 X57.326 Y91.092 E.02239
G1 X57.602 Y91.759 E.02543
G1 X58.031 Y92.318 E.02479
G1 X55.307 Y92.318 E.09587
G1 X55.307 Y63.824 E1.00282
G1 X55.246 Y63.046 E.02746
G1 X55.052 Y62.237 E.02927
G1 X54.734 Y61.468 E.02927
G1 X54.3 Y60.758 E.02931
G1 X53.75 Y60.115 E.02978
G1 X53.116 Y59.575 E.0293
G1 X52.407 Y59.141 E.02926
G1 X51.642 Y58.824 E.02915
G1 X50.837 Y58.63 E.02915
G1 X50.052 Y58.568 E.02771
G1 X43.321 Y58.568 E.23688
G1 X43.321 Y48.113 E.36795
G1 X43.29 Y37.561 E.37136
G1 X45.974 Y37.561 E.09445
G1 X46.634 Y37.496 E.02333
G1 X47.331 Y37.285 E.02564
G1 X47.973 Y36.941 E.02564
G1 X48.536 Y36.48 E.0256
G1 X48.997 Y35.918 E.0256
G1 X49.34 Y35.275 E.02564
G1 X49.552 Y34.578 E.02564
G1 X49.617 Y33.918 E.02333
G1 X49.617 Y30.29 E.12771
G1 X49.552 Y29.63 E.02333
G1 X49.34 Y28.933 E.02564
G1 X48.997 Y28.29 E.02564
G1 X48.498 Y27.682 E.0277
G1 X76.683 Y27.682 E.99194
G1 X76.709 Y36.147 E.29791
G1 X74.026 Y36.147 E.09444
G1 X73.366 Y36.212 E.02333
G1 X72.669 Y36.423 E.02564
G1 X72.026 Y36.767 E.02564
G1 X71.464 Y37.228 E.0256
G1 X71.003 Y37.791 E.0256
G1 X70.659 Y38.433 E.02564
G1 X70.448 Y39.13 E.02564
G1 X70.383 Y39.79 E.02333
G1 X70.383 Y43.418 E.1277
G1 X70.448 Y44.078 E.02333
G1 X70.659 Y44.775 E.02564
G1 X71.002 Y45.418 E.02564
G1 X71.464 Y45.98 E.0256
G1 X72.026 Y46.441 E.0256
G1 X72.669 Y46.785 E.02564
G1 X73.366 Y46.996 E.02564
G1 X74.026 Y47.061 E.02333
G1 X76.709 Y47.061 E.09446
G1 X76.682 Y58.508 E.40286
G1 X77.138 Y59.025 F21000
G1 F3000
G1 X69.966 Y59.025 E.2524
G1 X69.235 Y59.083 E.02581
G1 X68.499 Y59.26 E.02663
G1 X67.8 Y59.55 E.02663
G1 X67.152 Y59.946 E.02674
G1 X66.573 Y60.439 E.02676
G1 X66.071 Y61.027 E.02723
G1 X65.674 Y61.676 E.02677
G1 X65.384 Y62.378 E.02674
G1 X65.207 Y63.117 E.02674
G1 X65.15 Y63.842 E.02557
G1 X65.15 Y92.775 E1.01828
G1 X60.76 Y92.775 E.15448
G1 X60.716 Y92.554 E.00792
G1 X61.153 Y92.373 E.01665
G1 X61.631 Y92.007 E.0212
G1 X61.998 Y91.529 E.0212
G1 X62.228 Y90.972 E.0212
G1 X62.3 Y90.431 E.01922
G1 X62.3 Y55.978 E1.21251
G1 X62.228 Y55.437 E.01922
G1 X61.998 Y54.881 E.0212
