; HEADER_BLOCK_START
; generated by OrcaSlicer 1.6.3 on 2023-06-09 at 22:36:14
; total layer number: 41
; HEADER_BLOCK_END

; THUMBNAIL_BLOCK_START
; THUMBNAIL_BLOCK_END

; external perimeters extrusion width = 0.30mm
; perimeters extrusion width = 0.30mm
; infill extrusion width = 0.30mm
; solid infill extrusion width = 0.30mm
; top infill extrusion width = 0.30mm
; support material extrusion width = 0.30mm
; first layer extrusion width = 0.30mm

; EXECUTABLE_BLOCK_START
EXCLUDE_OBJECT_DEFINE NAME=(Unsaved).stl_id_0_copy_0 CENTER=60,60 POLYGON=[[50.625,54.998],[54.435,39.482],[54.439,39.466],[54.469,39.37],[54.483,39.338],[54.525,39.266],[54.555,39.224],[54.599,39.174],[54.651,39.13],[54.691,39.1],[54.763,39.058],[54.795,39.044],[54.891,39.014],[54.907,39.01],[54.965,39.002],[55.023,39],[59.019,39],[59.165,39.004],[59.253,39.012],[59.311,39.02],[59.455,39.048],[59.485,39.054],[59.599,39.086],[59.709,39.122],[59.737,39.132],[59.871,39.19],[59.925,39.216],[60.003,39.258],[60.127,39.334],[61.925,40.532],[65.925,43.198],[67.733,44.406],[67.831,44.48],[67.929,44.554],[68.105,44.724],[68.259,44.916],[68.387,45.126],[68.439,45.238],[68.489,45.348],[68.527,45.466],[68.563,45.582],[68.587,45.704],[68.609,45.824],[68.625,46.07],[69.375,61],[69.375,61.162],[69.373,61.302],[69.371,61.424],[69.369,61.48],[69.367,61.53],[68.625,78.998],[68.611,79.234],[68.607,79.26],[68.569,79.464],[68.555,79.516],[68.501,79.69],[68.471,79.764],[68.407,79.906],[68.355,80],[68.289,80.108],[68.277,80.126],[68.187,80.246],[68.147,80.296],[68.089,80.36],[67.985,80.464],[67.983,80.466],[67.841,80.586],[67.791,80.622],[67.687,80.692],[67.581,80.756],[67.525,80.784],[67.355,80.862],[67.177,80.922],[67.117,80.938],[66.995,80.964],[66.873,80.984],[66.811,80.99],[66.623,81],[55.123,81],[54.929,80.99],[54.873,80.982],[54.733,80.96],[54.625,80.936],[54.543,80.912],[54.385,80.858],[54.359,80.846],[54.181,80.762],[54.157,80.75],[54.013,80.662],[53.943,80.614],[53.855,80.544],[53.749,80.452],[53.621,80.318],[53.579,80.266],[53.539,80.216],[53.463,80.11],[53.443,80.082],[53.393,80],[53.339,79.902],[53.293,79.802],[53.251,79.7],[53.241,79.672],[53.181,79.472],[53.177,79.454],[53.137,79.228],[50.625,56.498],[50.625,54.998]]
M73 P0 R10
;TYPE:Custom
START_PRINT T_BED=110 T_EXTRUDER=260
G90
G21
M83 ; use relative distances for extrusion
; Filament gcode

    PRESSURE_ADVANCE_SELECT FILAMENT=ABS
M106 S0
;LAYER_CHANGE
;Z:0.2
;HEIGHT:0.2
;BEFORE_LAYER_CHANGE
;0.2
G92 E0

;AFTER_LAYER_CHANGE
;0.2
M204 S500
; printing object (Unsaved).stl id:0 copy 0
EXCLUDE_OBJECT_START NAME=(Unsaved).stl_id_0_copy_0
G1 E-.5 F3000
G1 Z.2 F21000
G1 X64.736 Y38.722
G1 E.5 F1800
;TYPE:Support
;WIDTH:0.3
G1 F3000
G1 X70.25 Y38.722 E.10915
G1 X70.25 Y41.479 E.05457
G1 X73.007 Y41.479 E.05457
G1 X73.007 Y50.693 E.18238
G1 X71.307 Y50.693 E.03365
G1 X71.307 Y48.693 E.03959
G1 X68.875 Y48.693 E.04814
G1 X68.875 Y47.394 E.0257
G1 X68.729 Y47.248 E.0041
G1 X64.027 Y47.248 E.09307
G1 X62.175 Y45.396 E.05183
G1 X62.175 Y40.469 E.09753
G1 X62.116 Y40.359 E.00248
G1 X60.263 Y39.124 E.04408
G1 X60.045 Y38.996 E.005
G1 X59.802 Y38.89 E.00524
G1 X59.537 Y38.809 E.00549
G1 X59.274 Y38.763 E.00528
G1 X58.022 Y38.751 E.02479
G1 X58.022 Y35.965 E.05515
G1 X64.736 Y35.965 E.1329
G1 X64.736 Y38.683 E.05381
G1 X64.122 Y47.017 F21000
G1 F3000
G1 X62.406 Y45.301 E.04804
G1 X62.406 Y40.411 E.09678
G1 X62.292 Y40.198 E.00478
G1 X60.388 Y38.929 E.0453
G1 X60.156 Y38.793 E.00533
G1 X59.888 Y38.675 E.00578
G1 X59.584 Y38.583 E.00629
G1 X59.293 Y38.532 E.00586
G1 X58.253 Y38.52 E.02059
G1 X58.253 Y36.196 E.04599
G1 X64.504 Y36.196 E.12374
G1 X64.504 Y38.953 E.05457
G1 X70.018 Y38.953 E.10915
G1 X70.018 Y41.71 E.05457
G1 X72.775 Y41.71 E.05457
G1 X72.775 Y50.462 E.17322
G1 X71.538 Y50.462 E.02449
G1 X71.538 Y48.462 E.03959
G1 X69.106 Y48.462 E.04814
G1 X69.106 Y47.299 E.02302
G1 X68.824 Y47.017 E.00789
G1 X64.122 Y47.017 E.09307
G1 X64.241 Y46.731 F21000
G1 F3000
G1 X62.692 Y45.182 E.04335
G1 X62.692 Y40.34 E.09586
G1 X62.51 Y40 E.00762
G1 X60.543 Y38.689 E.0468
G1 X60.252 Y38.522 E.00665
G1 X59.995 Y38.41 E.00555
G1 X59.687 Y38.314 E.00639
G1 X59.366 Y38.253 E.00647
G1 X58.539 Y38.234 E.01637
G1 X58.539 Y36.482 E.03468
G1 X64.219 Y36.482 E.11243
G1 X64.219 Y39.239 E.05457
G1 X69.733 Y39.239 E.10915
G1 X69.733 Y41.996 E.05457
G1 X72.49 Y41.996 E.05457
G1 X72.49 Y50.176 E.16192
M73 P1 R10
G1 X71.824 Y50.176 E.01318
G1 X71.824 Y48.176 E.03959
G1 X69.392 Y48.176 E.04814
G1 X69.392 Y47.18 E.01971
G1 X68.943 Y46.731 E.01258
G1 X64.241 Y46.731 E.09307
G1 X64.359 Y46.445 F21000
G1 F3000
G1 X62.978 Y45.064 E.03867
G1 X62.978 Y40.268 E.09493
G1 X62.728 Y39.802 E.01045
G1 X60.698 Y38.449 E.0483
G1 X60.374 Y38.263 E.0074
G1 X60.044 Y38.124 E.00709
G1 X59.702 Y38.024 E.00704
G1 X59.341 Y37.962 E.00727
G1 X58.824 Y37.948 E.01022
G1 X58.824 Y36.768 E.02338
G1 X63.933 Y36.768 E.10112
G1 X63.933 Y39.525 E.05457
G1 X69.447 Y39.525 E.10915
G1 X69.447 Y42.282 E.05457
G1 X72.204 Y42.282 E.05457
G1 X72.204 Y47.89 E.11102
G1 X69.678 Y47.89 E.05001
G1 X69.678 Y47.062 E.0164
G1 X69.061 Y46.445 E.01726
G1 X64.359 Y46.445 E.09307
G1 X64.477 Y46.16 F21000
G1 F3000
G1 X63.263 Y44.946 E.03399
G1 X63.263 Y40.196 E.09401
G1 X62.946 Y39.604 E.01329
G1 X60.853 Y38.209 E.0498
G1 X60.495 Y38.005 E.00815
G1 X60.207 Y37.879 E.00621
G1 X59.837 Y37.762 E.0077
G1 X59.449 Y37.687 E.00781
G1 X59.11 Y37.665 E.00673
G1 X59.11 Y37.053 E.0121
G1 X63.647 Y37.053 E.08981
G1 X63.647 Y39.81 E.05457
G1 X69.161 Y39.81 E.10915
G1 X69.161 Y42.567 E.05457
G1 X71.918 Y42.567 E.05457
G1 X71.918 Y47.605 E.09971
G1 X69.963 Y47.605 E.0387
G1 X69.963 Y46.944 E.01309
G1 X69.179 Y46.16 E.02195
G1 X64.477 Y46.16 E.09307
G1 X64.596 Y45.874 F21000
G1 F3000
G1 X63.549 Y44.827 E.0293
G1 X63.549 Y40.096 E.09366
G1 X68.876 Y40.096 E.10544
G1 X68.876 Y42.853 E.05457
G1 X71.633 Y42.853 E.05457
G1 X71.633 Y47.319 E.0884
G1 X70.249 Y47.319 E.02739
G1 X70.249 Y46.825 E.00977
G1 X69.298 Y45.874 E.02663
G1 X64.596 Y45.874 E.09307
G1 X64.714 Y45.588 F21000
G1 F3000
G1 X63.835 Y44.709 E.02462
G1 X63.835 Y40.382 E.08566
G1 X68.59 Y40.382 E.09413
G1 X68.59 Y43.139 E.05457
G1 X71.347 Y43.139 E.05457
G1 X71.347 Y47.033 E.07709
G1 X70.535 Y47.033 E.01608
G1 X70.535 Y46.707 E.00646
G1 X69.416 Y45.588 E.03131
G1 X64.714 Y45.588 E.09307
G1 X64.832 Y45.303 F21000
G1 F3000
G1 X64.12 Y44.591 E.01993
G1 X64.12 Y40.667 E.07766
G1 X68.304 Y40.667 E.08282
M73 P2 R10
G1 X68.304 Y43.424 E.05457
G1 X71.062 Y43.424 E.05457
G1 X71.062 Y46.83 E.06741
G1 X69.534 Y45.303 E.04275
G1 X64.832 Y45.303 E.09307
G1 X64.951 Y45.017 F21000
G1 F3000
G1 X64.406 Y44.472 E.01525
G1 X64.406 Y40.953 E.06967
G1 X68.019 Y40.953 E.07152
G1 X68.019 Y43.71 E.05457
G1 X70.776 Y43.71 E.05457
G1 X70.776 Y46.14 E.04811
G1 X69.653 Y45.017 E.03144
G1 X64.951 Y45.017 E.09307
G1 X65.069 Y44.731 F21000
G1 F3000
G1 X64.692 Y44.354 E.01057
G1 X64.692 Y41.239 E.06167
G1 X67.733 Y41.239 E.06021
G1 X67.733 Y43.996 E.05457
G1 X70.49 Y43.996 E.05457
G1 X70.49 Y45.451 E.02881
G1 X69.771 Y44.731 E.02014
G1 X65.069 Y44.731 E.09307
G1 X69.725 Y44.281 F21000
G1 F3000
G1 X70.205 Y44.281 E.0095
G1 X70.205 Y44.761 E.0095
G1 X69.725 Y44.281 E.01344
G1 X67.448 Y44.446 F21000
G1 F3000
G1 X65.187 Y44.446 E.04474
G1 X64.977 Y44.236 E.00588
G1 X64.977 Y41.524 E.05367
G1 X67.448 Y41.524 E.0489
G1 X67.448 Y44.446 E.05783
G1 X67.162 Y44.16 F21000
G1 F3000
G1 X65.263 Y44.16 E.03759
G1 X65.263 Y41.81 E.04652
G1 X67.162 Y41.81 E.03759
G1 X67.162 Y44.16 E.04652
G1 X66.876 Y43.875 F21000
G1 F3000
G1 X65.548 Y43.875 E.02628
G1 X65.548 Y42.095 E.03522
G1 X66.876 Y42.095 E.02628
G1 X66.876 Y43.875 E.03522
G1 X66.591 Y43.589 F21000
G1 F3000
G1 X65.834 Y43.589 E.01497
G1 X65.834 Y42.381 E.02391
G1 X66.591 Y42.381 E.01497
G1 X66.591 Y43.589 E.02391
G1 X63.362 Y39.538 F21000
G1 F3000
G1 X60.967 Y37.944 E.05695
G1 X60.617 Y37.746 E.00795
G1 X60.142 Y37.551 E.01017
G1 X60.18 Y37.339 E.00426
G1 X63.362 Y37.339 E.06299
G1 X63.362 Y39.538 E.04353
G1 X63.076 Y39.004 F21000
G1 F3000
G1 X61.279 Y37.807 E.04273
G1 X61.335 Y37.625 E.00378
G1 X63.076 Y37.625 E.03447
G1 X63.076 Y39.004 E.02731
G1 X62.79 Y38.471 F21000
G1 F3000
G1 X62.223 Y38.093 E.01349
G1 X62.278 Y37.91 E.00378
G1 X62.79 Y37.91 E.01013
G1 X62.79 Y38.471 E.01109
G1 E-.5
G1 Z.4 F21000
G1 X61.338 Y40.94
G1 X54.851 Y39.898
G1 X54.223 Y52.275
G1 X54.175 Y52.774
G1 X53.623 Y54.488
G1 X53.373 Y54.488
G1 Z.2
G1 E.5 F1800
G1 F3000
G1 X53.184 Y54.748 E.00637
G1 X52.611 Y54.748 E.01133
G1 X52.465 Y54.894 E.0041
G1 X52.465 Y56.477 E.03133
G1 X52.384 Y57.077 E.01197
G1 X52.375 Y57.395 E.00631
G1 X52.375 Y59.221 E.03615
G1 X46.993 Y59.221 E.10653
G1 X46.993 Y52.507 E.1329
M73 P3 R10
G1 X53.373 Y52.507 E.12628
G1 X53.373 Y54.449 E.03844
G1 E-.5
G1 Z.4 F21000
G1 X53.623 Y54.449
G1 X53.623 Y54.57
G1 X52.63 Y57.213
G1 X52.144 Y58.99
G1 Z.2
G1 E.5 F1800
G1 F3000
G1 X47.225 Y58.99 E.09737
G1 X47.225 Y52.739 E.12374
G1 X53.142 Y52.739 E.11712
G1 X53.142 Y54.412 E.03311
G1 X53.064 Y54.517 E.00258
G1 X52.516 Y54.517 E.01086
G1 X52.234 Y54.799 E.00789
G1 X52.234 Y56.458 E.03284
G1 X52.152 Y57.076 E.01234
G1 X52.144 Y58.99 E.03789
G1 X51.858 Y58.704 F21000
G1 F3000
G1 X47.51 Y58.704 E.08606
G1 X47.51 Y53.024 E.11243
G1 X52.856 Y53.024 E.10582
G1 X52.856 Y54.231 E.02388
G1 X52.397 Y54.231 E.00908
G1 X51.948 Y54.68 E.01258
G1 X51.948 Y56.434 E.03472
G1 X51.867 Y57.063 E.01254
G1 X51.858 Y58.704 E.0325
G1 X51.572 Y58.419 F21000
G1 F3000
G1 X47.796 Y58.419 E.07475
G1 X47.796 Y53.31 E.10112
G1 X52.57 Y53.31 E.09451
G1 X52.57 Y53.945 E.01258
G1 X52.279 Y53.945 E.00577
G1 X51.662 Y54.562 E.01726
G1 X51.662 Y56.41 E.03659
G1 X51.581 Y57.049 E.01275
G1 X51.572 Y58.419 E.0271
G1 X51.287 Y58.133 F21000
G1 F3000
G1 X48.082 Y58.133 E.06344
G1 X48.082 Y53.596 E.08981
G1 X52.225 Y53.596 E.08201
G1 X51.377 Y54.444 E.02374
G1 X51.377 Y56.387 E.03846
G1 X51.296 Y57.036 E.01296
G1 X51.287 Y58.133 E.02171
G1 X51.001 Y57.847 F21000
G1 F3000
G1 X48.367 Y57.847 E.05214
G1 X48.367 Y53.881 E.07851
G1 X51.535 Y53.881 E.06271
G1 X51.091 Y54.325 E.01243
G1 X51.091 Y56.363 E.04033
G1 X51.01 Y57.023 E.01317
G1 X51.001 Y57.847 E.01632
G1 X50.715 Y57.562 F21000
G1 F3000
G1 X48.653 Y57.562 E.04083
G1 X48.653 Y54.167 E.0672
G1 X50.805 Y54.167 E.04261
G1 X50.805 Y56.339 E.04299
G1 X50.73 Y56.935 E.01188
G1 X50.715 Y57.562 E.01242
G1 X50.432 Y57.276 F21000
G1 F3000
G1 X48.938 Y57.276 E.02957
G1 X48.938 Y54.453 E.05589
G1 X50.52 Y54.453 E.0313
G1 X50.52 Y56.315 E.03687
G1 X50.445 Y56.91 E.01187
G1 X50.432 Y57.276 E.00725
G1 X50.15 Y56.99 F21000
G1 F3000
G1 X49.224 Y56.99 E.01832
G1 X49.224 Y54.738 E.04458
G1 X50.234 Y54.738 E.01999
G1 X50.234 Y56.291 E.03074
G1 X50.15 Y56.99 E.01394
G1 X49.893 Y56.705 F21000
G1 F3000
G1 X49.51 Y56.705 E.00758
G1 X49.51 Y55.024 E.03327
G1 X49.948 Y55.024 E.00868
G1 X49.948 Y56.268 E.02462
G1 X49.893 Y56.705 E.00873
G1 E-.5
G1 Z.4 F21000
G1 X52.625 Y57.499
G1 X53.623 Y57.788
G1 X70.728 Y62.757
G1 Z.2
G1 E.5 F1800
;TYPE:Support interface
G1 F3000
G1 X71.028 Y62.757 E.00595
G1 X71.028 Y48.972 E.27287
M73 P4 R10
G1 X70.599 Y48.972 E.0085
G1 X70.599 Y62.757 E.27287
G1 X69.842 Y62.757 E.01499
G1 X69.842 Y48.972 E.27287
G1 X69.104 Y48.972 E.01462
G1 X69.104 Y50.196 E.02424
G1 X69.085 Y50.215 E.00052
G1 X69.085 Y62.757 E.24827
G1 X68.328 Y62.757 E.01499
G1 X68.328 Y50.477 E.24309
G1 X67.571 Y50.477 E.01499
G1 X67.571 Y62.757 E.24309
G1 X66.814 Y62.757 E.01499
G1 X66.814 Y50.477 E.24309
G1 X66.057 Y50.477 E.01499
G1 X66.057 Y62.757 E.24309
G1 X65.514 Y62.757 E.01074
G1 X65.514 Y50.477 E.24309
G1 X65.928 Y50.477 E.00819
G1 E-.5
G1 Z.4 F21000
G1 X65.236 Y51.6
G1 Z.2
G1 E.5 F1800
;TYPE:Support
G1 F3000
G1 X65.236 Y63.036 E.22636
G1 X70.25 Y63.036 E.09925
G1 X70.25 Y67.493 E.08822
G1 X67.493 Y67.493 E.05457
G1 X67.493 Y71.807 E.0854
G1 X73.007 Y71.807 E.10915
G1 X73.007 Y81.278 E.18747
G1 X67.263 Y81.278 E.1137
G1 X67.237 Y81.162 E.00236
G1 X67.453 Y81.09 E.0045
G1 X67.708 Y80.971 E.00557
G1 X67.932 Y80.829 E.00524
G1 X68.149 Y80.653 E.00553
G1 X68.342 Y80.453 E.00551
G1 X68.493 Y80.253 E.00496
G1 X68.627 Y80.026 E.00522
G1 X68.738 Y79.769 E.00554
G1 X68.814 Y79.516 E.00523
G1 X68.86 Y79.256 E.00522
G1 X68.881 Y78.905 E.00697
G1 X68.733 Y78.748 E.00427
G1 X64.027 Y78.748 E.09316
G1 X62.175 Y76.896 E.05183
G1 X62.175 Y68.796 E.16033
G1 X62.029 Y68.65 E.0041
G1 X57.132 Y68.65 E.09693
G1 X56.806 Y68.633 E.00646
G1 X56.49 Y68.587 E.00632
G1 X56.182 Y68.509 E.00629
G1 X55.88 Y68.401 E.00634
G1 X55.59 Y68.265 E.00633
G1 X55.318 Y68.102 E.00628
G1 X55.062 Y67.911 E.00633
G1 X54.826 Y67.697 E.0063
G1 X54.612 Y67.461 E.0063
G1 X54.421 Y67.205 E.00632
G1 X54.258 Y66.931 E.00632
G1 X54.122 Y66.642 E.00631
G1 X54.014 Y66.341 E.00634
G1 X53.936 Y66.033 E.00629
G1 X53.89 Y65.717 E.00632
G1 X53.873 Y65.393 E.00642
G1 X53.873 Y57.407 E.1581
G1 X53.89 Y57.081 E.00646
G1 X53.936 Y56.765 E.00632
G1 X54.014 Y56.457 E.00629
G1 X54.122 Y56.155 E.00634
G1 X54.258 Y55.865 E.00633
G1 X54.421 Y55.593 E.00628
G1 X54.612 Y55.337 E.00633
G1 X54.826 Y55.101 E.0063
G1 X55.062 Y54.887 E.0063
G1 X55.318 Y54.696 E.00633
G1 X55.59 Y54.533 E.00628
G1 X55.88 Y54.397 E.00633
G1 X56.182 Y54.289 E.00634
G1 X56.49 Y54.211 E.00629
G1 X56.806 Y54.165 E.00632
G1 X57.132 Y54.148 E.00646
G1 X64.227 Y54.148 E.14044
G1 X64.373 Y54.002 E.0041
G1 X64.385 Y50.652 E.0663
G1 X64.413 Y50.558 E.00194
G1 X64.521 Y50.396 E.00386
M73 P5 R10
G1 X64.683 Y50.288 E.00386
G1 X64.887 Y50.248 E.00411
G1 X65.236 Y50.248 E.00691
G1 X65.236 Y51.562 E.026
G1 X65.004 Y63.267 F21000
G1 F3000
G1 X70.018 Y63.267 E.09925
G1 X70.018 Y67.261 E.07906
G1 X67.261 Y67.261 E.05457
G1 X67.261 Y72.038 E.09456
G1 X72.775 Y72.038 E.10915
G1 X72.775 Y81.047 E.17831
G1 X68.02 Y81.047 E.09412
G1 X68.3 Y80.828 E.00703
G1 X68.522 Y80.598 E.00634
G1 X68.682 Y80.387 E.00523
G1 X68.83 Y80.136 E.00576
G1 X68.958 Y79.842 E.00635
G1 X69.034 Y79.59 E.00522
G1 X69.087 Y79.306 E.00571
G1 X69.118 Y78.819 E.00966
G1 X68.833 Y78.517 E.00823
G1 X64.122 Y78.517 E.09324
G1 X62.406 Y76.801 E.04804
G1 X62.406 Y68.701 E.16033
G1 X62.124 Y68.419 E.00789
G1 X57.138 Y68.419 E.09871
G1 X56.829 Y68.402 E.00612
G1 X56.535 Y68.359 E.00587
G1 X56.249 Y68.287 E.00584
G1 X55.969 Y68.186 E.00591
G1 X55.699 Y68.06 E.00589
G1 X55.447 Y67.91 E.00581
G1 X55.209 Y67.732 E.00588
G1 X54.99 Y67.533 E.00586
G1 X54.791 Y67.314 E.00586
G1 X54.614 Y67.076 E.00587
G1 X54.463 Y66.822 E.00586
G1 X54.336 Y66.554 E.00586
G1 X54.236 Y66.274 E.0059
G1 X54.164 Y65.988 E.00584
G1 X54.121 Y65.694 E.00587
G1 X54.104 Y65.387 E.00608
G1 X54.104 Y57.413 E.15786
G1 X54.121 Y57.104 E.00612
G1 X54.164 Y56.81 E.00587
G1 X54.236 Y56.524 E.00584
G1 X54.337 Y56.244 E.00591
G1 X54.463 Y55.974 E.00589
G1 X54.613 Y55.722 E.00581
G1 X54.791 Y55.484 E.00588
G1 X54.99 Y55.265 E.00586
G1 X55.209 Y55.066 E.00586
G1 X55.447 Y54.888 E.00588
G1 X55.699 Y54.738 E.00581
G1 X55.969 Y54.612 E.00589
G1 X56.249 Y54.511 E.00591
G1 X56.535 Y54.439 E.00584
G1 X56.829 Y54.396 E.00587
G1 X57.138 Y54.379 E.00612
G1 X64.322 Y54.379 E.14222
G1 X64.604 Y54.097 E.00789
G1 X64.613 Y50.698 E.06729
G1 X64.654 Y50.6 E.00211
G1 X64.725 Y50.529 E.00198
G1 X64.823 Y50.488 E.00211
G1 X65.004 Y50.479 E.00359
G1 X65.004 Y63.267 E.25313
G1 X64.718 Y63.553 F21000
G1 F3000
G1 X69.733 Y63.553 E.09925
G1 X69.733 Y66.976 E.06775
G1 X66.976 Y66.976 E.05457
G1 X66.976 Y72.324 E.10587
G1 X72.49 Y72.324 E.10915
G1 X72.49 Y80.761 E.16701
G1 X68.757 Y80.761 E.07389
G1 X68.94 Y80.514 E.00608
G1 X69.081 Y80.273 E.00553
G1 X69.213 Y79.975 E.00646
G1 X69.32 Y79.623 E.00729
G1 X69.375 Y79.303 E.00643
G1 X69.41 Y78.713 E.01169
G1 X68.956 Y78.231 E.01311
G1 X64.241 Y78.231 E.09334
G1 X62.692 Y76.682 E.04335
G1 X62.692 Y68.582 E.16033
G1 X62.243 Y68.133 E.01258
G1 X57.145 Y68.133 E.10091
G1 X56.857 Y68.118 E.00571
G1 X56.591 Y68.079 E.00532
G1 X56.333 Y68.013 E.00528
G1 X56.077 Y67.922 E.00537
G1 X55.833 Y67.808 E.00533
G1 X55.606 Y67.672 E.00524
G1 X55.391 Y67.511 E.00532
G1 X55.192 Y67.331 E.00531
G1 X55.012 Y67.132 E.00531
G1 X54.852 Y66.917 E.0053
G1 X54.715 Y66.688 E.00529
G1 X54.601 Y66.445 E.00532
G1 X54.51 Y66.19 E.00535
