; HEADER_BLOCK_START
; generated by OrcaSlicer 1.6.3 on 2023-06-15 at 14:48:59
; total layer number: 108
; HEADER_BLOCK_END

; THUMBNAIL_BLOCK_START
; THUMBNAIL_BLOCK_END

; external perimeters extrusion width = 0.40mm
; perimeters extrusion width = 0.45mm
; infill extrusion width = 0.45mm
; solid infill extrusion width = 0.40mm
; top infill extrusion width = 0.40mm
; first layer extrusion width = 0.50mm

; external perimeters extrusion width = 0.40mm
; perimeters extrusion width = 0.45mm
; infill extrusion width = 0.45mm
; solid infill extrusion width = 0.40mm
; top infill extrusion width = 0.40mm
; first layer extrusion width = 0.50mm

; EXECUTABLE_BLOCK_START
EXCLUDE_OBJECT_DEFINE NAME=(Unsaved).stl_id_0_copy_0 CENTER=75.0417,74.1668 POLYGON=[[44.2267,66.3138],[44.2447,65.9838],[44.2747,65.758],[44.2947,65.6578],[44.3787,65.3418],[44.4367,65.17],[44.4887,65.0398],[44.6267,64.7538],[44.7027,64.622],[44.7907,64.4858],[44.9847,64.2278],[45.0647,64.1319],[45.2047,63.9858],[72.5387,39.2558],[73.0387,39.2557],[82.0387,39.2557],[82.5387,39.2558],[103.545,46.9158],[103.849,47.0278],[103.997,47.0959],[104.133,47.1638],[104.403,47.3278],[104.519,47.4099],[104.661,47.5218],[104.903,47.7438],[104.973,47.8159],[105.121,47.9878],[105.317,48.2538],[105.345,48.2979],[105.481,48.5378],[105.617,48.8298],[105.621,48.8399],[105.721,49.1278],[105.795,49.4239],[105.841,49.7538],[105.857,50.0299],[105.857,50.0818],[105.839,50.4098],[105.807,50.6379],[96.5887,105.706],[96.5627,105.848],[96.4667,106.232],[96.4427,106.316],[96.3347,106.61],[96.2027,106.896],[96.1607,106.97],[95.9567,107.31],[95.8747,107.43],[95.7227,107.624],[95.4667,107.908],[95.1827,108.164],[94.9887,108.316],[94.8687,108.398],[94.5287,108.602],[94.4547,108.644],[94.1687,108.774],[93.8747,108.884],[93.7927,108.908],[93.4067,109.004],[93.2647,109.03],[93.0207,109.06],[92.6367,109.078],[62.4387,109.078],[62.0567,109.06],[61.8127,109.03],[61.6687,109.004],[61.2847,108.908],[61.2027,108.884],[60.9067,108.774],[60.6227,108.644],[60.5467,108.602],[60.2087,108.398],[60.0867,108.316],[59.8927,108.164],[59.6107,107.908],[59.3547,107.624],[59.2027,107.43],[59.1207,107.31],[58.9147,106.97],[58.8747,106.896],[58.7427,106.61],[58.6347,106.316],[44.4607,67.554],[44.3607,67.2658],[44.2887,66.97],[44.2867,66.9598],[44.2407,66.6398],[44.2267,66.364],[44.2267,66.3138]]
EXCLUDE_OBJECT_DEFINE NAME=(Unsaved).stl_id_1_copy_0 CENTER=36.6517,35.4619 POLYGON=[[14.1433,20.9011],[14.1434,12.4011],[14.1496,10.9221],[14.2431,10.9221],[59.0598,10.9221],[59.1533,10.9221],[59.1596,21.9011],[59.1602,30.4015],[59.1598,44.4221],[42.1515,60.0017],[31.1515,60.0017],[14.1496,44.4221],[14.1433,20.9011]]
M73 P0 R45
;TYPE:Custom
START_PRINT T_BED=110 T_EXTRUDER=260
G90
G21
M83 ; use relative distances for extrusion
; Filament gcode

    PRESSURE_ADVANCE_SELECT FILAMENT=ABS
M106 S0
;LAYER_CHANGE
;Z:0.2
;HEIGHT:0.2
;BEFORE_LAYER_CHANGE
;0.2
G92 E0

;AFTER_LAYER_CHANGE
;0.2
M204 S500
; printing object (Unsaved).stl id:0 copy 0
EXCLUDE_OBJECT_START NAME=(Unsaved).stl_id_0_copy_0
G1 E-.5 F3000
G1 Z.2 F21000
G1 X63.06 Y107.905
G1 E.5 F1800
;TYPE:Inner wall
;WIDTH:0.5172
G1 F3000
G1 X63.216 Y107.863 E.0059
;WIDTH:0.510127
G1 X63.887 Y107.6 E.02593
;WIDTH:0.499999
G1 X64.471 Y107.185 E.02521
G1 X64.93 Y106.644 E.02497
G1 X65.227 Y106.063 E.02297
G1 X65.332 Y105.573 E.01765
G1 X65.332 Y106.303 E.0257
G1 X65.456 Y107.019 E.02559
G1 X65.657 Y107.503 E.01843
G1 X65.909 Y107.914 E.01695
G1 X63.655 Y107.914 E.0793
;WIDTH:0.5172
G1 X63.12 Y107.906 E.01956
G1 E-.5
G1 Z.4 F21000
G1 X67.025 Y86.064
G1 Z.2
G1 E.5 F1800
;WIDTH:0.499999
G1 F3000
G1 X67.156 Y86.337 E.01063
G1 X67.21 Y86.746 E.01453
G1 X66.945 Y88.017 E.04571
G1 X66.782 Y89.038 E.03638
G1 X66.685 Y90.054 E.03592
G1 X66.653 Y91.096 E.03669
G1 X66.653 Y92.086 E.03484
G1 X66.6 Y92.43 E.01227
G1 X66.384 Y92.822 E.01573
G1 X64.182 Y94.713 E.10214
G1 X63.73 Y95.009 E.01901
G1 X63.213 Y95.181 E.0192
G1 X62.683 Y95.222 E.01869
G1 X62.179 Y95.135 E.01802
G1 X61.656 Y94.904 E.02012
G1 X61.214 Y94.545 E.02004
G1 X60.884 Y94.089 E.01982
G1 X60.514 Y93.152 E.03542
;WIDTH:0.536495
G1 X60.445 Y92.952 E.00806
;WIDTH:0.572991
G1 X60.375 Y92.752 E.00866
;WIDTH:0.609486
G1 X60.305 Y92.551 E.00925
;WIDTH:0.635833
G1 X60.263 Y92.371 E.00844
G1 X60.231 Y91.866 E.02312
;WIDTH:0.629573
G1 X60.254 Y91.187 E.03069
;WIDTH:0.645556
G1 X60.301 Y90.885 E.01418
G1 X60.499 Y90.272 E.02987
;WIDTH:0.607339
G1 X60.53 Y90.205 E.0032
;WIDTH:0.607523
G1 X61.493 Y88.09 E.10105
;WIDTH:0.625766
G1 X61.67 Y87.763 E.01669
G1 X61.8 Y87.644 E.00789
;WIDTH:0.583844
G1 X61.93 Y87.526 E.00732
;WIDTH:0.541922
G1 X62.06 Y87.408 E.00676
;WIDTH:0.499999
G1 X62.475 Y87.114 E.0179
G1 X62.594 Y87.049 E.00476
G1 X65.053 Y85.903 E.0955
;WIDTH:0.539034
G1 X65.312 Y85.761 E.01126
;WIDTH:0.578069
G1 X65.57 Y85.619 E.01214
;WIDTH:0.626436
G1 X65.647 Y85.564 E.00426
;WIDTH:0.674802
G1 X65.725 Y85.509 E.00462
;WIDTH:0.67535
G1 X65.912 Y85.47 E.00933
G1 X66.013 Y85.496 E.00506
;WIDTH:0.631513
G1 X66.113 Y85.522 E.0047
;WIDTH:0.587675
G1 X66.213 Y85.548 E.00435
;WIDTH:0.543837
G1 X66.314 Y85.574 E.004
;WIDTH:0.499999
G1 X66.758 Y85.779 E.01722
G1 X66.984 Y86.02 E.01163
G1 X66.643 Y86.315 F21000
G1 F3000
G1 X66.75 Y86.615 E.01123
G1 X66.738 Y86.838 E.00789
G1 X66.496 Y87.932 E.03941
G1 X66.328 Y88.98 E.03737
G1 X66.229 Y90.025 E.03695
G1 X66.196 Y91.089 E.03745
G1 X66.196 Y92.086 E.03509
G1 X66.115 Y92.41 E.01174
G1 X65.954 Y92.608 E.009
G1 X63.886 Y94.365 E.09547
G1 X63.448 Y94.634 E.01811
G1 X62.991 Y94.752 E.01661
G1 X62.541 Y94.748 E.01583
G1 X62.108 Y94.626 E.01584
G1 X61.722 Y94.394 E.01585
G1 X61.414 Y94.074 E.01564
G1 X61.209 Y93.719 E.01443
G1 X60.944 Y92.995 E.02715
G1 X60.803 Y92.431 E.02045
G1 X60.743 Y91.823 E.02151
G1 X60.775 Y91.22 E.02123
G1 X60.814 Y91.018 E.00725
G1 X60.964 Y90.484 E.01953
G1 X61.958 Y88.302 E.0844
G1 X62.216 Y87.901 E.01678
G1 X62.512 Y87.628 E.01416
G1 X62.787 Y87.464 E.01128
G1 X65.779 Y86.069 E.1162
G1 X65.982 Y86.01 E.00741
G1 X66.216 Y86.02 E.00826
G1 X66.483 Y86.143 E.01033
G1 X66.602 Y86.271 E.00614
G1 X66.26 Y86.565 F21000
;TYPE:Outer wall
G1 F3000
G1 X66.292 Y86.74 E.00625
G1 X66.047 Y87.846 E.03988
G1 X65.874 Y88.922 E.03837
G1 X65.772 Y89.997 E.03798
G1 X65.739 Y91.082 E.03821
G1 X65.739 Y92.086 E.03534
G1 X65.673 Y92.246 E.00608
G1 X63.591 Y94.016 E.09621
G1 X63.285 Y94.206 E.01266
G1 X62.97 Y94.295 E.01152
G1 X62.642 Y94.302 E.01156
G1 X62.322 Y94.222 E.01159
G1 X62.035 Y94.061 E.01161
G1 X61.801 Y93.832 E.0115
G1 X61.638 Y93.562 E.01111
G1 X61.373 Y92.837 E.02715
G1 X61.247 Y92.324 E.01862
G1 X61.199 Y91.785 E.01905
G1 X61.231 Y91.25 E.01886
G1 X61.257 Y91.133 E.0042
G1 X61.41 Y90.608 E.01926
G1 X62.374 Y88.491 E.08186
G1 X62.541 Y88.222 E.01115
G1 X62.753 Y88.017 E.01037
G1 X62.98 Y87.878 E.00938
G1 X65.972 Y86.483 E.1162
G1 X66.118 Y86.467 E.00515
G1 X66.211 Y86.531 E.00397
G1 X66.296 Y86.564
G1 E-.5
G1 Z.4 F21000
G1 X71.7 Y70.757
G1 Z.2
G1 E.5 F1800
;TYPE:Inner wall
G1 F3000
G1 X71.544 Y70.778 E.00555
G1 X70.998 Y70.709 E.01934
G1 X70.357 Y70.454 E.02428
G1 X67.072 Y68.923 E.12758
G1 X66.722 Y68.712 E.01435
G1 X66.312 Y68.324 E.01986
G1 X66.024 Y67.858 E.0193
G1 X65.167 Y65.601 E.08495
G1 X64.128 Y62.834 E.10404
G1 X64.003 Y62.305 E.01913
G1 X64.025 Y61.712 E.02089
G1 X64.174 Y61.21 E.01844
G1 X64.423 Y60.784 E.01733
G1 X64.771 Y60.416 E.01785
G1 X65.195 Y60.139 E.0178
G1 X65.539 Y60 E.01308
G1 X70.926 Y58.407 E.19769
G1 X71.548 Y58.324 E.02208
G1 X72.047 Y58.384 E.01769
G1 X72.512 Y58.555 E.01745
G1 X72.938 Y58.837 E.01796
G1 X73.272 Y59.194 E.01722
G1 X73.527 Y59.637 E.01798
G1 X73.669 Y60.121 E.01777
G1 X73.703 Y60.483 E.01277
G1 X73.703 Y68.619 E.28636
G1 X73.632 Y69.165 E.01935
G1 X73.428 Y69.669 E.01916
G1 X73.099 Y70.116 E.01952
G1 X72.721 Y70.432 E.01737
G1 X72.131 Y70.697 E.02274
G1 X71.759 Y70.749 E.01323
G1 X71.648 Y70.31 F21000
G1 F3000
G1 X71.565 Y70.322 E.00295
G1 X71.139 Y70.274 E.0151
G1 X70.55 Y70.04 E.02228
G1 X67.265 Y68.508 E.12758
G1 X66.827 Y68.21 E.01865
G1 X66.549 Y67.874 E.01534
G1 X66.391 Y67.564 E.01225
G1 X65.595 Y65.441 E.07979
G1 X64.556 Y62.673 E.10404
G1 X64.456 Y62.208 E.01673
G1 X64.47 Y61.812 E.01395
G1 X64.581 Y61.417 E.01445
G1 X64.774 Y61.077 E.01375
G1 X65.044 Y60.782 E.01408
G1 X65.375 Y60.559 E.01405
G1 X65.669 Y60.438 E.01119
G1 X71.056 Y58.845 E.19769
G1 X71.521 Y58.78 E.01653
G1 X71.916 Y58.822 E.01398
G1 X72.285 Y58.952 E.01377
G1 X72.622 Y59.168 E.01412
G1 X72.892 Y59.448 E.01366
G1 X73.097 Y59.792 E.0141
G1 X73.215 Y60.173 E.01405
G1 X73.246 Y60.483 E.01095
G1 X73.246 Y68.619 E.28636
G1 X73.164 Y69.127 E.0181
G1 X72.988 Y69.511 E.01486
G1 X72.727 Y69.839 E.01475
G1 X72.378 Y70.102 E.01539
G1 X71.989 Y70.261 E.01478
G1 X71.707 Y70.301 E.01001
G1 X71.608 Y69.863 F21000
;TYPE:Outer wall
G1 F3000
G1 X71.594 Y69.866 E.0005
G1 X71.279 Y69.839 E.01113
G1 X70.743 Y69.626 E.02027
G1 X67.458 Y68.094 E.12758
G1 X67.164 Y67.901 E.01237
G1 X66.953 Y67.66 E.01128
G1 X66.592 Y66.798 E.03289
G1 X66.023 Y65.28 E.05703
G1 X64.984 Y62.513 E.10404
G1 X64.913 Y62.205 E.01113
G1 X64.916 Y61.913 E.01026
G1 X64.989 Y61.625 E.01047
G1 X65.125 Y61.37 E.01017
G1 X65.317 Y61.149 E.0103
G1 X65.556 Y60.979 E.0103
G1 X65.799 Y60.877 E.00929
G1 X71.185 Y59.284 E.19768
G1 X71.493 Y59.236 E.01097
G1 X71.913 Y59.298 E.01492
G1 X72.288 Y59.483 E.01473
G1 X72.511 Y59.701 E.01098
G1 X72.667 Y59.947 E.01023
G1 X72.761 Y60.225 E.01033
G1 X72.789 Y60.483 E.00912
G1 X72.789 Y68.619 E.28636
G1 X72.74 Y68.957 E.012
G1 X72.617 Y69.244 E.01099
G1 X72.432 Y69.489 E.01082
G1 X72.185 Y69.687 E.01115
G1 X71.9 Y69.813 E.01095
G1 X71.667 Y69.853 E.00832
G1 X71.607 Y69.866
G1 E-.5
G1 Z.4 F21000
G1 X92.684 Y52.575
G1 Z.2
G1 E.5 F1800
;TYPE:Inner wall
G1 F3000
G1 X93.003 Y52.738 E.01262
G1 X93.299 Y52.998 E.01386
G1 X93.632 Y53.423 E.019
G1 X93.774 Y53.741 E.01228
G1 X93.922 Y54.365 E.02257
G1 X93.849 Y55.036 E.02375
G1 X93.59 Y55.796 E.02826
G1 X89.114 Y67.724 E.44837
G1 X88.907 Y68.133 E.01613
G1 X88.581 Y68.523 E.01788
G1 X88.132 Y68.853 E.01961
G1 X88.004 Y68.922 E.00512
G1 X84.452 Y70.58 E.13796
G1 X83.867 Y70.755 E.02149
G1 X83.382 Y70.777 E.01707
G1 X82.793 Y70.648 E.02123
G1 X82.357 Y70.432 E.01712
G1 X81.933 Y70.069 E.01964
G1 X81.647 Y69.669 E.0173
G1 X81.443 Y69.165 E.01916
G1 X81.375 Y68.619 E.01934
G1 X81.375 Y56.935 E.41123
G1 X81.447 Y56.377 E.01978
G1 X81.643 Y55.892 E.01842
G1 X81.977 Y55.437 E.01986
G1 X82.41 Y55.089 E.01955
G1 X82.925 Y54.862 E.01981
G1 X91.289 Y52.398 E.30687
G1 X91.883 Y52.35 E.02098
G1 X92.462 Y52.462 E.02077
G1 X92.63 Y52.548 E.00664
G1 X92.488 Y52.98 F21000
G1 F3000
G1 X92.765 Y53.128 E.01105
G1 X92.943 Y53.284 E.00832
G1 X93.263 Y53.695 E.01834
G1 X93.444 Y54.268 E.02117
G1 X93.46 Y54.551 E.00998
G1 X93.361 Y55.105 E.01981
G1 X88.686 Y67.564 E.4683
G1 X88.425 Y68.019 E.01846
G1 X88.109 Y68.326 E.01551
G1 X87.811 Y68.508 E.01231
G1 X84.258 Y70.165 E.13796
G1 X83.77 Y70.305 E.01788
G1 X83.336 Y70.31 E.01529
G1 X82.933 Y70.21 E.01461
G1 X82.55 Y70.006 E.01528
G1 X82.234 Y69.715 E.0151
G1 X82.008 Y69.366 E.01466
G1 X81.867 Y68.954 E.01532
G1 X81.832 Y68.619 E.01184
G1 X81.832 Y56.935 E.41123
G1 X81.888 Y56.498 E.0155
G1 X82.099 Y56.025 E.01822
G1 X82.377 Y55.69 E.01532
G1 X82.736 Y55.432 E.01556
G1 X83.345 Y55.214 E.02275
G1 X91.418 Y52.837 E.2962
G1 X91.886 Y52.807 E.01652
G1 X92.344 Y52.904 E.01647
G1 X92.435 Y52.952 E.00362
G1 X92.258 Y53.363 F21000
;TYPE:Outer wall
G1 F3000
G1 X92.287 Y53.371 E.00103
G1 X92.586 Y53.57 E.01266
G1 X92.892 Y53.981 E.01805
G1 X93.01 Y54.473 E.01779
G1 X92.931 Y54.951 E.01706
G1 X88.258 Y67.403 E.46806
G1 X88.09 Y67.708 E.01226
G1 X87.865 Y67.94 E.01136
G1 X87.618 Y68.094 E.01026
G1 X84.065 Y69.751 E.13796
G1 X83.741 Y69.849 E.01191
G1 X83.425 Y69.862 E.01114
G1 X83.126 Y69.796 E.01078
G1 X82.843 Y69.656 E.01112
G1 X82.605 Y69.448 E.01109
G1 X82.432 Y69.196 E.01079
G1 X82.321 Y68.899 E.01115
G1 X82.289 Y68.619 E.00991
G1 X82.289 Y56.935 E.41123
G1 X82.329 Y56.618 E.01122
G1 X82.502 Y56.249 E.01435
G1 X82.662 Y56.047 E.00909
G1 X82.918 Y55.852 E.01133
G1 X83.474 Y55.653 E.02076
G1 X91.547 Y53.275 E.2962
G1 X91.95 Y53.272 E.01419
G1 X92.201 Y53.346 E.00919
G1 X92.262 Y53.358
G1 E-.5
G1 Z.4 F21000
G1 X99.388 Y50.78
G1 Z.2
G1 E.5 F1800
;TYPE:Inner wall
G1 F3000
G1 X99.408 Y50.916 E.00482
G1 X99.589 Y51.409 E.01849
G1 X99.973 Y52.052 E.02636
G1 X100.508 Y52.599 E.02692
G1 X100.809 Y52.807 E.01289
G1 X97.249 Y53.865 E.13072
G1 X96.546 Y54.165 E.02689
G1 X96.066 Y54.469 E.02
G1 X95.8 Y54.691 E.01219
G1 X95.306 Y55.2 E.02495
G1 X94.916 Y55.758 E.02397
G1 X94.629 Y56.36 E.02347
G1 X88.538 Y72.597 E.61032
G1 X88.383 Y73.131 E.01958
G1 X88.295 Y73.759 E.0223
G1 X88.295 Y74.163 E.01425
G1 X88 Y73.515 E.02507
G1 X87.665 Y72.996 E.02175
G1 X87.291 Y72.655 E.01781
G1 X86.874 Y72.421 E.01683
G1 X86.305 Y72.273 E.0207
G1 X85.314 Y72.268 E.03486
G1 X84.66 Y72.433 E.02375
G1 X84.197 Y72.726 E.0193
G1 X83.894 Y73.01 E.01461
G1 X83.612 Y73.437 E.01802
G1 X83.473 Y73.804 E.01379
G1 X83.375 Y74.409 E.02157
G1 X83.375 Y79.684 E.18566
G1 X83.4 Y80.973 E.04538
G1 X83.54 Y81.506 E.01939
G1 X83.777 Y81.935 E.01723
G1 X84.043 Y82.228 E.01391
;WIDTH:0.539001
G1 X84.227 Y82.384 E.00924
;WIDTH:0.578002
G1 X84.412 Y82.541 E.00997
;WIDTH:0.617003
G1 X84.596 Y82.697 E.0107
G1 X84.823 Y82.797 E.01093
;WIDTH:0.607486
G1 X88.844 Y84.671 E.19285
G1 X89.101 Y84.75 E.01171
;WIDTH:0.595141
G1 X89.546 Y84.779 E.01893
;WIDTH:0.54757
G1 X89.99 Y84.808 E.0173
;WIDTH:0.499999
G1 X90.3 Y84.755 E.01109
G1 X90.706 Y84.602 E.01524
G1 X91.098 Y84.361 E.0162
G1 X91.468 Y83.995 E.01833
G1 X91.713 Y83.604 E.01625
G1 X91.869 Y83.205 E.01506
G1 X91.92 Y82.932 E.0098
G1 X93.738 Y86.934 E.15472
;WIDTH:0.542021
G1 X93.79 Y87.098 E.00661
;WIDTH:0.584043
G1 X93.841 Y87.262 E.00717
;WIDTH:0.626064
G1 X93.893 Y87.426 E.00772
G1 X94.114 Y87.882 E.02275
;WIDTH:0.607202
G1 X95.06 Y89.972 E.09968
;WIDTH:0.618712
G1 X95.168 Y90.198 E.0111
;WIDTH:0.6457
G1 X95.355 Y90.72 E.02572
G1 X95.409 Y91.158 E.02048
;WIDTH:0.630744
G1 X95.417 Y91.898 E.03353
;WIDTH:0.614878
G1 X95.42 Y92.625 E.032
;WIDTH:0.609992
G1 X95.438 Y92.793 E.00739
;WIDTH:0.573328
G1 X95.456 Y92.962 E.00691
;WIDTH:0.536664
G1 X95.475 Y93.13 E.00643
;WIDTH:0.499999
G1 X95.475 Y104.132 E.3872
;WIDTH:0.541106
G1 X95.454 Y104.276 E.00559
;WIDTH:0.582213
G1 X95.433 Y104.42 E.00605
;WIDTH:0.62332
G1 X95.413 Y104.564 E.00651
G1 X95.322 Y104.341 E.01077
;WIDTH:0.582213
G1 X95.232 Y104.118 E.01001
;WIDTH:0.541106
G1 X95.141 Y103.895 E.00925
;WIDTH:0.499999
G1 X94.764 Y103.284 E.02526
G1 X94.252 Y102.79 E.02503
G1 X93.625 Y102.434 E.02537
G1 X92.931 Y102.246 E.02532
G1 X92.327 Y102.222 E.02128
G1 X91.801 Y102.317 E.01881
G1 X91.133 Y102.59 E.02538
G1 X90.554 Y103.022 E.02543
G1 X90.105 Y103.578 E.02514
G1 X89.812 Y104.233 E.02527
;WIDTH:0.492547
G1 X89.751 Y104.507 E.00972
;WIDTH:0.499999
G1 X89.76 Y100.374 E.14547
G1 X89.691 Y99.829 E.01931
G1 X89.449 Y99.105 E.02687
G1 X89.116 Y98.566 E.02229
G1 X88.756 Y98.164 E.01899
G1 X88.353 Y97.852 E.01795
G1 X87.851 Y97.576 E.02018
G1 X87.289 Y97.395 E.02078
G1 X86.606 Y97.316 E.02421
G1 X69.327 Y97.316 E.6081
G1 X68.299 Y97.33 E.03619
G1 X67.673 Y97.427 E.02228
G1 X67.368 Y97.52 E.01123
G1 X66.716 Y97.854 E.02579
G1 X66.237 Y98.249 E.02184
G1 X65.841 Y98.736 E.02209
G1 X65.536 Y99.319 E.02316
G1 X65.359 Y99.951 E.02311
G1 X65.311 Y100.477 E.01856
G1 X65.311 Y103.846 E.11858
G1 X65.332 Y104.585 E.02603
G1 X65.246 Y104.161 E.01525
G1 X64.93 Y103.514 E.02534
G1 X64.471 Y102.973 E.02497
G1 X63.887 Y102.557 E.02521
G1 X63.214 Y102.3 E.02536
G1 X62.93 Y102.246 E.01016
G1 X62.215 Y102.238 E.02519
G1 X61.532 Y102.404 E.02473
G1 X60.886 Y102.746 E.02573
G1 X60.359 Y103.229 E.02517
G1 X59.968 Y103.826 E.02509
;WIDTH:0.544418
G1 X59.869 Y104.052 E.00952
;WIDTH:0.588837
G1 X59.769 Y104.277 E.01036
;WIDTH:0.633256
G1 X59.67 Y104.503 E.01121
G1 X59.647 Y104.254 E.01136
;WIDTH:0.588837
G1 X59.625 Y104.005 E.01051
;WIDTH:0.544418
G1 X59.603 Y103.756 E.00965
;WIDTH:0.499999
G1 X59.603 Y93.131 E.37391
;WIDTH:0.545277
G1 X59.626 Y92.886 E.00952
;WIDTH:0.590555
