; HEADER_BLOCK_START
; generated by OrcaSlicer 1.6.3 on 2023-06-15 at 22:59:00
; total layer number: 201
; HEADER_BLOCK_END

; THUMBNAIL_BLOCK_START
; THUMBNAIL_BLOCK_END

; external perimeters extrusion width = 0.40mm
; perimeters extrusion width = 0.45mm
; infill extrusion width = 0.45mm
; solid infill extrusion width = 0.40mm
; top infill extrusion width = 0.40mm
; first layer extrusion width = 0.50mm

; EXECUTABLE_BLOCK_START
EXCLUDE_OBJECT_DEFINE NAME=(Unsaved)1.stl_id_0_copy_0 CENTER=60,60 POLYGON=[[41.6,49.3029],[41.6094,49.0908],[41.6284,48.9485],[41.7324,48.5228],[41.743,48.4953],[41.8834,48.1715],[41.9149,48.1217],[42.0746,47.8749],[42.1854,47.7376],[42.3029,47.6058],[42.5257,47.4137],[42.572,47.3775],[42.9226,47.1623],[42.9751,47.1359],[43.1915,47.0431],[43.3601,46.9905],[43.4175,46.9776],[43.7648,46.9144],[44,46.9029],[76,46.9029],[76.0883,46.9065],[76.3517,46.9317],[76.5251,46.9647],[76.6967,47.0062],[76.8635,47.0643],[77.0249,47.1359],[77.1421,47.1973],[77.3334,47.3073],[77.5225,47.4476],[77.6971,47.6058],[77.8552,47.7803],[78.0561,48.0705],[78.0718,48.0954],[78.1934,48.3306],[78.257,48.4953],[78.3129,48.6777],[78.3712,48.9511],[78.3776,48.9818],[78.3991,49.2626],[78.4,49.3029],[78.4,50.0484],[78.3943,70.2336],[78.3544,70.6238],[78.3261,70.7516],[78.2584,71.0041],[78.169,71.2498],[78.0585,71.4868],[77.9981,71.6029],[77.7778,71.9274],[77.5213,72.2242],[77.4248,72.3126],[77.2245,72.4806],[77.0104,72.6306],[76.7839,72.7614],[76.547,72.8719],[76.4261,72.9219],[76.0487,73.029],[75.5307,73.0971],[44.4693,73.0971],[43.9513,73.029],[43.5739,72.9219],[43.3321,72.8218],[43.1,72.7009],[42.7755,72.4806],[42.4787,72.2242],[42.3019,72.0312],[42.2222,71.9274],[42.0722,71.7132],[41.9415,71.4868],[41.8811,71.3707],[41.7809,71.1289],[41.7416,71.0041],[41.7022,70.8793],[41.6456,70.6238],[41.6114,70.3643],[41.6,70.1029],[41.6,49.3029]]
M73 P0 R26
;TYPE:Custom
START_PRINT T_BED=110 T_EXTRUDER=260
G90
G21
M83 ; use relative distances for extrusion
; Filament gcode

    PRESSURE_ADVANCE_SELECT FILAMENT=ABS
M106 S0
;LAYER_CHANGE
;Z:0.2
;HEIGHT:0.2
;BEFORE_LAYER_CHANGE
;0.2
G92 E0

;AFTER_LAYER_CHANGE
;0.2
M204 S500
; printing object (Unsaved)1.stl id:0 copy 0
EXCLUDE_OBJECT_START NAME=(Unsaved)1.stl_id_0_copy_0
G1 E-.5 F3000
G1 Z.2 F21000
G1 X76.228 Y51.424
G1 E.5 F1800
;TYPE:Inner wall
;WIDTH:0.499999
G1 F3000
G1 X76.073 Y51.308 E.00683
G1 X75.455 Y51.021 E.02397
G1 X74.791 Y50.869 E.02397
G1 X74.11 Y50.858 E.02397
G1 X73.464 Y50.985 E.02318
G1 X72.816 Y51.257 E.02473
G1 X72.259 Y51.648 E.02397
G1 X71.795 Y52.147 E.02397
G1 X71.445 Y52.731 E.02397
G1 X71.225 Y53.376 E.02397
G1 X71.142 Y53.991 E.02186
G1 X71.142 Y68.214 E.50056
G1 X71.225 Y68.83 E.02185
G1 X71.381 Y69.338 E.01872
G1 X71.624 Y69.811 E.01871
G1 X72.014 Y70.32 E.02257
G1 X72.527 Y70.768 E.02397
G1 X73.122 Y71.099 E.02395
G1 X73.629 Y71.258 E.01871
;WIDTH:0.473218
G1 X73.765 Y71.259 E.00453
;WIDTH:0.427258
G1 X73.902 Y71.26 E.00405
;WIDTH:0.381298
G1 X74.622 Y71.287 E.01876
;WIDTH:0.40658
G1 X75.158 Y71.225 E.01511
;WIDTH:0.436795
G1 X75.38 Y71.165 E.00698
;WIDTH:0.467009
G1 X75.602 Y71.105 E.00752
;WIDTH:0.467332
G1 X76.056 Y70.883 E.01651
G1 X76.478 Y70.584 E.01689
;WIDTH:0.451795
G1 X76.845 Y70.225 E.01617
G1 X76.817 Y70.39 E.00526
G1 X76.636 Y70.87 E.01618
;WIDTH:0.467332
G1 X76.315 Y71.217 E.01544
;WIDTH:0.472163
G1 X75.951 Y71.431 E.01396
G1 X75.702 Y71.513 E.00865
;WIDTH:0.467009
G1 X75.447 Y71.549 E.0084
;WIDTH:0.436795
G1 X75.193 Y71.585 E.00781
;WIDTH:0.40658
G1 X74.557 Y71.607 E.0178
;WIDTH:0.381298
G1 X73.893 Y71.598 E.0173
;WIDTH:0.420865
G1 X73.679 Y71.578 E.00625
;WIDTH:0.460432
G1 X73.466 Y71.558 E.0069
;WIDTH:0.499999
G1 X73.252 Y71.539 E.00756
G1 X65.148 Y71.539 E.28522
G1 X65.687 Y71.038 E.02591
G1 X66.012 Y70.603 E.0191
G1 X66.262 Y70.122 E.0191
G1 X66.477 Y69.458 E.02453
G1 X66.558 Y68.822 E.02257
G1 X66.551 Y64.453 E.15375
G1 X66.474 Y63.917 E.01908
G1 X66.31 Y63.399 E.0191
G1 X65.992 Y62.779 E.02453
G1 X65.56 Y62.232 E.02454
G1 X65.06 Y61.8 E.02323
G1 X64.526 Y61.491 E.0217
G1 X63.857 Y61.252 E.02502
G1 X63.584 Y61.191 E.00985
G1 X63.001 Y61.139 E.02061
G1 X56.999 Y61.139 E.21124
G1 X56.416 Y61.191 E.02061
G1 X55.871 Y61.327 E.01976
G1 X55.268 Y61.595 E.02323
G1 X54.695 Y61.993 E.02454
G1 X54.211 Y62.494 E.02453
G1 X53.904 Y62.942 E.0191
G1 X53.674 Y63.434 E.0191
G1 X53.499 Y64.07 E.02322
G1 X53.436 Y64.702 E.02235
G1 X53.436 Y68.104 E.11972
G1 X53.454 Y68.943 E.02956
G1 X53.526 Y69.489 E.01936
G1 X53.69 Y70.007 E.01911
G1 X54.008 Y70.627 E.02453
G1 X54.44 Y71.174 E.02454
G1 X54.854 Y71.539 E.01942
G1 X46.547 Y71.539 E.29236
G1 X46.364 Y71.56 E.00651
;WIDTH:0.457522
G1 X46.18 Y71.581 E.0059
;WIDTH:0.415044
G1 X45.996 Y71.602 E.0053
;WIDTH:0.372566
G1 X45.295 Y71.605 E.01779
;WIDTH:0.396603
G1 X44.976 Y71.59 E.00869
;WIDTH:0.425446
G1 X44.658 Y71.576 E.0094
;WIDTH:0.472522
G1 X44.167 Y71.479 E.01653
G1 X43.72 Y71.249 E.01663
;WIDTH:0.468187
G1 X43.402 Y70.895 E.0156
G1 X43.247 Y70.534 E.01285
G1 X43.17 Y70.241 E.00993
G1 X43.362 Y70.451 E.00933
G1 X43.786 Y70.793 E.01781
;WIDTH:0.471224
G1 X44.234 Y71.044 E.01696
G1 X44.716 Y71.202 E.01672
;WIDTH:0.425446
G1 X45.018 Y71.242 E.00899
;WIDTH:0.396603
G1 X45.321 Y71.282 E.00831
;WIDTH:0.372566
G1 X45.988 Y71.273 E.01693
;WIDTH:0.415044
G1 X46.163 Y71.26 E.00503
;WIDTH:0.457522
G1 X46.338 Y71.247 E.0056
;WIDTH:0.499999
G1 X46.513 Y71.234 E.00618
G1 X47.009 Y71.042 E.01871
G1 X47.556 Y70.708 E.02257
G1 X48.055 Y70.244 E.02397
G1 X48.446 Y69.687 E.02395
G1 X48.67 Y69.205 E.01872
G1 X48.787 Y68.679 E.01898
G1 X48.864 Y68.104 E.02041
G1 X48.859 Y54.884 E.46526
G1 X48.844 Y53.813 E.03771
G1 X48.727 Y53.183 E.02255
G1 X48.538 Y52.686 E.01871
G1 X48.265 Y52.23 E.01872
G1 X47.848 Y51.743 E.02255
G1 X47.436 Y51.407 E.01871
G1 X46.971 Y51.148 E.01871
G1 X46.367 Y50.935 E.02255
G1 X45.763 Y50.852 E.02144
G1 X45.111 Y50.885 E.02297
G1 X44.512 Y51.03 E.02169
G1 X43.927 Y51.308 E.02279
G1 X43.383 Y51.717 E.02396
G1 X43.165 Y51.946 E.01114
G1 X43.164 Y49.388 E.09003
G1 X43.221 Y49.024 E.01296
G1 X43.387 Y48.747 E.01137
G1 X43.646 Y48.555 E.01137
G1 X43.988 Y48.472 E.01238
G1 X76.012 Y48.472 E1.12706
G1 X76.357 Y48.556 E.0125
G1 X76.613 Y48.747 E.01124
G1 X76.788 Y49.041 E.01204
G1 X76.836 Y49.406 E.01294
G1 X76.836 Y51.947 E.08943
G1 X76.617 Y51.717 E.01117
G1 X76.276 Y51.46 E.01502
G1 X75.963 Y51.79 F21000
G1 F3000
G1 X75.865 Y51.715 E.00433
G1 X75.337 Y51.463 E.02061
G1 X74.767 Y51.326 E.02061
G1 X74.182 Y51.31 E.02061
G1 X73.625 Y51.412 E.01994
G1 X73.065 Y51.64 E.02127
G1 X72.582 Y51.972 E.02061
G1 X72.178 Y52.396 E.02061
G1 X71.872 Y52.895 E.02061
G1 X71.676 Y53.447 E.02061
G1 X71.599 Y53.991 E.01935
G1 X71.599 Y68.214 E.50056
G1 X71.674 Y68.743 E.01879
G1 X71.814 Y69.189 E.01645
G1 X72.024 Y69.589 E.01592
G1 X72.369 Y70.032 E.01977
G1 X72.815 Y70.413 E.02061
G1 X73.329 Y70.692 E.0206
G1 X73.923 Y70.863 E.02175
G1 X74.586 Y70.897 E.02336
G1 X75.08 Y70.822 E.01757
G1 X75.606 Y70.631 E.01971
G1 X75.973 Y70.411 E.01506
G1 X76.444 Y70.024 E.02147
G1 X76.725 Y69.669 E.01592
G1 X76.989 Y69.174 E.01976
;WIDTH:0.547817
G1 X77.066 Y69.007 E.00714
;WIDTH:0.595635
G1 X77.144 Y68.841 E.00781
;WIDTH:0.643452
G1 X77.221 Y68.675 E.00849
G1 X77.245 Y68.817 E.00667
;WIDTH:0.595635
G1 X77.269 Y68.959 E.00614
;WIDTH:0.547817
G1 X77.293 Y69.102 E.00561
;WIDTH:0.499999
G1 X77.293 Y69.859 E.02666
G1 X77.267 Y70.365 E.01784
G1 X77.13 Y70.837 E.0173
G1 X76.972 Y71.143 E.01212
G1 X76.613 Y71.542 E.01888
G1 X76.172 Y71.814 E.01823
G1 X75.874 Y71.925 E.01118
G1 X75.36 Y71.996 E.01828
G1 X64.145 Y71.996 E.39469
G1 X63.848 Y72.02 E.01049
;WIDTH:0.450783
G1 X63.551 Y72.045 E.00936
;WIDTH:0.401567
G1 X62.999 Y72.064 E.01524
;WIDTH:0.370162
G1 X56.761 Y72.061 E.15718
;WIDTH:0.413441
G1 X56.55 Y72.039 E.00605
;WIDTH:0.45672
G1 X56.34 Y72.017 E.00675
;WIDTH:0.499999
G1 X56.129 Y71.996 E.00746
G1 X44.604 Y71.993 E.40559
G1 X44.088 Y71.919 E.01835
G1 X43.68 Y71.746 E.01561
G1 X43.259 Y71.424 E.01865
G1 X43.003 Y71.098 E.01459
G1 X42.79 Y70.583 E.01962
G1 X42.712 Y70.163 E.01504
G1 X42.712 Y69.389 E.02724
;WIDTH:0.541933
G1 X42.733 Y69.238 E.00587
;WIDTH:0.583866
G1 X42.754 Y69.086 E.00636
;WIDTH:0.625799
G1 X42.775 Y68.935 E.00685
;WIDTH:0.667732
G1 X42.796 Y68.784 E.00734
G1 X42.823 Y68.838 E.00293
;WIDTH:0.641846
G1 X42.85 Y68.893 E.00281
;WIDTH:0.615959
G1 X42.975 Y69.125 E.01162
;WIDTH:0.577306
G1 X43.099 Y69.357 E.01084
;WIDTH:0.538653
G1 X43.224 Y69.589 E.01005
;WIDTH:0.499999
G1 X43.569 Y70.032 E.01976
G1 X43.912 Y70.344 E.01633
G1 X44.376 Y70.624 E.01907
G1 X44.843 Y70.803 E.0176
G1 X45.382 Y70.896 E.01924
G1 X45.967 Y70.88 E.0206
G1 X46.41 Y70.789 E.01592
G1 X46.83 Y70.622 E.01592
G1 X47.307 Y70.324 E.01977
G1 X47.731 Y69.921 E.02061
G1 X48.063 Y69.438 E.0206
G1 X48.249 Y69.026 E.01592
G1 X48.336 Y68.607 E.01507
G1 X48.407 Y68.104 E.01789
G1 X48.401 Y53.991 E.49668
G1 X48.324 Y53.448 E.01932
G1 X48.186 Y53.017 E.01592
G1 X47.976 Y52.616 E.01592
G1 X47.631 Y52.174 E.01976
G1 X47.297 Y51.869 E.01592
G1 X46.915 Y51.627 E.01592
G1 X46.394 Y51.416 E.01976
G1 X45.787 Y51.308 E.02172
G1 X45.135 Y51.342 E.02297
G1 X44.644 Y51.468 E.01785
G1 X44.135 Y51.715 E.0199
G1 X43.67 Y52.072 E.02061
G1 X43.291 Y52.517 E.0206
G1 X43.062 Y52.908 E.01592
;WIDTH:0.54231
G1 X42.995 Y53.039 E.00569
;WIDTH:0.58462
G1 X42.927 Y53.171 E.00617
;WIDTH:0.62693
G1 X42.86 Y53.303 E.00665
;WIDTH:0.66924
G1 X42.793 Y53.434 E.00713
G1 X42.771 Y53.317 E.00574
;WIDTH:0.62693
G1 X42.75 Y53.2 E.00536
;WIDTH:0.58462
G1 X42.729 Y53.083 E.00497
;WIDTH:0.54231
G1 X42.708 Y52.966 E.00458
;WIDTH:0.499999
G1 X42.707 Y49.388 E.12591
G1 X42.75 Y49.02 E.01304
G1 X42.896 Y48.641 E.01428
G1 X43.233 Y48.269 E.01767
G1 X43.568 Y48.097 E.01326
G1 X43.954 Y48.015 E.01388
G1 X76.046 Y48.015 E1.12943
G1 X76.418 Y48.094 E.0134
G1 X76.767 Y48.269 E.01372
G1 X77.104 Y48.641 E.01767
G1 X77.239 Y48.959 E.01215
G1 X77.293 Y49.406 E.01585
G1 X77.293 Y52.816 E.12
;WIDTH:0.541944
G1 X77.272 Y52.974 E.00615
;WIDTH:0.583889
G1 X77.251 Y53.133 E.00667
;WIDTH:0.625834
G1 X77.23 Y53.292 E.00719
;WIDTH:0.667778
G1 X77.209 Y53.451 E.0077
G1 X77.153 Y53.342 E.00587
;WIDTH:0.625834
G1 X77.098 Y53.234 E.00547
;WIDTH:0.583889
G1 X77.042 Y53.125 E.00508
;WIDTH:0.541944
G1 X76.986 Y53.017 E.00469
;WIDTH:0.499999
G1 X76.709 Y52.517 E.0201
G1 X76.33 Y52.072 E.0206
G1 X76.01 Y51.827 E.01417
G1 E-.5
G1 Z.4 F21000
G1 X42.855 Y48.009
G1 Z.2
G1 E.5 F1800
;TYPE:Outer wall
G1 F3000
G1 X42.96 Y47.9 E.00532
G1 X43.415 Y47.666 E.018
G1 X43.92 Y47.558 E.01821
G1 X75.568 Y47.558 E1.11381
G1 X76.247 Y47.583 E.0239
G1 X76.747 Y47.725 E.0183
G1 X77.168 Y48.016 E.018
G1 X77.498 Y48.405 E.01796
G1 X77.715 Y48.96 E.02096
G1 X77.75 Y49.406 E.01576
G1 X77.75 Y69.859 E.71983
G1 X77.714 Y70.506 E.02279
G1 X77.526 Y71.102 E.02198
G1 X77.285 Y71.486 E.01596
G1 X76.922 Y71.879 E.01885
G1 X76.399 Y72.211 E.02178
G1 X75.91 Y72.393 E.01837
G1 X75.386 Y72.453 E.01857
G1 X44.852 Y72.453 E1.07459
G1 X44.279 Y72.424 E.02022
G1 X43.823 Y72.311 E.01653
G1 X43.35 Y72.078 E.01854
G1 X42.95 Y71.761 E.01797
G1 X42.602 Y71.324 E.01965
G1 X42.368 Y70.758 E.02158
G1 X42.255 Y70.197 E.02012
G1 X42.25 Y49.736 E.72009
G1 X42.258 Y49.211 E.01848
G1 X42.356 Y48.715 E.01782
G1 X42.604 Y48.268 E.018
G1 X42.813 Y48.052 E.01056
G1 X42.884 Y48.015
G1 E-.5
G1 Z.4 F21000
G1 X75.558 Y52.075
G1 Z.2
G1 E.5 F1800
G1 F3000
G1 X75.698 Y52.148 E.00554
G1 X76.076 Y52.461 E.01726
G1 X76.377 Y52.838 E.01697
G1 X76.554 Y53.166 E.01312
G1 X76.673 Y53.524 E.01329
G1 X76.75 Y54.101 E.0205
G1 X76.75 Y68.104 E.4928
G1 X76.694 Y68.611 E.01794
G1 X76.581 Y68.966 E.01313
G1 X76.36 Y69.394 E.01696
G1 X76.132 Y69.69 E.01312
G1 X75.724 Y70.028 E.01867
G1 X75.442 Y70.205 E.0117
G1 X74.992 Y70.374 E.01691
G1 X74.61 Y70.441 E.01367
G1 X73.947 Y70.406 E.02336
G1 X73.537 Y70.284 E.01506
G1 X73.102 Y70.057 E.01725
G1 X72.724 Y69.745 E.01726
G1 X72.423 Y69.368 E.01697
G1 X72.246 Y69.04 E.01312
G1 X72.125 Y68.671 E.01366
G1 X72.056 Y68.214 E.01627
G1 X72.056 Y53.991 E.50056
G1 X72.14 Y53.473 E.0185
G1 X72.321 Y53.017 E.01726
G1 X72.592 Y52.608 E.01726
G1 X72.942 Y52.265 E.01726
G1 X73.358 Y52.001 E.01732
G1 X73.83 Y51.828 E.01771
G1 X74.301 Y51.759 E.01674
G1 X74.791 Y51.789 E.01726
G1 X75.263 Y51.921 E.01726
G1 X75.505 Y52.048 E.00961
G1 X75.584 Y52.057
G1 E-.5
G1 Z.4 F21000
G1 X77.209 Y53.451
G1 Z.2
G1 E.5 F1800
;TYPE:Inner wall
;WIDTH:0.667778
G1 F3000
G1 X77.228 Y53.726 E.0133
;WIDTH:0.630194
G1 X77.247 Y54.002 E.0125
;WIDTH:0.59261
G1 X77.25 Y54.101 E.00421
;WIDTH:0.58584
G1 X77.25 Y68.104 E.58535
;WIDTH:0.611016
G1 X77.237 Y68.363 E.01135
;WIDTH:0.636192
G1 X77.225 Y68.623 E.01186
;WIDTH:0.643452
G1 X77.221 Y68.675 E.00241
G1 E-.5
G1 Z.4 F21000
G1 X55.161 Y71.193
G1 Z.2
G1 E.5 F1800
;WIDTH:0.499999
G1 F3000
G1 X55.099 Y71.154 E.00258
G1 X54.657 Y70.736 E.0214
G1 X54.306 Y70.239 E.0214
G1 X54.064 Y69.706 E.02061
G1 X53.943 Y69.242 E.01687
G1 X53.893 Y68.715 E.01863
G1 X53.893 Y64.702 E.14124
G1 X53.943 Y64.181 E.01842
G1 X54.094 Y63.616 E.02059
G1 X54.288 Y63.19 E.01648
G1 X54.55 Y62.801 E.01648
G1 X54.967 Y62.36 E.02139
G1 X55.463 Y62.008 E.0214
G1 X55.997 Y61.766 E.02061
G1 X56.461 Y61.645 E.01687
G1 X56.999 Y61.596 E.01903
G1 X63.001 Y61.596 E.21124
G1 X63.539 Y61.645 E.01903
G1 X64.372 Y61.922 E.03089
G1 X64.813 Y62.184 E.01803
G1 X65.253 Y62.571 E.02061
G1 X65.625 Y63.051 E.0214
G1 X65.897 Y63.595 E.02139
G1 X66.056 Y64.152 E.0204
G1 X66.101 Y64.584 E.01528
G1 X66.101 Y68.822 E.14915
G1 X66.024 Y69.391 E.02021
G1 X65.832 Y69.968 E.02139
G1 X65.55 Y70.474 E.0204
G1 X65.252 Y70.835 E.01648
G1 X64.813 Y71.222 E.0206
G1 X64.41 Y71.469 E.01665
G1 X63.966 Y71.649 E.01686
G1 X63.798 Y71.671 E.00594
;WIDTH:0.461638
G1 X63.631 Y71.692 E.00544
;WIDTH:0.423277
G1 X63.464 Y71.714 E.00494
;WIDTH:0.384915
G1 X63 Y71.742 E.01224
;WIDTH:0.370162
G1 X56.762 Y71.733 E.15718
;WIDTH:0.413441
G1 X56.568 Y71.72 E.00553
;WIDTH:0.45672
G1 X56.375 Y71.707 E.00618
;WIDTH:0.499999
G1 X56.181 Y71.694 E.00683
G1 X55.613 Y71.477 E.02139
G1 X55.212 Y71.225 E.01671
G1 X55.552 Y70.904 F21000
;TYPE:Outer wall
G1 F3000
G1 X55.406 Y70.815 E.00602
G1 X55.024 Y70.463 E.01826
G1 X54.719 Y70.044 E.01826
G1 X54.503 Y69.581 E.01798
G1 X54.398 Y69.198 E.01399
G1 X54.35 Y68.644 E.01956
G1 X54.35 Y64.702 E.13873
G1 X54.386 Y64.292 E.01448
G1 X54.513 Y63.797 E.01797
G1 X54.672 Y63.438 E.01385
G1 X54.888 Y63.108 E.01385
G1 X55.24 Y62.727 E.01824
G1 X55.659 Y62.422 E.01826
G1 X56.122 Y62.206 E.01799
G1 X56.505 Y62.1 E.01399
G1 X56.999 Y62.053 E.01745
G1 X63.001 Y62.053 E.21124
M73 P1 R26
G1 X63.51 Y62.102 E.01801
G1 X64.218 Y62.352 E.02642
G1 X64.595 Y62.591 E.01568
G1 X64.976 Y62.942 E.01824
G1 X65.281 Y63.362 E.01826
G1 X65.497 Y63.825 E.01799
G1 X65.602 Y64.204 E.01385
G1 X65.644 Y64.584 E.01344
G1 X65.644 Y68.826 E.14929
G1 X65.572 Y69.324 E.01772
G1 X65.402 Y69.814 E.01824
G1 X65.192 Y70.19 E.01516
G1 X64.945 Y70.497 E.01385
G1 X64.565 Y70.837 E.01797
G1 X64.231 Y71.049 E.01391
G1 X63.855 Y71.206 E.01434
G1 X63.374 Y71.323 E.01742
G1 X63 Y71.353 E.01319
G1 X56.762 Y71.341 E.21954
G1 X56.335 Y71.264 E.01528
G1 X55.848 Y71.085 E.01824
G1 X55.603 Y70.935 E.01012
G1 X55.522 Y70.922
G1 E-.5
G1 Z.4 F21000
G1 X43.686 Y52.756
G1 Z.2
G1 E.5 F1800
G1 F3000
G1 X43.958 Y52.427 E.01503
G1 X44.342 Y52.122 E.01726
G1 X44.775 Y51.906 E.01702
G1 X45.158 Y51.798 E.01402
G1 X45.81 Y51.765 E.02297
G1 X46.231 Y51.843 E.01506
G1 X46.679 Y52.019 E.01696
G1 X46.997 Y52.214 E.01312
G1 X47.276 Y52.461 E.01312
G1 X47.577 Y52.838 E.01696
G1 X47.754 Y53.166 E.01312
G1 X47.872 Y53.519 E.01312
G1 X47.944 Y53.991 E.01681
G1 X47.95 Y68.104 E.49667
G1 X47.828 Y68.848 E.02653
G1 X47.679 Y69.19 E.01312
G1 X47.408 Y69.598 E.01725
G1 X47.095 Y69.911 E.01559
G1 X46.651 Y70.201 E.01864
G1 X46.307 Y70.343 E.01312
G1 X45.943 Y70.424 E.01312
G1 X45.453 Y70.444 E.01725
G1 X44.97 Y70.363 E.01726
G1 X44.422 Y70.128 E.02096
G1 X43.952 Y69.773 E.02074
G1 X43.623 Y69.368 E.01836
G1 X43.446 Y69.04 E.01312
G1 X43.328 Y68.687 E.01312
G1 X43.256 Y68.214 E.01681
G1 X43.256 Y53.991 E.50056
G1 X43.337 Y53.48 E.01821
G1 X43.462 Y53.129 E.01312
