; HEADER_BLOCK_START
; generated by OrcaSlicer 1.6.3 on 2023-06-09 at 22:06:46
; total layer number: 43
; HEADER_BLOCK_END

; THUMBNAIL_BLOCK_START
; THUMBNAIL_BLOCK_END

; external perimeters extrusion width = 0.30mm
; perimeters extrusion width = 0.30mm
; infill extrusion width = 0.30mm
; solid infill extrusion width = 0.30mm
; top infill extrusion width = 0.30mm
; support material extrusion width = 0.30mm
; first layer extrusion width = 0.30mm

; EXECUTABLE_BLOCK_START
EXCLUDE_OBJECT_DEFINE NAME=(Unsaved).stl_id_0_copy_0 CENTER=60,60 POLYGON=[[50.625,54.998],[54.435,39.482],[54.439,39.466],[54.469,39.37],[54.483,39.338],[54.525,39.266],[54.555,39.224],[54.599,39.174],[54.651,39.13],[54.691,39.1],[54.763,39.058],[54.795,39.044],[54.891,39.014],[54.907,39.01],[54.965,39.002],[55.023,39],[59.019,39],[59.165,39.004],[59.253,39.012],[59.311,39.02],[59.455,39.048],[59.485,39.054],[59.599,39.086],[59.709,39.122],[59.737,39.132],[59.871,39.19],[59.925,39.216],[60.003,39.258],[60.127,39.334],[61.925,40.532],[65.925,43.198],[67.733,44.406],[67.831,44.48],[67.929,44.554],[68.105,44.724],[68.259,44.916],[68.387,45.126],[68.439,45.238],[68.489,45.348],[68.527,45.466],[68.563,45.582],[68.587,45.704],[68.609,45.824],[68.625,46.07],[69.375,61],[69.375,61.162],[69.373,61.302],[69.371,61.424],[69.367,61.53],[68.625,78.998],[68.611,79.234],[68.607,79.26],[68.569,79.464],[68.555,79.516],[68.501,79.69],[68.471,79.764],[68.407,79.906],[68.355,80],[68.289,80.108],[68.277,80.126],[68.187,80.246],[68.147,80.296],[68.089,80.36],[67.985,80.464],[67.983,80.466],[67.841,80.586],[67.791,80.622],[67.687,80.692],[67.581,80.756],[67.525,80.784],[67.355,80.862],[67.177,80.922],[67.117,80.938],[66.995,80.964],[66.873,80.984],[66.811,80.99],[66.623,81],[55.123,81],[54.929,80.99],[54.873,80.984],[54.733,80.96],[54.625,80.936],[54.543,80.912],[54.385,80.858],[54.359,80.846],[54.181,80.762],[54.157,80.75],[54.013,80.662],[53.943,80.614],[53.855,80.544],[53.749,80.452],[53.621,80.318],[53.579,80.266],[53.539,80.216],[53.463,80.11],[53.443,80.082],[53.393,80],[53.339,79.902],[53.293,79.802],[53.251,79.7],[53.241,79.672],[53.181,79.472],[53.177,79.454],[53.137,79.228],[50.625,56.498],[50.625,54.998]]
M73 P0 R10
;TYPE:Custom
START_PRINT T_BED=110 T_EXTRUDER=250
G90
G21
M83 ; use relative distances for extrusion
; Filament gcode

    PRESSURE_ADVANCE_SELECT FILAMENT=ABS
M106 S0
;LAYER_CHANGE
;Z:0.2
;HEIGHT:0.2
;BEFORE_LAYER_CHANGE
;0.2
G92 E0

;AFTER_LAYER_CHANGE
;0.2
M204 S500
; printing object (Unsaved).stl id:0 copy 0
EXCLUDE_OBJECT_START NAME=(Unsaved).stl_id_0_copy_0
G1 E-.5 F3000
G1 Z.2 F21000
G1 X64.736 Y38.722
G1 E.5 F1800
;TYPE:Support
;WIDTH:0.3
G1 F3000
G1 X70.25 Y38.722 E.10915
G1 X70.25 Y41.479 E.05457
G1 X73.007 Y41.479 E.05457
G1 X73.007 Y64.736 E.46035
G1 X70.25 Y64.736 E.05457
G1 X70.25 Y67.493 E.05457
G1 X67.493 Y67.493 E.05457
G1 X67.493 Y71.807 E.0854
G1 X73.007 Y71.807 E.10915
G1 X73.007 Y81.278 E.18747
G1 X67.263 Y81.278 E.1137
G1 X67.237 Y81.162 E.00236
G1 X67.453 Y81.09 E.0045
G1 X67.708 Y80.971 E.00557
G1 X67.932 Y80.829 E.00524
G1 X68.149 Y80.653 E.00553
G1 X68.342 Y80.453 E.00551
G1 X68.493 Y80.253 E.00496
G1 X68.627 Y80.026 E.00522
G1 X68.738 Y79.769 E.00554
G1 X68.814 Y79.516 E.00523
G1 X68.86 Y79.256 E.00522
G1 X68.881 Y78.905 E.00697
G1 X68.733 Y78.748 E.00427
G1 X64.027 Y78.748 E.09316
G1 X62.175 Y76.896 E.05183
G1 X62.175 Y68.796 E.16033
G1 X62.029 Y68.65 E.0041
G1 X57.132 Y68.65 E.09693
G1 X56.806 Y68.633 E.00646
G1 X56.49 Y68.587 E.00632
G1 X56.182 Y68.509 E.00629
G1 X55.88 Y68.401 E.00634
G1 X55.59 Y68.265 E.00633
G1 X55.318 Y68.102 E.00628
G1 X55.062 Y67.911 E.00633
G1 X54.826 Y67.697 E.0063
G1 X54.612 Y67.461 E.0063
G1 X54.421 Y67.205 E.00632
G1 X54.258 Y66.931 E.00632
G1 X54.122 Y66.642 E.00631
G1 X54.014 Y66.341 E.00634
G1 X53.936 Y66.033 E.00629
G1 X53.89 Y65.717 E.00632
G1 X53.873 Y65.393 E.00642
G1 X53.873 Y57.407 E.1581
G1 X53.89 Y57.081 E.00646
G1 X53.936 Y56.765 E.00632
G1 X54.014 Y56.457 E.00629
G1 X54.122 Y56.155 E.00634
G1 X54.258 Y55.865 E.00633
G1 X54.421 Y55.593 E.00628
G1 X54.612 Y55.337 E.00633
G1 X54.826 Y55.101 E.0063
G1 X55.062 Y54.887 E.0063
G1 X55.318 Y54.696 E.00633
G1 X55.59 Y54.533 E.00628
G1 X55.88 Y54.397 E.00633
G1 X56.182 Y54.289 E.00634
G1 X56.49 Y54.211 E.00629
G1 X56.806 Y54.165 E.00632
G1 X57.132 Y54.148 E.00646
G1 X64.227 Y54.148 E.14044
G1 X64.373 Y54.002 E.0041
G1 X64.373 Y50.762 E.06413
G1 X64.413 Y50.558 E.00411
G1 X64.521 Y50.396 E.00386
G1 X64.683 Y50.288 E.00386
G1 X64.887 Y50.248 E.00411
G1 X68.729 Y50.248 E.07605
G1 X68.875 Y50.102 E.0041
G1 X68.875 Y47.394 E.05359
G1 X68.729 Y47.248 E.0041
G1 X64.027 Y47.248 E.09307
G1 X62.175 Y45.396 E.05183
G1 X62.175 Y40.469 E.09753
G1 X62.116 Y40.359 E.00248
G1 X60.263 Y39.124 E.04408
G1 X60.045 Y38.996 E.005
G1 X59.802 Y38.89 E.00524
G1 X59.537 Y38.809 E.00549
G1 X59.274 Y38.763 E.00528
G1 X58.022 Y38.75 E.02479
G1 X58.022 Y35.965 E.05513
G1 X64.736 Y35.965 E.1329
G1 X64.736 Y38.683 E.05381
G1 E-.5
G1 Z.4 F21000
G1 X61.475 Y45.419
G1 X61.475 Y45.686
G1 X63.523 Y53.298
G1 X57.661 Y53.298
G1 X57.138 Y54.379
G1 Z.2
M73 P1 R10
G1 E.5 F1800
G1 F3000
G1 X64.322 Y54.379 E.14222
G1 X64.604 Y54.097 E.00789
G1 X64.604 Y50.774 E.06578
G1 X64.628 Y50.647 E.00256
G1 X64.685 Y50.56 E.00206
G1 X64.772 Y50.503 E.00206
G1 X64.899 Y50.479 E.00256
G1 X68.824 Y50.479 E.07769
G1 X69.106 Y50.197 E.00789
G1 X69.106 Y47.299 E.05738
G1 X68.824 Y47.017 E.00789
G1 X64.122 Y47.017 E.09307
G1 X62.406 Y45.301 E.04804
G1 X62.406 Y40.411 E.09678
G1 X62.292 Y40.198 E.00478
G1 X60.388 Y38.929 E.0453
G1 X60.13 Y38.78 E.0059
G1 X59.888 Y38.675 E.00522
G1 X59.612 Y38.589 E.00574
G1 X59.324 Y38.536 E.0058
G1 X59.025 Y38.519 E.00592
G1 X58.253 Y38.519 E.01529
G1 X58.253 Y36.196 E.04597
G1 X64.504 Y36.196 E.12374
G1 X64.504 Y38.953 E.05457
G1 X70.018 Y38.953 E.10915
G1 X70.018 Y41.71 E.05457
G1 X72.775 Y41.71 E.05457
G1 X72.775 Y64.504 E.45119
G1 X70.018 Y64.504 E.05457
G1 X70.018 Y67.261 E.05457
G1 X67.261 Y67.261 E.05457
G1 X67.261 Y72.038 E.09456
G1 X72.775 Y72.038 E.10915
G1 X72.775 Y81.047 E.17831
G1 X68.02 Y81.047 E.09412
G1 X68.3 Y80.828 E.00703
G1 X68.522 Y80.598 E.00634
G1 X68.682 Y80.387 E.00523
G1 X68.83 Y80.136 E.00576
G1 X68.958 Y79.842 E.00635
G1 X69.034 Y79.59 E.00522
G1 X69.087 Y79.306 E.00572
G1 X69.118 Y78.819 E.00966
G1 X68.833 Y78.517 E.00823
G1 X64.122 Y78.517 E.09324
G1 X62.406 Y76.801 E.04804
G1 X62.406 Y68.701 E.16033
G1 X62.124 Y68.419 E.00789
G1 X57.138 Y68.419 E.09871
G1 X56.829 Y68.402 E.00612
G1 X56.535 Y68.359 E.00587
G1 X56.249 Y68.287 E.00584
G1 X55.969 Y68.186 E.00591
G1 X55.699 Y68.06 E.00589
G1 X55.447 Y67.91 E.00581
G1 X55.209 Y67.732 E.00588
G1 X54.99 Y67.533 E.00586
G1 X54.791 Y67.314 E.00586
G1 X54.614 Y67.076 E.00587
G1 X54.463 Y66.822 E.00586
G1 X54.336 Y66.554 E.00587
G1 X54.236 Y66.274 E.00589
G1 X54.164 Y65.988 E.00584
G1 X54.121 Y65.694 E.00587
G1 X54.104 Y65.387 E.00608
G1 X54.104 Y57.413 E.15786
G1 X54.121 Y57.104 E.00612
G1 X54.164 Y56.81 E.00587
G1 X54.236 Y56.524 E.00584
G1 X54.337 Y56.244 E.00591
G1 X54.463 Y55.974 E.00589
G1 X54.613 Y55.722 E.00581
G1 X54.791 Y55.484 E.00588
G1 X54.99 Y55.265 E.00586
G1 X55.209 Y55.066 E.00586
G1 X55.447 Y54.888 E.00588
G1 X55.699 Y54.738 E.00581
G1 X55.969 Y54.612 E.00589
G1 X56.249 Y54.511 E.00591
G1 X56.535 Y54.439 E.00584
G1 X56.829 Y54.396 E.00587
G1 X57.138 Y54.379 E.00612
G1 X57.145 Y54.665 F21000
G1 F3000
G1 X64.441 Y54.665 E.14441
G1 X64.89 Y54.216 E.01258
G1 X64.89 Y50.765 E.0683
G1 X68.943 Y50.765 E.08022
G1 X69.392 Y50.316 E.01258
G1 X69.392 Y47.18 E.06206
G1 X68.943 Y46.731 E.01258
G1 X64.241 Y46.731 E.09307
G1 X62.692 Y45.182 E.04335
G1 X62.692 Y40.34 E.09586
G1 X62.51 Y40 E.00762
G1 X60.543 Y38.689 E.0468
G1 X60.252 Y38.522 E.00665
G1 X59.995 Y38.41 E.00555
G1 X59.687 Y38.314 E.00639
G1 X59.366 Y38.253 E.00647
G1 X58.539 Y38.233 E.01637
G1 X58.539 Y36.482 E.03466
G1 X64.219 Y36.482 E.11243
M73 P2 R10
G1 X64.219 Y39.239 E.05457
G1 X69.733 Y39.239 E.10915
G1 X69.733 Y41.996 E.05457
G1 X72.49 Y41.996 E.05457
G1 X72.49 Y64.219 E.43988
G1 X69.733 Y64.219 E.05457
G1 X69.733 Y66.976 E.05457
G1 X66.976 Y66.976 E.05457
G1 X66.976 Y72.324 E.10587
G1 X72.49 Y72.324 E.10915
G1 X72.49 Y80.761 E.16701
G1 X68.757 Y80.761 E.07389
G1 X68.94 Y80.514 E.00608
G1 X69.081 Y80.273 E.00553
G1 X69.213 Y79.975 E.00646
G1 X69.32 Y79.623 E.00729
G1 X69.375 Y79.303 E.00643
G1 X69.41 Y78.713 E.01169
G1 X68.956 Y78.231 E.01311
G1 X64.241 Y78.231 E.09334
G1 X62.692 Y76.682 E.04335
G1 X62.692 Y68.582 E.16033
G1 X62.243 Y68.133 E.01258
G1 X57.145 Y68.133 E.10091
G1 X56.857 Y68.118 E.00571
G1 X56.591 Y68.079 E.00532
G1 X56.333 Y68.013 E.00528
G1 X56.077 Y67.922 E.00537
G1 X55.833 Y67.808 E.00533
G1 X55.606 Y67.672 E.00524
G1 X55.391 Y67.511 E.00532
G1 X55.192 Y67.331 E.00531
G1 X55.012 Y67.132 E.00531
G1 X54.852 Y66.917 E.0053
G1 X54.715 Y66.688 E.00529
G1 X54.601 Y66.445 E.00532
G1 X54.51 Y66.19 E.00535
G1 X54.444 Y65.932 E.00528
G1 X54.405 Y65.666 E.00532
G1 X54.39 Y65.38 E.00567
G1 X54.39 Y57.42 E.15756
G1 X54.405 Y57.132 E.00571
G1 X54.444 Y56.866 E.00532
G1 X54.51 Y56.608 E.00528
G1 X54.601 Y56.352 E.00537
G1 X54.715 Y56.108 E.00533
G1 X54.851 Y55.881 E.00524
G1 X55.012 Y55.666 E.00532
G1 X55.192 Y55.467 E.00531
G1 X55.391 Y55.287 E.00531
G1 X55.606 Y55.126 E.00532
G1 X55.833 Y54.99 E.00524
G1 X56.077 Y54.876 E.00533
G1 X56.333 Y54.785 E.00537
G1 X56.591 Y54.719 E.00528
G1 X56.857 Y54.68 E.00532
G1 X57.145 Y54.665 E.00571
G1 X57.152 Y54.951 F21000
G1 F3000
G1 X64.559 Y54.951 E.14661
G1 X65.176 Y54.334 E.01726
G1 X65.176 Y51.051 E.06499
G1 X69.061 Y51.051 E.07691
G1 X69.678 Y50.434 E.01726
G1 X69.678 Y47.062 E.06675
G1 X69.061 Y46.445 E.01726
G1 X64.359 Y46.445 E.09307
G1 X62.978 Y45.064 E.03867
G1 X62.978 Y40.268 E.09493
G1 X62.728 Y39.802 E.01045
G1 X60.698 Y38.449 E.0483
G1 X60.374 Y38.263 E.0074
G1 X60.044 Y38.124 E.00709
G1 X59.703 Y38.024 E.00704
G1 X59.341 Y37.962 E.00727
G1 X58.824 Y37.947 E.01022
G1 X58.824 Y36.768 E.02335
G1 X63.933 Y36.768 E.10112
G1 X63.933 Y39.525 E.05457
G1 X69.447 Y39.525 E.10915
G1 X69.447 Y42.282 E.05457
G1 X72.204 Y42.282 E.05457
G1 X72.204 Y63.933 E.42857
G1 X69.447 Y63.933 E.05457
G1 X69.447 Y66.69 E.05457
G1 X66.69 Y66.69 E.05457
G1 X66.69 Y72.61 E.11718
G1 X72.204 Y72.61 E.10915
M73 P3 R10
G1 X72.204 Y80.475 E.1557
G1 X69.307 Y80.475 E.05734
G1 X69.479 Y80.082 E.0085
G1 X69.599 Y79.682 E.00826
G1 X69.66 Y79.328 E.00711
G1 X69.703 Y78.607 E.01431
G1 X69.079 Y77.945 E.01799
G1 X64.359 Y77.945 E.09344
G1 X62.978 Y76.564 E.03867
G1 X62.978 Y68.464 E.16033
G1 X62.361 Y67.847 E.01726
G1 X57.152 Y67.847 E.1031
G1 X56.647 Y67.798 E.01005
G1 X56.186 Y67.658 E.00954
G1 X55.968 Y67.555 E.00478
G1 X55.766 Y67.434 E.00466
G1 X55.394 Y67.129 E.00952
G1 X55.09 Y66.759 E.00949
G1 X54.968 Y66.554 E.00472
G1 X54.865 Y66.335 E.00477
G1 X54.725 Y65.876 E.00951
G1 X54.676 Y65.372 E.01001
G1 X54.676 Y57.427 E.15726
G1 X54.725 Y56.922 E.01005
G1 X54.865 Y56.461 E.00954
G1 X54.968 Y56.243 E.00478
G1 X55.089 Y56.041 E.00466
G1 X55.394 Y55.669 E.00952
G1 X55.573 Y55.508 E.00476
G1 X55.766 Y55.364 E.00477
G1 X55.968 Y55.243 E.00466
G1 X56.416 Y55.058 E.0096
G1 X56.647 Y55 E.00472
G1 X56.885 Y54.965 E.00476
G1 X57.152 Y54.951 E.0053
G1 X57.16 Y55.236 F21000
G1 F3000
G1 X64.677 Y55.236 E.1488
G1 X65.461 Y54.452 E.02195
G1 X65.461 Y51.336 E.06168
G1 X69.179 Y51.336 E.0736
G1 X69.963 Y50.552 E.02195
G1 X69.963 Y46.944 E.07143
G1 X69.179 Y46.16 E.02195
G1 X64.477 Y46.16 E.09307
G1 X63.263 Y44.946 E.03399
G1 X63.263 Y40.196 E.09401
G1 X62.946 Y39.604 E.01329
G1 X60.853 Y38.209 E.0498
G1 X60.495 Y38.005 E.00815
G1 X60.207 Y37.879 E.00621
G1 X59.837 Y37.762 E.0077
G1 X59.449 Y37.687 E.00781
G1 X59.11 Y37.665 E.00673
G1 X59.11 Y37.053 E.0121
G1 X63.647 Y37.053 E.08981
G1 X63.647 Y39.81 E.05457
G1 X69.161 Y39.81 E.10915
G1 X69.161 Y42.567 E.05457
G1 X71.918 Y42.567 E.05457
G1 X71.918 Y63.647 E.41726
G1 X69.161 Y63.647 E.05457
G1 X69.161 Y66.404 E.05457
G1 X66.404 Y66.404 E.05457
G1 X66.404 Y72.895 E.12848
G1 X71.918 Y72.895 E.10915
G1 X71.918 Y80.19 E.14439
G1 X69.748 Y80.19 E.04296
G1 X69.861 Y79.814 E.00777
G1 X69.935 Y79.434 E.00765
G1 X69.995 Y78.501 E.01852
G1 X69.203 Y77.66 E.02287
G1 X64.477 Y77.66 E.09354
G1 X63.263 Y76.446 E.03399
G1 X63.263 Y68.346 E.16033
G1 X62.479 Y67.562 E.02195
G1 X57.16 Y67.562 E.10529
G1 X56.703 Y67.518 E.00908
G1 X56.295 Y67.393 E.00844
G1 X55.925 Y67.197 E.0083
G1 X55.596 Y66.927 E.00842
G1 X55.327 Y66.6 E.00838
G1 X55.22 Y66.419 E.00415
G1 X55.129 Y66.226 E.00423
G1 X55.005 Y65.82 E.00841
G1 X54.961 Y65.365 E.00905
G1 X54.961 Y57.435 E.15697
G1 X55.005 Y56.978 E.00908
G1 X55.13 Y56.57 E.00844
G1 X55.326 Y56.2 E.0083
G1 X55.597 Y55.871 E.00842
G1 X55.754 Y55.729 E.00421
G1 X56.102 Y55.495 E.00829
G1 X56.5 Y55.332 E.00851
G1 X56.914 Y55.249 E.00836
G1 X57.16 Y55.236 E.00488
G1 X57.167 Y55.522 F21000
G1 F3000
G1 X64.796 Y55.522 E.151
M73 P4 R10
G1 X65.747 Y54.571 E.02663
G1 X65.747 Y51.622 E.05837
G1 X69.298 Y51.622 E.07028
G1 X70.249 Y50.671 E.02663
G1 X70.249 Y46.825 E.07612
G1 X69.298 Y45.874 E.02663
G1 X64.596 Y45.874 E.09307
G1 X63.549 Y44.827 E.0293
G1 X63.549 Y40.096 E.09366
G1 X68.876 Y40.096 E.10544
G1 X68.876 Y42.853 E.05457
G1 X71.633 Y42.853 E.05457
G1 X71.633 Y63.362 E.40595
G1 X68.876 Y63.362 E.05457
G1 X68.876 Y66.119 E.05457
G1 X66.119 Y66.119 E.05457
G1 X66.119 Y73.181 E.13979
G1 X71.633 Y73.181 E.10915
G1 X71.633 Y79.904 E.13308
G1 X70.139 Y79.904 E.02956
G1 X70.229 Y79.379 E.01054
G1 X70.288 Y78.394 E.01953
G1 X69.326 Y77.374 E.02775
G1 X64.596 Y77.374 E.09363
G1 X63.549 Y76.327 E.0293
G1 X63.549 Y68.227 E.16033
G1 X62.598 Y67.276 E.02663
G1 X56.942 Y67.264 E.11195
G1 X56.583 Y67.193 E.00725
G1 X56.236 Y67.05 E.00742
G1 X56.084 Y66.959 E.00351
G1 X55.799 Y66.724 E.00732
G1 X55.565 Y66.441 E.00727
G1 X55.473 Y66.285 E.00358
G1 X55.394 Y66.117 E.00368
G1 X55.286 Y65.764 E.00731
G1 X55.247 Y65.357 E.00808
G1 X55.247 Y57.442 E.15667
G1 X55.286 Y57.034 E.00812
G1 X55.394 Y56.679 E.00735
G1 X55.564 Y56.359 E.00717
G1 X55.799 Y56.074 E.00732
G1 X55.936 Y55.949 E.00367
G1 X56.236 Y55.748 E.00716
G1 X56.583 Y55.605 E.00742
G1 X56.942 Y55.534 E.00724
G1 X57.167 Y55.522 E.00447
G1 X57.175 Y55.808 F21000
G1 F3000
G1 X64.914 Y55.808 E.15319
G1 X66.033 Y54.689 E.03131
G1 X66.033 Y51.908 E.05506
G1 X69.416 Y51.908 E.06697
G1 X70.535 Y50.789 E.03131
G1 X70.535 Y46.707 E.0808
G1 X69.416 Y45.588 E.03131
G1 X64.714 Y45.588 E.09307
G1 X63.835 Y44.709 E.02462
G1 X63.835 Y40.382 E.08566
G1 X68.59 Y40.382 E.09413
G1 X68.59 Y43.139 E.05457
G1 X71.347 Y43.139 E.05457
G1 X71.347 Y63.076 E.39465
G1 X68.59 Y63.076 E.05457
G1 X68.59 Y65.833 E.05457
G1 X65.833 Y65.833 E.05457
M73 P5 R10
G1 X65.833 Y73.467 E.1511
G1 X71.347 Y73.467 E.10915
G1 X71.347 Y79.618 E.12177
G1 X70.488 Y79.618 E.017
G1 X70.58 Y78.288 E.02639
G1 X69.449 Y77.088 E.03263
G1 X64.714 Y77.088 E.09373
G1 X63.835 Y76.209 E.02462
G1 X63.835 Y68.109 E.16033
G1 X62.716 Y66.99 E.03131
G1 X56.97 Y66.98 E.11373
G1 X56.666 Y66.919 E.00613
G1 X56.37 Y66.798 E.00633
G1 X56.243 Y66.722 E.00293
G1 X56.001 Y66.522 E.00621
G1 X55.803 Y66.282 E.00616
G1 X55.658 Y66.008 E.00615
G1 X55.604 Y65.857 E.00317
G1 X55.543 Y65.553 E.00614
G1 X55.533 Y65.35 E.00402
G1 X55.543 Y57.245 E.16043
G1 X55.604 Y56.941 E.00613
G1 X55.725 Y56.645 E.00633
G1 X55.895 Y56.393 E.00603
G1 X56.118 Y56.17 E.00623
G1 X56.37 Y56 E.00603
G1 X56.666 Y55.879 E.00633
G1 X56.97 Y55.818 E.00613
G1 X57.175 Y55.808 E.00406
G1 X57.182 Y56.093 F21000
G1 F3000
G1 X65.032 Y56.093 E.15538
G1 X66.318 Y54.807 E.036
G1 X66.318 Y52.193 E.05174
G1 X69.534 Y52.193 E.06366
G1 X71.062 Y50.666 E.04275
G1 X71.062 Y62.79 E.23999
G1 X68.304 Y62.79 E.05457
G1 X68.304 Y65.547 E.05457
G1 X65.547 Y65.547 E.05457
G1 X65.547 Y73.752 E.16241
G1 X71.062 Y73.752 E.10915
G1 X71.062 Y78.383 E.09166
G1 X69.573 Y76.803 E.04297
G1 X64.832 Y76.803 E.09383
G1 X64.12 Y76.091 E.01993
G1 X64.12 Y67.991 E.16033
G1 X62.834 Y66.705 E.036
G1 X56.999 Y66.695 E.11552
G1 X56.75 Y66.646 E.00502
G1 X56.505 Y66.545 E.00524
G1 X56.299 Y66.407 E.0049
G1 X56.203 Y66.32 E.00257
