; HEADER_BLOCK_START
; generated by OrcaSlicer 1.7.0-beta on 2023-09-29 at 21:13:33
; total layer number: 75
; HEADER_BLOCK_END

; THUMBNAIL_BLOCK_START
; THUMBNAIL_BLOCK_END

; external perimeters extrusion width = 0.40mm
; perimeters extrusion width = 0.46mm
; infill extrusion width = 0.64mm
; solid infill extrusion width = 0.56mm
; top infill extrusion width = 0.40mm
; first layer extrusion width = 0.50mm

; external perimeters extrusion width = 0.40mm
; perimeters extrusion width = 0.46mm
; infill extrusion width = 0.64mm
; solid infill extrusion width = 0.56mm
; top infill extrusion width = 0.40mm
; first layer extrusion width = 0.50mm

; EXECUTABLE_BLOCK_START
EXCLUDE_OBJECT_DEFINE NAME=Unsaved_.stl_id_0_copy_0 CENTER=70.6995,85.3221 POLYGON=[[45.6995,85.3221],[45.7403,83.8949],[45.8625,82.4723],[46.0657,81.0591],[46.3492,79.6597],[46.7122,78.2788],[47.1534,76.9209],[47.6714,75.5904],[48.2646,74.2916],[48.9309,73.0288],[49.6682,71.8061],[50.4741,70.6275],[51.346,69.4968],[52.281,68.4177],[53.2761,67.3938],[54.328,66.4284],[55.4333,65.5245],[56.5885,64.6853],[57.7896,63.9134],[59.0329,63.2113],[60.3142,62.5813],[61.6293,62.0255],[62.9741,61.5457],[64.3441,61.1434],[65.7348,60.82],[67.1417,60.5766],[68.5602,60.4138],[69.9856,60.3323],[71.4134,60.3323],[72.8389,60.4138],[74.2574,60.5766],[75.6643,60.82],[77.055,61.1434],[78.425,61.5457],[79.7697,62.0255],[81.0849,62.5813],[82.3662,63.2113],[83.6095,63.9134],[84.8106,64.6853],[85.9657,65.5245],[87.0711,66.4284],[88.123,67.3938],[89.1181,68.4177],[90.0531,69.4968],[90.925,70.6275],[91.7309,71.8061],[92.4682,73.0288],[93.1345,74.2916],[93.7276,75.5904],[94.2456,76.9209],[94.6869,78.2788],[95.0498,79.6597],[95.3334,81.0591],[95.5366,82.4723],[95.6588,83.8949],[95.6995,85.3221],[95.6588,86.7493],[95.5366,88.1719],[95.3334,89.5852],[95.0498,90.9845],[94.6869,92.3654],[94.2456,93.7233],[93.7276,95.0539],[93.1345,96.3526],[92.4682,97.6154],[91.7309,98.8381],[90.925,100.017],[90.0531,101.147],[89.1181,102.226],[88.123,103.25],[87.0711,104.216],[85.9657,105.12],[84.8106,105.959],[83.6095,106.731],[82.3662,107.433],[81.0849,108.063],[79.7697,108.619],[78.425,109.099],[77.055,109.501],[75.6643,109.824],[74.2574,110.068],[72.8389,110.23],[71.4134,110.312],[69.9856,110.312],[68.5602,110.23],[67.1417,110.068],[65.7348,109.824],[64.3441,109.501],[62.9741,109.099],[61.6293,108.619],[60.3142,108.063],[59.0329,107.433],[57.7896,106.731],[56.5885,105.959],[55.4333,105.12],[54.328,104.216],[53.2761,103.25],[52.281,102.226],[51.346,101.147],[50.4741,100.017],[49.6682,98.8381],[48.9309,97.6154],[48.2646,96.3526],[47.6714,95.0539],[47.1534,93.7233],[46.7122,92.3654],[46.3492,90.9845],[46.0657,89.5852],[45.8625,88.1719],[45.7403,86.7493],[45.6995,85.3221]]
EXCLUDE_OBJECT_DEFINE NAME=Unsaved_.stl_id_1_copy_0 CENTER=49.3005,34.6779 POLYGON=[[24.3005,34.6779],[24.3412,33.2507],[24.4634,31.8281],[24.6666,30.4148],[24.9502,29.0155],[25.3131,27.6346],[25.7544,26.2767],[26.2724,24.9461],[26.8655,23.6474],[27.5318,22.3846],[28.2691,21.1619],[29.075,19.9833],[29.9469,18.8526],[30.8819,17.7735],[31.877,16.7496],[32.9289,15.7842],[34.0343,14.8803],[35.1894,14.0411],[36.3905,13.2692],[37.6338,12.5671],[38.9151,11.9371],[40.2303,11.3813],[41.575,10.9015],[42.945,10.4992],[44.3357,10.1758],[45.7426,9.93235],[47.1611,9.7696],[48.5866,9.68809],[50.0144,9.68809],[51.4398,9.7696],[52.8583,9.93235],[54.2652,10.1758],[55.6559,10.4992],[57.0259,10.9015],[58.3707,11.3813],[59.6858,11.9371],[60.9671,12.5671],[62.2104,13.2692],[63.4115,14.0411],[64.5667,14.8803],[65.672,15.7842],[66.7239,16.7496],[67.719,17.7735],[68.654,18.8526],[69.5259,19.9833],[70.3318,21.1619],[71.0691,22.3846],[71.7354,23.6474],[72.3286,24.9461],[72.8466,26.2767],[73.2878,27.6346],[73.6508,29.0155],[73.9343,30.4148],[74.1375,31.8281],[74.2597,33.2507],[74.3005,34.6779],[74.2597,36.1051],[74.1375,37.5277],[73.9343,38.9409],[73.6508,40.3403],[73.2878,41.7212],[72.8466,43.0791],[72.3286,44.4096],[71.7354,45.7084],[71.0691,46.9712],[70.3318,48.1939],[69.5259,49.3725],[68.654,50.5032],[67.719,51.5823],[66.7239,52.6062],[65.672,53.5716],[64.5667,54.4754],[63.4115,55.3147],[62.2104,56.0866],[60.9671,56.7887],[59.6858,57.4187],[58.3707,57.9745],[57.0259,58.4543],[55.6559,58.8566],[54.2652,59.18],[52.8583,59.4234],[51.4398,59.5862],[50.0144,59.6677],[48.5866,59.6677],[47.1611,59.5862],[45.7426,59.4234],[44.3357,59.18],[42.945,58.8566],[41.575,58.4543],[40.2303,57.9745],[38.9151,57.4187],[37.6338,56.7887],[36.3905,56.0866],[35.1894,55.3147],[34.0343,54.4754],[32.9289,53.5716],[31.877,52.6062],[30.8819,51.5823],[29.9469,50.5032],[29.075,49.3725],[28.2691,48.1939],[27.5318,46.9712],[26.8655,45.7084],[26.2724,44.4096],[25.7544,43.0791],[25.3131,41.7212],[24.9502,40.3403],[24.6666,38.9409],[24.4634,37.5277],[24.3412,36.1051],[24.3005,34.6779]]
M73 P0 R38
;TYPE:Custom
START_PRINT T_BED=110 T_EXTRUDER=260
G90
G21
M83 ; use relative distances for extrusion
; Filament gcode

    PRESSURE_ADVANCE_SELECT FILAMENT=ABS
M106 S0
;LAYER_CHANGE
;Z:0.2
;HEIGHT:0.2
;BEFORE_LAYER_CHANGE
;0.2
G92 E0

;AFTER_LAYER_CHANGE
;0.2
;_SET_FAN_SPEED_CHANGING_LAYER
SET_VELOCITY_LIMIT ACCEL=1000 ACCEL_TO_DECEL=500
SET_VELOCITY_LIMIT SQUARE_CORNER_VELOCITY=9
G1 E-.5 F3000
G1 Z.2 F21000
G1 X26.744 Y19.306
G1 Z.2
G1 E.5 F1800
;TYPE:Skirt
;WIDTH:0.5
G1 F3000
G1 X28.09 Y17.441 E.08094
G1 X30.193 Y15.136 E.10983
G1 X32.677 Y12.984 E.11567
G1 X35.258 Y11.23 E.10983
G1 X38.022 Y9.782 E.10983
G1 X40.934 Y8.659 E.10983
G1 X43.954 Y7.875 E.10983
G1 X47.045 Y7.44 E.10983
G1 X50.164 Y7.36 E.10983
G1 X53.272 Y7.637 E.10983
G1 X56.329 Y8.266 E.10983
G1 X59.294 Y9.239 E.10983
G1 X60.73 Y9.851 E.05493
G1 X62.933 Y10.998 E.0874
G1 X64.659 Y12.07 E.0715
G1 X65.924 Y12.984 E.05494
G1 X68.289 Y15.02 E.10983
G1 X70.406 Y17.313 E.10983
G1 X72.248 Y19.832 E.10983
G1 X73.14 Y21.311 E.06079
G1 X74.477 Y24.038 E.10691
G1 X95.876 Y74.683 E1.93494
G1 X96.947 Y77.702 E.11275
G1 X97.616 Y80.58 E.10398
G1 X97.981 Y83.679 E.10983
G1 X98.03 Y85.405 E.06079
G1 X97.843 Y88.52 E.10983
G1 X97.339 Y91.431 E.10398
G1 X96.469 Y94.428 E.10983
G1 X95.263 Y97.306 E.10983
G1 X94.457 Y98.834 E.06079
G1 X92.86 Y101.32 E.10398
G1 X90.892 Y103.741 E.10983
G1 X89.688 Y104.98 E.06079
G1 X87.323 Y107.016 E.10983
G1 X84.884 Y108.684 E.10398
G1 X83.38 Y109.533 E.06079
G1 X80.538 Y110.821 E.10983
G1 X77.728 Y111.734 E.10398
G1 X74.507 Y112.387 E.11567
G1 X71.563 Y112.64 E.10398
G1 X70.002 Y112.644 E.05494
G1 X66.728 Y112.363 E.11567
G1 X63.832 Y111.776 E.10398
G1 X62.333 Y111.341 E.05494
G1 X60.706 Y110.761 E.06079
G1 X58.019 Y109.533 E.10398
G1 X55.204 Y107.836 E.11567
G1 X53.944 Y106.915 E.05494
G1 X51.711 Y104.98 E.10398
G1 X49.489 Y102.559 E.11567
G1 X48.539 Y101.32 E.05494
G1 X46.942 Y98.834 E.10398
G1 X45.523 Y95.962 E.11276
G1 X24.124 Y45.317 E1.93494
G1 X23.053 Y42.298 E.11275
G1 X22.661 Y40.787 E.05494
G1 X22.157 Y37.876 E.10398
G1 X21.97 Y34.761 E.10983
G1 X22.138 Y31.645 E.10983
G1 X22.661 Y28.569 E.10983
G1 X23.531 Y25.572 E.10983
G1 X24.737 Y22.694 E.10983
G1 X26.263 Y19.972 E.10983
G1 X26.72 Y19.339 E.02748
G1 X27.09 Y19.606 F21000
G1 F3000
G1 X28.452 Y17.721 E.08185
G1 X30.521 Y15.455 E.10799
G1 X32.834 Y13.439 E.10799
G1 X35.483 Y11.628 E.11292
G1 X38.2 Y10.203 E.10799
G1 X41.063 Y9.097 E.10799
G1 X44.032 Y8.325 E.10799
G1 X47.071 Y7.896 E.10799
G1 X50.138 Y7.817 E.10799
G1 X53.194 Y8.087 E.10799
G1 X56.2 Y8.705 E.10799
G1 X59.116 Y9.66 E.10799
G1 X60.528 Y10.262 E.05402
G1 X62.708 Y11.396 E.08648
G1 X64.411 Y12.455 E.07058
G1 X65.655 Y13.353 E.05402
G1 X67.98 Y15.357 E.10799
G1 X70.06 Y17.612 E.10799
G1 X71.87 Y20.09 E.10799
G1 X72.735 Y21.524 E.05895
G1 X74.056 Y24.216 E.10553
G1 X95.455 Y74.861 E1.93494
G1 X96.505 Y77.818 E.11045
G1 X97.192 Y80.809 E.10799
G1 X97.526 Y83.718 E.10306
G1 X97.574 Y85.392 E.05895
G1 X97.39 Y88.455 E.10799
G1 X96.891 Y91.341 E.10306
G1 X96.034 Y94.287 E.10799
G1 X95.427 Y95.848 E.05895
G1 X94.135 Y98.476 E.10306
G1 X92.482 Y101.062 E.10799
G1 X91.459 Y102.388 E.05895
G1 X89.479 Y104.545 E.10306
G1 X87.166 Y106.561 E.10799
G1 X85.81 Y107.545 E.05895
G1 X83.179 Y109.123 E.10799
G1 X80.384 Y110.391 E.10799
G1 X77.599 Y111.295 E.10306
G1 X74.455 Y111.933 E.11292
G1 X71.537 Y112.183 E.10306
G1 X70.002 Y112.187 E.05402
G1 X68.33 Y112.092 E.05895
G1 X65.431 Y111.675 E.10306
G1 X62.328 Y110.859 E.11292
G1 X60.884 Y110.34 E.05402
G1 X58.22 Y109.123 E.10306
G1 X55.473 Y107.466 E.11292
G1 X54.233 Y106.561 E.05402
G1 X52.02 Y104.643 E.10306
G1 X49.851 Y102.279 E.11292
G1 X48.917 Y101.062 E.05402
G1 X47.334 Y98.598 E.10306
G1 X45.944 Y95.784 E.11046
G1 X24.545 Y45.139 E1.93494
G1 X23.495 Y42.182 E.11045
G1 X23.109 Y40.696 E.05402
G1 X22.61 Y37.811 E.10306
G1 X22.426 Y34.748 E.10799
G1 X22.594 Y31.684 E.10799
G1 X23.109 Y28.659 E.10799
G1 X23.966 Y25.713 E.10799
G1 X25.153 Y22.883 E.10799
G1 X26.655 Y20.208 E.10799
G1 X27.066 Y19.638 E.02473
; printing object (Unsaved).stl id:0 copy 0
G1 E-.5
EXCLUDE_OBJECT_START NAME=Unsaved_.stl_id_0_copy_0
G1 Z.4 F21000
G1 X79.432 Y62.894 Z.4
G1 Z.2
G1 E.5 F1800
;TYPE:Outer wall
G1 F3000
G1 X80.698 Y63.429 E.04838
G1 X81.931 Y64.036 E.04838
G1 X83.128 Y64.712 E.04838
G1 X84.284 Y65.455 E.04837
G1 X85.397 Y66.263 E.04838
G1 X86.461 Y67.133 E.04838
G1 X87.473 Y68.062 E.04838
G1 X88.431 Y69.048 E.04838
G1 X89.331 Y70.087 E.04838
G1 X90.171 Y71.175 E.04838
G1 X90.947 Y72.31 E.04838
G1 X91.657 Y73.487 E.04838
G1 X92.298 Y74.703 E.04838
G1 X92.869 Y75.953 E.04838
G1 X93.368 Y77.234 E.04838
G1 X93.792 Y78.541 E.04838
G1 X94.142 Y79.871 E.04838
G1 X94.415 Y81.218 E.04838
G1 X94.61 Y82.579 E.04838
G1 X94.728 Y83.948 E.04838
G1 X94.767 Y85.322 E.04838
G1 X94.728 Y86.696 E.04838
G1 X94.61 Y88.066 E.04838
G1 X94.415 Y89.426 E.04838
G1 X94.142 Y90.773 E.04838
G1 X93.792 Y92.103 E.04838
G1 X93.368 Y93.41 E.04838
G1 X92.869 Y94.691 E.04838
G1 X92.298 Y95.941 E.04838
G1 X91.657 Y97.157 E.04838
G1 X90.947 Y98.334 E.04838
G1 X90.171 Y99.469 E.04838
G1 X89.331 Y100.557 E.04838
G1 X88.431 Y101.596 E.04838
G1 X87.473 Y102.582 E.04838
G1 X86.461 Y103.511 E.04838
G1 X85.397 Y104.381 E.04838
G1 X84.284 Y105.189 E.04838
G1 X83.128 Y105.933 E.04838
G1 X82.333 Y106.382 E.03215
G1 X81.931 Y106.608 E.01623
G1 X80.698 Y107.215 E.04838
G1 X79.432 Y107.75 E.04838
G1 X78.137 Y108.212 E.04838
G1 X76.818 Y108.599 E.04838
G1 X75.479 Y108.911 E.04838
G1 X74.125 Y109.145 E.04837
G1 X73.217 Y109.249 E.03215
G1 X72.759 Y109.302 E.01623
G1 X71.387 Y109.38 E.04838
G1 X70.012 Y109.38 E.04838
G1 X68.64 Y109.302 E.04838
G1 X67.274 Y109.145 E.04838
G1 X65.92 Y108.911 E.04837
G1 X64.581 Y108.599 E.04838
G1 X63.262 Y108.212 E.04838
G1 X61.968 Y107.75 E.04838
G1 X60.701 Y107.215 E.04838
G1 X59.468 Y106.608 E.04838
G1 X58.271 Y105.933 E.04838
G1 X57.115 Y105.189 E.04838
G1 X56.003 Y104.381 E.04838
G1 X54.938 Y103.511 E.04838
G1 X53.926 Y102.582 E.04838
G1 X52.968 Y101.596 E.04838
G1 X52.068 Y100.557 E.04838
G1 X51.228 Y99.469 E.04838
G1 X50.452 Y98.334 E.04838
G1 X49.743 Y97.157 E.04838
G1 X49.101 Y95.941 E.04838
G1 X48.53 Y94.691 E.04838
G1 X48.031 Y93.41 E.04838
G1 X47.607 Y92.103 E.04838
G1 X47.257 Y90.773 E.04838
G1 X46.984 Y89.426 E.04838
G1 X46.789 Y88.066 E.04838
G1 X46.671 Y86.696 E.04838
G1 X46.632 Y85.322 E.04838
G1 X46.671 Y83.948 E.04838
G1 X46.789 Y82.579 E.04838
G1 X46.984 Y81.218 E.04838
G1 X47.257 Y79.871 E.04838
G1 X47.607 Y78.541 E.04838
G1 X48.031 Y77.234 E.04838
G1 X48.53 Y75.953 E.04838
G1 X49.101 Y74.703 E.04838
G1 X49.743 Y73.487 E.04838
G1 X50.452 Y72.31 E.04838
G1 X51.228 Y71.175 E.04838
G1 X52.068 Y70.087 E.04838
G1 X52.968 Y69.048 E.04838
G1 X53.926 Y68.062 E.04838
G1 X54.938 Y67.133 E.04838
G1 X56.003 Y66.263 E.04838
G1 X57.115 Y65.455 E.04838
G1 X58.271 Y64.712 E.04837
G1 X59.468 Y64.036 E.04838
G1 X60.701 Y63.429 E.04838
G1 X61.968 Y62.894 E.04838
G1 X63.262 Y62.432 E.04838
G1 X64.581 Y62.045 E.04838
G1 X65.92 Y61.734 E.04838
G1 X67.274 Y61.499 E.04837
G1 X68.64 Y61.343 E.04838
G1 X70.012 Y61.264 E.04838
G1 X71.387 Y61.264 E.04838
G1 X72.299 Y61.316 E.03215
G1 X72.759 Y61.343 E.01623
G1 X74.125 Y61.499 E.04838
G1 X75.479 Y61.734 E.04838
G1 X76.818 Y62.045 E.04838
G1 X78.137 Y62.432 E.04838
G1 X79.394 Y62.881 E.04697
G1 X79.25 Y63.36 F21000
;TYPE:Inner wall
G1 F3000
G1 X80.49 Y63.884 E.04737
G1 X81.698 Y64.478 E.04737
G1 X82.87 Y65.14 E.04737
G1 X84.002 Y65.868 E.04737
G1 X85.091 Y66.659 E.04737
G1 X86.133 Y67.511 E.04737
G1 X87.125 Y68.421 E.04737
G1 X88.063 Y69.386 E.04737
G1 X88.944 Y70.404 E.04737
G1 X89.766 Y71.469 E.04737
G1 X90.526 Y72.58 E.04737
G1 X91.221 Y73.733 E.04737
G1 X91.849 Y74.924 E.04737
G1 X92.408 Y76.148 E.04737
G1 X92.897 Y77.402 E.04737
G1 X93.313 Y78.682 E.04737
G1 X93.655 Y79.984 E.04737
G1 X93.922 Y81.303 E.04737
G1 X94.114 Y82.636 E.04737
G1 X94.229 Y83.977 E.04737
G1 X94.267 Y85.322 E.04737
G1 X94.229 Y86.668 E.04737
G1 X94.114 Y88.009 E.04737
G1 X93.922 Y89.341 E.04737
G1 X93.655 Y90.66 E.04737
G1 X93.313 Y91.962 E.04737
G1 X92.897 Y93.242 E.04737
G1 X92.408 Y94.496 E.04737
G1 X91.849 Y95.721 E.04737
G1 X91.221 Y96.911 E.04737
G1 X90.526 Y98.064 E.04737
G1 X89.766 Y99.175 E.04737
G1 X88.944 Y100.241 E.04737
G1 X88.063 Y101.258 E.04737
G1 X87.125 Y102.223 E.04737
G1 X86.133 Y103.133 E.04737
G1 X85.091 Y103.985 E.04737
G1 X84.002 Y104.777 E.04737
G1 X82.87 Y105.504 E.04737
G1 X82.087 Y105.946 E.03164
G1 X81.698 Y106.166 E.01573
G1 X80.49 Y106.76 E.04737
G1 X79.25 Y107.284 E.04737
G1 X77.982 Y107.736 E.04737
G1 X76.691 Y108.115 E.04737
G1 X75.38 Y108.42 E.04737
G1 X74.054 Y108.65 E.04737
G1 X73.16 Y108.752 E.03164
G1 X72.716 Y108.803 E.01573
G1 X71.373 Y108.88 E.04737
G1 X70.027 Y108.88 E.04737
G1 X68.683 Y108.803 E.04737
G1 X67.345 Y108.65 E.04737
G1 X66.019 Y108.42 E.04737
G1 X64.708 Y108.115 E.04737
G1 X63.417 Y107.736 E.04737
G1 X62.149 Y107.284 E.04737
G1 X60.909 Y106.76 E.04737
G1 X59.701 Y106.166 E.04737
G1 X58.529 Y105.504 E.04737
G1 X57.397 Y104.777 E.04737
G1 X56.308 Y103.985 E.04737
G1 X55.266 Y103.133 E.04737
G1 X54.274 Y102.223 E.04737
G1 X53.336 Y101.258 E.04737
G1 X52.455 Y100.241 E.04737
G1 X51.633 Y99.175 E.04737
G1 X50.873 Y98.064 E.04737
G1 X50.178 Y96.911 E.04737
G1 X49.55 Y95.721 E.04737
G1 X48.991 Y94.496 E.04737
G1 X48.503 Y93.242 E.04737
G1 X48.087 Y91.962 E.04737
G1 X47.744 Y90.66 E.04737
G1 X47.477 Y89.341 E.04737
G1 X47.286 Y88.009 E.04737
G1 X47.17 Y86.668 E.04737
G1 X47.132 Y85.322 E.04737
G1 X47.17 Y83.977 E.04737
G1 X47.286 Y82.636 E.04737
G1 X47.477 Y81.303 E.04737
G1 X47.744 Y79.984 E.04737
G1 X48.087 Y78.682 E.04737
G1 X48.503 Y77.402 E.04737
G1 X48.991 Y76.148 E.04737
G1 X49.55 Y74.924 E.04737
G1 X50.178 Y73.733 E.04737
G1 X50.873 Y72.58 E.04737
G1 X51.633 Y71.469 E.04737
G1 X52.455 Y70.404 E.04737
G1 X53.336 Y69.386 E.04737
G1 X54.274 Y68.421 E.04737
G1 X55.266 Y67.511 E.04737
G1 X56.308 Y66.659 E.04737
G1 X57.397 Y65.868 E.04737
G1 X58.529 Y65.14 E.04737
G1 X59.701 Y64.478 E.04737
G1 X60.909 Y63.884 E.04737
G1 X62.149 Y63.36 E.04737
G1 X63.417 Y62.908 E.04737
G1 X64.708 Y62.529 E.04737
G1 X66.019 Y62.224 E.04737
G1 X67.345 Y61.994 E.04737
G1 X68.683 Y61.841 E.04737
G1 X70.027 Y61.764 E.04737
G1 X71.373 Y61.764 E.04737
G1 X72.27 Y61.815 E.03164
G1 X72.716 Y61.841 E.01573
G1 X74.054 Y61.994 E.04737
G1 X75.38 Y62.224 E.04737
G1 X76.691 Y62.529 E.04737
G1 X77.982 Y62.908 E.04737
G1 X79.212 Y63.347 E.04596
G1 X79.084 Y63.786 F21000
G1 F3000
G1 X80.3 Y64.3 E.04645
G1 X81.484 Y64.883 E.04645
G1 X82.634 Y65.532 E.04645
G1 X83.744 Y66.245 E.04645
G1 X84.812 Y67.021 E.04645
G1 X85.834 Y67.856 E.04645
G1 X86.806 Y68.749 E.04645
G1 X87.726 Y69.695 E.04645
G1 X88.59 Y70.693 E.04645
G1 X89.396 Y71.738 E.04645
G1 X90.141 Y72.828 E.04645
G1 X90.823 Y73.958 E.04645
G1 X91.439 Y75.125 E.04645
G1 X91.987 Y76.326 E.04645
G1 X92.466 Y77.556 E.04645
G1 X92.874 Y78.811 E.04645
G1 X93.209 Y80.088 E.04645
G1 X93.471 Y81.381 E.04645
G1 X93.659 Y82.688 E.04645
G1 X93.772 Y84.003 E.04645
G1 X93.81 Y85.322 E.04645
G1 X93.772 Y86.641 E.04645
G1 X93.659 Y87.956 E.04645
G1 X93.471 Y89.263 E.04645
G1 X93.209 Y90.557 E.04645
G1 X92.874 Y91.833 E.04645
G1 X92.466 Y93.088 E.04645
G1 X91.987 Y94.318 E.04645
