; HEADER_BLOCK_START
; generated by OrcaSlicer 1.6.3 on 2023-06-17 at 14:06:58
; total layer number: 267
; HEADER_BLOCK_END

; THUMBNAIL_BLOCK_START
; THUMBNAIL_BLOCK_END

; external perimeters extrusion width = 0.40mm
; perimeters extrusion width = 0.45mm
; infill extrusion width = 0.45mm
; solid infill extrusion width = 0.40mm
; top infill extrusion width = 0.40mm
; support material extrusion width = 0.40mm
; first layer extrusion width = 0.50mm

; EXECUTABLE_BLOCK_START
EXCLUDE_OBJECT_DEFINE NAME=(Unsaved).stl_id_0_copy_0 CENTER=60,60 POLYGON=[[49.801,50.0756],[49.8394,49.6854],[52,35],[60.699,35],[62.199,36.5],[69.8619,48.9644],[69.9609,49.1299],[70.0467,49.3102],[70.1136,49.4984],[70.1606,49.6854],[70.1611,49.6911],[70.199,50.0756],[70.199,75.0736],[70.1611,75.4581],[70.1606,75.4638],[70.1136,75.6508],[70.0467,75.839],[69.9609,76.0194],[69.8619,76.1848],[69.8583,76.1892],[69.6132,76.4879],[60.699,85],[52,85],[49.8394,75.4638],[49.801,75.0736],[49.801,50.0756]]
M73 P0 R30
;TYPE:Custom
START_PRINT T_BED=110 T_EXTRUDER=260
G90
G21
M83 ; use relative distances for extrusion
; Filament gcode

    PRESSURE_ADVANCE_SELECT FILAMENT=ABS
M106 S0
;LAYER_CHANGE
;Z:0.2
;HEIGHT:0.2
;BEFORE_LAYER_CHANGE
;0.2
G92 E0

;AFTER_LAYER_CHANGE
;0.2
M204 S500
; printing object (Unsaved).stl id:0 copy 0
EXCLUDE_OBJECT_START NAME=(Unsaved).stl_id_0_copy_0
G1 E-.5 F3000
G1 Z.2 F21000
G1 X52.402 Y49.833
G1 E.5 F1800
;TYPE:Support
;WIDTH:0.5
G1 F3000
G1 X52.498 Y49.873 E.00365
G1 X52.58 Y49.936 E.00365
G1 X52.643 Y50.018 E.00365
G1 X52.683 Y50.114 E.00365
G1 X52.696 Y50.217 E.00365
G1 X52.683 Y50.32 E.00365
G1 X52.643 Y50.415 E.00365
G1 X52.58 Y50.498 E.00365
G1 X52.498 Y50.561 E.00365
G1 X52.402 Y50.6 E.00365
G1 X52.299 Y50.614 E.00365
G1 X52.196 Y50.6 E.00365
G1 X52.101 Y50.561 E.00365
G1 X52.018 Y50.498 E.00365
G1 X51.955 Y50.415 E.00365
G1 X51.916 Y50.32 E.00365
G1 X51.902 Y50.217 E.00365
G1 X51.916 Y50.114 E.00365
G1 X51.955 Y50.018 E.00365
G1 X52.018 Y49.936 E.00365
G1 X52.101 Y49.873 E.00365
G1 X52.196 Y49.833 E.00365
G1 X52.334 Y49.825 E.00485
G1 E-.5
G1 Z.4 F21000
G1 X61.928 Y47.643
G1 Z.2
G1 E.5 F1800
G1 F3000
G1 X49.5 Y47.643 E.43739
G1 X49.5 Y35.215 E.43739
G1 X61.928 Y35.215 E.43739
G1 X61.928 Y47.574 E.43498
G1 X61.517 Y47.232 F21000
G1 F3000
G1 X49.912 Y47.232 E.40844
G1 X49.912 Y35.626 E.40844
G1 X61.517 Y35.626 E.40844
G1 X61.517 Y47.232 E.40844
G1 X61.009 Y46.724 F21000
G1 F3000
G1 X50.42 Y46.724 E.37269
G1 X50.42 Y36.134 E.37269
G1 X61.009 Y36.134 E.37269
G1 X61.009 Y46.724 E.37269
G1 X60.501 Y46.216 F21000
G1 F3000
G1 X50.927 Y46.216 E.33694
G1 X50.927 Y36.642 E.33694
G1 X60.501 Y36.642 E.33694
G1 X60.501 Y46.216 E.33694
G1 X59.993 Y45.708 F21000
G1 F3000
G1 X51.435 Y45.708 E.3012
G1 X51.435 Y37.15 E.3012
G1 X59.993 Y37.15 E.3012
G1 X59.993 Y45.708 E.3012
G1 X59.486 Y45.2 F21000
G1 F3000
G1 X51.943 Y45.2 E.26545
G1 X51.943 Y37.658 E.26545
G1 X59.486 Y37.658 E.26545
G1 X59.486 Y45.2 E.26545
G1 X58.978 Y44.692 F21000
G1 F3000
G1 X52.451 Y44.692 E.2297
G1 X52.451 Y38.166 E.2297
G1 X58.978 Y38.166 E.2297
G1 X58.978 Y44.692 E.2297
G1 X58.47 Y44.184 F21000
G1 F3000
G1 X52.959 Y44.184 E.19395
G1 X52.959 Y38.673 E.19395
G1 X58.47 Y38.673 E.19395
G1 X58.47 Y44.184 E.19395
G1 X57.962 Y43.677 F21000
G1 F3000
G1 X53.467 Y43.677 E.15821
G1 X53.467 Y39.181 E.15821
G1 X57.962 Y39.181 E.15821
G1 X57.962 Y43.677 E.15821
G1 X57.454 Y43.169 F21000
G1 F3000
G1 X53.975 Y43.169 E.12246
G1 X53.975 Y39.689 E.12246
G1 X57.454 Y39.689 E.12246
G1 X57.454 Y43.169 E.12246
G1 X56.946 Y42.661 F21000
G1 F3000
G1 X54.482 Y42.661 E.08671
G1 X54.482 Y40.197 E.08671
M73 P0 R29
G1 X56.946 Y40.197 E.08671
G1 X56.946 Y42.661 E.08671
G1 X56.438 Y42.153 F21000
G1 F3000
G1 X54.99 Y42.153 E.05096
G1 X54.99 Y40.705 E.05096
G1 X56.438 Y40.705 E.05096
G1 X56.438 Y42.153 E.05096
G1 E-.5
G1 Z.4 F21000
G1 X67.278 Y49.833
G1 Z.2
G1 E.5 F1800
G1 F3000
G1 X67.374 Y49.873 E.00365
G1 X67.456 Y49.936 E.00365
G1 X67.519 Y50.018 E.00365
G1 X67.559 Y50.114 E.00365
G1 X67.572 Y50.217 E.00365
G1 X67.559 Y50.32 E.00365
G1 X67.519 Y50.415 E.00365
G1 X67.456 Y50.498 E.00365
G1 X67.374 Y50.561 E.00365
G1 X67.278 Y50.6 E.00365
G1 X67.175 Y50.614 E.00365
G1 X67.072 Y50.6 E.00365
G1 X66.977 Y50.561 E.00365
G1 X66.895 Y50.498 E.00365
G1 X66.831 Y50.415 E.00365
G1 X66.792 Y50.32 E.00365
G1 X66.778 Y50.217 E.00365
G1 X66.792 Y50.114 E.00365
G1 X66.831 Y50.018 E.00365
G1 X66.895 Y49.936 E.00365
G1 X66.977 Y49.873 E.00365
G1 X67.072 Y49.833 E.00365
G1 X67.21 Y49.825 E.00485
G1 E-.5
G1 Z.4 F21000
G1 X61.414 Y56.577
G1 Z.2
G1 E.5 F1800
G1 F3000
G1 X61.876 Y56.711 E.01694
G1 X62.315 Y56.91 E.01694
G1 X62.721 Y57.168 E.01694
G1 X63.087 Y57.481 E.01694
G1 X63.404 Y57.842 E.01694
G1 X63.731 Y58.341 E.021
G1 X63.887 Y58.426 E.00623
G1 X65.849 Y58.426 E.06906
G1 X65.849 Y66.726 E.29211
G1 X63.981 Y66.726 E.06574
G1 X63.776 Y66.931 E.0102
G1 X63.776 Y77.219 E.36207
G1 X63.981 Y77.424 E.0102
G1 X66.456 Y77.424 E.0871
G1 X68.103 Y79.071 E.08199
G1 X61.928 Y79.071 E.21731
G1 X61.928 Y84.785 E.2011
G1 X49.5 Y84.785 E.43739
G1 X49.5 Y75.803 E.3161
G1 X49.571 Y75.786 E.00258
G1 X49.636 Y75.989 E.00751
G1 X49.838 Y76.365 E.01501
G1 X50.151 Y76.747 E.01742
G1 X50.51 Y77.037 E.01621
G1 X50.918 Y77.251 E.01621
G1 X51.326 Y77.375 E.01501
G1 X51.792 Y77.424 E.01651
G1 X55.946 Y77.424 E.14618
G1 X56.151 Y77.219 E.0102
G1 X56.151 Y66.931 E.36207
G1 X55.946 Y66.726 E.0102
G1 X51.651 Y66.726 E.15116
G1 X51.651 Y58.426 E.29211
G1 X57.511 Y58.426 E.20625
G1 X57.667 Y58.341 E.00623
G1 X57.994 Y57.842 E.021
G1 X58.311 Y57.481 E.01694
G1 X58.677 Y57.168 E.01694
G1 X59.08 Y56.912 E.01679
G1 X59.522 Y56.711 E.01709
G1 X59.984 Y56.577 E.01693
G1 X60.46 Y56.509 E.01694
G1 X60.938 Y56.509 E.01679
G1 X61.346 Y56.567 E.01453
G1 X57.954 Y58.654 F21000
G1 F3000
G1 X58.322 Y58.092 E.02363
G1 X58.601 Y57.774 E.01488
G1 X58.923 Y57.499 E.01489
G1 X59.276 Y57.274 E.01474
G1 X59.665 Y57.098 E.01503
G1 X60.071 Y56.98 E.01487
G1 X60.489 Y56.921 E.01489
G1 X60.908 Y56.921 E.01475
G1 X61.327 Y56.98 E.01489
G1 X61.733 Y57.098 E.01488
G1 X62.119 Y57.272 E.01488
G1 X62.476 Y57.499 E.01488
G1 X62.797 Y57.774 E.01488
G1 X63.076 Y58.092 E.01488
G1 X63.444 Y58.654 E.02363
G1 X63.783 Y58.837 E.01356
G1 X65.438 Y58.837 E.05825
G1 X65.438 Y66.314 E.26315
G1 X63.811 Y66.314 E.05726
G1 X63.365 Y66.76 E.0222
G1 X63.365 Y77.389 E.37407
G1 X63.811 Y77.835 E.0222
G1 X66.285 Y77.835 E.0871
G1 X67.11 Y78.66 E.04104
G1 X61.517 Y78.66 E.19683
G1 X61.517 Y84.374 E.2011
G1 X49.912 Y84.374 E.40844
G1 X49.912 Y77.083 E.25659
G1 X50.298 Y77.39 E.01738
G1 X50.779 Y77.639 E.01905
G1 X51.299 Y77.789 E.01905
G1 X51.782 Y77.835 E.01709
M73 P1 R29
G1 X56.116 Y77.835 E.15253
G1 X56.562 Y77.389 E.0222
G1 X56.562 Y66.76 E.37407
G1 X56.116 Y66.314 E.0222
G1 X52.062 Y66.314 E.14268
G1 X52.062 Y58.837 E.26315
G1 X57.615 Y58.837 E.19543
G1 X57.954 Y58.654 E.01356
G1 X58.309 Y59.039 F21000
G1 F3000
G1 X58.727 Y58.4 E.02689
G1 X58.959 Y58.137 E.01234
G1 X59.225 Y57.908 E.01236
G1 X59.518 Y57.722 E.01221
G1 X59.841 Y57.576 E.01248
G1 X60.178 Y57.478 E.01233
G1 X60.525 Y57.429 E.01236
G1 X60.873 Y57.429 E.01222
G1 X61.22 Y57.478 E.01236
G1 X61.557 Y57.576 E.01235
G1 X61.877 Y57.72 E.01234
G1 X62.173 Y57.909 E.01235
G1 X62.439 Y58.137 E.01235
G1 X62.671 Y58.4 E.01234
G1 X63.089 Y59.039 E.02689
G1 X63.654 Y59.345 E.02261
G1 X64.93 Y59.345 E.0449
G1 X64.93 Y65.806 E.22741
G1 X63.6 Y65.806 E.04679
G1 X62.857 Y66.55 E.03701
G1 X62.857 Y77.599 E.38888
G1 X63.409 Y78.152 E.02749
G1 X61.009 Y78.152 E.08446
G1 X61.009 Y83.866 E.2011
G1 X50.42 Y83.866 E.37269
G1 X50.42 Y78.061 E.2043
G1 X51.102 Y78.268 E.0251
G1 X51.77 Y78.343 E.02365
G1 X56.327 Y78.343 E.16038
G1 X57.07 Y77.599 E.03701
G1 X57.07 Y66.55 E.38888
G1 X56.327 Y65.806 E.03701
G1 X52.57 Y65.806 E.13221
G1 X52.57 Y59.345 E.22741
G1 X57.744 Y59.345 E.18208
G1 X58.309 Y59.039 E.02261
G1 X58.664 Y59.425 F21000
G1 F3000
G1 X59.132 Y58.708 E.03014
G1 X59.316 Y58.499 E.0098
G1 X59.528 Y58.317 E.00982
G1 X59.76 Y58.17 E.00968
G1 X60.018 Y58.053 E.00994
G1 X60.285 Y57.976 E.00979
G1 X60.561 Y57.936 E.00983
G1 X60.837 Y57.936 E.00969
G1 X61.113 Y57.976 E.00983
G1 X61.381 Y58.053 E.00981
G1 X61.635 Y58.168 E.00981
G1 X61.87 Y58.318 E.00981
G1 X62.082 Y58.499 E.00981
G1 X62.266 Y58.708 E.0098
G1 X62.734 Y59.425 E.03014
G1 X63.526 Y59.853 E.03166
G1 X64.422 Y59.853 E.03155
G1 X64.422 Y65.298 E.19166
G1 X63.39 Y65.298 E.03632
G1 X62.349 Y66.339 E.05181
G1 X62.349 Y77.644 E.39784
G1 X60.501 Y77.644 E.06502
G1 X60.501 Y83.358 E.2011
G1 X50.927 Y83.358 E.33694
G1 X50.927 Y78.773 E.16135
G1 X51.757 Y78.851 E.02933
G1 X56.537 Y78.851 E.16822
G1 X57.578 Y77.81 E.05181
G1 X57.578 Y66.339 E.40368
G1 X56.537 Y65.298 E.05181
G1 X53.078 Y65.298 E.12174
G1 X53.078 Y59.853 E.19166
G1 X57.872 Y59.853 E.16873
G1 X58.664 Y59.425 E.03166
G1 X59.018 Y59.81 F21000
G1 F3000
G1 X59.538 Y59.016 E.03339
G1 X59.674 Y58.861 E.00726
G1 X59.831 Y58.727 E.00729
G1 X60.003 Y58.618 E.00714
G1 X60.194 Y58.531 E.0074
G1 X60.392 Y58.473 E.00725
G1 X60.597 Y58.444 E.00729
G1 X60.801 Y58.444 E.00717
G1 X61.006 Y58.473 E.00729
G1 X61.204 Y58.531 E.00727
G1 X61.393 Y58.616 E.00727
G1 X61.567 Y58.727 E.00727
G1 X61.724 Y58.861 E.00727
G1 X61.86 Y59.016 E.00726
G1 X62.38 Y59.81 E.03339
G1 X63.397 Y60.361 E.0407
G1 X63.914 Y60.361 E.0182
G1 X63.914 Y64.791 E.15591
G1 X63.18 Y64.791 E.02585
G1 X61.841 Y66.129 E.06662
G1 X61.841 Y77.136 E.38737
G1 X59.993 Y77.136 E.06502
G1 X59.993 Y82.85 E.2011
G1 X51.435 Y82.85 E.3012
G1 X51.435 Y79.343 E.12342
G1 X51.745 Y79.359 E.01091
G1 X56.747 Y79.359 E.17606
G1 X58.086 Y78.02 E.06662
G1 X58.086 Y66.129 E.41849
G1 X56.747 Y64.791 E.06662
G1 X53.586 Y64.791 E.11127
G1 X53.586 Y60.361 E.15591
G1 X58.001 Y60.361 E.15538
G1 X59.018 Y59.81 E.0407
G1 X59.373 Y60.196 F21000
G1 F3000
G1 X59.943 Y59.325 E.03665
G1 X60.134 Y59.136 E.00946
G1 X60.371 Y59.009 E.00945
G1 X60.499 Y58.971 E.00471
G1 X60.765 Y58.952 E.00938
G1 X60.899 Y58.971 E.00476
G1 X61.151 Y59.064 E.00944
G1 X61.366 Y59.224 E.00944
G1 X61.455 Y59.325 E.00473
G1 X62.025 Y60.196 E.03665
G1 X63.406 Y60.943 E.05526
G1 X63.406 Y64.283 E.11754
G1 X62.969 Y64.283 E.01538
G1 X61.333 Y65.919 E.08143
G1 X61.333 Y76.628 E.3769
G1 X59.486 Y76.628 E.06502
G1 X59.486 Y82.342 E.2011
G1 X51.943 Y82.342 E.26545
G1 X51.943 Y79.866 E.08713
G1 X56.958 Y79.866 E.17649
G1 X58.594 Y78.23 E.08143
G1 X58.594 Y65.919 E.4333
G1 X56.958 Y64.283 E.08143
G1 X54.094 Y64.283 E.1008
G1 X54.094 Y60.868 E.12016
G1 X58.129 Y60.868 E.14203
G1 X59.373 Y60.196 E.04975
G1 X58.978 Y78.565 F21000
G1 F3000
G1 X58.978 Y81.834 E.11507
G1 X52.451 Y81.834 E.2297
G1 X52.451 Y80.374 E.05138
G1 X57.168 Y80.374 E.16602
G1 X58.978 Y78.565 E.09006
G1 X58.47 Y79.791 F21000
G1 F3000
G1 X58.47 Y81.327 E.05404
G1 X56.934 Y81.327 E.05404
G1 X58.47 Y79.791 E.07643
G1 X59.102 Y76.12 F21000
G1 F3000
G1 X59.102 Y65.708 E.36643
G1 X57.168 Y63.775 E.09623
G1 X54.602 Y63.775 E.09033
G1 X54.602 Y61.376 E.08442
G1 X58.258 Y61.376 E.12868
G1 X59.728 Y60.582 E.0588
G1 X60.389 Y59.586 E.04207
G1 X60.547 Y59.486 E.00658
G1 X60.729 Y59.46 E.00646
G1 X60.909 Y59.512 E.00658
G1 X61.05 Y59.633 E.00654
G1 X61.67 Y60.582 E.0399
G1 X62.898 Y61.246 E.04913
G1 X62.898 Y63.775 E.08902
G1 X62.759 Y63.775 E.00491
G1 X60.825 Y65.708 E.09623
G1 X60.825 Y76.12 E.36643
G1 X59.102 Y76.12 E.06066
G1 X59.61 Y75.612 F21000
G1 F3000
G1 X59.61 Y65.498 E.35596
G1 X57.379 Y63.267 E.11104
G1 X55.11 Y63.267 E.07985
G1 X55.11 Y61.884 E.04867
G1 X58.387 Y61.884 E.11533
G1 X60.082 Y60.967 E.06784
G1 X60.699 Y60.024 E.03965
G1 X61.316 Y60.967 E.03965
G1 X62.39 Y61.548 E.043
G1 X62.39 Y63.425 E.06605
G1 X60.317 Y65.498 E.10317
G1 X60.317 Y75.612 E.35596
G1 X59.61 Y75.612 E.02491
G1 X59.964 Y65.134 F21000
G1 F3000
G1 X57.222 Y62.392 E.13646
G1 X58.515 Y62.392 E.04551
G1 X60.437 Y61.353 E.07689
G1 X60.699 Y60.952 E.01685
G1 X60.961 Y61.353 E.01685
G1 X61.883 Y61.851 E.03687
G1 X61.883 Y63.215 E.04799
G1 X59.964 Y65.134 E.09551
G1 X59.964 Y64.416 F21000
G1 F3000
G1 X58.517 Y62.969 E.07202
G1 X60.699 Y61.788 E.08732
G1 X61.375 Y62.154 E.02704
G1 X61.375 Y63.004 E.02993
G1 X59.964 Y64.416 E.07024
G1 X59.964 Y63.697 F21000
G1 F3000
G1 X59.357 Y63.091 E.03017
G1 X60.867 Y62.275 E.06039
G1 X60.867 Y62.794 E.01827
G1 X59.964 Y63.697 E.04496
G1 E-.5
G1 Z.4 F21000
G1 X49.451 Y70.5
G1 Z.2
G1 E.5 F1800
G1 F3000
G1 X46.643 Y70.5 E.09882
G1 X46.643 Y55.214 E.53795
M73 P2 R29
G1 X49.451 Y55.214 E.09882
G1 X49.451 Y70.431 E.53553
G1 X49.04 Y55.626 F21000
G1 F3000
G1 X49.04 Y70.088 E.50899
G1 X47.055 Y70.088 E.06986
G1 X47.055 Y55.626 E.50899
G1 X49.04 Y55.626 E.06986
G1 X48.532 Y56.134 F21000
G1 F3000
G1 X48.532 Y69.58 E.47324
G1 X47.562 Y69.58 E.03411
G1 X47.562 Y56.134 E.47324
G1 X48.532 Y56.134 E.03411
G1 E-.5
G1 Z.4 F21000
G1 X52.402 Y74.173
G1 Z.2
G1 E.5 F1800
G1 F3000
G1 X52.498 Y74.213 E.00365
G1 X52.58 Y74.276 E.00365
G1 X52.643 Y74.358 E.00365
G1 X52.683 Y74.454 E.00365
G1 X52.696 Y74.556 E.00365
G1 X52.683 Y74.659 E.00365
G1 X52.643 Y74.755 E.00365
G1 X52.58 Y74.837 E.00365
G1 X52.498 Y74.9 E.00365
G1 X52.402 Y74.94 E.00365
G1 X52.299 Y74.953 E.00365
G1 X52.196 Y74.94 E.00365
G1 X52.101 Y74.9 E.00365
G1 X52.018 Y74.837 E.00365
G1 X51.955 Y74.755 E.00365
G1 X51.916 Y74.659 E.00365
G1 X51.902 Y74.556 E.00365
G1 X51.916 Y74.454 E.00365
G1 X51.955 Y74.358 E.00365
G1 X52.018 Y74.276 E.00365
G1 X52.101 Y74.213 E.00365
G1 X52.196 Y74.173 E.00365
G1 X52.334 Y74.164 E.00485
G1 E-.5
G1 Z.4 F21000
G1 X67.278 Y74.173
G1 Z.2
G1 E.5 F1800
G1 F3000
G1 X67.374 Y74.213 E.00365
G1 X67.456 Y74.276 E.00365
G1 X67.519 Y74.358 E.00365
G1 X67.559 Y74.454 E.00365
G1 X67.572 Y74.556 E.00365
G1 X67.559 Y74.659 E.00365
G1 X67.519 Y74.755 E.00365
G1 X67.456 Y74.837 E.00365
G1 X67.374 Y74.9 E.00365
G1 X67.278 Y74.94 E.00365
G1 X67.175 Y74.953 E.00365
G1 X67.072 Y74.94 E.00365
G1 X66.977 Y74.9 E.00365
G1 X66.895 Y74.837 E.00365
G1 X66.831 Y74.755 E.00365
G1 X66.792 Y74.659 E.00365
G1 X66.778 Y74.556 E.00365
G1 X66.792 Y74.454 E.00365
G1 X66.831 Y74.358 E.00365
G1 X66.895 Y74.276 E.00365
G1 X66.977 Y74.213 E.00365
G1 X67.072 Y74.173 E.00365
G1 X67.21 Y74.164 E.00485
G1 E-.5
G1 Z.4 F21000
G1 X65.328 Y50.636
G1 Z.2
G1 E.5 F1800
;TYPE:Inner wall
;WIDTH:0.499999
G1 F3000
G1 X65.374 Y50.854 E.00783
G1 X65.519 Y51.177 E.01247
G1 X65.801 Y51.549 E.01642
G1 X66.258 Y51.897 E.0202
G1 X66.735 Y52.079 E.01799
G1 X67.324 Y52.121 E.0208
G1 X67.812 Y52.018 E.01755
G1 X68.257 Y51.792 E.01755
G1 X68.627 Y51.458 E.01755
G1 X68.899 Y51.04 E.01755
G1 X69.041 Y50.613 E.01583
G1 X69.044 Y74.209 E.83042
;WIDTH:0.495477
G1 X68.974 Y73.92 E.01034
;WIDTH:0.499999
G1 X68.75 Y73.475 E.01755
G1 X68.417 Y73.104 E.01755
G1 X67.998 Y72.832 E.01755
G1 X67.524 Y72.678 E.01755
G1 X67.026 Y72.652 E.01755
G1 X66.538 Y72.755 E.01755
G1 X66.094 Y72.982 E.01755
G1 X65.723 Y73.315 E.01755
G1 X65.451 Y73.733 E.01755
;WIDTH:0.50679
G1 X65.294 Y74.207 E.01783
G1 X65.29 Y73.701 E.01807
;WIDTH:0.499999
G1 X65.29 Y68.24 E.19221
G1 X66.22 Y68.24 E.03274
G1 X66.577 Y68.183 E.01273
G1 X66.843 Y68.055 E.01036
G1 X67.098 Y67.828 E.01203
G1 X67.291 Y67.497 E.01347
G1 X67.363 Y67.097 E.01432
G1 X67.363 Y58.054 E.31825
G1 X67.254 Y57.567 E.01757
G1 X66.981 Y57.202 E.01604
G1 X66.653 Y56.996 E.01364
G1 X66.22 Y56.911 E.0155
G1 X64.596 Y56.911 E.05716
G1 X63.954 Y56.23 E.03296
G1 X63.555 Y55.904 E.01812
G1 X62.962 Y55.541 E.02448
G1 X62.324 Y55.265 E.02448
G1 X61.653 Y55.082 E.02448
G1 X60.964 Y54.995 E.02445
G1 X60.273 Y55.007 E.0243
G1 X59.587 Y55.116 E.02447
G1 X58.921 Y55.321 E.0245
G1 X58.289 Y55.62 E.02462
G1 X57.712 Y56 E.0243
G1 X57.192 Y56.461 E.02448
G1 X56.802 Y56.911 E.02096
G1 X51.28 Y56.911 E.19434
G1 X50.965 Y57.016 E.01166
G1 X50.965 Y51.576 E.19145
G1 X51.058 Y51.669 E.00461
G1 X51.476 Y51.941 E.01755
G1 X51.95 Y52.095 E.01755
G1 X52.448 Y52.121 E.01755
G1 X52.936 Y52.018 E.01755
G1 X53.381 Y51.792 E.01755
G1 X53.702 Y51.519 E.01484
G1 X53.994 Y51.104 E.01787
G1 X54.177 Y50.566 E.02
G1 X54.204 Y50.068 E.01755
G1 X54.1 Y49.58 E.01755
G1 X53.934 Y49.24 E.01332
G1 X65.54 Y49.24 E.40846
G1 X65.451 Y49.394 E.00625
G1 X65.297 Y49.868 E.01755
