; HEADER_BLOCK_START
; generated by OrcaSlicer 1.6.3-beta on 2023-05-30 at 13:40:16
; total layer number: 150
; HEADER_BLOCK_END

; THUMBNAIL_BLOCK_START
; THUMBNAIL_BLOCK_END

; external perimeters extrusion width = 0.40mm
; perimeters extrusion width = 0.45mm
; infill extrusion width = 0.45mm
; solid infill extrusion width = 0.40mm
; top infill extrusion width = 0.40mm
; first layer extrusion width = 0.40mm

; EXECUTABLE_BLOCK_START
EXCLUDE_OBJECT_DEFINE NAME=(Unsaved).stl_id_0_copy_0 CENTER=60,60 POLYGON=[[57.5024,60],[57.5213,59.6928],[57.5779,59.3902],[57.6712,59.0969],[57.7998,58.8173],[57.9619,58.5556],[58.1548,58.3158],[58.3758,58.1015],[58.6215,57.916],[58.888,57.7621],[59.1715,57.6421],[59.4675,57.5579],[59.7717,57.5107],[60.0794,57.5012],[60.3858,57.5296],[60.6865,57.5954],[60.9768,57.6977],[61.2524,57.8349],[61.509,58.005],[61.7427,58.2052],[61.9501,58.4327],[62.1279,58.6839],[62.2735,58.9551],[62.3847,59.2421],[62.4598,59.5406],[62.4976,59.8461],[62.4976,60.1539],[62.4598,60.4594],[62.3847,60.7579],[62.2735,61.0449],[62.1279,61.3161],[61.9501,61.5673],[61.7427,61.7948],[61.509,61.995],[61.2524,62.1651],[60.9768,62.3023],[60.6865,62.4046],[60.3858,62.4704],[60.0794,62.4988],[59.7717,62.4893],[59.4675,62.4421],[59.1715,62.3579],[58.888,62.2379],[58.6215,62.084],[58.3758,61.8985],[58.1548,61.6842],[57.9619,61.4444],[57.7998,61.1827],[57.6712,60.9031],[57.5779,60.6098],[57.5213,60.3072],[57.5024,60]]
M73 P0 R8
;TYPE:Custom
START_PRINT T_BED=110 T_EXTRUDER=260
G90
G21
M83 ; use relative distances for extrusion
; Filament gcode

    PRESSURE_ADVANCE_SELECT FILAMENT=ABS
M106 S0
;LAYER_CHANGE
;Z:0.2
;HEIGHT:0.2
;BEFORE_LAYER_CHANGE
;0.2
G92 E0

;AFTER_LAYER_CHANGE
;0.2
SET_VELOCITY_LIMIT ACCEL_TO_DECEL=500
M204 S1000
G1 E-.5 F3000
G1 Z.2 F21000
G1 X53.485 Y53.017
G1 E.5 F1800
;TYPE:Skirt
;WIDTH:0.4
G1 F3000
G1 X53.898 Y52.601 E.01612
G1 X55.324 Y51.622 E.04756
G1 X57.042 Y50.874 E.05152
G1 X58.838 Y50.477 E.05057
G1 X60.51 Y50.421 E.04601
G1 X61.655 Y50.551 E.03167
G1 X62.798 Y50.824 E.03231
G1 X64.308 Y51.428 E.04471
G1 X65.924 Y52.454 E.05263
G1 X67.113 Y53.562 E.04471
G1 X68.284 Y55.156 E.05436
G1 X68.918 Y56.462 E.03991
G1 X69.285 Y57.584 E.03247
G1 X69.462 Y58.413 E.0233
G1 X69.592 Y60.304 E.05213
G1 X69.351 Y62.163 E.05152
G1 X69.069 Y63.137 E.02789
G1 X68.641 Y64.17 E.03074
G1 X67.754 Y65.655 E.04756
G1 X66.506 Y67.054 E.05152
G1 X65.046 Y68.162 E.05041
G1 X63.363 Y68.987 E.05152
G1 X61.679 Y69.444 E.04798
G1 X60.521 Y69.578 E.03205
G1 X59.403 Y69.576 E.03074
G1 X57.453 Y69.247 E.05436
G1 X56.647 Y68.986 E.0233
G1 X55.568 Y68.506 E.03247
G1 X53.98 Y67.469 E.05213
G1 X52.643 Y66.157 E.05152
G1 X51.66 Y64.734 E.04756
G1 X50.916 Y63.082 E.04979
G1 X50.511 Y61.385 E.04798
G1 X50.413 Y60.223 E.03205
G1 X50.431 Y59.376 E.02329
G1 X50.745 Y57.488 E.05262
G1 X51.448 Y55.66 E.05385
G1 X51.865 Y54.922 E.0233
G1 X52.55 Y53.961 E.03247
G1 X53.443 Y53.06 E.03486
G1 X53.695 Y53.311 F21000
G1 F3000
G1 X54.137 Y52.866 E.01724
G1 X55.503 Y51.931 E.04552
G1 X57.161 Y51.21 E.04971
G1 X58.871 Y50.832 E.04814
G1 X60.508 Y50.778 E.04502
G1 X61.609 Y50.905 E.03047
G1 X62.709 Y51.17 E.03113
G1 X64.162 Y51.754 E.04304
G1 X65.716 Y52.744 E.05067
G1 X66.86 Y53.814 E.04304
G1 X67.981 Y55.344 E.05217
G1 X68.581 Y56.579 E.03773
G1 X68.936 Y57.659 E.03126
G1 X69.113 Y58.487 E.0233
G1 X69.236 Y60.283 E.04949
G1 X69.004 Y62.076 E.04971
G1 X68.729 Y63.03 E.02729
G1 X68.313 Y64.029 E.02976
G1 X67.462 Y65.45 E.04552
G1 X66.257 Y66.798 E.04971
G1 X64.866 Y67.853 E.048
G1 X63.244 Y68.651 E.04971
G1 X61.632 Y69.09 E.04594
G1 X60.517 Y69.221 E.03085
G1 X59.435 Y69.22 E.02976
G1 X57.563 Y68.908 E.05217
G1 X56.487 Y68.54 E.03126
G1 X55.719 Y68.182 E.0233
G1 X54.212 Y67.197 E.0495
G1 X52.92 Y65.932 E.04971
G1 X51.978 Y64.571 E.04552
G1 X51.256 Y62.973 E.04821
G1 X50.866 Y61.349 E.04594
G1 X50.77 Y60.231 E.03085
G1 X50.788 Y59.384 E.02329
G1 X51.093 Y57.566 E.05067
G1 X51.759 Y55.835 E.05099
G1 X52.333 Y54.854 E.03126
G1 X52.837 Y54.173 E.0233
G1 X53.652 Y53.353 E.03178
; printing object (Unsaved).stl id:0 copy 0
EXCLUDE_OBJECT_START NAME=(Unsaved).stl_id_0_copy_0
G1 E-.5
G1 Z.4 F21000
G1 X55.326 Y55.208
G1 Z.2
G1 E.5 F1800
;TYPE:Brim
G1 F3000
G1 X55.827 Y54.756 E.01856
G1 X56.506 Y54.281 E.02279
G1 X56.77 Y54.128 E.00838
G1 X57.521 Y53.773 E.02284
G1 X58.005 Y53.602 E.01411
G1 X58.3 Y53.517 E.00844
G1 X59.115 Y53.356 E.02284
G1 X59.64 Y53.307 E.01451
G1 X60.477 Y53.314 E.02301
G1 X61.268 Y53.418 E.02194
G1 X62.071 Y53.624 E.02279
G1 X62.359 Y53.725 E.00838
G1 X63.117 Y54.064 E.02284
G1 X63.559 Y54.318 E.01401
G1 X64.234 Y54.802 E.02284
G1 X64.466 Y55 E.00838
G1 X65.049 Y55.589 E.02279
G1 X65.554 Y56.244 E.02275
G1 X65.824 Y56.677 E.01401
G1 X66.188 Y57.419 E.02275
G1 X66.459 Y58.199 E.02269
G1 X66.632 Y59.009 E.02278
G1 X66.67 Y59.312 E.00838
G1 X66.704 Y60.142 E.02284
G1 X66.674 Y60.651 E.01401
G1 X66.542 Y61.471 E.02284
G1 X66.468 Y61.769 E.00844
G1 X66.313 Y62.258 E.01411
G1 X65.987 Y63.019 E.02275
G1 X65.569 Y63.734 E.02278
G1 X65.393 Y63.984 E.00838
G1 X64.859 Y64.62 E.02284
G1 X64.494 Y64.975 E.01401
G1 X63.844 Y65.493 E.02284
G1 X63.589 Y65.663 E.00844
G1 X63.145 Y65.921 E.01411
G1 X62.388 Y66.264 E.02284
G1 X61.594 Y66.511 E.02286
G1 X61.289 Y66.578 E.00859
G1 X60.481 Y66.686 E.02242
G1 X59.654 Y66.694 E.02274
G1 X59.146 Y66.648 E.01401
G1 X58.334 Y66.492 E.02275
G1 X57.549 Y66.238 E.02269
G1 X56.801 Y65.889 E.02269
G1 X56.098 Y65.449 E.02278
G1 X55.853 Y65.264 E.00844
G1 X55.463 Y64.932 E.01411
G1 X54.887 Y64.332 E.02284
G1 X54.696 Y64.095 E.00838
G1 X54.231 Y63.409 E.02278
G1 X53.855 Y62.672 E.02275
G1 X53.574 Y61.9 E.02259
G1 X53.388 Y61.084 E.02301
G1 X53.305 Y60.273 E.02242
G1 X53.322 Y59.446 E.02274
G1 X53.384 Y58.94 E.01401
G1 X53.565 Y58.132 E.02275
G1 X53.844 Y57.352 E.02278
G1 X53.971 Y57.075 E.00838
G1 X54.378 Y56.353 E.02278
G1 X54.87 Y55.688 E.02275
G1 X55.213 Y55.31 E.01401
G1 X55.282 Y55.249 E.00254
G1 X55.521 Y55.514 F21000
G1 F3000
G1 X56.045 Y55.041 E.01942
G1 X56.695 Y54.585 E.02182
G1 X56.932 Y54.447 E.00755
G1 X57.653 Y54.106 E.02191
G1 X58.117 Y53.941 E.01355
G1 X58.388 Y53.863 E.00776
G1 X59.171 Y53.709 E.02194
G1 X59.661 Y53.665 E.01351
G1 X60.445 Y53.671 E.02158
G1 X61.206 Y53.771 E.0211
G1 X61.963 Y53.965 E.02147
G1 X62.23 Y54.059 E.0078
G1 X62.949 Y54.381 E.02166
G1 X63.37 Y54.622 E.01333
G1 X64.018 Y55.086 E.02191
G1 X64.226 Y55.265 E.00755
G1 X64.784 Y55.83 E.02182
G1 X65.257 Y56.444 E.02132
G1 X65.513 Y56.855 E.01333
G1 X65.855 Y57.551 E.02132
G1 X66.112 Y58.289 E.02148
G1 X66.278 Y59.065 E.02182
G1 X66.313 Y59.337 E.00755
G1 X66.346 Y60.133 E.02191
G1 X66.319 Y60.607 E.01303
G1 X66.193 Y61.395 E.02196
G1 X66.123 Y61.675 E.00794
G1 X65.976 Y62.139 E.01337
G1 X65.67 Y62.851 E.02132
G1 X65.271 Y63.537 E.02182
G1 X65.113 Y63.762 E.00755
G1 X64.601 Y64.372 E.02191
G1 X64.253 Y64.711 E.01333
G1 X63.637 Y65.201 E.02166
G1 X63.397 Y65.361 E.00794
G1 X62.976 Y65.605 E.01337
G1 X62.255 Y65.932 E.02177
G1 X61.507 Y66.164 E.02152
G1 X61.223 Y66.227 E.008
G1 X60.449 Y66.329 E.02146
G1 X59.663 Y66.336 E.02162
G1 X59.191 Y66.293 E.01303
G1 X58.417 Y66.143 E.02168
G1 X57.674 Y65.902 E.02148
G1 X56.978 Y65.577 E.02112
G1 X56.305 Y65.157 E.02182
G1 X56.074 Y64.983 E.00794
G1 X55.704 Y64.668 E.01337
G1 X55.153 Y64.092 E.02191
G1 X54.98 Y63.879 E.00755
G1 X54.536 Y63.221 E.02182
G1 X54.186 Y62.535 E.02117
G1 X53.92 Y61.805 E.02137
G1 X53.74 Y61.019 E.02215
G1 X53.663 Y60.252 E.02121
G1 X53.679 Y59.476 E.02132
G1 X53.737 Y58.995 E.01333
G1 X53.907 Y58.239 E.02132
G1 X54.174 Y57.491 E.02182
G1 X54.292 Y57.233 E.0078
G1 X54.675 Y56.554 E.02145
M73 P1 R8
G1 X55.144 Y55.919 E.02168
G1 X55.469 Y55.56 E.01333
G1 X55.476 Y55.554 E.00025
G1 X55.726 Y55.81 F21000
G1 F3000
G1 X56.263 Y55.325 E.0199
G1 X56.884 Y54.888 E.02086
G1 X57.095 Y54.765 E.00671
G1 X57.784 Y54.439 E.02098
G1 X58.229 Y54.28 E.01299
G1 X58.476 Y54.21 E.00706
G1 X59.228 Y54.063 E.02105
G1 X59.681 Y54.022 E.01251
G1 X60.414 Y54.028 E.02016
G1 X61.132 Y54.121 E.0199
G1 X61.855 Y54.306 E.02051
G1 X62.102 Y54.393 E.00721
G1 X62.782 Y54.697 E.02048
G1 X63.181 Y54.926 E.01263
G1 X63.801 Y55.371 E.02097
G1 X63.986 Y55.53 E.00671
G1 X64.518 Y56.07 E.02086
G1 X64.96 Y56.643 E.0199
G1 X65.203 Y57.033 E.01264
G1 X65.522 Y57.683 E.0199
G1 X65.765 Y58.379 E.02027
G1 X65.925 Y59.121 E.02085
G1 X65.957 Y59.363 E.00671
G1 X65.988 Y60.125 E.02098
G1 X65.963 Y60.563 E.01205
G1 X65.843 Y61.319 E.02107
G1 X65.778 Y61.582 E.00743
G1 X65.639 Y62.019 E.01263
G1 X65.353 Y62.685 E.01991
G1 X64.972 Y63.34 E.02086
G1 X64.832 Y63.54 E.00671
G1 X64.342 Y64.125 E.02097
G1 X64.013 Y64.446 E.01264
G1 X63.43 Y64.91 E.02048
G1 X63.205 Y65.06 E.00743
G1 X62.808 Y65.289 E.01262
G1 X62.121 Y65.599 E.02071
G1 X61.42 Y65.817 E.02018
G1 X61.157 Y65.875 E.00742
G1 X60.417 Y65.972 E.0205
G1 X59.672 Y65.978 E.02049
G1 X59.236 Y65.938 E.01205
G1 X58.5 Y65.795 E.02062
G1 X57.811 Y65.571 E.01991
G1 X57.154 Y65.266 E.01991
G1 X56.511 Y64.864 E.02085
G1 X56.295 Y64.702 E.00743
G1 X55.946 Y64.404 E.01262
G1 X55.418 Y63.853 E.02098
G1 X55.265 Y63.662 E.00671
G1 X54.841 Y63.033 E.02086
G1 X54.512 Y62.386 E.01997
G1 X54.265 Y61.71 E.01979
G1 X54.093 Y60.955 E.02129
G1 X54.02 Y60.231 E.02
G1 X54.035 Y59.507 E.01991
G1 X54.091 Y59.051 E.01264
G1 X54.249 Y58.344 E.0199
G1 X54.504 Y57.63 E.02085
G1 X54.613 Y57.391 E.00721
G1 X54.98 Y56.743 E.02049
G1 X55.417 Y56.15 E.02026
G1 X55.686 Y55.854 E.01098
G1 X55.95 Y56.094 F21000
G1 F3000
G1 X55.982 Y56.059 E.00131
G1 X56.482 Y55.609 E.01849
G1 X57.073 Y55.192 E.0199
G1 X57.257 Y55.084 E.00587
G1 X57.916 Y54.771 E.02004
G1 X58.341 Y54.619 E.01242
G1 X58.564 Y54.557 E.00635
G1 X59.284 Y54.416 E.02016
G1 X59.701 Y54.379 E.01152
G1 X60.383 Y54.384 E.01876
G1 X61.071 Y54.474 E.01906
G1 X61.747 Y54.647 E.01919
G1 X61.974 Y54.726 E.00663
G1 X62.615 Y55.014 E.0193
G1 X62.992 Y55.23 E.01194
G1 X63.583 Y55.655 E.02003
G1 X63.745 Y55.794 E.00587
G1 X64.253 Y56.31 E.0199
G1 X64.663 Y56.843 E.01849
G1 X64.893 Y57.212 E.01195
G1 X65.195 Y57.827 E.01885
G1 X65.419 Y58.47 E.01871
G1 X65.572 Y59.177 E.01989
G1 X65.6 Y59.388 E.00587
G1 X65.631 Y60.117 E.02005
G1 X65.608 Y60.519 E.01106
G1 X65.493 Y61.244 E.02018
G1 X65.433 Y61.488 E.00691
G1 X65.302 Y61.899 E.01187
G1 X65.036 Y62.518 E.01851
G1 X64.673 Y63.144 E.0199
G1 X64.551 Y63.319 E.00587
G1 X64.083 Y63.878 E.02003
G1 X63.772 Y64.181 E.01194
G1 X63.223 Y64.618 E.01931
G1 X63.014 Y64.758 E.00692
G1 X62.64 Y64.973 E.01186
G1 X61.988 Y65.267 E.01965
G1 X61.333 Y65.47 E.01885
G1 X61.09 Y65.524 E.00683
G1 X60.386 Y65.615 E.01953
G1 X59.682 Y65.621 E.01936
G1 X59.281 Y65.583 E.01106
G1 X58.583 Y65.446 E.01956
G1 X57.948 Y65.24 E.01836
G1 X57.331 Y64.954 E.01871
G1 X56.717 Y64.572 E.01988
G1 X56.515 Y64.421 E.00691
G1 X56.188 Y64.14 E.01187
G1 X55.684 Y63.613 E.02005
G1 X55.55 Y63.447 E.00587
G1 X55.147 Y62.846 E.0199
G1 X54.843 Y62.249 E.01842
G1 X54.61 Y61.615 E.01857
G1 X54.445 Y60.89 E.02043
G1 X54.378 Y60.21 E.01878
G1 X54.392 Y59.538 E.0185
G1 X54.444 Y59.106 E.01195
G1 X54.592 Y58.45 E.01849
G1 X54.833 Y57.769 E.01987
G1 X54.933 Y57.55 E.00662
G1 X55.276 Y56.943 E.01917
G1 X55.69 Y56.381 E.0192
G1 X55.91 Y56.139 E.00899
G1 X56.175 Y56.379 F21000
G1 F3000
G1 X56.239 Y56.309 E.00261
G1 X56.7 Y55.893 E.01708
G1 X57.429 Y55.398 E.02422
G1 X58.048 Y55.104 E.01885
G1 X58.454 Y54.959 E.01184
G1 X58.651 Y54.903 E.00563
G1 X59.339 Y54.77 E.01928
G1 X59.721 Y54.736 E.01052
G1 X60.352 Y54.741 E.01736
G1 X60.997 Y54.824 E.01787
G1 X61.639 Y54.988 E.01823
G1 X61.846 Y55.06 E.00604
G1 X62.448 Y55.33 E.01812
G1 X62.803 Y55.534 E.01125
G1 X63.359 Y55.933 E.01882
G1 X63.987 Y56.55 E.02422
G1 X64.366 Y57.043 E.01708
G1 X64.583 Y57.39 E.01126
G1 X64.862 Y57.959 E.01743
G1 X65.072 Y58.561 E.01751
G1 X65.244 Y59.424 E.0242
G1 X65.273 Y60.109 E.01887
G1 X65.253 Y60.475 E.01008
G1 X65.144 Y61.168 E.01928
G1 X65.088 Y61.394 E.00639
G1 X64.965 Y61.779 E.01111
G1 X64.719 Y62.351 E.01713
G1 X64.264 Y63.106 E.02422
G1 X63.825 Y63.63 E.01882
G1 X63.532 Y63.916 E.01125
G1 X63.015 Y64.327 E.01814
G1 X62.822 Y64.456 E.0064
G1 X62.472 Y64.657 E.01109
G1 X61.855 Y64.934 E.0186
G1 X61.246 Y65.124 E.01753
G1 X61.024 Y65.172 E.00624
G1 X60.355 Y65.258 E.01855
G1 X59.692 Y65.263 E.01824
G1 X59.327 Y65.228 E.01007
G1 X58.667 Y65.098 E.01851
G1 X58.073 Y64.904 E.01717
G1 X57.507 Y64.642 E.01717
G1 X56.922 Y64.279 E.01891
G1 X56.736 Y64.14 E.00638
G1 X56.43 Y63.877 E.0111
G1 X55.956 Y63.381 E.01886
G1 X55.452 Y62.659 E.02421
G1 X55.168 Y62.1 E.01723
G1 X54.956 Y61.519 E.017
G1 X54.797 Y60.826 E.01956
G1 X54.736 Y60.203 E.01722
G1 X54.748 Y59.568 E.01745
G1 X54.798 Y59.162 E.01126
G1 X54.934 Y58.555 E.01708
G1 X55.163 Y57.907 E.0189
G1 X55.254 Y57.708 E.00602
G1 X55.574 Y57.143 E.01785
G1 X55.964 Y56.612 E.01813
G1 X56.135 Y56.424 E.00699
G1 X56.4 Y56.664 F21000
G1 F3000
G1 X56.495 Y56.558 E.00391
G1 X56.916 Y56.179 E.01557
G1 X57.614 Y55.705 E.02321
G1 X58.18 Y55.436 E.01723
G1 X58.559 Y55.3 E.01105
G1 X59.395 Y55.123 E.0235
G1 X59.74 Y55.094 E.00953
G1 X60.321 Y55.098 E.01598
G1 X60.923 Y55.175 E.01668
G1 X61.531 Y55.329 E.01725
G1 X62.29 Y55.651 E.02266
G1 X62.613 Y55.837 E.01026
G1 X63.121 Y56.202 E.01719
G1 X63.724 Y56.794 E.02321
G1 X64.069 Y57.242 E.01557
G1 X64.272 Y57.568 E.01056
G1 X64.529 Y58.092 E.01603
G1 X64.724 Y58.648 E.0162
G1 X64.889 Y59.475 E.02318
G1 X64.915 Y60.102 E.01726
G1 X64.898 Y60.432 E.00909
G1 X64.794 Y61.093 E.01839
G1 X64.745 Y61.293 E.00565
G1 X64.628 Y61.658 E.01055
G1 X64.404 Y62.181 E.01564
G1 X63.967 Y62.904 E.02321
G1 X63.566 Y63.383 E.01719
G1 X63.289 Y63.652 E.01061
G1 X62.63 Y64.155 E.02279
G1 X62.305 Y64.341 E.01031
G1 X61.72 Y64.602 E.01761
G1 X60.959 Y64.821 E.02178
G1 X60.324 Y64.902 E.01757
G1 X59.702 Y64.905 E.01711
G1 X59.374 Y64.873 E.00907
G1 X58.751 Y64.75 E.01746
G1 X58.21 Y64.574 E.01564
G1 X57.682 Y64.33 E.01598
G1 X57.127 Y63.986 E.01794
G1 X56.957 Y63.859 E.00584
G1 X56.673 Y63.614 E.01033
G1 X56.239 Y63.16 E.01726
G1 X55.756 Y62.468 E.0232
G1 X55.499 Y61.963 E.01558
G1 X55.301 Y61.424 E.01578
G1 X55.15 Y60.762 E.01869
G1 X55.093 Y60.182 E.016
G1 X55.105 Y59.599 E.01605
G1 X55.151 Y59.217 E.01057
G1 X55.276 Y58.661 E.01569
G1 X55.575 Y57.867 E.02332
G1 X55.878 Y57.332 E.01689
G1 X56.238 Y56.842 E.01671
G1 X56.359 Y56.708 E.00498
G1 X56.631 Y56.933 F21000
G1 F3000
G1 X56.649 Y56.911 E.00078
G1 X56.962 Y56.602 E.01208
G1 X57.327 Y56.309 E.01287
G1 X58.132 Y55.842 E.02559
G1 X58.467 Y55.706 E.00993
G1 X58.849 Y55.589 E.01098
G1 X59.775 Y55.447 E.02576
G1 X60.237 Y55.447 E.01271
G1 X60.721 Y55.498 E.01339
G1 X61.147 Y55.587 E.01196
G1 X61.604 Y55.731 E.01317
G1 X62.439 Y56.146 E.02564
G1 X62.767 Y56.374 E.01099
G1 X63.046 Y56.605 E.00996
G1 X63.654 Y57.27 E.02477
G1 X63.868 Y57.581 E.01038
G1 X64.072 Y57.944 E.01145
G1 X64.4 Y58.798 E.02516
G1 X64.492 Y59.205 E.01146
G1 X64.546 Y59.631 E.0118
G1 X64.538 Y60.468 E.02301
G1 X64.462 Y60.944 E.01327
G1 X64.321 Y61.462 E.01476
G1 X64.16 Y61.87 E.01206
G1 X63.967 Y62.251 E.01176
G1 X63.447 Y62.987 E.02476
G1 X63.113 Y63.333 E.01324
G1 X62.777 Y63.618 E.0121
G1 X62.379 Y63.891 E.01327
G1 X61.956 Y64.119 E.01321
G1 X61.073 Y64.432 E.02575
G1 X60.716 Y64.504 E.01003
G1 X60.326 Y64.548 E.01079
G1 X59.39 Y64.518 E.02574
G1 X58.92 Y64.429 E.01315
G1 X58.469 Y64.294 E.01294
G1 X58.066 Y64.128 E.01198
G1 X57.644 Y63.902 E.01316
G1 X56.895 Y63.336 E.02581
G1 X56.564 Y62.994 E.01308
G1 X56.268 Y62.616 E.01321
G1 X56.017 Y62.214 E.01303
G1 X55.825 Y61.826 E.0119
G1 X55.539 Y60.934 E.02576
G1 X55.479 Y60.574 E.01003
G1 X55.446 Y60.183 E.0108
G1 X55.504 Y59.258 E.02546
G1 X55.585 Y58.867 E.01099
G1 X55.689 Y58.521 E.00993
G1 X56.081 Y57.675 E.02563
G1 X56.336 Y57.29 E.01272
G1 X56.593 Y56.979 E.01108
G1 X56.868 Y57.203 F21000
G1 F3000
G1 X56.896 Y57.169 E.00122
G1 X57.217 Y56.853 E.01238
G1 X57.555 Y56.583 E.01189
G1 X58.258 Y56.176 E.02236
G1 X58.605 Y56.036 E.01027
G1 X58.959 Y55.928 E.01018
G1 X59.769 Y55.804 E.02252
G1 X60.197 Y55.802 E.01176
G1 X60.643 Y55.846 E.01233
G1 X61.079 Y55.937 E.01225
G1 X61.501 Y56.074 E.0122
G1 X62.231 Y56.436 E.02239
