; HEADER_BLOCK_START
; generated by OrcaSlicer 1.6.3 on 2023-06-17 at 15:04:07
; total layer number: 232
; HEADER_BLOCK_END

; THUMBNAIL_BLOCK_START
; THUMBNAIL_BLOCK_END

; external perimeters extrusion width = 0.40mm
; perimeters extrusion width = 0.45mm
; infill extrusion width = 0.45mm
; solid infill extrusion width = 0.40mm
; top infill extrusion width = 0.40mm
; support material extrusion width = 0.40mm
; first layer extrusion width = 0.50mm

; EXECUTABLE_BLOCK_START
EXCLUDE_OBJECT_DEFINE NAME=(Unsaved).stl_id_0_copy_0 CENTER=60,60 POLYGON=[[49.401,35.001],[61.099,35.001],[62.599,36.499],[70.259,48.959],[70.361,49.129],[70.447,49.311],[70.513,49.499],[70.561,49.685],[70.599,50.075],[70.599,75.073],[70.561,75.463],[70.513,75.651],[70.447,75.839],[70.361,76.019],[70.259,76.189],[70.013,76.489],[61.099,84.999],[49.401,84.999],[49.401,35.001]]
M73 P0 R35
;TYPE:Custom
START_PRINT T_BED=110 T_EXTRUDER=260
G90
G21
M83 ; use relative distances for extrusion
; Filament gcode

    PRESSURE_ADVANCE_SELECT FILAMENT=ABS
M106 S0
;LAYER_CHANGE
;Z:0.2
;HEIGHT:0.2
;BEFORE_LAYER_CHANGE
;0.2
G92 E0

;AFTER_LAYER_CHANGE
;0.2
M204 S500
; printing object (Unsaved).stl id:0 copy 0
EXCLUDE_OBJECT_START NAME=(Unsaved).stl_id_0_copy_0
G1 E-.5 F3000
G1 Z.2 F21000
G1 X52.802 Y49.834
G1 E.5 F1800
;TYPE:Support
;WIDTH:0.5
G1 F3000
G1 X52.898 Y49.873 E.00364
G1 X52.98 Y49.936 E.00363
G1 X53.043 Y50.018 E.00363
G1 X53.082 Y50.114 E.00364
G1 X53.096 Y50.217 E.00367
G1 X53.082 Y50.32 E.00365
G1 X53.043 Y50.415 E.00361
G1 X52.979 Y50.498 E.00371
G1 X52.898 Y50.561 E.00359
G1 X52.802 Y50.6 E.00364
G1 X52.699 Y50.614 E.00367
G1 X52.596 Y50.6 E.00367
G1 X52.5 Y50.561 E.00364
G1 X52.419 Y50.498 E.00359
G1 X52.355 Y50.415 E.00371
G1 X52.316 Y50.32 E.00361
G1 X52.302 Y50.217 E.00365
G1 X52.316 Y50.114 E.00367
G1 X52.355 Y50.018 E.00364
G1 X52.418 Y49.936 E.00363
G1 X52.5 Y49.873 E.00363
G1 X52.596 Y49.834 E.00364
G1 X52.734 Y49.825 E.0049
G1 E-.5
G1 Z.4 F21000
G1 X61.813 Y56.578
G1 Z.2
G1 E.5 F1800
G1 F3000
G1 X62.275 Y56.712 E.01695
G1 X62.714 Y56.911 E.01697
G1 X63.121 Y57.168 E.01693
G1 X63.487 Y57.481 E.01696
G1 X63.805 Y57.842 E.0169
G1 X64.131 Y58.341 E.02097
G1 X64.286 Y58.425 E.00624
G1 X66.249 Y58.425 E.06907
G1 X66.249 Y66.725 E.29211
G1 X64.382 Y66.725 E.06571
G1 X64.177 Y66.93 E.0102
G1 X64.177 Y77.218 E.36207
G1 X64.382 Y77.423 E.0102
G1 X66.857 Y77.423 E.0871
G1 X68.505 Y79.071 E.08202
G1 X64.786 Y79.071 E.13089
G1 X64.786 Y84.785 E.2011
G1 X46.643 Y84.785 E.6385
G1 X46.643 Y75.214 E.33684
G1 X49.863 Y75.214 E.11332
G1 X49.899 Y75.548 E.01182
G1 X50.036 Y75.989 E.01627
G1 X50.239 Y76.365 E.01503
G1 X50.527 Y76.724 E.01619
G1 X50.911 Y77.038 E.01745
G1 X51.317 Y77.251 E.01614
G1 X51.726 Y77.375 E.01504
G1 X52.193 Y77.423 E.0165
G1 X56.346 Y77.423 E.14618
G1 X56.551 Y77.218 E.0102
G1 X56.551 Y66.93 E.36207
G1 X56.346 Y66.725 E.0102
G1 X52.051 Y66.725 E.15116
G1 X52.051 Y58.425 E.29211
G1 X57.912 Y58.425 E.20626
G1 X58.067 Y58.341 E.00624
G1 X58.393 Y57.842 E.02097
G1 X58.711 Y57.482 E.0169
G1 X59.077 Y57.168 E.01697
G1 X59.484 Y56.911 E.01694
G1 X59.921 Y56.712 E.0169
G1 X60.385 Y56.578 E.017
G1 X60.86 Y56.509 E.01691
G1 X61.338 Y56.509 E.0168
G1 X61.745 Y56.568 E.01449
G1 X58.355 Y58.653 F21000
G1 F3000
G1 X58.722 Y58.092 E.0236
G1 X59 Y57.775 E.01484
G1 X59.322 Y57.5 E.0149
G1 X59.68 Y57.273 E.01491
G1 X60.064 Y57.098 E.01484
G1 X60.472 Y56.981 E.01494
G1 X60.89 Y56.92 E.01487
G1 X61.308 Y56.92 E.01472
G1 X61.726 Y56.981 E.01485
G1 X62.132 Y57.098 E.0149
G1 X62.519 Y57.274 E.01492
G1 X62.876 Y57.5 E.01489
G1 X63.198 Y57.775 E.0149
G1 X63.476 Y58.092 E.01484
G1 X63.843 Y58.653 E.0236
G1 X64.182 Y58.836 E.01357
G1 X65.838 Y58.836 E.05826
G1 X65.838 Y66.314 E.26315
G1 X64.212 Y66.314 E.05723
G1 X63.766 Y66.76 E.0222
G1 X63.766 Y77.388 E.37407
G1 X64.212 Y77.834 E.0222
G1 X66.686 Y77.834 E.0871
G1 X67.512 Y78.66 E.04107
G1 X64.374 Y78.66 E.11042
G1 X64.374 Y84.374 E.2011
G1 X47.055 Y84.374 E.60954
G1 X47.055 Y75.625 E.30789
G1 X49.495 Y75.625 E.08589
G1 X49.635 Y76.096 E.01729
G1 X49.886 Y76.578 E.01909
G1 X50.276 Y77.055 E.02169
G1 X50.638 Y77.35 E.01646
G1 X51.109 Y77.61 E.01892
G1 X51.7 Y77.789 E.02173
G1 X52.182 Y77.834 E.01706
G1 X56.516 Y77.834 E.15253
G1 X56.962 Y77.388 E.0222
G1 X56.962 Y66.76 E.37407
G1 X56.516 Y66.314 E.0222
G1 X52.462 Y66.314 E.14268
G1 X52.462 Y58.836 E.26315
G1 X58.016 Y58.836 E.19544
G1 X58.355 Y58.653 E.01357
G1 X58.71 Y59.038 F21000
G1 F3000
G1 X59.127 Y58.4 E.02684
G1 X59.358 Y58.138 E.0123
G1 X59.625 Y57.909 E.01236
G1 X59.922 Y57.721 E.0124
G1 X60.24 Y57.576 E.0123
G1 X60.579 Y57.478 E.0124
G1 X60.926 Y57.428 E.01236
G1 X61.272 Y57.428 E.01215
G1 X61.618 Y57.478 E.01233
G1 X61.956 Y57.576 E.01237
G1 X62.277 Y57.722 E.01239
G1 X62.573 Y57.909 E.01237
G1 X62.84 Y58.138 E.01235
G1 X63.071 Y58.4 E.0123
G1 X63.488 Y59.038 E.02684
G1 X64.054 Y59.344 E.02262
G1 X65.33 Y59.344 E.04491
G1 X65.33 Y65.806 E.22741
G1 X64.001 Y65.806 E.04675
G1 X63.258 Y66.549 E.03701
G1 X63.258 Y77.599 E.38887
G1 X63.866 Y78.207 E.03029
G1 X63.866 Y83.866 E.19915
G1 X47.562 Y83.866 E.57379
G1 X47.562 Y76.133 E.27214
G1 X49.101 Y76.133 E.05414
M73 P0 R34
G1 X49.205 Y76.384 E.00957
G1 X49.45 Y76.839 E.01818
G1 X49.844 Y77.341 E.02246
G1 X49.935 Y77.432 E.00452
G1 X50.336 Y77.759 E.01823
G1 X50.892 Y78.07 E.02239
G1 X51.503 Y78.268 E.02261
G1 X51.626 Y78.292 E.00441
G1 X52.17 Y78.342 E.01925
G1 X56.727 Y78.342 E.16037
G1 X57.47 Y77.599 E.03701
G1 X57.47 Y66.549 E.38887
G1 X56.727 Y65.806 E.03701
G1 X52.97 Y65.806 E.13221
G1 X52.97 Y59.344 E.22741
G1 X58.144 Y59.344 E.1821
G1 X58.71 Y59.038 E.02262
G1 X59.064 Y59.424 F21000
G1 F3000
G1 X59.532 Y58.708 E.03009
G1 X59.715 Y58.5 E.00975
G1 X59.927 Y58.319 E.00981
G1 X60.165 Y58.169 E.00989
G1 X60.417 Y58.054 E.00976
G1 X60.686 Y57.976 E.00985
G1 X60.963 Y57.936 E.00984
G1 X61.235 Y57.936 E.00958
G1 X61.511 Y57.976 E.00981
G1 X61.779 Y58.054 E.00984
G1 X62.035 Y58.169 E.00986
G1 X62.271 Y58.319 E.00985
G1 X62.483 Y58.5 E.00981
G1 X62.666 Y58.708 E.00976
G1 X63.134 Y59.424 E.03009
G1 X63.925 Y59.852 E.03167
G1 X64.822 Y59.852 E.03156
G1 X64.822 Y65.298 E.19166
G1 X63.791 Y65.298 E.03628
G1 X62.75 Y66.339 E.05181
G1 X62.75 Y77.809 E.40368
G1 X63.358 Y78.418 E.03029
G1 X63.358 Y83.358 E.17387
G1 X48.07 Y83.358 E.53805
G1 X48.07 Y76.641 E.23639
G1 X48.767 Y76.641 E.0245
G1 X49.014 Y77.101 E.01838
G1 X49.108 Y77.243 E.00598
G1 X49.467 Y77.682 E.01996
G1 X49.594 Y77.809 E.00633
G1 X50.034 Y78.168 E.01999
G1 X50.177 Y78.263 E.00604
G1 X50.674 Y78.529 E.01984
G1 X50.836 Y78.596 E.00616
G1 X51.379 Y78.761 E.01999
G1 X51.551 Y78.795 E.00617
G1 X52.158 Y78.85 E.02143
G1 X56.937 Y78.85 E.1682
G1 X57.978 Y77.809 E.05181
G1 X57.978 Y66.339 E.40368
G1 X56.937 Y65.298 E.05181
G1 X53.478 Y65.298 E.12174
G1 X53.478 Y59.852 E.19166
G1 X58.273 Y59.852 E.16875
G1 X59.064 Y59.424 E.03167
G1 X59.419 Y59.809 F21000
G1 F3000
G1 X59.937 Y59.017 E.03334
G1 X60.073 Y58.863 E.00721
G1 X60.23 Y58.729 E.00726
G1 X60.407 Y58.616 E.00739
G1 X60.594 Y58.531 E.00723
G1 X60.793 Y58.474 E.00731
G1 X60.999 Y58.444 E.00733
G1 X61.199 Y58.444 E.00701
G1 X61.404 Y58.473 E.00728
G1 X61.603 Y58.531 E.00731
G1 X61.793 Y58.617 E.00733
G1 X61.969 Y58.729 E.00732
G1 X62.125 Y58.863 E.00726
G1 X62.261 Y59.017 E.00721
G1 X62.779 Y59.809 E.03334
G1 X63.797 Y60.36 E.04072
G1 X64.314 Y60.36 E.01821
G1 X64.314 Y64.79 E.15591
G1 X63.581 Y64.79 E.02581
G1 X62.242 Y66.129 E.06662
G1 X62.242 Y78.019 E.41849
G1 X62.851 Y78.628 E.03029
G1 X62.851 Y82.85 E.14859
G1 X48.578 Y82.85 E.5023
G1 X48.578 Y77.396 E.19195
G1 X49.089 Y78.023 E.02847
G1 X49.253 Y78.186 E.00814
G1 X49.732 Y78.577 E.02176
G1 X49.916 Y78.7 E.00777
G1 X50.457 Y78.989 E.02158
G1 X50.664 Y79.075 E.00792
G1 X51.256 Y79.254 E.02175
G1 X51.477 Y79.298 E.00794
G1 X52.035 Y79.353 E.01971
G1 X57.147 Y79.358 E.17994
G1 X58.486 Y78.019 E.06662
G1 X58.486 Y66.129 E.41849
G1 X57.147 Y64.79 E.06662
G1 X53.986 Y64.79 E.11127
G1 X53.986 Y60.36 E.15591
G1 X58.401 Y60.36 E.1554
G1 X59.419 Y59.809 E.04072
G1 X59.774 Y60.195 F21000
G1 F3000
G1 X60.343 Y59.325 E.03658
G1 X60.532 Y59.138 E.00936
G1 X60.77 Y59.009 E.00954
G1 X60.9 Y58.971 E.00477
G1 X61.036 Y58.952 E.00481
G1 X61.296 Y58.971 E.00918
G1 X61.551 Y59.065 E.00956
G1 X61.768 Y59.225 E.00949
G1 X61.855 Y59.325 E.00467
G1 X62.424 Y60.195 E.03658
G1 X63.806 Y60.943 E.0553
G1 X63.806 Y64.282 E.11753
G1 X63.37 Y64.282 E.01534
G1 X61.734 Y65.918 E.08143
G1 X61.734 Y78.23 E.43329
G1 X62.343 Y78.838 E.03029
G1 X62.343 Y82.342 E.12332
G1 X49.086 Y82.342 E.46655
G1 X49.086 Y78.757 E.12618
G1 X49.655 Y79.136 E.02405
G1 X50.239 Y79.449 E.02333
G1 X50.493 Y79.554 E.00968
G1 X51.133 Y79.748 E.02351
G1 X51.403 Y79.801 E.0097
G1 X52.133 Y79.866 E.02579
G1 X57.358 Y79.866 E.18388
G1 X58.994 Y78.23 E.08143
G1 X58.994 Y65.918 E.4333
G1 X57.358 Y64.282 E.08143
G1 X54.494 Y64.282 E.1008
G1 X54.494 Y60.868 E.12016
G1 X58.53 Y60.868 E.14205
G1 X59.774 Y60.195 E.04977
G1 X60.129 Y60.58 F21000
G1 F3000
G1 X60.788 Y59.588 E.04193
G1 X60.947 Y59.486 E.00665
G1 X61.072 Y59.46 E.00451
G1 X61.189 Y59.469 E.0041
G1 X61.309 Y59.513 E.00451
G1 X61.45 Y59.633 E.00653
G1 X62.069 Y60.58 E.03983
G1 X63.298 Y61.245 E.04917
G1 X63.298 Y63.774 E.08901
G1 X63.16 Y63.774 E.00487
G1 X61.226 Y65.708 E.09623
G1 X61.226 Y78.44 E.4481
G1 X61.835 Y79.049 E.03029
G1 X61.835 Y81.834 E.09804
G1 X49.594 Y81.834 E.4308
M73 P1 R34
G1 X49.594 Y79.679 E.07584
G1 X50.022 Y79.908 E.01707
G1 X50.322 Y80.033 E.01144
G1 X51.009 Y80.241 E.02528
G1 X51.329 Y80.304 E.01147
G1 X51.961 Y80.366 E.02234
G1 X57.568 Y80.374 E.19735
G1 X59.502 Y78.44 E.09623
G1 X59.502 Y65.708 E.4481
G1 X57.568 Y63.774 E.09623
G1 X55.002 Y63.774 E.09033
G1 X55.002 Y61.376 E.08442
G1 X58.659 Y61.376 E.1287
G1 X60.129 Y60.58 E.05882
G1 E-.5
G1 Z.4 F21000
G1 X52.119 Y80.892
G1 Z.2
G1 E.5 F1800
G1 F3000
G1 X52.098 Y81.327 E.01532
G1 X50.102 Y81.327 E.07026
G1 X50.102 Y80.497 E.02921
G1 X50.886 Y80.734 E.02883
G1 X51.255 Y80.807 E.01323
G1 X52.119 Y80.892 E.03058
G1 X57.334 Y81.327 F21000
G1 F3000
G1 X60.01 Y78.651 E.13319
G1 X60.01 Y65.497 E.46291
G1 X57.779 Y63.266 E.11104
G1 X55.51 Y63.266 E.07985
G1 X55.51 Y61.884 E.04867
G1 X58.787 Y61.884 E.11535
G1 X60.483 Y60.966 E.06787
G1 X61.099 Y60.024 E.0396
G1 X61.715 Y60.966 E.0396
G1 X62.79 Y61.548 E.04304
G1 X62.79 Y63.425 E.06608
G1 X60.718 Y65.497 E.10313
G1 X60.718 Y78.651 E.46291
G1 X61.327 Y79.259 E.03029
G1 X61.327 Y81.327 E.07276
G1 X57.334 Y81.327 E.14054
G1 X58.56 Y80.819 F21000
G1 F3000
G1 X60.364 Y79.014 E.0898
G1 X60.819 Y79.469 E.02265
G1 X60.819 Y80.819 E.04748
G1 X58.56 Y80.819 E.07952
G1 X60.364 Y65.134 F21000
G1 F3000
G1 X57.622 Y62.391 E.13648
G1 X58.916 Y62.391 E.04554
G1 X60.838 Y61.352 E.07692
G1 X61.099 Y60.952 E.01679
G1 X61.36 Y61.351 E.01679
G1 X62.283 Y61.851 E.03692
G1 X62.283 Y63.215 E.04802
G1 X60.364 Y65.134 E.09549
G1 X60.364 Y64.415 F21000
G1 F3000
G1 X58.917 Y62.968 E.07203
G1 X61.099 Y61.788 E.08732
G1 X61.775 Y62.153 E.02704
G1 X61.775 Y63.005 E.02997
G1 X60.364 Y64.415 E.07021
G1 X60.364 Y63.697 F21000
G1 F3000
G1 X59.758 Y63.091 E.03018
G1 X61.267 Y62.274 E.06039
G1 X61.267 Y62.794 E.0183
G1 X60.364 Y63.697 E.04494
G1 E-.5
G1 Z.4 F21000
G1 X67.678 Y74.174
G1 Z.2
G1 E.5 F1800
G1 F3000
G1 X67.776 Y74.213 E.00369
G1 X67.856 Y74.275 E.00355
G1 X67.919 Y74.357 E.00364
G1 X67.958 Y74.454 E.00368
G1 X67.972 Y74.557 E.00367
G1 X67.958 Y74.66 E.00365
G1 X67.919 Y74.755 E.00361
G1 X67.856 Y74.837 E.00366
G1 X67.774 Y74.9 E.00361
G1 X67.677 Y74.94 E.00372
G1 X67.575 Y74.954 E.00361
G1 X67.474 Y74.94 E.00359
G1 X67.377 Y74.9 E.00369
G1 X67.294 Y74.836 E.00369
G1 X67.231 Y74.755 E.00362
G1 X67.192 Y74.66 E.00361
G1 X67.178 Y74.557 E.00365
G1 X67.192 Y74.454 E.00367
G1 X67.231 Y74.357 E.00368
G1 X67.294 Y74.276 E.0036
G1 X67.376 Y74.213 E.00363
G1 X67.472 Y74.174 E.00366
G1 X67.61 Y74.165 E.00487
G1 E-.5
G1 Z.4 F21000
G1 X52.802 Y74.174
G1 Z.2
G1 E.5 F1800
G1 F3000
G1 X52.9 Y74.213 E.00369
G1 X52.98 Y74.275 E.00355
G1 X53.043 Y74.357 E.00364
G1 X53.082 Y74.454 E.00368
G1 X53.096 Y74.557 E.00367
G1 X53.082 Y74.66 E.00365
G1 X53.043 Y74.755 E.00361
G1 X52.98 Y74.837 E.00366
G1 X52.898 Y74.9 E.00361
G1 X52.801 Y74.94 E.00372
G1 X52.699 Y74.954 E.00361
G1 X52.597 Y74.94 E.00361
G1 X52.5 Y74.9 E.00372
G1 X52.418 Y74.837 E.00361
G1 X52.355 Y74.755 E.00366
G1 X52.316 Y74.66 E.00361
G1 X52.302 Y74.557 E.00365
G1 X52.316 Y74.454 E.00367
G1 X52.355 Y74.357 E.00368
G1 X52.418 Y74.275 E.00364
G1 X52.498 Y74.213 E.00355
G1 X52.596 Y74.174 E.00369
G1 X52.734 Y74.165 E.0049
G1 E-.5
G1 Z.4 F21000
G1 X67.678 Y49.834
G1 Z.2
G1 E.5 F1800
G1 F3000
G1 X67.774 Y49.873 E.00364
G1 X67.856 Y49.936 E.00363
G1 X67.919 Y50.018 E.00363
G1 X67.958 Y50.114 E.00364
G1 X67.972 Y50.217 E.00367
G1 X67.958 Y50.32 E.00365
G1 X67.919 Y50.415 E.00361
G1 X67.855 Y50.498 E.00371
G1 X67.774 Y50.561 E.00359
G1 X67.678 Y50.6 E.00364
G1 X67.575 Y50.614 E.00367
G1 X67.472 Y50.6 E.00365
G1 X67.377 Y50.561 E.00361
G1 X67.295 Y50.497 E.00367
G1 X67.231 Y50.415 E.00367
G1 X67.192 Y50.32 E.00361
G1 X67.178 Y50.217 E.00365
G1 X67.192 Y50.114 E.00367
G1 X67.231 Y50.018 E.00364
G1 X67.294 Y49.937 E.00359
G1 X67.377 Y49.873 E.00371
G1 X67.472 Y49.834 E.00361
G1 X67.61 Y49.825 E.00487
G1 E-.5
G1 Z.4 F21000
G1 X64.786 Y47.643
G1 Z.2
G1 E.5 F1800
G1 F3000
G1 X46.643 Y47.643 E.6385
G1 X46.643 Y35.215 E.43739
G1 X64.786 Y35.215 E.6385
G1 X64.786 Y47.574 E.43498
G1 X64.374 Y47.232 F21000
G1 F3000
G1 X47.055 Y47.232 E.60954
G1 X47.055 Y35.626 E.40844
G1 X64.374 Y35.626 E.60954
G1 X64.374 Y47.232 E.40844
G1 X63.866 Y46.724 F21000
G1 F3000
G1 X47.562 Y46.724 E.57379
G1 X47.562 Y36.134 E.37269
G1 X63.866 Y36.134 E.57379
G1 X63.866 Y46.724 E.37269
G1 X63.358 Y46.216 F21000
G1 F3000
G1 X48.07 Y46.216 E.53805
G1 X48.07 Y36.642 E.33694
G1 X63.358 Y36.642 E.53805
G1 X63.358 Y46.216 E.33694
G1 X62.851 Y45.708 F21000
G1 F3000
G1 X48.578 Y45.708 E.5023
G1 X48.578 Y37.15 E.3012
G1 X62.851 Y37.15 E.5023
G1 X62.851 Y45.708 E.3012
G1 X62.343 Y45.2 F21000
G1 F3000
G1 X49.086 Y45.2 E.46655
G1 X49.086 Y37.658 E.26545
G1 X62.343 Y37.658 E.46655
G1 X62.343 Y45.2 E.26545
G1 X61.835 Y44.692 F21000
G1 F3000
G1 X49.594 Y44.692 E.4308
G1 X49.594 Y38.166 E.2297
G1 X61.835 Y38.166 E.4308
G1 X61.835 Y44.692 E.2297
G1 X61.327 Y44.184 F21000
G1 F3000
G1 X50.102 Y44.184 E.39506
G1 X50.102 Y38.673 E.19395
G1 X61.327 Y38.673 E.39506
G1 X61.327 Y44.184 E.19395
G1 X60.819 Y43.677 F21000
G1 F3000
G1 X50.61 Y43.677 E.35931
G1 X50.61 Y39.181 E.15821
G1 X60.819 Y39.181 E.35931
G1 X60.819 Y43.677 E.15821
G1 X60.311 Y43.169 F21000
G1 F3000
G1 X51.118 Y43.169 E.32356
G1 X51.118 Y39.689 E.12246
G1 X60.311 Y39.689 E.32356
G1 X60.311 Y43.169 E.12246
G1 X59.803 Y42.661 F21000
G1 F3000
G1 X51.625 Y42.661 E.28781
G1 X51.625 Y40.197 E.08671
G1 X59.803 Y40.197 E.28781
G1 X59.803 Y42.661 E.08671
G1 X59.296 Y42.153 F21000
G1 F3000
G1 X52.133 Y42.153 E.25207
M73 P2 R34
G1 X52.133 Y40.705 E.05096
G1 X59.296 Y40.705 E.25207
G1 X59.296 Y42.153 E.05096
G1 E-.5
G1 Z.4 F21000
G1 X69.44 Y50.613
G1 Z.2
G1 E.5 F1800
;TYPE:Inner wall
;WIDTH:0.499999
G1 F3000
G1 X69.444 Y74.207 E.83035
;WIDTH:0.49527
G1 X69.376 Y73.928 E.00999
;WIDTH:0.499999
G1 X69.15 Y73.474 E.01787
G1 X68.815 Y73.103 E.01757
G1 X68.392 Y72.83 E.01772
G1 X67.926 Y72.68 E.01722
G1 X67.423 Y72.653 E.01773
G1 X66.941 Y72.755 E.01735
G1 X66.501 Y72.977 E.01734
G1 X66.124 Y73.313 E.01777
G1 X65.848 Y73.74 E.0179
;WIDTH:0.50639
G1 X65.694 Y74.205 E.01749
G1 X65.691 Y73.709 E.0177
;WIDTH:0.499999
G1 X65.691 Y68.239 E.19251
G1 X66.62 Y68.239 E.03271
G1 X66.978 Y68.182 E.01273
G1 X67.243 Y68.055 E.01036
G1 X67.499 Y67.828 E.01203
G1 X67.691 Y67.497 E.01346
G1 X67.763 Y67.096 E.01432
G1 X67.763 Y58.054 E.31825
G1 X67.654 Y57.566 E.01757
G1 X67.382 Y57.201 E.01604
G1 X67.053 Y56.996 E.01364
G1 X66.62 Y56.911 E.01551
G1 X64.996 Y56.911 E.05716
G1 X64.361 Y56.237 E.03259
G1 X63.953 Y55.903 E.01855
G1 X63.364 Y55.543 E.02433
G1 X62.722 Y55.265 E.0246
G1 X62.055 Y55.083 E.02435
G1 X61.364 Y54.995 E.0245
G1 X60.67 Y55.007 E.02443
G1 X59.99 Y55.116 E.02426
G1 X59.318 Y55.322 E.02475
