; HEADER_BLOCK_START
; generated by OrcaSlicer 1.6.3 on 2023-06-09 at 20:59:09
; total layer number: 33
; HEADER_BLOCK_END

; THUMBNAIL_BLOCK_START
; THUMBNAIL_BLOCK_END

; external perimeters extrusion width = 0.30mm
; perimeters extrusion width = 0.30mm
; infill extrusion width = 0.30mm
; solid infill extrusion width = 0.30mm
; top infill extrusion width = 0.30mm
; support material extrusion width = 0.30mm
; first layer extrusion width = 0.30mm

; EXECUTABLE_BLOCK_START
EXCLUDE_OBJECT_DEFINE NAME=(Unsaved).stl_id_0_copy_0 CENTER=60,60 POLYGON=[[50.6249,55],[54.4399,39.4665],[54.4706,39.3704],[54.4843,39.3397],[54.526,39.2667],[54.5558,39.2259],[54.6006,39.1757],[54.6508,39.1309],[54.6915,39.1011],[54.7646,39.0594],[54.7953,39.0457],[54.8914,39.015],[54.9078,39.0115],[54.9661,39.0029],[55.0249,39],[59.0193,39],[59.1662,39.0054],[59.254,39.0138],[59.3123,39.0216],[59.4568,39.0484],[59.4854,39.0551],[59.5989,39.0858],[59.7104,39.1232],[59.7379,39.1335],[59.873,39.1913],[59.9258,39.2172],[60.0035,39.2589],[60.1287,39.3359],[61.9249,40.5333],[65.9249,43.2],[67.7343,44.4063],[67.9298,44.5548],[68.1057,44.7261],[68.2593,44.9177],[68.3882,45.1266],[68.4906,45.3498],[68.5648,45.5839],[68.6098,45.8253],[68.6249,46.0704],[69.3749,61],[69.3751,61.1626],[69.374,61.3026],[69.3716,61.4242],[69.3681,61.5309],[68.6249,79],[68.6111,79.2345],[68.6078,79.261],[68.5699,79.4658],[68.5567,79.5176],[68.5019,79.6906],[68.4726,79.7654],[68.4079,79.906],[68.3569,80],[68.2894,80.1088],[68.2772,80.1268],[68.1883,80.2473],[68.1479,80.2963],[68.0905,80.3608],[67.9854,80.4659],[67.985,80.4663],[67.8418,80.5872],[67.7925,80.6238],[67.6884,80.6938],[67.5815,80.7564],[67.5257,80.7856],[67.3557,80.8617],[67.3552,80.8619],[67.1782,80.9219],[67.1185,80.9381],[66.9965,80.9652],[66.8736,80.9845],[66.8115,80.9913],[66.6249,81],[55.1249,81],[54.9288,80.9904],[54.8731,80.9841],[54.7346,80.9616],[54.6253,80.9366],[54.5442,80.9138],[54.3855,80.8583],[54.3594,80.8477],[54.1819,80.7638],[54.1574,80.7504],[54.0136,80.6628],[53.9448,80.6147],[53.8559,80.5459],[53.7509,80.4533],[53.7117,80.413],[53.6224,80.318],[53.5798,80.268],[53.5392,80.2171],[53.4629,80.1109],[53.4447,80.0833],[53.3937,80],[53.3408,79.9027],[53.3316,79.8842],[53.2935,79.8026],[53.2517,79.7],[53.2421,79.6736],[53.1816,79.4723],[53.1772,79.454],[53.1391,79.2378],[53.138,79.2285],[50.6249,56.5],[50.6249,55]]
M73 P0 R12
;TYPE:Custom
START_PRINT T_BED=110 T_EXTRUDER=260
G90
G21
M83 ; use relative distances for extrusion
; Filament gcode

    PRESSURE_ADVANCE_SELECT FILAMENT=ABS
M106 S0
;LAYER_CHANGE
;Z:0.2
;HEIGHT:0.2
;BEFORE_LAYER_CHANGE
;0.2
G92 E0

;AFTER_LAYER_CHANGE
;0.2
M204 S500
; printing object (Unsaved).stl id:0 copy 0
EXCLUDE_OBJECT_START NAME=(Unsaved).stl_id_0_copy_0
G1 E-.5 F3000
G1 Z.2 F21000
G1 X58.331 Y41.065
G1 E.5 F1800
;TYPE:Support
;WIDTH:0.3
G1 F3000
G1 X58.533 Y41.109 E.00409
G1 X58.727 Y41.182 E.00409
G1 X58.908 Y41.281 E.00409
G1 X59.074 Y41.405 E.00409
G1 X59.22 Y41.551 E.00409
G1 X59.339 Y41.709 E.00391
G1 X59.444 Y41.899 E.00428
G1 X59.516 Y42.092 E.00408
G1 X59.559 Y42.294 E.00409
G1 X59.575 Y42.509 E.00427
G1 X59.575 Y48.191 E.11247
M73 P0 R11
G1 X59.559 Y48.406 E.00427
G1 X59.516 Y48.608 E.00409
G1 X59.443 Y48.802 E.00409
G1 X59.344 Y48.984 E.00409
G1 X59.22 Y49.149 E.00409
G1 X59.074 Y49.295 E.00409
G1 X58.908 Y49.419 E.00409
G1 X58.727 Y49.518 E.00409
G1 X58.533 Y49.591 E.00409
G1 X58.331 Y49.635 E.00409
G1 X58.116 Y49.65 E.00427
G1 X57.134 Y49.65 E.01944
G1 X56.919 Y49.635 E.00427
G1 X56.723 Y49.592 E.00397
G1 X56.522 Y49.518 E.00423
G1 X56.341 Y49.419 E.00408
G1 X56.176 Y49.295 E.00409
G1 X56.029 Y49.149 E.00409
G1 X55.909 Y48.989 E.00397
G1 X55.806 Y48.801 E.00423
G1 X55.734 Y48.608 E.00408
G1 X55.69 Y48.405 E.00411
G1 X55.675 Y48.191 E.00424
G1 X55.675 Y42.509 E.11248
G1 X55.69 Y42.294 E.00427
G1 X55.734 Y42.092 E.00409
G1 X55.806 Y41.898 E.00409
G1 X55.906 Y41.716 E.00409
G1 X56.03 Y41.551 E.00409
G1 X56.176 Y41.405 E.00409
G1 X56.334 Y41.286 E.00391
G1 X56.523 Y41.181 E.00428
G1 X56.717 Y41.109 E.00408
G1 X56.919 Y41.065 E.00409
G1 X57.134 Y41.05 E.00427
G1 X58.293 Y41.063 E.02294
G1 X58.298 Y49.405 F21000
G1 F3000
G1 X57.142 Y49.419 E.02289
G1 X56.952 Y49.405 E.00378
G1 X56.788 Y49.369 E.00332
G1 X56.618 Y49.307 E.00357
G1 X56.467 Y49.224 E.00342
G1 X56.328 Y49.12 E.00344
G1 X56.205 Y48.997 E.00344
G1 X56.104 Y48.863 E.00332
G1 X56.017 Y48.705 E.00357
G1 X55.957 Y48.543 E.00342
G1 X55.92 Y48.372 E.00346
G1 X55.906 Y48.183 E.00375
G1 X55.906 Y42.517 E.11215
G1 X55.92 Y42.327 E.00378
G1 X55.957 Y42.157 E.00344
G1 X56.017 Y41.994 E.00344
G1 X56.101 Y41.842 E.00344
G1 X56.205 Y41.703 E.00344
G1 X56.328 Y41.58 E.00344
G1 X56.46 Y41.481 E.00327
G1 X56.62 Y41.392 E.00363
G1 X56.782 Y41.332 E.00341
G1 X56.952 Y41.295 E.00344
G1 X58.108 Y41.281 E.02289
G1 X58.298 Y41.295 E.00378
G1 X58.468 Y41.332 E.00344
G1 X58.631 Y41.393 E.00344
G1 X58.783 Y41.476 E.00344
G1 X58.922 Y41.58 E.00344
G1 X59.045 Y41.703 E.00344
G1 X59.144 Y41.835 E.00327
G1 X59.233 Y41.996 E.00363
G1 X59.293 Y42.157 E.00341
G1 X59.33 Y42.327 E.00344
G1 X59.344 Y42.517 E.00378
G1 X59.344 Y48.183 E.11215
G1 X59.33 Y48.373 E.00378
G1 X59.293 Y48.543 E.00344
G1 X59.232 Y48.706 E.00344
G1 X59.149 Y48.858 E.00344
G1 X59.045 Y48.997 E.00344
G1 X58.922 Y49.12 E.00344
G1 X58.783 Y49.224 E.00344
G1 X58.631 Y49.307 E.00344
G1 X58.468 Y49.368 E.00344
G1 X58.298 Y49.405 E.00344
G1 X58.257 Y49.122 F21000
G1 F3000
G1 X57.152 Y49.133 E.02188
G1 X56.992 Y49.122 E.00317
G1 X56.737 Y49.046 E.00528
G1 X56.515 Y48.904 E.00522
G1 X56.345 Y48.708 E.00514
G1 X56.277 Y48.585 E.00276
G1 X56.203 Y48.331 E.00523
G1 X56.203 Y42.367 E.11805
G1 X56.278 Y42.113 E.00525
G1 X56.342 Y41.997 E.00263
G1 X56.515 Y41.796 E.00525
G1 X56.74 Y41.652 E.00529
G1 X56.992 Y41.578 E.0052
G1 X58.097 Y41.567 E.02188
G1 X58.257 Y41.578 E.00317
G1 X58.512 Y41.653 E.00525
G1 X58.735 Y41.796 E.00525
G1 X58.829 Y41.89 E.00263
G1 X58.973 Y42.115 E.00529
G1 X59.046 Y42.368 E.0052
G1 X59.046 Y48.332 E.11807
G1 X58.972 Y48.587 E.00525
G1 X58.828 Y48.81 E.00525
G1 X58.628 Y48.983 E.00525
G1 X58.512 Y49.047 E.00263
G1 X58.257 Y49.122 E.00525
G1 X58.217 Y48.838 F21000
G1 F3000
G1 X57.162 Y48.847 E.02087
G1 X56.948 Y48.82 E.00428
G1 X56.776 Y48.742 E.00373
G1 X56.638 Y48.622 E.00363
G1 X56.538 Y48.466 E.00367
G1 X56.487 Y48.291 E.00361
G1 X56.487 Y42.408 E.11644
G1 X56.538 Y42.232 E.00363
G1 X56.583 Y42.151 E.00182
G1 X56.703 Y42.013 E.00363
G1 X56.86 Y41.913 E.00369
G1 X57.033 Y41.862 E.00357
G1 X58.087 Y41.853 E.02087
G1 X58.306 Y41.881 E.00438
G1 X58.473 Y41.958 E.00363
G1 X58.612 Y42.078 E.00363
G1 X58.712 Y42.235 E.00369
G1 X58.763 Y42.408 E.00357
G1 X58.763 Y48.292 E.11646
G1 X58.711 Y48.468 E.00363
G1 X58.612 Y48.622 E.00363
G1 X58.473 Y48.742 E.00363
G1 X58.393 Y48.786 E.00182
G1 X58.217 Y48.838 E.00363
G1 X58.176 Y48.555 F21000
G1 F3000
G1 X57.074 Y48.555 E.02181
G1 X56.931 Y48.501 E.00302
G1 X56.854 Y48.435 E.00202
G1 X56.798 Y48.346 E.00207
G1 X56.77 Y48.25 E.00198
G1 X56.763 Y42.548 E.11288
G1 X56.781 Y42.399 E.00297
G1 X56.854 Y42.265 E.00301
G1 X56.979 Y42.173 E.00308
G1 X57.074 Y42.145 E.00195
G1 X58.176 Y42.145 E.02181
G1 X58.274 Y42.174 E.00202
G1 X58.396 Y42.265 E.00301
G1 X58.452 Y42.355 E.00209
G1 X58.48 Y42.449 E.00195
G1 X58.487 Y48.152 E.11289
G1 X58.469 Y48.301 E.00297
G1 X58.396 Y48.435 E.00301
G1 X58.319 Y48.501 E.00202
G1 X58.176 Y48.555 E.00301
G1 X58.192 Y48.267 F21000
G1 F3000
G1 X57.058 Y48.267 E.02245
G1 X57.058 Y42.433 E.11548
G1 X58.192 Y42.433 E.02245
G1 X58.192 Y48.267 E.11549
G1 X57.915 Y47.99 F21000
G1 F3000
G1 X57.334 Y47.99 E.0115
G1 X57.334 Y42.71 E.10453
G1 X57.915 Y42.71 E.0115
G1 X57.915 Y47.99 E.10453
G1 E-.5
G1 Z.4 F21000
G1 X60.275 Y44.784
G1 X61.475 Y43.153
G1 X64.736 Y38.722
G1 Z.2
G1 E.5 F1800
G1 F3000
G1 X70.25 Y38.722 E.10915
G1 X70.25 Y41.479 E.05457
G1 X73.007 Y41.479 E.05457
G1 X73.007 Y64.736 E.46035
G1 X70.25 Y64.736 E.05457
G1 X70.25 Y67.493 E.05457
M73 P1 R11
G1 X67.493 Y67.493 E.05457
G1 X67.493 Y71.807 E.0854
G1 X73.007 Y71.807 E.10915
G1 X73.007 Y84.035 E.24205
G1 X49.75 Y84.035 E.46035
G1 X49.75 Y35.965 E.95152
G1 X64.736 Y35.965 E.29662
G1 X64.736 Y38.683 E.05381
G1 X55.002 Y38.751 F21000
G1 F3000
G1 X54.822 Y38.774 E.00359
G1 X54.669 Y38.828 E.00321
G1 X54.506 Y38.927 E.00377
G1 X54.352 Y39.081 E.00432
G1 X54.253 Y39.244 E.00377
G1 X54.199 Y39.397 E.00322
G1 X54.176 Y39.579 E.00363
G1 X54.175 Y40.993 E.02799
G1 X54.159 Y41.287 E.00583
G1 X54.112 Y41.572 E.0057
G1 X54.035 Y41.849 E.0057
G1 X53.928 Y42.116 E.0057
G1 X53.798 Y42.36 E.00546
G1 X53.63 Y42.609 E.00595
G1 X53.406 Y42.872 E.00684
G1 X53.375 Y42.955 E.00177
G1 X53.375 Y54.486 E.22824
G1 X53.184 Y54.75 E.00645
G1 X50.521 Y54.75 E.0527
G1 X50.375 Y54.896 E.0041
G1 X50.375 Y56.604 E.03379
G1 X50.521 Y56.75 E.0041
G1 X51.419 Y56.75 E.01777
G1 X51.56 Y56.626 E.00373
G1 X51.585 Y56.436 E.00379
G1 X51.65 Y56.325 E.00254
G1 X51.761 Y56.261 E.00254
G1 X51.825 Y56.252 E.00128
G1 X51.943 Y56.283 E.00241
G1 X52.001 Y56.326 E.00145
G1 X52.062 Y56.43 E.00237
G1 X52.091 Y56.629 E.00398
G1 X52.232 Y56.75 E.00368
G1 X52.42 Y56.75 E.00372
G1 X52.375 Y57.398 E.01285
G1 X52.375 Y67.833 E.20655
G1 X52.392 Y67.896 E.00129
G1 X52.567 Y68.201 E.00696
G1 X52.875 Y68.646 E.01073
G1 X52.875 Y79.004 E.20501
G1 X52.891 Y79.265 E.00518
G1 X52.936 Y79.519 E.00511
G1 X53.01 Y79.766 E.00511
G1 X53.105 Y79.989 E.0048
G1 X53.229 Y80.211 E.00504
G1 X53.393 Y80.434 E.00548
G1 X53.588 Y80.643 E.00567
G1 X53.793 Y80.814 E.00528
G1 X54.025 Y80.963 E.00545
G1 X54.284 Y81.087 E.0057
G1 X54.568 Y81.18 E.0059
G1 X54.851 Y81.233 E.00572
G1 X55.121 Y81.25 E.00534
G1 X66.629 Y81.25 E.22779
G1 X66.91 Y81.232 E.00558
G1 X67.183 Y81.18 E.0055
G1 X67.454 Y81.092 E.00565
G1 X67.698 Y80.977 E.00532
G1 X67.934 Y80.83 E.00551
G1 X68.161 Y80.644 E.0058
G1 X68.344 Y80.451 E.00528
G1 X68.503 Y80.238 E.00526
G1 X68.633 Y80.015 E.0051
G1 X68.738 Y79.772 E.00526
G1 X68.812 Y79.525 E.00509
G1 X68.858 Y79.272 E.0051
G1 X68.881 Y78.907 E.00723
G1 X68.733 Y78.75 E.00427
G1 X64.028 Y78.75 E.09312
G1 X62.175 Y76.896 E.05189
G1 X62.175 Y68.796 E.16033
G1 X62.028 Y68.65 E.0041
G1 X57.131 Y68.65 E.09694
G1 X56.806 Y68.634 E.00643
G1 X56.503 Y68.589 E.00607
G1 X56.181 Y68.51 E.00656
G1 X55.881 Y68.402 E.0063
G1 X55.593 Y68.266 E.00631
G1 X55.319 Y68.102 E.00631
G1 X55.063 Y67.912 E.00631
G1 X54.827 Y67.698 E.00631
G1 X54.613 Y67.462 E.00631
G1 X54.423 Y67.205 E.00631
G1 X54.259 Y66.932 E.00631
G1 X54.123 Y66.644 E.00631
G1 X54.015 Y66.343 E.00631
G1 X53.938 Y66.034 E.00631
G1 X53.891 Y65.719 E.00631
G1 X53.875 Y65.394 E.00643
G1 X53.875 Y57.406 E.15811
G1 X53.891 Y57.081 E.00643
G1 X53.938 Y56.766 E.00631
G1 X54.015 Y56.457 E.00631
G1 X54.123 Y56.156 E.00631
G1 X54.254 Y55.879 E.00607
G1 X54.423 Y55.594 E.00656
G1 X54.613 Y55.338 E.0063
G1 X54.827 Y55.102 E.00631
G1 X55.063 Y54.888 E.00631
G1 X55.319 Y54.698 E.00631
G1 X55.593 Y54.534 E.00631
G1 X55.881 Y54.398 E.00631
G1 X56.182 Y54.29 E.00631
G1 X56.491 Y54.213 E.00631
G1 X56.806 Y54.166 E.00631
G1 X57.131 Y54.15 E.00643
G1 X64.228 Y54.15 E.14049
G1 X64.375 Y54.004 E.0041
G1 X64.375 Y50.762 E.06416
G1 X64.386 Y50.653 E.00218
G1 X64.46 Y50.473 E.00385
G1 X64.598 Y50.335 E.00385
G1 X64.684 Y50.289 E.00194
G1 X64.887 Y50.25 E.0041
G1 X68.728 Y50.25 E.07604
G1 X68.875 Y50.104 E.0041
G1 X68.875 Y47.396 E.05359
G1 X68.728 Y47.25 E.0041
G1 X64.028 Y47.25 E.09303
G1 X62.175 Y45.396 E.05189
G1 X62.175 Y40.471 E.0975
G1 X62.116 Y40.36 E.00248
G1 X60.258 Y39.122 E.04419
G1 X60.035 Y38.993 E.0051
G1 X59.791 Y38.886 E.00528
G1 X59.536 Y38.81 E.00528
M73 P2 R11
G1 X59.278 Y38.765 E.00517
G1 X59.028 Y38.75 E.00496
G1 X55.04 Y38.75 E.07894
G1 E-.5
G1 Z.4 F21000
G1 X55.323 Y39.52
G1 X61.385 Y41.319
G1 X61.277 Y53.3
G1 X67.261 Y67.261
G1 Z.2
G1 E.5 F1800
G1 F3000
G1 X67.261 Y72.038 E.09456
G1 X72.775 Y72.038 E.10915
G1 X72.775 Y83.804 E.23289
G1 X49.982 Y83.804 E.45119
G1 X49.982 Y36.196 E.94236
G1 X64.504 Y36.196 E.28746
G1 X64.504 Y38.953 E.05457
G1 X70.018 Y38.953 E.10915
G1 X70.018 Y41.71 E.05457
G1 X72.775 Y41.71 E.05457
G1 X72.775 Y64.504 E.45119
G1 X70.018 Y64.504 E.05457
G1 X70.018 Y67.261 E.05457
G1 X67.261 Y67.261 E.05457
G1 X66.976 Y66.976 F21000
G1 F3000
G1 X66.976 Y72.324 E.10587
G1 X72.49 Y72.324 E.10915
G1 X72.49 Y83.518 E.22158
G1 X50.267 Y83.518 E.43988
G1 X50.267 Y57.267 E.51962
G1 X51.614 Y57.267 E.02665
G1 X51.87 Y57.043 E.00674
G1 X51.858 Y67.9 E.21492
G1 X51.909 Y68.094 E.00397
M73 P3 R11
G1 X52.13 Y68.477 E.00875
G1 X52.358 Y68.817 E.0081
G1 X52.359 Y79.033 E.20222
G1 X52.379 Y79.339 E.00606
G1 X52.426 Y79.608 E.00541
G1 X52.528 Y79.955 E.00715
G1 X52.635 Y80.205 E.00539
G1 X52.787 Y80.479 E.0062
G1 X53.003 Y80.774 E.00725
G1 X53.209 Y80.996 E.00598
G1 X53.476 Y81.222 E.00692
G1 X53.802 Y81.43 E.00766
G1 X54.077 Y81.561 E.00604
G1 X54.407 Y81.672 E.00689
G1 X54.803 Y81.748 E.00798
G1 X55.113 Y81.767 E.00615
G1 X66.637 Y81.767 E.22811
G1 X66.99 Y81.743 E.007
G1 X67.325 Y81.677 E.00677
G1 X67.613 Y81.585 E.00598
G1 X67.974 Y81.416 E.00788
G1 X68.262 Y81.231 E.00677
G1 X68.489 Y81.045 E.00583
G1 X68.748 Y80.774 E.00742
G1 X68.918 Y80.549 E.00557
G1 X69.08 Y80.276 E.00629
G1 X69.229 Y79.936 E.00736
G1 X69.312 Y79.66 E.0057
G1 X69.37 Y79.347 E.00629
G1 X69.41 Y78.715 E.01255
G1 X68.956 Y78.233 E.01311
G1 X64.243 Y78.233 E.0933
G1 X62.692 Y76.682 E.04341
G1 X62.692 Y68.582 E.16033
G1 X62.243 Y68.133 E.01258
G1 X57.144 Y68.133 E.10093
G1 X56.857 Y68.119 E.00568
G1 X56.603 Y68.081 E.00508
G1 X56.331 Y68.014 E.00556
G1 X56.079 Y67.924 E.00528
G1 X55.837 Y67.809 E.00531
G1 X55.607 Y67.672 E.00531
G1 X55.392 Y67.512 E.00531
G1 X55.193 Y67.332 E.00531
G1 X55.013 Y67.133 E.00531
G1 X54.853 Y66.918 E.00531
G1 X54.715 Y66.688 E.00531
G1 X54.601 Y66.446 E.00531
G1 X54.51 Y66.193 E.00531
G1 X54.445 Y65.933 E.00531
G1 X54.406 Y65.668 E.00531
G1 X54.392 Y65.381 E.00568
G1 X54.392 Y57.419 E.15761
G1 X54.406 Y57.132 E.00568
G1 X54.445 Y56.867 E.00531
G1 X54.51 Y56.607 E.00531
G1 X54.601 Y56.354 E.00531
G1 X54.711 Y56.122 E.00508
G1 X54.854 Y55.881 E.00556
G1 X55.013 Y55.667 E.00528
G1 X55.193 Y55.468 E.00531
G1 X55.392 Y55.288 E.00531
G1 X55.607 Y55.128 E.00531
G1 X55.837 Y54.991 E.00531
G1 X56.079 Y54.876 E.00531
G1 X56.332 Y54.786 E.00531
G1 X56.592 Y54.72 E.00531
G1 X56.857 Y54.681 E.00531
G1 X57.144 Y54.667 E.00568
G1 X64.443 Y54.667 E.14448
G1 X64.892 Y54.218 E.01258
G1 X64.892 Y50.767 E.0683
G1 X68.943 Y50.767 E.08018
G1 X69.392 Y50.318 E.01258
G1 X69.392 Y47.182 E.06206
G1 X68.943 Y46.733 E.01258
G1 X64.243 Y46.733 E.09303
G1 X62.692 Y45.182 E.04341
G1 X62.692 Y40.341 E.09583
G1 X62.51 Y40.002 E.00761
G1 X60.526 Y38.68 E.0472
G1 X60.257 Y38.525 E.00615
G1 X59.955 Y38.396 E.00649
G1 X59.641 Y38.304 E.00648
G1 X59.369 Y38.255 E.00548
G1 X59.059 Y38.234 E.00614
G1 X55.001 Y38.233 E.08033
G1 X54.762 Y38.258 E.00476
G1 X54.471 Y38.35 E.00605
G1 X54.139 Y38.558 E.00775
G1 X53.929 Y38.781 E.00606
G1 X53.775 Y39.046 E.00606
G1 X53.702 Y39.254 E.00437
G1 X53.66 Y39.535 E.00563
G1 X53.658 Y40.979 E.02858
G1 X53.644 Y41.231 E.005
G1 X53.607 Y41.46 E.00459
G1 X53.544 Y41.683 E.00459
G1 X53.458 Y41.898 E.00459
G1 X53.355 Y42.093 E.00437
G1 X53.218 Y42.295 E.00483
G1 X52.953 Y42.606 E.00809
G1 X52.858 Y42.863 E.00542
G1 X52.858 Y54.233 E.22506
G1 X50.267 Y54.233 E.05128
G1 X50.267 Y36.482 E.35137
G1 X64.219 Y36.482 E.27616
G1 X64.219 Y39.239 E.05457
G1 X69.733 Y39.239 E.10915
G1 X69.733 Y41.996 E.05457
G1 X72.49 Y41.996 E.05457
G1 X72.49 Y64.219 E.43988
G1 X69.733 Y64.219 E.05457
G1 X69.733 Y66.976 E.05457
G1 X66.976 Y66.976 E.05457
G1 X66.69 Y66.69 F21000
G1 F3000
G1 X66.69 Y72.61 E.11718
G1 X72.204 Y72.61 E.10915
G1 X72.204 Y83.232 E.21027
G1 X50.553 Y83.232 E.42857
G1 X50.553 Y57.553 E.50832
M73 P4 R11
G1 X51.572 Y57.553 E.02018
G1 X51.572 Y67.938 E.20557
G1 X51.643 Y68.204 E.00545
G1 X52.072 Y68.911 E.01638
G1 X52.073 Y79.046 E.20061
G1 X52.096 Y79.38 E.00663
G1 X52.146 Y79.665 E.00574
G1 X52.262 Y80.059 E.00812
G1 X52.375 Y80.324 E.00571
G1 X52.543 Y80.627 E.00685
G1 X52.788 Y80.963 E.00823
G1 X53.005 Y81.197 E.00633
G1 X53.3 Y81.447 E.00765
