; HEADER_BLOCK_START
; generated by OrcaSlicer 1.6.3 on 2023-06-19 at 14:05:43
; total layer number: 84
; HEADER_BLOCK_END

; THUMBNAIL_BLOCK_START
; THUMBNAIL_BLOCK_END

; external perimeters extrusion width = 0.40mm
; perimeters extrusion width = 0.45mm
; infill extrusion width = 0.45mm
; solid infill extrusion width = 0.40mm
; top infill extrusion width = 0.40mm
; support material extrusion width = 0.40mm
; first layer extrusion width = 0.50mm

; EXECUTABLE_BLOCK_START
EXCLUDE_OBJECT_DEFINE NAME=(Unsaved).stl_id_0_copy_0 CENTER=59.9202,60.0815 POLYGON=[[21.7242,81.0825],[23.1182,25.0825],[30.1162,25.0825],[97.3762,38.9465],[97.4442,38.9665],[97.6162,39.0465],[97.6962,39.1045],[97.7882,39.1725],[97.8242,39.2045],[97.8762,39.2625],[97.9562,39.3685],[97.9822,39.4125],[98.0182,39.4805],[98.0622,39.5905],[98.0762,39.6305],[98.0842,39.6545],[98.1162,39.9125],[98.1162,80.1805],[98.1002,80.3705],[98.0842,80.4405],[98.0622,80.5025],[98.0182,80.6145],[97.9822,80.6805],[97.9562,80.7265],[97.8762,80.8305],[97.8242,80.8885],[97.7882,80.9205],[97.6802,81.0065],[97.6162,81.0465],[97.4442,81.1265],[97.3762,81.1485],[30.1162,95.0805],[23.1182,95.0805],[21.7242,81.0825]]
M73 P0 R41
;TYPE:Custom
START_PRINT T_BED=110 T_EXTRUDER=260
G90
G21
M83 ; use relative distances for extrusion
; Filament gcode

    PRESSURE_ADVANCE_SELECT FILAMENT=ABS
M106 S0
;LAYER_CHANGE
;Z:0.2
;HEIGHT:0.2
;BEFORE_LAYER_CHANGE
;0.2
G92 E0

;AFTER_LAYER_CHANGE
;0.2
SET_VELOCITY_LIMIT ACCEL_TO_DECEL=500
M204 S1000
G1 E-.5 F3000
G1 Z.2 F21000
G1 X18.888 Y18.993
G1 E.5 F1800
;TYPE:Skirt
;WIDTH:0.5
G1 F3000
G1 X19.402 Y18.482 E.02553
G1 X20.85 Y18.097 E.05272
G1 X33.278 Y18.097 E.43739
G1 X33.872 Y18.158 E.02103
G1 X102.442 Y32.444 E2.46505
G1 X103.793 Y33.127 E.05327
G1 X104.619 Y34.395 E.05327
G1 X104.762 Y35.296 E.03212
G1 X104.762 Y84.867 E1.74457
M73 P0 R40
G1 X104.369 Y86.328 E.05327
G1 X103.295 Y87.396 E.05327
G1 X102.442 Y87.72 E.03212
G1 X33.872 Y102.005 E2.46505
G1 X33.278 Y102.066 E.02103
G1 X20.85 Y102.066 E.43739
G1 X19.388 Y101.673 E.05327
G1 X18.321 Y100.6 E.05327
G1 X17.936 Y99.152 E.05272
G1 X17.936 Y21.011 E2.75008
G1 X18.329 Y19.549 E.05327
G1 X18.845 Y19.036 E.02563
G1 X19.138 Y19.375 F21000
G1 F3000
G1 X19.835 Y18.773 E.03241
G1 X20.85 Y18.554 E.03653
G1 X33.779 Y18.606 E.45503
G1 X102.349 Y32.891 E2.46505
G1 X103.572 Y33.546 E.04884
G1 X104.305 Y35.296 E.06678
G1 X104.305 Y84.867 E1.74457
G1 X103.913 Y86.198 E.04884
G1 X102.349 Y87.272 E.06678
G1 X33.779 Y101.557 E2.46505
G1 X20.85 Y101.609 E.45503
G1 X19.519 Y101.217 E.04884
G1 X18.612 Y100.167 E.04884
G1 X18.393 Y99.152 E.03653
G1 X18.393 Y21.011 E2.75008
G1 X18.784 Y19.68 E.04884
G1 X19.092 Y19.414 E.01432
; printing object (Unsaved).stl id:0 copy 0
EXCLUDE_OBJECT_START NAME=(Unsaved).stl_id_0_copy_0
G1 E-.5
G1 Z.4 F21000
G1 X33.278 Y35.296
G1 Z.2
G1 E.5 F1800
;TYPE:Support
G1 F3000
G1 X101.848 Y35.296 E2.41324
G1 X101.848 Y53.439 E.6385
G1 X98.136 Y53.439 E.13062
G1 X98.155 Y48.836 E.162
G1 X97.956 Y48.533 E.01277
G1 X97.654 Y48.406 E.01151
G1 X97.292 Y48.323 E.01309
G1 X31.716 Y48.313 E2.30786
G1 X31.716 Y39.246 E.31908
G1 X31.365 Y38.895 E.01749
G1 X22.87 Y38.895 E.29897
G1 X22.518 Y39.246 E.01749
G1 X22.518 Y39.882 E.02238
G1 X22.562 Y40.041 E.00581
G1 X22.562 Y79.986 E1.40581
G1 X22.518 Y80.081 E.00369
G1 X22.518 Y80.845 E.02689
G1 X22.872 Y81.197 E.01755
G1 X31.365 Y81.18 E.29891
G1 X31.716 Y80.829 E.01749
G1 X31.716 Y71.763 E.31908
G1 X97.292 Y71.752 E2.30786
G1 X97.647 Y71.673 E.0128
G1 X97.956 Y71.544 E.01177
G1 X98.155 Y71.241 E.01277
G1 X98.137 Y66.724 E.15898
G1 X101.848 Y66.724 E.13061
G1 X101.848 Y84.867 E.6385
G1 X33.278 Y84.867 E2.41324
G1 X33.278 Y99.152 E.50276
G1 X20.85 Y99.152 E.43739
G1 X20.85 Y21.011 E2.75008
G1 X33.278 Y21.011 E.43739
M73 P1 R40
G1 X33.278 Y35.228 E.50035
G1 E-.5
G1 Z.4 F21000
G1 X32.833 Y49.513
G1 X32.178 Y70.562
G1 X32.128 Y72.174
G1 Z.2
G1 E.5 F1800
G1 F3000
G1 X97.33 Y72.162 E2.29472
G1 X97.553 Y72.126 E.00797
G1 X97.775 Y72.064 E.00809
G1 X98.23 Y71.875 E.01737
G1 X98.567 Y71.364 E.02153
G1 X98.55 Y67.136 E.14882
G1 X101.436 Y67.136 E.10159
G1 X101.436 Y84.455 E.60954
G1 X32.866 Y84.455 E2.41324
G1 X32.866 Y98.741 E.50276
G1 X21.261 Y98.741 E.40844
G1 X21.261 Y21.422 E2.72113
G1 X32.866 Y21.422 E.40844
G1 X32.866 Y35.708 E.50276
G1 X101.436 Y35.708 E2.41324
G1 X101.436 Y53.027 E.60954
G1 X98.549 Y53.027 E.10161
G1 X98.567 Y48.713 E.15184
G1 X98.23 Y48.202 E.02153
G1 X97.787 Y48.017 E.01692
G1 X97.557 Y47.95 E.00841
G1 X97.33 Y47.913 E.00812
G1 X32.128 Y47.901 E2.29472
G1 X32.128 Y39.076 E.3106
G1 X31.535 Y38.483 E.02949
G1 X22.699 Y38.483 E.31097
G1 X22.107 Y39.076 E.02949
G1 X22.107 Y39.93 E.03006
G1 X22.151 Y40.116 E.00671
G1 X22.151 Y79.896 E1.40004
G1 X22.107 Y79.992 E.00369
G1 X22.107 Y81.016 E.03607
G1 X22.703 Y81.609 E.02958
G1 X31.535 Y81.592 E.31085
G1 X32.128 Y80.999 E.02949
G1 X32.128 Y72.174 E.3106
G1 X32.635 Y72.682 F21000
G1 F3000
G1 X97.141 Y72.682 E2.27022
G1 X97.377 Y72.668 E.00829
G1 X97.654 Y72.624 E.00989
G1 X97.933 Y72.547 E.01017
G1 X98.57 Y72.283 E.02428
G1 X99.076 Y71.516 E.03234
G1 X99.06 Y67.644 E.13627
G1 X100.929 Y67.644 E.06577
G1 X100.929 Y83.947 E.57379
G1 X32.359 Y83.947 E2.41324
G1 X32.359 Y98.233 E.50276
G1 X21.769 Y98.233 E.37269
G1 X21.769 Y81.397 E.59253
G1 X22.494 Y82.118 E.03599
G1 X31.745 Y82.099 E.3256
G1 X32.635 Y81.21 E.04429
G1 X32.635 Y72.682 E.30013
G1 X33.143 Y73.19 F21000
G1 F3000
G1 X97.15 Y73.19 E2.25264
G1 X97.424 Y73.174 E.00965
G1 X97.755 Y73.122 E.01181
G1 X98.091 Y73.03 E.01224
G1 X98.909 Y72.691 E.03119
G1 X99.584 Y71.667 E.04315
G1 X99.57 Y68.151 E.12373
G1 X100.421 Y68.151 E.02995
G1 X100.421 Y83.439 E.53805
G1 X31.851 Y83.439 E2.41324
G1 X31.851 Y97.725 E.50276
G1 X22.277 Y97.725 E.33694
G1 X22.277 Y82.627 E.53135
G1 X31.956 Y82.607 E.34064
G1 X33.143 Y81.42 E.0591
G1 X33.143 Y73.19 E.28966
G1 X31.343 Y83.115 F21000
G1 F3000
G1 X31.343 Y97.217 E.4963
G1 X22.785 Y97.217 E.3012
G1 X22.785 Y83.133 E.49568
G1 X31.343 Y83.115 E.3012
G1 X30.835 Y83.623 F21000
G1 F3000
G1 X30.835 Y96.709 E.46055
G1 X23.293 Y96.709 E.26545
G1 X23.293 Y83.638 E.46002
G1 X30.835 Y83.623 E.26545
G1 X30.327 Y84.131 F21000
G1 F3000
G1 X30.327 Y96.201 E.4248
G1 X23.8 Y96.201 E.2297
G1 X23.8 Y84.144 E.42435
M73 P2 R40
G1 X30.327 Y84.131 E.2297
G1 X29.819 Y84.639 F21000
G1 F3000
G1 X29.819 Y95.693 E.38906
G1 X24.308 Y95.693 E.19395
G1 X24.308 Y84.649 E.38868
G1 X29.819 Y84.639 E.19395
G1 X29.311 Y85.147 F21000
G1 F3000
G1 X29.311 Y95.186 E.35331
G1 X24.816 Y95.186 E.15821
G1 X24.816 Y85.155 E.35302
G1 X29.311 Y85.147 E.15821
G1 X28.804 Y85.655 F21000
G1 F3000
G1 X28.804 Y94.678 E.31756
G1 X25.324 Y94.678 E.12246
G1 X25.324 Y85.66 E.31735
G1 X28.804 Y85.655 E.12246
G1 X28.296 Y86.162 F21000
G1 F3000
G1 X28.296 Y94.17 E.28181
G1 X25.832 Y94.17 E.08671
G1 X25.832 Y86.166 E.28169
G1 X28.296 Y86.162 E.08671
G1 X27.788 Y86.67 F21000
G1 F3000
G1 X27.788 Y93.662 E.24607
G1 X26.34 Y93.662 E.05096
G1 X26.34 Y86.672 E.24602
G1 X27.788 Y86.67 E.05096
G1 X32.35 Y82.932 F21000
G1 F3000
G1 X33.651 Y81.63 E.06477
G1 X33.651 Y73.697 E.27918
G1 X97.158 Y73.697 E2.23507
G1 X97.471 Y73.679 E.01101
G1 X97.856 Y73.62 E.01373
G1 X98.382 Y73.465 E.01931
G1 X99.249 Y73.098 E.0331
G1 X99.587 Y72.585 E.02164
G1 X99.913 Y72.683 E.01197
G1 X99.913 Y82.932 E.36069
G1 X32.35 Y82.932 E2.3778
G1 X33.576 Y82.424 F21000
G1 F3000
G1 X34.159 Y81.841 E.02902
G1 X34.159 Y74.205 E.26871
G1 X97.167 Y74.205 E2.21749
G1 X97.675 Y74.167 E.01794
G1 X98.131 Y74.077 E.01635
G1 X98.567 Y73.938 E.01611
G1 X99.405 Y73.584 E.03201
G1 X99.405 Y82.424 E.31112
G1 X33.576 Y82.424 E2.31678
G1 X34.667 Y81.916 F21000
G1 F3000
G1 X34.667 Y74.713 E.25349
G1 X97.175 Y74.713 E2.19991
G1 X97.565 Y74.691 E.01372
G1 X98.058 Y74.616 E.01757
G1 X98.564 Y74.479 E.01846
G1 X98.897 Y74.359 E.01243
G1 X98.897 Y81.916 E.26594
G1 X34.667 Y81.916 E2.26051
G1 X35.175 Y81.408 F21000
G1 F3000
G1 X35.175 Y75.221 E.21774
G1 X97.184 Y75.221 E2.18234
M73 P2 R39
G1 X97.822 Y75.172 E.02251
G1 X98.389 Y75.074 E.02027
G1 X98.389 Y81.408 E.22291
G1 X35.175 Y81.408 E2.22476
G1 X35.683 Y80.9 F21000
G1 F3000
G1 X35.683 Y75.729 E.182
G1 X97.192 Y75.729 E2.16476
G1 X97.881 Y75.688 E.02429
G1 X97.881 Y80.9 E.18343
G1 X35.683 Y80.9 E2.18901
G1 X36.19 Y80.392 F21000
G1 F3000
G1 X36.19 Y76.237 E.14625
G1 X97.373 Y76.237 E2.15327
G1 X97.373 Y80.392 E.14625
G1 X36.19 Y80.392 E2.15327
G1 X36.698 Y79.884 F21000
G1 F3000
G1 X36.698 Y76.745 E.1105
G1 X96.866 Y76.745 E2.11752
G1 X96.866 Y79.884 E.1105
G1 X36.698 Y79.884 E2.11752
G1 X37.206 Y79.377 F21000
G1 F3000
G1 X37.206 Y77.253 E.07475
G1 X96.358 Y77.253 E2.08177
M73 P3 R39
G1 X96.358 Y79.377 E.07475
G1 X37.206 Y79.377 E2.08177
G1 X37.714 Y78.869 F21000
G1 F3000
G1 X37.714 Y77.76 E.03901
G1 X95.85 Y77.76 E2.04602
G1 X95.85 Y78.869 E.03901
G1 X37.714 Y78.869 E2.04602
G1 E-.5
G1 Z.4 F21000
G1 X36.374 Y70.562
G1 X23.762 Y40.095
G1 X30.516 Y49.513
G1 X32.977 Y49.513
G1 X32.635 Y47.393
G1 Z.2
G1 E.5 F1800
G1 F3000
G1 X32.635 Y38.866 E.30013
G1 X31.745 Y37.976 E.04429
G1 X22.489 Y37.976 E.32577
G1 X21.769 Y38.695 E.03583
G1 X21.769 Y21.93 E.59003
G1 X32.359 Y21.93 E.37269
G1 X32.359 Y36.216 E.50276
G1 X100.929 Y36.216 E2.41324
G1 X100.929 Y52.519 E.57379
G1 X99.059 Y52.519 E.06578
G1 X99.076 Y48.561 E.1393
G1 X98.57 Y47.794 E.03234
G1 X97.951 Y47.536 E.0236
G1 X97.661 Y47.452 E.01064
G1 X97.377 Y47.407 E.01011
G1 X97.141 Y47.393 E.00829
G1 X32.635 Y47.393 E2.27022
G1 X33.143 Y46.885 F21000
G1 F3000
G1 X33.143 Y38.655 E.28966
G1 X31.956 Y37.468 E.0591
G1 X22.277 Y37.468 E.34064
G1 X22.277 Y22.438 E.52895
G1 X31.851 Y22.438 E.33694
G1 X31.851 Y36.724 E.50276
G1 X100.421 Y36.724 E2.41324
G1 X100.421 Y52.012 E.53805
G1 X99.569 Y52.012 E.02996
G1 X99.584 Y48.41 E.12676
G1 X98.909 Y47.386 E.04315
G1 X98.115 Y47.055 E.03028
G1 X97.764 Y46.954 E.01286
G1 X97.424 Y46.901 E.01211
G1 X97.15 Y46.885 E.00965
G1 X33.143 Y46.885 E2.25264
G1 X33.651 Y46.378 F21000
G1 F3000
G1 X33.651 Y38.445 E.27918
G1 X32.438 Y37.231 E.06039
G1 X99.913 Y37.231 E2.37471
G1 X99.913 Y47.394 E.35766
G1 X99.587 Y47.492 E.01197
G1 X99.249 Y46.979 E.02164
G1 X98.392 Y46.616 E.03272
G1 X98.032 Y46.497 E.01335
G1 X97.602 Y46.411 E.01545
G1 X97.158 Y46.378 E.01565
G1 X33.651 Y46.378 E2.23507
G1 X34.159 Y45.87 F21000
G1 F3000
G1 X34.159 Y38.234 E.26871
G1 X33.664 Y37.739 E.02464
G1 X99.405 Y37.739 E2.31368
G1 X99.405 Y46.493 E.30809
G1 X98.579 Y46.144 E.03156
G1 X98.168 Y46.007 E.01523
G1 X97.675 Y45.908 E.01771
G1 X97.167 Y45.87 E.01794
G1 X34.159 Y45.87 E2.21749
G1 X34.667 Y45.362 F21000
G1 F3000
G1 X34.667 Y38.247 E.25039
G1 X98.897 Y38.247 E2.26051
G1 X98.897 Y45.704 E.26245
G1 X98.073 Y45.462 E.03024
G1 X97.565 Y45.384 E.01809
G1 X97.175 Y45.362 E.01373
G1 X34.667 Y45.362 E2.19991
M73 P4 R39
G1 X35.175 Y44.854 F21000
G1 F3000
G1 X35.175 Y38.755 E.21465
G1 X98.389 Y38.755 E2.22476
G1 X98.389 Y45.001 E.21982
G1 X97.822 Y44.903 E.02027
G1 X97.184 Y44.854 E.02251
G1 X35.175 Y44.854 E2.18234
G1 X35.683 Y44.346 F21000
G1 F3000
G1 X35.683 Y39.263 E.1789
G1 X97.881 Y39.263 E2.18901
G1 X97.881 Y44.387 E.18034
G1 X97.192 Y44.346 E.02429
G1 X35.683 Y44.346 E2.16476
G1 X36.19 Y43.838 F21000
G1 F3000
G1 X36.19 Y39.771 E.14315
G1 X97.373 Y39.771 E2.15327
G1 X97.373 Y43.838 E.14315
G1 X36.19 Y43.838 E2.15327
G1 X36.698 Y43.33 F21000
G1 F3000
G1 X36.698 Y40.279 E.1074
G1 X96.866 Y40.279 E2.11752
G1 X96.866 Y43.33 E.1074
G1 X36.698 Y43.33 E2.11752
G1 X37.206 Y42.822 F21000
G1 F3000
G1 X37.206 Y40.786 E.07166
G1 X96.358 Y40.786 E2.08177
G1 X96.358 Y42.822 E.07166
G1 X37.206 Y42.822 E2.08177
G1 X37.714 Y42.315 F21000
G1 F3000
G1 X37.714 Y41.294 E.03591
G1 X95.85 Y41.294 E2.04602
G1 X95.85 Y42.315 E.03591
G1 X37.714 Y42.315 E2.04602
G1 X31.343 Y36.96 F21000
G1 F3000
G1 X22.785 Y36.96 E.3012
G1 X22.785 Y22.946 E.4932
G1 X31.343 Y22.946 E.3012
G1 X31.343 Y36.96 E.4932
G1 X30.835 Y36.452 F21000
G1 F3000
G1 X23.293 Y36.452 E.26545
G1 X23.293 Y23.454 E.45745
G1 X30.835 Y23.454 E.26545
G1 X30.835 Y36.452 E.45745
G1 X30.327 Y35.944 F21000
G1 F3000
G1 X23.8 Y35.944 E.2297
G1 X23.8 Y23.962 E.42171
G1 X30.327 Y23.962 E.2297
G1 X30.327 Y35.944 E.42171
G1 X29.819 Y35.436 F21000
G1 F3000
G1 X24.308 Y35.436 E.19395
G1 X24.308 Y24.47 E.38596
G1 X29.819 Y24.47 E.19395
G1 X29.819 Y35.436 E.38596
G1 X29.311 Y34.928 F21000
G1 F3000
G1 X24.816 Y34.928 E.15821
G1 X24.816 Y24.977 E.35021
G1 X29.311 Y24.977 E.15821
G1 X29.311 Y34.928 E.35021
G1 X28.804 Y34.42 F21000
G1 F3000
G1 X25.324 Y34.42 E.12246
G1 X25.324 Y25.485 E.31446
G1 X28.804 Y25.485 E.12246
G1 X28.804 Y34.42 E.31446
G1 X28.296 Y33.913 F21000
G1 F3000
G1 X25.832 Y33.913 E.08671
G1 X25.832 Y25.993 E.27872
G1 X28.296 Y25.993 E.08671
G1 X28.296 Y33.913 E.27872
G1 X27.788 Y33.405 F21000
G1 F3000
G1 X26.34 Y33.405 E.05096
G1 X26.34 Y26.501 E.24297
G1 X27.788 Y26.501 E.05096
G1 X27.788 Y33.405 E.24297
G1 E-.5
G1 Z.4 F21000
G1 X37.95 Y49.513
G1 X38.567 Y50.491
G1 Z.2
G1 E.5 F1800
;TYPE:Inner wall
G1 F3000
G1 X43.885 Y50.48 E.18717
G1 X90.71 Y50.48 E1.64795
M73 P4 R38
G1 X94.55 Y54.319 E.19108
M73 P5 R38
G1 X94.55 Y65.757 E.40254
G1 X90.709 Y69.593 E.19103
G1 X38.525 Y69.593 E1.83657
G1 X34.686 Y65.756 E.191
G1 X34.685 Y54.318 E.40256
G1 X38.513 Y50.506 E.19014
G1 X38.661 Y51.064 F21000
;TYPE:Outer wall
G1 F3000
G1 X38.735 Y50.991 E.00368
G1 X43.886 Y50.98 E.18126
G1 X90.503 Y50.98 E1.64065
G1 X94.05 Y54.526 E.17651
G1 X94.05 Y65.55 E.38796
G1 X90.502 Y69.093 E.17645
G1 X38.732 Y69.093 E1.822
G1 X35.186 Y65.549 E.17642
G1 X35.185 Y54.526 E.38795
G1 X38.619 Y51.107 E.17054
G1 X38.652 Y51.045
G1 E-.5
G1 Z.4 F21000
G1 X35.939 Y51.134
G1 Z.2
G1 E.5 F1800
;TYPE:Inner wall
G1 F3000
G1 X33.313 Y53.748 E.13041
G1 X33.315 Y66.324 E.44261
G1 X35.933 Y68.941 E.13028
G1 X28.895 Y68.941 E.24771
G1 X28.895 Y78.363 E.33159
G1 X25.383 Y78.37 E.1236
G1 X25.383 Y41.716 E1.29
G1 X28.895 Y41.716 E.12359
G1 X28.895 Y51.134 E.33145
G1 X35.879 Y51.134 E.2458
G1 E-.5
G1 Z.4 F21000
G1 X37.046 Y50.677
G1 Z.2
G1 E.5 F1800
G1 F3000
G1 X33.77 Y53.938 E.16269
G1 X33.772 Y66.135 E.42926
G1 X37.037 Y69.398 E.16247
G1 X29.352 Y69.398 E.27048
G1 X29.352 Y78.819 E.33156
G1 X24.926 Y78.828 E.15577
G1 X24.926 Y41.259 E1.32221
G1 X29.352 Y41.259 E.15577
G1 X29.352 Y50.677 E.33145
G1 X36.986 Y50.677 E.26868
G1 E-.5
G1 Z.4 F21000
G1 X38.153 Y50.22
G1 Z.2
G1 E.5 F1800
G1 F3000
G1 X34.227 Y54.128 E.19496
G1 X34.229 Y65.946 E.41591
G1 X38.141 Y69.855 E.19466
G1 X29.809 Y69.855 E.29325
G1 X29.809 Y79.276 E.33153
G1 X24.469 Y79.286 E.18794
G1 X24.469 Y40.802 E1.35441
G1 X29.809 Y40.802 E.18794
G1 X29.809 Y50.22 E.33145
G1 X38.093 Y50.22 E.29155
G1 E-.5
G1 Z.4 F21000
G1 X93.303 Y51.134
G1 Z.2
G1 E.5 F1800
G1 F3000
G1 X95.325 Y51.134 E.07114
G1 X95.316 Y53.146 E.07083
G1 X93.346 Y51.176 E.09807
G1 E-.5
G1 Z.4 F21000
G1 X94.3 Y54.423
G1 X94.3 Y65.653
G1 X93.302 Y68.941
G1 Z.2
G1 E.5 F1800
G1 F3000
G1 X95.316 Y66.929 E.1002
G1 X95.325 Y68.941 E.0708
G1 X93.362 Y68.941 E.06908
G1 E-.5
G1 Z.4 F21000
G1 X94.3 Y65.653
G1 X94.3 Y54.423
G1 X92.2 Y50.677
G1 Z.2
G1 E.5 F1800
G1 F3000
G1 X95.784 Y50.677 E.12613
G1 X95.768 Y54.47 E.1335
G1 X95.784 Y69.398 E.52539
G1 X92.197 Y69.398 E.12621
G1 X95.464 Y66.136 E.16248
G1 X95.464 Y53.94 E.42921
G1 X92.242 Y50.719 E.16034
G1 E-.5
G1 Z.4 F21000
G1 X91.096 Y50.22
G1 Z.2
G1 E.5 F1800
G1 F3000
G1 X96.243 Y50.22 E.18113
G1 X96.225 Y54.471 E.14963
G1 X96.225 Y65.604 E.39181
G1 X96.243 Y69.855 E.14963
G1 X91.093 Y69.855 E.18124
G1 X95.007 Y65.946 E.19468
G1 X95.007 Y54.13 E.41588
G1 X91.138 Y50.262 E.19252
G1 E-.5
G1 Z.4 F21000
G1 X96.932 Y54.473
G1 X96.932 Y65.602
G1 X96.953 Y70.562
G1 X30.266 Y70.313
G1 Z.2
G1 E.5 F1800
G1 F3000
G1 X30.266 Y79.732 E.3315
G1 X24.012 Y79.744 E.22011
G1 X24.012 Y40.345 E1.38661
G1 X30.266 Y40.345 E.22011
G1 X30.266 Y49.763 E.33145
G1 X96.702 Y49.763 E2.33812
G1 X96.682 Y54.472 E.16576
G1 X96.682 Y65.603 E.39172
G1 X96.702 Y70.313 E.16576
G1 X30.326 Y70.313 E2.33601
G1 X30.766 Y70.813 F21000
;TYPE:Outer wall
G1 F3000
G1 X30.766 Y80.231 E.33146
G1 X23.512 Y80.245 E.25531
G1 X23.512 Y39.845 E1.42184
G1 X30.766 Y39.845 E.25531
M73 P6 R38
