; HEADER_BLOCK_START
; generated by OrcaSlicer 1.6.3 on 2023-06-15 at 12:50:20
; total layer number: 15
; HEADER_BLOCK_END

; THUMBNAIL_BLOCK_START
; THUMBNAIL_BLOCK_END

; external perimeters extrusion width = 0.40mm
; perimeters extrusion width = 0.45mm
; infill extrusion width = 0.45mm
; solid infill extrusion width = 0.40mm
; top infill extrusion width = 0.40mm
; first layer extrusion width = 0.50mm

; EXECUTABLE_BLOCK_START
EXCLUDE_OBJECT_DEFINE NAME=(Unsaved).stl_id_0_copy_0 CENTER=60.3127,60.4233 POLYGON=[[3.47812,26.1729],[3.58614,25.6621],[3.82269,25.1967],[4.17165,24.8083],[29.2429,3.35063],[29.6805,3.06582],[30.1769,2.90397],[30.6982,2.87611],[31.209,2.98413],[31.6745,3.22068],[32.0628,3.56964],[113.896,82.2672],[117.147,86.0658],[108.92,95.65],[108.571,96.0383],[83.5,117.496],[83.0624,117.781],[82.5661,117.943],[82.0447,117.971],[81.5339,117.863],[81.0684,117.626],[80.6801,117.277],[3.95264,27.6282],[3.66783,27.1907],[3.50598,26.6943],[3.47812,26.1729]]
M73 P0 R18
;TYPE:Custom
START_PRINT T_BED=110 T_EXTRUDER=260
G90
G21
M83 ; use relative distances for extrusion
; Filament gcode

    PRESSURE_ADVANCE_SELECT FILAMENT=ABS
M106 S0
;LAYER_CHANGE
;Z:0.2
;HEIGHT:0.2
;BEFORE_LAYER_CHANGE
;0.2
G92 E0

;AFTER_LAYER_CHANGE
;0.2
M204 S500
; printing object (Unsaved).stl id:0 copy 0
EXCLUDE_OBJECT_START NAME=(Unsaved).stl_id_0_copy_0
G1 E-.5 F3000
G1 Z.2 F21000
G1 X105.067 Y90.482
G1 E.5 F1800
;TYPE:Inner wall
;WIDTH:0.499999
G1 F3000
G1 X105.116 Y90.643 E.00591
G1 X105.291 Y90.92 E.01154
G1 X107.27 Y93.232 E.10709
G1 X107.432 Y93.388 E.00794
G1 X107.67 Y93.523 E.00962
G1 X107.799 Y93.83 E.01171
G1 X108.051 Y94.269 E.01783
G1 X108.094 Y94.583 E.01114
G1 X108.001 Y94.889 E.01127
G1 X107.756 Y95.203 E.01402
G1 X97.369 Y104.094 E.48118
G1 X96.511 Y104.796 E.03901
G1 X96.216 Y104.922 E.01129
G1 X95.895 Y104.911 E.01129
G1 X95.598 Y104.791 E.01129
G1 X95.338 Y104.547 E.01253
G1 X94.674 Y103.786 E.03556
G1 X94.203 Y103.378 E.02193
G1 X93.673 Y103.099 E.02108
G1 X93.392 Y103 E.0105
G1 X92.713 Y102.879 E.02424
G1 X92.18 Y102.906 E.0188
G1 X91.887 Y102.96 E.0105
G1 X91.246 Y103.191 E.02397
G1 X90.79 Y103.485 E.01908
G1 X90.564 Y103.679 E.0105
G1 X90.121 Y104.205 E.02421
G1 X89.876 Y104.681 E.01884
G1 X89.777 Y104.962 E.0105
G1 X89.657 Y105.617 E.02341
G1 X89.683 Y106.174 E.01964
G1 X89.774 Y106.58 E.01463
G1 X90.01 Y107.176 E.02257
G1 X90.351 Y107.682 E.02148
G1 X90.952 Y108.385 E.03256
G1 X91.145 Y108.733 E.01399
G1 X91.19 Y109.05 E.01129
G1 X91.097 Y109.357 E.01129
G1 X90.852 Y109.671 E.01399
G1 X82.801 Y116.562 E.37296
G1 X82.453 Y116.755 E.01399
G1 X82.136 Y116.8 E.01129
G1 X81.829 Y116.706 E.01129
G1 X81.515 Y116.462 E.01399
G1 X80.265 Y115.002 E.06765
G1 X79.563 Y114.144 E.03901
G1 X79.437 Y113.849 E.01129
G1 X79.448 Y113.528 E.01129
G1 X79.568 Y113.23 E.01129
G1 X79.812 Y112.971 E.01253
G1 X80.614 Y112.261 E.03771
G1 X81.098 Y111.661 E.02713
G1 X81.436 Y110.9 E.02928
G1 X81.564 Y110.104 E.0284
G1 X81.536 Y109.577 E.01857
G1 X81.481 Y109.283 E.0105
G1 X81.318 Y108.782 E.01857
G1 X81.168 Y108.48 E.01184
G1 X80.813 Y107.952 E.02243
G1 X79.113 Y105.966 E.09198
G1 X78.756 Y105.563 E.01896
G1 X78.364 Y105.212 E.01852
G1 X78.118 Y105.043 E.0105
G1 X77.648 Y104.804 E.01857
G1 X77.366 Y104.705 E.0105
G1 X76.85 Y104.595 E.01857
G1 X76.553 Y104.572 E.0105
G1 X76.026 Y104.6 E.01857
G1 X75.732 Y104.655 E.0105
G1 X75.231 Y104.819 E.01857
G1 X74.961 Y104.947 E.0105
G1 X74.401 Y105.324 E.02378
G1 X73.698 Y105.926 E.03256
G1 X73.35 Y106.119 E.01399
G1 X73.032 Y106.164 E.01129
G1 X72.725 Y106.07 E.01129
G1 X72.412 Y105.826 E.01399
G1 X46.176 Y75.172 E1.41998
G1 X45.983 Y74.825 E.01399
G1 X45.939 Y74.507 E.01129
G1 X46.032 Y74.2 E.01129
G1 X46.276 Y73.886 E.01399
G1 X48.986 Y71.555 E.12579
G1 X49.337 Y71.163 E.01852
G1 X49.506 Y70.917 E.0105
G1 X49.844 Y70.166 E.02901
G1 X49.977 Y69.352 E.02901
G1 X49.894 Y68.532 E.02901
G1 X49.602 Y67.761 E.02901
G1 X49.225 Y67.2 E.02378
G1 X48.468 Y66.331 E.04054
G1 X48.077 Y65.979 E.01853
G1 X47.822 Y65.806 E.01083
G1 X47.062 Y65.468 E.02928
G1 X46.265 Y65.34 E.0284
G1 X45.445 Y65.423 E.02901
G1 X44.943 Y65.586 E.01857
G1 X44.674 Y65.715 E.0105
G1 X44.113 Y66.092 E.02378
G1 X41.511 Y68.319 E.12054
G1 X41.164 Y68.512 E.01399
G1 X40.846 Y68.557 E.01129
G1 X40.539 Y68.463 E.01129
G1 X40.225 Y68.219 E.01399
G1 X4.887 Y26.929 E1.91269
G1 X4.694 Y26.582 E.01399
G1 X4.649 Y26.264 E.01129
G1 X4.742 Y25.957 E.01129
G1 X4.987 Y25.643 E.01399
G1 X13.038 Y18.752 E.37296
G1 X13.385 Y18.559 E.01399
G1 X13.703 Y18.514 E.01129
G1 X14.01 Y18.608 E.01129
G1 X14.324 Y18.852 E.01399
G1 X14.925 Y19.555 E.03256
G1 X15.373 Y19.97 E.02148
G1 X15.619 Y20.139 E.0105
G1 X16.194 Y20.416 E.02249
G1 X16.765 Y20.543 E.02057
G1 X17.062 Y20.567 E.0105
G1 X17.726 Y20.513 E.02344
G1 X18.257 Y20.344 E.01961
G1 X18.526 Y20.215 E.0105
G1 X19.088 Y19.823 E.02412
G1 X19.45 Y19.425 E.01892
G1 X19.618 Y19.179 E.0105
G1 X19.908 Y18.562 E.02399
G1 X20.023 Y18.033 E.01906
G1 X20.043 Y17.679 E.01246
G1 X19.997 Y17.092 E.02075
G1 X19.823 Y16.541 E.02033
G1 X19.694 Y16.271 E.0105
G1 X19.353 Y15.765 E.02148
G1 X18.752 Y15.062 E.03256
G1 X18.559 Y14.715 E.01399
G1 X18.514 Y14.397 E.01129
G1 X18.607 Y14.09 E.01129
G1 X18.852 Y13.776 E.01399
G1 X29.942 Y4.285 E.51374
G1 X30.286 Y4.093 E.01385
G1 X30.62 Y4.049 E.01185
G1 X30.91 Y4.138 E.0107
G1 X31.228 Y4.385 E.01415
G1 X67.485 Y46.747 E1.96239
G1 X66.236 Y47.816 E.05785
G1 X66.172 Y47.36 E.01621
G1 X65.961 Y46.837 E.01984
G1 X65.622 Y46.387 E.01984
G1 X65.177 Y46.04 E.01984
G1 X64.649 Y45.818 E.02018
G1 X64.091 Y45.742 E.01981
G1 X63.54 Y45.811 E.01953
G1 X63.018 Y46.022 E.01984
G1 X62.676 Y46.256 E.01459
G1 X61.154 Y47.558 E.07049
G1 X60.87 Y47.86 E.01459
G1 X60.58 Y48.344 E.01984
G1 X60.426 Y48.886 E.01984
G1 X60.417 Y49.45 E.01984
G1 X60.554 Y49.997 E.01984
G1 X60.828 Y50.489 E.01984
G1 X61.221 Y50.894 E.01984
G1 X61.704 Y51.184 E.01984
G1 X62.145 Y51.317 E.01621
G1 X61.803 Y51.622 E.01614
G1 X61.452 Y52.014 E.01853
G1 X61.201 Y52.424 E.01692
G1 X60.941 Y53.029 E.02316
G1 X60.812 Y53.825 E.0284
G1 X60.895 Y54.646 E.02901
G1 X61.066 Y55.145 E.01858
;WIDTH:0.484506
G1 X61.148 Y55.267 E.00499
;WIDTH:0.440791
G1 X61.23 Y55.388 E.0045
;WIDTH:0.397076
G1 X61.715 Y56.034 E.02202
;WIDTH:0.398891
G1 X61.915 Y56.221 E.00749
;WIDTH:0.435298
G1 X62.114 Y56.408 E.00826
;WIDTH:0.471704
G1 X62.314 Y56.594 E.00902
;WIDTH:0.499999
G1 X62.778 Y56.846 E.01858
G1 X63.06 Y56.945 E.0105
G1 X63.873 Y57.078 E.02901
G1 X64.694 Y56.995 E.02901
G1 X65.215 Y56.825 E.0193
G1 X65.664 Y56.572 E.01813
G1 X66.26 Y56.125 E.02624
G1 X66.324 Y56.581 E.01621
G1 X66.535 Y57.103 E.01984
G1 X66.874 Y57.554 E.01984
G1 X67.319 Y57.901 E.01984
G1 X67.838 Y58.121 E.01984
G1 X68.396 Y58.199 E.01984
G1 X68.956 Y58.13 E.01984
G1 X69.355 Y57.989 E.0149
G1 X69.815 Y57.689 E.01933
G1 X71.342 Y56.382 E.07073
G1 X71.626 Y56.08 E.01459
G1 X71.916 Y55.597 E.01984
G1 X72.07 Y55.054 E.01984
G1 X72.079 Y54.491 E.01984
G1 X71.942 Y53.944 E.01984
G1 X71.668 Y53.451 E.01984
G1 X71.275 Y53.046 E.01984
G1 X70.791 Y52.757 E.01985
G1 X70.349 Y52.625 E.01624
G1 X71.6 Y51.555 E.05791
G1 X104.669 Y90.193 E1.78986
G1 X104.746 Y90.275 E.00396
G1 X105.016 Y90.45 E.01133
G1 E-.5
G1 Z.4 F21000
G1 X51.268 Y46.695
M73 P1 R18
G1 Z.2
G1 E.5 F1800
G1 F3000
G1 X51.447 Y46.662 E.00638
G1 X51.956 Y46.635 E.01796
G1 X52.244 Y46.656 E.01017
G1 X52.778 Y46.764 E.01917
G1 X53.069 Y46.865 E.01083
G1 X53.539 Y47.104 E.01858
G1 X53.785 Y47.273 E.0105
G1 X54.177 Y47.625 E.01852
G1 X60.762 Y55.316 E.35633
;WIDTH:0.484506
G1 X60.934 Y55.548 E.00982
;WIDTH:0.443833
G1 X61.106 Y55.78 E.00892
;WIDTH:0.403159
G1 X61.278 Y56.012 E.00801
;WIDTH:0.397077
G1 X61.843 Y56.647 E.02318
;WIDTH:0.431385
G1 X62.044 Y56.855 E.00864
;WIDTH:0.465692
G1 X62.244 Y57.062 E.0094
;WIDTH:0.499999
G1 X62.445 Y57.27 E.01016
G1 X68.588 Y64.448 E.33251
G1 X68.965 Y65.009 E.02378
G1 X69.093 Y65.278 E.0105
G1 X69.257 Y65.78 E.01857
G1 X69.312 Y66.073 E.0105
G1 X69.34 Y66.6 E.01857
G1 X69.317 Y66.898 E.0105
G1 X69.207 Y67.414 E.01857
G1 X69.108 Y67.695 E.0105
G1 X68.869 Y68.166 E.01857
G1 X68.7 Y68.412 E.0105
G1 X68.349 Y68.803 E.01852
G1 X62.921 Y73.461 E.25171
G1 X62.361 Y73.838 E.02378
G1 X62.091 Y73.966 E.0105
G1 X61.59 Y74.13 E.01857
G1 X61.296 Y74.185 E.0105
G1 X60.769 Y74.213 E.01857
G1 X60.472 Y74.19 E.0105
G1 X59.973 Y74.084 E.01796
G1 X59.7 Y73.989 E.01017
G1 X59.212 Y73.747 E.01917
G1 X58.958 Y73.574 E.01083
G1 X58.462 Y73.115 E.02378
G1 X44.155 Y56.398 E.77436
G1 X43.778 Y55.838 E.02378
G1 X43.65 Y55.569 E.0105
G1 X43.486 Y55.067 E.01857
G1 X43.431 Y54.773 E.0105
G1 X43.403 Y54.246 E.01857
G1 X43.426 Y53.949 E.0105
G1 X43.535 Y53.433 E.01857
G1 X43.635 Y53.151 E.0105
G1 X43.866 Y52.697 E.01796
G1 X44.028 Y52.458 E.01017
G1 X44.501 Y51.939 E.0247
G1 X49.822 Y47.386 E.24646
G1 X50.382 Y47.009 E.02378
G1 X50.652 Y46.88 E.0105
G1 X51.153 Y46.717 E.01857
G1 X51.209 Y46.706 E.002
G1 X51.388 Y47.143 F21000
G1 F3000
G1 X51.98 Y47.091 E.02093
G1 X52.687 Y47.212 E.02523
G1 X52.861 Y47.273 E.0065
G1 X53.332 Y47.512 E.01858
G1 X53.73 Y47.838 E.01812
G1 X54.398 Y48.571 E.03489
G1 X68.241 Y64.745 E.74925
G1 X68.582 Y65.258 E.02167
G1 X68.822 Y65.922 E.02483
G1 X68.883 Y66.625 E.02483
G1 X68.76 Y67.319 E.02483
G1 X68.462 Y67.959 E.02483
G1 X68.009 Y68.498 E.02478
G1 X62.624 Y73.114 E.24961
G1 X62.111 Y73.455 E.02167
G1 X61.448 Y73.695 E.02483
G1 X60.745 Y73.756 E.02483
G1 X60.067 Y73.637 E.02422
G1 X59.416 Y73.337 E.02523
G1 X58.809 Y72.818 E.02812
G1 X44.502 Y56.101 E.77436
G1 X44.161 Y55.588 E.02167
G1 X43.921 Y54.925 E.02483
G1 X43.86 Y54.222 E.02483
G1 X43.983 Y53.527 E.02483
G1 X44.273 Y52.904 E.02422
G1 X44.798 Y52.286 E.02852
G1 X50.119 Y47.733 E.24646
G1 X50.632 Y47.392 E.02167
G1 X51.295 Y47.151 E.02483
G1 X51.328 Y47.148 E.00117
G1 X51.485 Y47.582 F21000
;TYPE:Outer wall
G1 F3000
G1 X52.005 Y47.548 E.01833
G1 X52.654 Y47.68 E.02333
G1 X53.125 Y47.919 E.01858
G1 X53.566 Y48.305 E.02061
G1 X67.893 Y65.043 E.77541
G1 X68.198 Y65.508 E.01957
G1 X68.388 Y66.063 E.02066
G1 X68.427 Y66.649 E.02066
G1 X68.313 Y67.225 E.02066
G1 X68.054 Y67.751 E.02066
G1 X67.647 Y68.213 E.02166
G1 X62.327 Y72.767 E.24646
G1 X61.862 Y73.072 E.01957
G1 X61.306 Y73.261 E.02066
G1 X60.721 Y73.3 E.02066
G1 X60.162 Y73.19 E.02004
G1 X59.62 Y72.928 E.02118
G1 X59.177 Y72.542 E.02068
G1 X44.85 Y55.804 E.77541
G1 X44.544 Y55.339 E.01957
G1 X44.355 Y54.783 E.02066
G1 X44.316 Y54.198 E.02066
G1 X44.43 Y53.622 E.02066
G1 X44.681 Y53.111 E.02004
G1 X45.096 Y52.634 E.02225
G1 X50.416 Y48.08 E.24646
G1 X50.881 Y47.775 E.01957
G1 X51.426 Y47.589 E.02026
G1 X51.511 Y47.507
G1 E-.5
G1 Z.4 F21000
G1 X105.556 Y90.064
G1 Z.2
G1 E.5 F1800
;TYPE:Inner wall
G1 F3000
G1 X105.484 Y90.295 E.00853
G1 X105.533 Y90.457 E.00594
G1 X105.638 Y90.623 E.00693
G1 X107.617 Y92.935 E.10709
G1 X107.715 Y93.028 E.00476
G1 X108.007 Y93.162 E.0113
G1 X108.118 Y93.137 E.00401
G1 X108.077 Y93.244 E.00401
G1 X108.166 Y93.552 E.0113
G1 X108.436 Y93.977 E.01772
G1 X108.536 Y94.283 E.01132
G1 X108.554 Y94.618 E.01182
G1 X108.484 Y94.947 E.01182
G1 X108.332 Y95.247 E.01182
G1 X108.076 Y95.531 E.01347
G1 X97.012 Y105.001 E.51254
G1 X96.62 Y105.271 E.01675
G1 X96.301 Y105.375 E.01182
G1 X95.965 Y105.393 E.01182
G1 X95.636 Y105.323 E.01182
G1 X95.337 Y105.171 E.01182
G1 X94.991 Y104.844 E.01675
G1 X94.369 Y104.126 E.03346
G1 X93.878 Y103.716 E.02249
G1 X93.297 Y103.447 E.02254
G1 X92.666 Y103.337 E.02254
G1 X92.028 Y103.395 E.02254
G1 X91.427 Y103.616 E.02254
G1 X90.939 Y103.948 E.0208
G1 X90.594 Y104.328 E.01805
G1 X90.46 Y104.541 E.00886
G1 X90.224 Y105.057 E.01997
G1 X90.114 Y105.631 E.02056
G1 X90.139 Y106.15 E.01829
G1 X90.209 Y106.438 E.01043
G1 X90.393 Y106.927 E.01838
G1 X90.698 Y107.385 E.01938
G1 X91.258 Y108.039 E.03031
G1 X91.528 Y108.431 E.01675
G1 X91.632 Y108.751 E.01182
G1 X91.65 Y109.086 E.01182
G1 X91.58 Y109.415 E.01182
G1 X91.428 Y109.714 E.01182
G1 X91.172 Y109.999 E.01347
G1 X83.147 Y116.868 E.37176
G1 X82.755 Y117.137 E.01675
G1 X82.435 Y117.242 E.01182
G1 X82.1 Y117.259 E.01182
G1 X81.771 Y117.19 E.01182
G1 X81.472 Y117.038 E.01182
G1 X81.187 Y116.782 E.01347
G1 X79.358 Y114.645 E.09901
G1 X79.088 Y114.253 E.01675
G1 X78.984 Y113.933 E.01182
G1 X78.966 Y113.598 E.01182
G1 X79.035 Y113.269 E.01182
G1 X79.188 Y112.97 E.01182
G1 X79.515 Y112.624 E.01675
G1 X80.274 Y111.955 E.03561
G1 X80.689 Y111.457 E.02282
G1 X80.988 Y110.806 E.02523
G1 X81.108 Y110.128 E.02422
G1 X81.047 Y109.425 E.02483
G1 X80.883 Y108.923 E.01857
G1 X80.785 Y108.73 E.00764
G1 X80.465 Y108.249 E.02032
G1 X78.45 Y105.903 E.10883
G1 X77.911 Y105.45 E.02478
G1 X77.272 Y105.152 E.02483
G1 X76.577 Y105.029 E.02483
G1 X75.874 Y105.09 E.02483
G1 X75.211 Y105.331 E.02483
G1 X74.698 Y105.671 E.02167
G1 X74.044 Y106.231 E.03031
G1 X73.651 Y106.501 E.01675
G1 X73.332 Y106.605 E.01182
G1 X72.997 Y106.623 E.01182
G1 X72.668 Y106.554 E.01182
G1 X72.369 Y106.401 E.01182
G1 X72.084 Y106.146 E.01347
G1 X45.871 Y75.518 E1.41878
G1 X45.601 Y75.126 E.01675
G1 X45.497 Y74.807 E.01182
G1 X45.479 Y74.471 E.01182
G1 X45.548 Y74.143 E.01182
G1 X45.701 Y73.843 E.01182
G1 X45.956 Y73.559 E.01347
G1 X48.581 Y71.312 E.1216
G1 X49.099 Y70.71 E.02793
G1 X49.397 Y70.071 E.02483
G1 X49.52 Y69.376 E.02483
G1 X49.459 Y68.673 E.02483
G1 X49.218 Y68.01 E.02483
G1 X48.878 Y67.497 E.02167
G1 X48.163 Y66.671 E.03844
G1 X47.619 Y66.215 E.02498
G1 X46.967 Y65.916 E.02523
G1 X46.29 Y65.796 E.02422
G1 X45.587 Y65.857 E.02483
G1 X44.924 Y66.098 E.02483
G1 X44.411 Y66.439 E.02167
G1 X41.857 Y68.624 E.11829
G1 X41.465 Y68.894 E.01675
G1 X41.146 Y68.998 E.01182
G1 X40.81 Y69.016 E.01182
G1 X40.481 Y68.947 E.01182
G1 X40.182 Y68.795 E.01182
G1 X39.897 Y68.539 E.01347
G1 X4.581 Y27.275 E1.91149
M73 P2 R18
G1 X4.311 Y26.883 E.01675
G1 X4.207 Y26.564 E.01182
G1 X4.189 Y26.228 E.01182
G1 X4.259 Y25.899 E.01182
G1 X4.411 Y25.6 E.01182
G1 X4.667 Y25.315 E.01347
G1 X12.692 Y18.447 E.37176
G1 X13.084 Y18.177 E.01675
G1 X13.403 Y18.073 E.01182
G1 X13.739 Y18.055 E.01182
G1 X14.068 Y18.124 E.01182
G1 X14.367 Y18.277 E.01182
G1 X14.713 Y18.604 E.01675
G1 X15.335 Y19.322 E.03346
G1 X15.826 Y19.731 E.02249
G1 X16.407 Y20.001 E.02254
G1 X17.038 Y20.11 E.02254
G1 X17.676 Y20.053 E.02254
G1 X18.277 Y19.832 E.02254
G1 X18.8 Y19.463 E.02254
G1 X19.211 Y18.972 E.02254
G1 X19.469 Y18.437 E.0209
G1 X19.576 Y17.938 E.01794
G1 X19.586 Y17.704 E.00826
G1 X19.532 Y17.122 E.02057
G1 X19.311 Y16.521 E.02254
G1 X19.006 Y16.063 E.01938
G1 X18.446 Y15.408 E.03031
G1 X18.176 Y15.016 E.01675
G1 X18.072 Y14.697 E.01182
G1 X18.054 Y14.361 E.01182
G1 X18.124 Y14.033 E.01182
G1 X18.276 Y13.733 E.01182
G1 X18.532 Y13.449 E.01347
G1 X29.596 Y3.979 E.51254
G1 X29.988 Y3.709 E.01675
G1 X30.305 Y3.606 E.01172
G1 X30.657 Y3.59 E.01241
G1 X30.972 Y3.657 E.01132
G1 X31.271 Y3.809 E.01182
G1 X31.556 Y4.065 E.01347
G1 X68.129 Y46.797 E1.97953
G1 X66.047 Y48.579 E.09647
;WIDTH:0.543922
G1 X65.866 Y48.705 E.0085
;WIDTH:0.587845
G1 X65.685 Y48.831 E.00924
;WIDTH:0.631768
G1 X65.504 Y48.957 E.00999
G1 X65.537 Y48.882 E.00371
;WIDTH:0.604003
G1 X65.569 Y48.807 E.00353
;WIDTH:0.576238
G1 X65.67 Y48.465 E.01466
;WIDTH:0.538119
G1 X65.771 Y48.122 E.01361
;WIDTH:0.499999
G1 X65.771 Y47.677 E.01565
G1 X65.655 Y47.248 E.01565
G1 X65.433 Y46.863 E.01565
G1 X65.118 Y46.549 E.01565
G1 X64.732 Y46.327 E.01566
G1 X64.288 Y46.211 E.01615
G1 X63.858 Y46.212 E.01515
G1 X63.428 Y46.328 E.01565
G1 X62.973 Y46.603 E.01874
G1 X61.451 Y47.906 E.07049
G1 X61.21 Y48.166 E.01249
G1 X60.988 Y48.551 E.01565
G1 X60.873 Y48.981 E.01565
G1 X60.873 Y49.426 E.01565
G1 X60.989 Y49.855 E.01565
G1 X61.211 Y50.24 E.01565
G1 X61.526 Y50.554 E.01565
G1 X61.912 Y50.776 E.01565
G1 X62.341 Y50.891 E.01565
G1 X62.786 Y50.891 E.01565
;WIDTH:0.54229
G1 X62.995 Y50.844 E.00822
;WIDTH:0.58458
G1 X63.203 Y50.798 E.00891
;WIDTH:0.62687
G1 X63.412 Y50.751 E.00961
G1 X63.307 Y50.868 E.00704
;WIDTH:0.58458
G1 X63.203 Y50.985 E.00653
;WIDTH:0.54229
G1 X63.099 Y51.102 E.00602
;WIDTH:0.499999
G1 X62.143 Y51.928 E.04445
G1 X61.792 Y52.319 E.01853
G1 X61.61 Y52.628 E.0126
G1 X61.388 Y53.123 E.01911
