; HEADER_BLOCK_START
; generated by OrcaSlicer 1.7.0-beta on 2023-09-17 at 17:01:09
; total layer number: 200
; HEADER_BLOCK_END

; THUMBNAIL_BLOCK_START
; THUMBNAIL_BLOCK_END

; external perimeters extrusion width = 0.40mm
; perimeters extrusion width = 0.46mm
; infill extrusion width = 0.64mm
; solid infill extrusion width = 0.56mm
; top infill extrusion width = 0.40mm
; first layer extrusion width = 0.50mm

; EXECUTABLE_BLOCK_START
EXCLUDE_OBJECT_DEFINE NAME=Unsaved_.stl_id_0_copy_0 CENTER=60,60 POLYGON=[[33.93,45.3014],[33.9485,44.8946],[33.9801,44.6321],[34.0044,44.4868],[34.0986,44.0812],[34.1291,43.9777],[34.2317,43.6813],[34.3738,43.3527],[34.4025,43.2941],[34.6093,42.9239],[34.7088,42.7711],[34.8511,42.5735],[49.0555,24.4101],[49.4289,23.9877],[49.8747,23.6427],[50.3772,23.3871],[50.9187,23.23],[51.48,23.177],[68.52,23.177],[69.0813,23.23],[69.6228,23.3871],[70.1253,23.6427],[70.5711,23.9877],[70.9445,24.4101],[85.147,42.571],[85.2912,42.7711],[85.3889,42.921],[85.5956,43.2904],[85.6262,43.3527],[85.7663,43.6763],[85.8709,43.9777],[85.8999,44.0757],[85.995,44.4836],[86.0199,44.6321],[86.0514,44.8933],[86.07,45.3014],[86.07,48.5396],[86.0493,49.0379],[86.0199,49.3131],[85.9869,49.5353],[85.8822,50.0294],[85.8706,50.0736],[85.7346,50.5174],[85.6244,50.8086],[68,96.823],[52,96.823],[34.3756,50.8086],[34.265,50.5165],[34.1294,50.0736],[34.1178,50.0293],[34.0132,49.5352],[33.9801,49.3131],[33.9507,49.037],[33.93,48.5396],[33.93,45.3014]]
M73 P0 R45
;TYPE:Custom
START_PRINT T_BED=110 T_EXTRUDER=260
G90
G21
M83 ; use relative distances for extrusion
; Filament gcode

    PRESSURE_ADVANCE_SELECT FILAMENT=ABS
M106 S0
;LAYER_CHANGE
;Z:0.1
;HEIGHT:0.1
;BEFORE_LAYER_CHANGE
;0.1
G92 E0

;AFTER_LAYER_CHANGE
;0.1
;_SET_FAN_SPEED_CHANGING_LAYER
SET_VELOCITY_LIMIT ACCEL=500 ACCEL_TO_DECEL=250
G1 E-.5 F3000
G1 Z.2 F21000
G1 X39.921 Y73.554
G1 Z.2
G1 Z.1
G1 E.5 F1800
;TYPE:Skirt
;WIDTH:0.5
G1 F3000
G1 X31.614 Y51.866 E.42787
G1 X31.228 Y50.643 E.02363
G1 X31.029 Y49.504 E.02131
G1 X30.973 Y45.301 E.07743
G1 X31.097 Y43.975 E.02453
G1 X31.376 Y42.899 E.02048
G1 X31.62 Y42.274 E.01237
G1 X32.379 Y40.95 E.02811
G1 X46.725 Y22.589 E.42928
G1 X47.622 Y21.647 E.02396
G1 X48.534 Y21.007 E.02054
G1 X49.553 Y20.547 E.0206
G1 X50.095 Y20.39 E.01039
G1 X51.48 Y20.22 E.02571
G1 X68.798 Y20.233 E.31905
G1 X69.905 Y20.39 E.0206
G1 X70.963 Y20.751 E.0206
G1 X71.935 Y21.304 E.0206
G1 X72.787 Y22.029 E.0206
G1 X87.854 Y41.295 E.45059
G1 X88.189 Y41.877 E.01237
G1 X88.624 Y42.899 E.02048
G1 X88.969 Y44.412 E.02857
G1 X89.027 Y48.54 E.07606
G1 X88.971 Y49.504 E.0178
G1 X88.772 Y50.643 E.02131
G1 X88.386 Y51.866 E.02363
G1 X70.761 Y97.881 E.90778
G1 X69.867 Y99.116 E.0281
G1 X68 Y99.78 E.03651
G1 X52 Y99.78 E.29477
G1 X50.527 Y99.387 E.0281
G1 X49.239 Y97.881 E.03651
G1 X39.935 Y73.592 E.47918
G1 X40.382 Y73.421 F21000
G1 F3000
G1 X32.061 Y51.695 E.42861
G1 X31.697 Y50.551 E.02211
G1 X31.507 Y49.473 E.02017
G1 X31.451 Y45.301 E.07686
G1 X31.563 Y44.082 E.02256
G1 X31.821 Y43.074 E.01916
G1 X32.066 Y42.449 E.01237
G1 X32.756 Y41.245 E.02556
G1 X47.102 Y22.884 E.42928
G1 X47.915 Y22.026 E.02177
G1 X48.751 Y21.433 E.01888
G1 X49.254 Y21.178 E.01039
G1 X50.228 Y20.85 E.01895
G1 X51.48 Y20.699 E.02323
G1 X68.753 Y20.709 E.31822
G1 X69.772 Y20.85 E.01895
G1 X70.746 Y21.178 E.01895
G1 X71.642 Y21.683 E.01895
G1 X72.428 Y22.346 E.01895
G1 X87.439 Y41.534 E.44882
G1 X87.774 Y42.116 E.01237
G1 X88.179 Y43.074 E.01916
G1 X88.492 Y44.447 E.02595
G1 X88.549 Y48.54 E.0754
G1 X88.493 Y49.473 E.01723
G1 X88.303 Y50.551 E.02017
G1 X87.939 Y51.695 E.02211
G1 X70.315 Y97.709 E.90778
G1 X69.47 Y98.818 E.02568
G1 X68 Y99.301 E.02851
G1 X52 Y99.301 E.29477
G1 X50.662 Y98.91 E.02568
G1 X49.685 Y97.709 E.02851
G1 X40.397 Y73.458 E.47844
; printing object (Unsaved).stl id:0 copy 0
G1 E-.5
EXCLUDE_OBJECT_START NAME=Unsaved_.stl_id_0_copy_0
G1 Z.3 F21000
G1 X66.327 Y33.227 Z.3
G1 Z.1
G1 E.5 F1800
;TYPE:Outer wall
G1 F3000
G1 X66.327 Y23.427 E.18055
G1 X68.508 Y23.427 E.04018
G1 X69.034 Y23.477 E.00973
G1 X69.53 Y23.621 E.00952
G1 X69.991 Y23.855 E.00952
G1 X70.399 Y24.171 E.00952
G1 X70.742 Y24.558 E.00952
G1 X71.005 Y25.002 E.00952
G3 X71.498 Y26.529 I-14.142 J5.406 E.02958
G2 X74.279 Y31.16 I12.982 J-4.646 E.10015
G1 X84.684 Y42.409 E.2823
G1 X85.084 Y42.912 E.01185
G3 X85.772 Y44.669 I-4.01 J2.584 E.035
G1 X85.82 Y45.311 E.01185
G1 X85.82 Y48.531 E.05934
G1 X85.772 Y49.281 E.01383
G1 X85.628 Y50.01 E.01368
G1 X85.393 Y50.714 E.01368
G1 X85.068 Y51.382 E.01368
G1 X84.66 Y52.002 E.01368
G1 X84.175 Y52.565 E.01368
G1 X83.616 Y53.066 E.01383
G1 X72.141 Y62.08 E.26882
G1 X71.326 Y62.815 E.02023
G2 X67.75 Y69.29 I10.121 J9.814 E.13787
G1 X67.75 Y96.573 E.50264
G1 X52.25 Y96.573 E.28556
G1 X52.25 Y69.29 E.50264
G2 X48.674 Y62.815 I-13.713 J3.349 E.13786
G1 X47.859 Y62.08 E.02023
G1 X36.384 Y53.066 E.26882
G1 X35.825 Y52.565 E.01383
G1 X35.34 Y52.002 E.01368
G1 X34.932 Y51.382 E.01368
G1 X34.607 Y50.714 E.01368
G1 X34.372 Y50.01 E.01368
G1 X34.228 Y49.281 E.01368
G1 X34.18 Y48.531 E.01383
G1 X34.18 Y45.311 E.05934
G1 X34.228 Y44.669 E.01185
G3 X34.916 Y42.912 I4.698 J.826 E.035
G1 X35.316 Y42.409 E.01185
G1 X45.721 Y31.16 E.2823
G2 X48.813 Y25.504 I-9.719 J-8.986 E.11996
G1 X48.995 Y25.002 E.00983
G1 X49.258 Y24.558 E.00951
G1 X49.603 Y24.169 E.00958
G1 X50.009 Y23.855 E.00945
G1 X50.47 Y23.621 E.00952
G1 X50.966 Y23.477 E.00952
G1 X51.492 Y23.427 E.00974
G1 X53.827 Y23.427 E.04302
G1 X53.827 Y33.227 E.18055
G1 X66.287 Y33.227 E.22955
G1 X66.806 Y33.706 F21000
;TYPE:Inner wall
G1 F3000
G1 X66.806 Y23.906 E.18055
G1 X68.486 Y23.906 E.03095
G3 X70.733 Y25.655 I-.006 J2.325 E.05646
G2 X73.921 Y31.477 I13.243 J-3.467 E.12353
G1 X84.32 Y42.72 E.28215
G3 X85.341 Y45.329 I-2.922 J2.648 E.05275
G1 X85.341 Y48.516 E.05872
G3 X83.308 Y52.699 I-5.384 J-.031 E.08861
G1 X71.833 Y61.714 E.26884
G1 X70.988 Y62.475 E.02095
G1 X70.229 Y63.305 E.02073
G2 X67.272 Y69.223 I11.43 J9.41 E.12291
G1 X67.271 Y96.094 E.49506
G1 X52.729 Y96.094 E.26793
G1 X52.728 Y69.223 E.49506
G1 X52.406 Y68.088 E.02173
G2 X49.012 Y62.475 I-13.92 J4.585 E.12187
G1 X48.167 Y61.714 E.02095
G1 X36.692 Y52.699 E.26884
G3 X34.659 Y48.516 I3.351 J-4.215 E.08861
G1 X34.659 Y45.329 E.05872
G3 X35.68 Y42.72 I3.944 J.04 E.05275
G1 X46.079 Y31.477 E.28215
G2 X49.267 Y25.655 I-10.055 J-9.29 E.12353
G3 X49.932 Y24.52 I2.493 J.697 E.0245
G3 X51.514 Y23.906 I1.569 J1.698 E.03203
G1 X53.348 Y23.906 E.03379
G1 X53.348 Y33.706 E.18055
G1 X66.766 Y33.706 E.24718
G1 E-.5
G1 Z.3 F21000
G1 X81.967 Y45.248 Z.3
G1 Z.1
G1 E.5 F1800
;TYPE:Outer wall
G1 F3000
G1 X82 Y45.244 E.00061
G1 X82.447 Y45.303 E.00831
G1 X82.864 Y45.475 E.00831
G1 X83.221 Y45.75 E.00831
G1 X83.496 Y46.107 E.00831
G1 X83.668 Y46.524 E.00831
G1 X83.727 Y46.971 E.00831
G1 X83.668 Y47.418 E.00831
G1 X83.496 Y47.834 E.00831
G1 X83.221 Y48.192 E.00831
G1 X82.864 Y48.467 E.00831
G1 X82.447 Y48.639 E.00831
G1 X82 Y48.698 E.00831
G1 X81.553 Y48.639 E.00831
G1 X81.136 Y48.467 E.00831
G1 X80.779 Y48.192 E.00831
G1 X80.504 Y47.834 E.00831
G1 X80.332 Y47.418 E.00831
G1 X80.273 Y46.971 E.00831
G1 X80.332 Y46.524 E.00831
G1 X80.504 Y46.107 E.00831
G1 X80.779 Y45.75 E.00831
G1 X81.136 Y45.475 E.00831
G1 X81.553 Y45.303 E.00831
G1 X81.927 Y45.253 E.00696
G1 X82.049 Y44.768 F21000
;TYPE:Inner wall
G1 F3000
G1 X82.572 Y44.836 E.00971
G1 X83.105 Y45.057 E.01063
G1 X83.563 Y45.408 E.01063
G1 X83.914 Y45.866 E.01063
G1 X84.135 Y46.399 E.01063
G1 X84.21 Y46.971 E.01063
G1 X84.135 Y47.543 E.01063
G1 X83.914 Y48.076 E.01063
G1 X83.563 Y48.533 E.01063
G1 X83.105 Y48.885 E.01063
G1 X82.572 Y49.105 E.01063
G1 X82 Y49.181 E.01063
G1 X81.428 Y49.105 E.01063
G1 X80.895 Y48.885 E.01063
G1 X80.437 Y48.534 E.01063
G1 X80.086 Y48.076 E.01063
G1 X79.865 Y47.543 E.01063
G1 X79.79 Y46.971 E.01063
G1 X79.865 Y46.399 E.01063
G1 X80.086 Y45.866 E.01063
G1 X80.437 Y45.408 E.01063
G1 X80.895 Y45.057 E.01063
G1 X81.428 Y44.836 E.01063
G1 X82 Y44.761 E.01063
G1 X82.01 Y44.762 E.00018
G1 E-.5
G1 Z.3 F21000
G1 X61.568 Y47.718 Z.3
G1 X61.132 Y47.913
G1 X60.671 Y48.04
G1 X60.197 Y48.095
G1 X59.719 Y48.076
G1 X38.569 Y44.847
G1 X38 Y44.772
G1 X37.906 Y44.784
G1 X37.967 Y45.248
G1 Z.1
G1 E.5 F1800
;TYPE:Outer wall
G1 F3000
G1 X38 Y45.244 E.00061
G1 X38.447 Y45.303 E.00831
G1 X38.864 Y45.475 E.00831
G1 X39.221 Y45.75 E.00831
G1 X39.496 Y46.107 E.00831
G1 X39.668 Y46.524 E.00831
G1 X39.727 Y46.971 E.00831
G1 X39.668 Y47.418 E.00831
G1 X39.496 Y47.835 E.00831
G1 X39.221 Y48.192 E.00831
G1 X38.864 Y48.467 E.00831
G1 X38.447 Y48.639 E.00831
G1 X38 Y48.698 E.00831
G1 X37.553 Y48.639 E.00831
G1 X37.136 Y48.467 E.00831
G1 X36.779 Y48.192 E.00831
G1 X36.504 Y47.834 E.00831
G1 X36.332 Y47.418 E.00831
G1 X36.273 Y46.971 E.00831
G1 X36.332 Y46.524 E.00831
G1 X36.504 Y46.107 E.00831
G1 X36.779 Y45.75 E.00831
G1 X37.136 Y45.475 E.00831
G1 X37.553 Y45.303 E.00831
G1 X37.927 Y45.253 E.00696
G1 X38.049 Y44.768 F21000
;TYPE:Inner wall
G1 F3000
G1 X38.572 Y44.836 E.00971
G1 X39.105 Y45.057 E.01063
G1 X39.563 Y45.408 E.01063
G1 X39.914 Y45.866 E.01063
G1 X40.135 Y46.399 E.01063
G1 X40.21 Y46.971 E.01063
G1 X40.135 Y47.543 E.01063
G1 X39.914 Y48.076 E.01063
G1 X39.563 Y48.533 E.01063
G1 X39.105 Y48.885 E.01063
G1 X38.572 Y49.105 E.01063
G1 X38 Y49.181 E.01063
G1 X37.428 Y49.105 E.01063
G1 X36.895 Y48.885 E.01063
G1 X36.437 Y48.533 E.01063
G1 X36.086 Y48.076 E.01063
G1 X35.865 Y47.543 E.01063
G1 X35.79 Y46.971 E.01063
G1 X35.865 Y46.399 E.01063
G1 X36.086 Y45.866 E.01063
G1 X36.437 Y45.408 E.01063
G1 X36.895 Y45.057 E.01063
G1 X37.428 Y44.836 E.01063
G1 X38 Y44.761 E.01063
G1 X38.01 Y44.762 E.00018
G1 E-.5
G1 Z.3 F21000
G1 X60.829 Y41.104 Z.3
G1 Z.1
G1 E.5 F1800
G1 F3000
G1 X61.302 Y40.971 E.00905
G2 X61.778 Y34.39 I-1.243 J-3.398 E.15302
G1 X61.839 Y34.184 E.00395
G1 X67.284 Y34.184 E.10031
G1 X67.284 Y24.384 E.18055
G1 X68.463 Y24.384 E.02172
G3 X70.278 Y25.806 I.014 J1.852 E.04585
G1 X70.593 Y26.845 E.02
G2 X73.563 Y31.795 I13.906 J-4.975 E.10704
G1 X83.957 Y43.032 E.282
G3 X84.863 Y45.346 I-2.557 J2.336 E.04683
G1 X84.863 Y46.303 E.01762
G1 X84.632 Y46.349 E.00434
G1 X84.332 Y45.625 E.01444
G1 X83.904 Y45.067 E.01295
G1 X83.346 Y44.639 E.01295
G1 X82.697 Y44.37 E.01295
G1 X82 Y44.278 E.01295
G1 X81.303 Y44.37 E.01295
G1 X80.654 Y44.639 E.01295
G1 X80.096 Y45.067 E.01295
G1 X79.668 Y45.625 E.01295
G1 X79.399 Y46.274 E.01295
G1 X79.308 Y46.971 E.01295
G1 X79.399 Y47.668 E.01295
G1 X79.668 Y48.317 E.01295
G1 X80.096 Y48.875 E.01295
G1 X80.654 Y49.303 E.01295
G1 X81.303 Y49.572 E.01295
G1 X82 Y49.663 E.01295
G1 X82.697 Y49.572 E.01295
G1 X83.346 Y49.303 E.01295
G1 X83.904 Y48.875 E.01295
G1 X84.332 Y48.317 E.01295
G1 X84.632 Y47.593 E.01444
G1 X84.863 Y47.639 E.00434
G3 X84.82 Y49.157 I-11.752 J.431 E.028
G3 X83 Y52.333 I-4.797 J-.64 E.06915
G1 X71.525 Y61.348 E.26885
G1 X70.651 Y62.135 E.02167
G1 X69.862 Y62.998 E.02154
G2 X67.139 Y67.939 I12.416 J10.062 E.10448
G1 X66.793 Y69.156 E.02331
G1 X66.793 Y95.616 E.48747
G1 X53.207 Y95.616 E.25029
M73 P1 R45
G1 X53.207 Y69.156 E.48747
G1 X52.861 Y67.939 E.02331
G2 X49.349 Y62.135 I-14.378 J4.735 E.12604
G1 X48.475 Y61.348 E.02167
G1 X37 Y52.333 E.26885
G3 X35.137 Y48.501 I3.042 J-3.848 E.0812
G1 X35.137 Y47.639 E.01588
G1 X35.368 Y47.593 E.00434
G1 X35.668 Y48.317 E.01445
G1 X36.096 Y48.875 E.01295
G1 X36.654 Y49.303 E.01295
G1 X37.303 Y49.572 E.01295
G1 X38 Y49.663 E.01295
G1 X38.697 Y49.572 E.01295
G1 X39.346 Y49.303 E.01295
G1 X39.904 Y48.875 E.01295
G1 X40.332 Y48.317 E.01295
G1 X40.601 Y47.668 E.01295
G1 X40.692 Y46.971 E.01295
G1 X40.601 Y46.274 E.01295
G1 X40.332 Y45.625 E.01295
G1 X39.904 Y45.067 E.01295
G1 X39.346 Y44.639 E.01295
G1 X38.697 Y44.37 E.01295
G1 X38 Y44.278 E.01295
G1 X37.303 Y44.37 E.01295
G1 X36.654 Y44.639 E.01295
G1 X36.096 Y45.067 E.01295
G1 X35.668 Y45.625 E.01295
G1 X35.368 Y46.349 E.01445
G1 X35.137 Y46.303 E.00434
G3 X35.177 Y44.812 I9.989 J-.478 E.0275
G3 X36.043 Y43.032 I3.324 J.517 E.03701
G1 X46.437 Y31.795 E.282
G1 X47.178 Y30.925 E.02105
G2 X49.722 Y25.806 I-11.663 J-8.987 E.10599
G3 X51.537 Y24.384 I1.802 J.43 E.04585
G1 X52.87 Y24.384 E.02456
G1 X52.87 Y34.184 E.18055
G1 X58.328 Y34.184 E.10055
G1 X58.383 Y34.4 E.00411
G1 X58.114 Y34.546 E.00563
G2 X59.636 Y41.159 I1.962 J3.03 E.16256
G1 X59.636 Y41.395 E.00436
G2 X61.297 Y41.579 I.446 J3.579 E.38639
G1 X60.763 Y41.432 E.0102
G1 X60.526 Y41.405 E.00439
G1 X60.526 Y41.149 E.00472
G1 X60.766 Y41.122 E.00444
G1 X60.79 Y41.115 E.00048
G1 E-.5
G1 Z.3 F21000
G1 X58.801 Y42.13 Z.3
G1 X58.381 Y42.358
G1 X58.001 Y42.648
G1 X57.669 Y42.992
G1 X57.393 Y43.387
G1 X57.183 Y43.811
G1 X57.039 Y44.266
G1 X56.966 Y44.738
G1 X56.966 Y45.217
G1 X57.041 Y45.693
G1 X57.183 Y46.143
G1 X57.395 Y46.571
G1 X57.67 Y46.962
G1 X58.001 Y47.306
G1 X58.381 Y47.596
G1 X58.801 Y47.824
G1 X59.25 Y47.986
G1 X59.55 Y48.044
G1 X54.782 Y72.073
G1 X55.25 Y72.073
G1 Z.1
G1 E.5 F1800
;TYPE:Outer wall
G1 F3000
G1 X64.75 Y72.073 E.17503
G1 X64.75 Y93.073 E.38689
G1 X55.25 Y93.073 E.17502
G1 X55.25 Y72.113 E.38615
G1 X54.771 Y72.073 F21000
;TYPE:Inner wall
G1 F3000
G1 X54.771 Y71.595 E.00882
G1 X65.229 Y71.594 E.19266
G1 X65.229 Y93.551 E.40452
G1 X54.771 Y93.552 E.19265
G1 X54.771 Y72.113 E.39496
M73 P1 R44
G1 X54.293 Y72.073 F21000
G1 F3000
G1 X54.293 Y71.116 E.01763
G1 X65.707 Y71.116 E.21029
G1 X65.707 Y94.03 E.42215
G1 X54.293 Y94.03 E.21028
G1 X54.293 Y72.113 E.40378
G1 E-.5
G1 Z.3 F21000
G1 X52.013 Y67.063 Z.3
G1 X51.558 Y66.07
G1 X51.032 Y65.112
G1 X44.398 Y54.87
G1 X44.08 Y54.621
G1 X43.812 Y54.35
G1 X43.596 Y53.984
G1 X43.476 Y53.575
G1 X43.459 Y53.15
G1 X43.548 Y52.734
G1 X43.579 Y52.671
G1 X43.999 Y52.877
G1 Z.1
G1 E.5 F1800
;TYPE:Outer wall
G1 F3000
G1 X44.13 Y52.61 E.00547
G3 X45.161 Y52.047 I1.044 J.686 E.02254
G1 X54.013 Y52.047 E.16308
G3 X55.247 Y53.281 I-.011 J1.244 E.03562
G1 X55.247 Y57.75 E.08234
G3 X54.013 Y58.983 I-1.244 J-.011 E.03562
G1 X50.81 Y58.983 E.05901
G3 X50.062 Y58.725 I.058 J-1.377 E.01478
G1 X44.392 Y54.27 E.13284
G3 X43.985 Y52.914 I.782 J-.974 E.02774
G1 X43.559 Y52.686 F21000
;TYPE:Inner wall
G1 F3000
G1 X43.727 Y52.346 E.00698
G1 X44.004 Y52.02 E.00789
G1 X44.353 Y51.771 E.00789
G1 X44.752 Y51.616 E.00789
G1 X45.131 Y51.569 E.00705
G1 X54.044 Y51.569 E.16421
G1 X54.446 Y51.621 E.00746
G1 X54.864 Y51.795 E.00834
G1 X55.223 Y52.07 E.00834
G1 X55.499 Y52.43 E.00834
G1 X55.672 Y52.848 E.00834
G1 X55.725 Y53.249 E.00746
G1 X55.725 Y57.781 E.08349
G1 X55.672 Y58.182 E.00746
G1 X55.499 Y58.601 E.00834
G1 X55.223 Y58.96 E.00834
G1 X54.864 Y59.236 E.00834
G1 X54.446 Y59.409 E.00834
G1 X54.044 Y59.462 E.00746
G1 X50.783 Y59.462 E.06008
G3 X49.788 Y59.118 I.09 J-1.872 E.01967
G1 X44.073 Y54.628 E.13388
G1 X43.804 Y54.357 E.00705
G1 X43.586 Y53.988 E.00789
G1 X43.465 Y53.577 E.00789
G1 X43.449 Y53.149 E.00789
G1 X43.538 Y52.73 E.00789
G1 X43.542 Y52.722 E.00017
G1 X43.062 Y52.669 F21000
G1 F3000
G1 X43.082 Y52.573 E.00181
G1 X43.323 Y52.082 E.01008
G1 X43.678 Y51.664 E.01008
G1 X44.123 Y51.347 E.01008
G1 X44.633 Y51.148 E.01008
G1 X45.102 Y51.09 E.00869
G1 X54.076 Y51.09 E.16533
G1 X54.571 Y51.155 E.00919
G1 X55.105 Y51.377 E.01066
G1 X55.565 Y51.729 E.01067
G1 X55.917 Y52.188 E.01066
G1 X56.139 Y52.723 E.01066
G1 X56.204 Y53.218 E.00919
G1 X56.204 Y57.813 E.08465
G1 X56.139 Y58.307 E.00919
G1 X55.917 Y58.842 E.01066
G1 X55.565 Y59.301 E.01066
G1 X55.105 Y59.654 E.01066
G1 X54.571 Y59.875 E.01066
G1 X54.076 Y59.941 E.00919
G1 X50.757 Y59.941 E.06115
G1 X50.336 Y59.894 E.00779
G1 X49.873 Y59.733 E.00904
G1 X49.513 Y59.51 E.00779
G1 X43.754 Y54.986 E.13492
G1 X43.422 Y54.651 E.00869
G1 X43.144 Y54.18 E.01008
G1 X42.989 Y53.655 E.01008
G1 X42.968 Y53.108 E.01008
G1 X43.053 Y52.708 E.00753
G1 E-.5
G1 Z.3 F21000
G1 X44.358 Y51.781 Z.3
G1 X44.754 Y51.626
G1 X45.132 Y51.579
G1 X74.868 Y51.579
G1 X75.246 Y51.626
G1 X75.642 Y51.781
G1 X75.935 Y51.989
G1 X75.664 Y52.371
G1 Z.1
G1 E.5 F1800
;TYPE:Outer wall
G1 F3000
G1 X75.67 Y52.375 E.00014
G3 X75.608 Y54.27 I-.844 J.921 E.03967
G1 X69.938 Y58.725 E.13284
G3 X69.19 Y58.983 I-.805 J-1.118 E.01478
G1 X65.987 Y58.983 E.05901
