; HEADER_BLOCK_START
; generated by OrcaSlicer 1.7.0-beta on 2023-09-29 at 21:17:05
; total layer number: 75
; HEADER_BLOCK_END

; THUMBNAIL_BLOCK_START
; THUMBNAIL_BLOCK_END

; external perimeters extrusion width = 0.40mm
; perimeters extrusion width = 0.46mm
; infill extrusion width = 0.64mm
; solid infill extrusion width = 0.56mm
; top infill extrusion width = 0.40mm
; first layer extrusion width = 0.50mm

; EXECUTABLE_BLOCK_START
EXCLUDE_OBJECT_DEFINE NAME=Unsaved_.stl_id_0_copy_0 CENTER=60,60 POLYGON=[[35,60],[35.0408,58.5728],[35.163,57.1502],[35.3662,55.7369],[35.6497,54.3376],[36.0127,52.9567],[36.4539,51.5988],[36.9719,50.2682],[37.565,48.9695],[38.2313,47.7067],[38.9687,46.484],[39.7746,45.3054],[40.6465,44.1747],[41.5815,43.0956],[42.5766,42.0717],[43.6285,41.1063],[44.7338,40.2024],[45.8889,39.3632],[47.0901,38.5913],[48.3333,37.8892],[49.6146,37.2592],[50.9298,36.7034],[52.2746,36.2236],[53.6445,35.8213],[55.0352,35.4979],[56.4421,35.2545],[57.8606,35.0917],[59.2861,35.0102],[60.7139,35.0102],[62.1394,35.0917],[63.5579,35.2545],[64.9648,35.4979],[66.3555,35.8213],[67.7254,36.2236],[69.0702,36.7034],[70.3854,37.2592],[71.6667,37.8892],[72.9099,38.5913],[74.1111,39.3632],[75.2662,40.2024],[76.3715,41.1063],[77.4234,42.0717],[78.4185,43.0956],[79.3535,44.1747],[80.2254,45.3054],[81.0313,46.484],[81.7687,47.7067],[82.435,48.9695],[83.0281,50.2682],[83.5461,51.5988],[83.9873,52.9567],[84.3503,54.3376],[84.6338,55.7369],[84.837,57.1502],[84.9592,58.5728],[85,60],[84.9592,61.4272],[84.837,62.8498],[84.6338,64.2631],[84.3503,65.6624],[83.9873,67.0433],[83.5461,68.4012],[83.0281,69.7317],[82.435,71.0305],[81.7687,72.2933],[81.0313,73.516],[80.2254,74.6946],[79.3535,75.8253],[78.4185,76.9044],[77.4234,77.9283],[76.3715,78.8937],[75.2662,79.7976],[74.1111,80.6368],[72.9099,81.4087],[71.6667,82.1108],[70.3854,82.7408],[69.0702,83.2966],[67.7254,83.7764],[66.3555,84.1787],[64.9648,84.5021],[63.5579,84.7455],[62.1394,84.9083],[60.7139,84.9898],[59.2861,84.9898],[57.8606,84.9083],[56.4421,84.7455],[55.0352,84.5021],[53.6445,84.1787],[52.2746,83.7764],[50.9298,83.2966],[49.6146,82.7408],[48.3333,82.1108],[47.0901,81.4087],[45.8889,80.6368],[44.7338,79.7976],[43.6285,78.8937],[42.5766,77.9283],[41.5815,76.9044],[40.6465,75.8253],[39.7746,74.6946],[38.9687,73.516],[38.2313,72.2933],[37.565,71.0305],[36.9719,69.7317],[36.4539,68.4012],[36.0127,67.0433],[35.6497,65.6624],[35.3662,64.2631],[35.163,62.8498],[35.0408,61.4272],[35,60]]
M73 P0 R19
;TYPE:Custom
START_PRINT T_BED=110 T_EXTRUDER=260
G90
G21
M83 ; use relative distances for extrusion
; Filament gcode

    PRESSURE_ADVANCE_SELECT FILAMENT=ABS
M106 S0
;LAYER_CHANGE
;Z:0.2
;HEIGHT:0.2
;BEFORE_LAYER_CHANGE
;0.2
G92 E0

;AFTER_LAYER_CHANGE
;0.2
;_SET_FAN_SPEED_CHANGING_LAYER
SET_VELOCITY_LIMIT ACCEL=1000 ACCEL_TO_DECEL=500
SET_VELOCITY_LIMIT SQUARE_CORNER_VELOCITY=9
G1 E-.5 F3000
G1 Z.2 F21000
G1 X41.012 Y40.342
G1 Z.2
G1 E.5 F1800
;TYPE:Skirt
;WIDTH:0.5
G1 F3000
G1 X43.245 Y38.407 E.10398
G1 X45.815 Y36.638 E.10982
G1 X47.319 Y35.789 E.06079
G1 X50.162 Y34.501 E.10983
G1 X53.132 Y33.546 E.10982
G1 X56.028 Y32.959 E.10398
G1 X59.136 Y32.683 E.10983
G1 X60.864 Y32.683 E.06079
G1 X63.807 Y32.935 E.10398
G1 X66.868 Y33.546 E.10983
G1 X69.838 Y34.501 E.10983
G1 X71.429 Y35.173 E.06079
G1 X74.042 Y36.552 E.10398
G1 X76.624 Y38.306 E.10982
G1 X77.961 Y39.399 E.06079
G1 X80.192 Y41.581 E.10983
G1 X82.062 Y43.868 E.10398
G1 X83.037 Y45.294 E.06079
G1 X84.563 Y48.016 E.10983
G1 X85.714 Y50.737 E.10398
G1 X86.602 Y53.729 E.10983
G1 X86.945 Y55.421 E.06079
G1 X87.282 Y58.357 E.10398
G1 X87.291 Y61.477 E.10983
G1 X87.143 Y63.198 E.06079
G1 X86.602 Y66.271 E.10983
G1 X85.714 Y69.263 E.10983
G1 X84.563 Y71.984 E.10398
G1 X83.037 Y74.706 E.10983
G1 X82.062 Y76.132 E.06079
G1 X80.192 Y78.419 E.10398
G1 X77.961 Y80.601 E.10983
G1 X76.624 Y81.694 E.06079
G1 X74.042 Y83.448 E.10982
G1 X71.429 Y84.827 E.10398
G1 X69.838 Y85.499 E.06079
G1 X67.029 Y86.412 E.10398
G1 X63.972 Y87.041 E.10983
G1 X60.864 Y87.317 E.10983
G1 X59.136 Y87.317 E.06079
G1 X56.028 Y87.041 E.10983
G1 X53.132 Y86.454 E.10398
G1 X51.475 Y85.968 E.06079
G1 X48.722 Y84.896 E.10398
G1 X47.172 Y84.134 E.06079
G1 X44.505 Y82.514 E.10983
G1 X42.039 Y80.601 E.10983
G1 X39.92 Y78.542 E.10398
G1 X37.938 Y76.132 E.10983
G1 X36.963 Y74.706 E.06079
G1 X35.437 Y71.984 E.10983
G1 X34.286 Y69.263 E.10398
G1 X33.398 Y66.271 E.10983
G1 X33.055 Y64.579 E.06079
G1 X32.718 Y61.643 E.10398
G1 X32.709 Y58.523 E.10983
G1 X32.857 Y56.802 E.06079
G1 X33.398 Y53.729 E.10983
G1 X34.286 Y50.737 E.10983
G1 X35.437 Y48.016 E.10398
G1 X36.243 Y46.488 E.06079
G1 X37.84 Y44.003 E.10398
G1 X39.808 Y41.581 E.10983
G1 X40.984 Y40.371 E.05938
G1 X41.311 Y40.689 F21000
G1 F3000
G1 X41.321 Y40.679 E.00049
G1 X43.534 Y38.761 E.10306
G1 X46.062 Y37.023 E.10799
G1 X47.521 Y36.199 E.05895
G1 X50.315 Y34.932 E.10799
G1 X53.236 Y33.991 E.10799
G1 X56.106 Y33.409 E.10306
G1 X59.162 Y33.139 E.10799
G1 X60.838 Y33.139 E.05895
G1 X63.755 Y33.389 E.10306
G1 X66.764 Y33.991 E.10799
G1 X69.685 Y34.932 E.10799
G1 X71.228 Y35.584 E.05895
G1 X73.818 Y36.95 E.10306
G1 X76.355 Y38.676 E.10799
G1 X77.652 Y39.736 E.05895
G1 X79.847 Y41.88 E.10799
G1 X81.7 Y44.147 E.10306
G1 X82.646 Y45.53 E.05895
G1 X84.086 Y48.08 E.10306
G1 X85.288 Y50.903 E.10799
G1 X86.16 Y53.845 E.10799
G1 X86.492 Y55.487 E.05895
G1 X86.834 Y58.536 E.10799
G1 X86.834 Y61.464 E.10306
G1 X86.691 Y63.133 E.05895
G1 X86.16 Y66.155 E.10799
G1 X85.335 Y68.965 E.10306
G1 X84.148 Y71.794 E.10799
G1 X82.646 Y74.47 E.10799
G1 X81.7 Y75.853 E.05895
G1 X79.752 Y78.223 E.10799
G1 X77.652 Y80.264 E.10306
G1 X76.355 Y81.324 E.05895
G1 X73.938 Y82.977 E.10306
G1 X72.479 Y83.801 E.05895
G1 X69.685 Y85.068 E.10799
G1 X66.764 Y86.009 E.10799
G1 X63.894 Y86.591 E.10306
G1 X60.838 Y86.861 E.10799
G1 X59.162 Y86.861 E.05895
G1 X56.106 Y86.591 E.10799
G1 X53.236 Y86.009 E.10306
G1 X51.629 Y85.537 E.05895
G1 X48.9 Y84.475 E.10306
G1 X47.397 Y83.736 E.05895
G1 X44.773 Y82.144 E.10799
G1 X42.454 Y80.356 E.10306
G1 X40.248 Y78.223 E.10799
G1 X38.3 Y75.853 E.10799
G1 X37.354 Y74.47 E.05895
G1 X35.914 Y71.92 E.10306
G1 X34.712 Y69.097 E.10799
G1 X33.84 Y66.155 E.10799
G1 X33.508 Y64.513 E.05895
G1 X33.166 Y61.464 E.10799
G1 X33.166 Y58.536 E.10306
G1 X33.309 Y56.867 E.05895
G1 X33.84 Y53.845 E.10799
G1 X34.712 Y50.903 E.10799
G1 X35.852 Y48.206 E.10306
G1 X37.354 Y45.53 E.10799
G1 X38.3 Y44.147 E.05895
G1 X40.153 Y41.88 E.10306
G1 X41.283 Y40.718 E.05706
; printing object (Unsaved).stl id:0 copy 0
G1 E-.5
EXCLUDE_OBJECT_START NAME=Unsaved_.stl_id_0_copy_0
G1 Z.4 F21000
G1 X68.732 Y37.572 Z.4
G1 Z.2
G1 E.5 F1800
;TYPE:Outer wall
G1 F3000
G1 X69.998 Y38.107 E.04838
G1 X71.232 Y38.714 E.04838
G1 X72.429 Y39.39 E.04838
G1 X73.585 Y40.133 E.04837
G1 X74.697 Y40.941 E.04838
G1 X75.761 Y41.811 E.04838
G1 X76.774 Y42.74 E.04838
G1 X77.732 Y43.726 E.04838
G1 X78.632 Y44.765 E.04838
G1 X79.471 Y45.853 E.04838
G1 X80.247 Y46.988 E.04838
G1 X80.957 Y48.165 E.04838
G1 X81.598 Y49.381 E.04838
G1 X82.169 Y50.631 E.04838
G1 X82.668 Y51.912 E.04838
G1 X83.093 Y53.219 E.04838
G1 X83.442 Y54.549 E.04838
G1 X83.715 Y55.896 E.04838
G1 X83.911 Y57.256 E.04838
G1 X84.029 Y58.626 E.04838
G1 X84.068 Y60 E.04838
G1 X84.029 Y61.374 E.04838
G1 X83.911 Y62.744 E.04838
G1 X83.715 Y64.104 E.04838
G1 X83.442 Y65.451 E.04838
G1 X83.093 Y66.781 E.04838
G1 X82.668 Y68.088 E.04838
G1 X82.169 Y69.369 E.04838
G1 X81.598 Y70.619 E.04838
G1 X80.957 Y71.835 E.04838
G1 X80.247 Y73.012 E.04838
G1 X79.471 Y74.147 E.04838
G1 X78.632 Y75.235 E.04838
G1 X77.732 Y76.274 E.04838
G1 X76.774 Y77.26 E.04838
G1 X75.761 Y78.189 E.04838
G1 X74.697 Y79.059 E.04838
G1 X73.585 Y79.867 E.04838
G1 X72.429 Y80.61 E.04838
G1 X71.633 Y81.06 E.03215
G1 X71.232 Y81.286 E.01623
G1 X69.998 Y81.893 E.04838
G1 X68.732 Y82.428 E.04838
G1 X67.437 Y82.89 E.04838
G1 X66.119 Y83.277 E.04838
G1 X64.78 Y83.588 E.04838
G1 X63.425 Y83.823 E.04837
G1 X62.518 Y83.927 E.03215
G1 X62.06 Y83.98 E.01623
G1 X60.687 Y84.058 E.04838
G1 X59.313 Y84.058 E.04838
G1 X57.94 Y83.98 E.04838
G1 X56.575 Y83.823 E.04838
G1 X55.22 Y83.588 E.04837
G1 X53.881 Y83.277 E.04838
G1 X52.563 Y82.89 E.04838
G1 X51.268 Y82.428 E.04838
G1 X50.002 Y81.893 E.04838
G1 X48.768 Y81.286 E.04838
G1 X47.571 Y80.61 E.04838
G1 X46.415 Y79.867 E.04838
G1 X45.303 Y79.059 E.04838
G1 X44.239 Y78.189 E.04838
G1 X43.226 Y77.26 E.04838
G1 X42.268 Y76.274 E.04838
G1 X41.368 Y75.235 E.04838
G1 X40.529 Y74.147 E.04838
G1 X39.753 Y73.012 E.04838
G1 X39.043 Y71.835 E.04838
G1 X38.402 Y70.619 E.04838
G1 X37.831 Y69.369 E.04838
G1 X37.332 Y68.088 E.04838
G1 X36.907 Y66.781 E.04838
G1 X36.558 Y65.451 E.04838
G1 X36.285 Y64.104 E.04838
G1 X36.089 Y62.744 E.04838
G1 X35.971 Y61.374 E.04838
G1 X35.932 Y60 E.04838
G1 X35.971 Y58.626 E.04838
G1 X36.089 Y57.256 E.04838
G1 X36.285 Y55.896 E.04838
G1 X36.558 Y54.549 E.04838
G1 X36.907 Y53.219 E.04838
G1 X37.332 Y51.912 E.04838
G1 X37.831 Y50.631 E.04838
G1 X38.402 Y49.381 E.04838
G1 X39.043 Y48.165 E.04838
G1 X39.753 Y46.988 E.04838
G1 X40.529 Y45.853 E.04838
G1 X41.368 Y44.765 E.04838
G1 X42.268 Y43.726 E.04838
G1 X43.226 Y42.74 E.04838
G1 X44.239 Y41.811 E.04838
G1 X45.303 Y40.941 E.04838
G1 X46.415 Y40.133 E.04838
G1 X47.571 Y39.39 E.04837
G1 X48.768 Y38.714 E.04838
G1 X50.002 Y38.107 E.04838
G1 X51.268 Y37.572 E.04838
G1 X52.563 Y37.11 E.04838
G1 X53.881 Y36.723 E.04838
G1 X55.22 Y36.412 E.04838
G1 X56.575 Y36.177 E.04837
G1 X57.94 Y36.02 E.04838
G1 X59.313 Y35.942 E.04838
G1 X60.687 Y35.942 E.04838
G1 X61.599 Y35.994 E.03215
G1 X62.06 Y36.02 E.01623
G1 X63.425 Y36.177 E.04838
G1 X64.78 Y36.412 E.04838
G1 X66.119 Y36.723 E.04838
G1 X67.437 Y37.11 E.04838
G1 X68.694 Y37.559 E.04697
G1 X68.551 Y38.038 F21000
;TYPE:Inner wall
G1 F3000
G1 X69.79 Y38.562 E.04737
G1 X70.998 Y39.156 E.04737
G1 X72.17 Y39.818 E.04737
G1 X73.303 Y40.546 E.04737
G1 X74.392 Y41.337 E.04737
G1 X75.433 Y42.189 E.04737
G1 X76.425 Y43.099 E.04737
G1 X77.363 Y44.064 E.04737
G1 X78.245 Y45.081 E.04737
G1 X79.067 Y46.147 E.04737
G1 X79.826 Y47.258 E.04737
G1 X80.521 Y48.411 E.04737
G1 X81.15 Y49.601 E.04737
G1 X81.709 Y50.826 E.04737
G1 X82.197 Y52.08 E.04737
G1 X82.613 Y53.36 E.04737
G1 X82.955 Y54.662 E.04737
G1 X83.222 Y55.981 E.04737
G1 X83.414 Y57.313 E.04737
G1 X83.529 Y58.655 E.04737
G1 X83.568 Y60 E.04737
G1 X83.529 Y61.345 E.04737
G1 X83.414 Y62.687 E.04737
G1 X83.222 Y64.019 E.04737
G1 X82.955 Y65.338 E.04737
G1 X82.613 Y66.64 E.04737
G1 X82.197 Y67.92 E.04737
G1 X81.709 Y69.174 E.04737
G1 X81.15 Y70.399 E.04737
G1 X80.521 Y71.589 E.04737
G1 X79.826 Y72.742 E.04737
G1 X79.067 Y73.853 E.04737
G1 X78.245 Y74.919 E.04737
G1 X77.363 Y75.936 E.04737
G1 X76.425 Y76.901 E.04737
G1 X75.434 Y77.811 E.04737
G1 X74.392 Y78.663 E.04737
M73 P1 R19
G1 X73.303 Y79.454 E.04737
G1 X72.17 Y80.182 E.04737
G1 X71.387 Y80.624 E.03164
G1 X70.998 Y80.844 E.01573
G1 X69.79 Y81.438 E.04737
G1 X68.55 Y81.962 E.04737
G1 X67.283 Y82.414 E.04737
G1 X65.991 Y82.793 E.04737
G1 X64.68 Y83.098 E.04737
G1 X63.354 Y83.328 E.04737
G1 X62.461 Y83.43 E.03164
G1 X62.017 Y83.481 E.01573
G1 X60.673 Y83.558 E.04737
G1 X59.327 Y83.558 E.04737
G1 X57.983 Y83.481 E.04737
G1 X56.646 Y83.328 E.04737
G1 X55.32 Y83.098 E.04737
G1 X54.009 Y82.793 E.04737
G1 X52.717 Y82.414 E.04737
G1 X51.449 Y81.962 E.04737
G1 X50.21 Y81.438 E.04737
G1 X49.002 Y80.844 E.04737
G1 X47.83 Y80.182 E.04737
G1 X46.697 Y79.454 E.04737
G1 X45.608 Y78.663 E.04737
G1 X44.566 Y77.811 E.04737
G1 X43.575 Y76.901 E.04737
G1 X42.637 Y75.936 E.04737
G1 X41.755 Y74.919 E.04737
G1 X40.933 Y73.853 E.04737
G1 X40.174 Y72.742 E.04737
G1 X39.479 Y71.589 E.04737
G1 X38.85 Y70.399 E.04737
G1 X38.291 Y69.174 E.04737
G1 X37.803 Y67.92 E.04737
G1 X37.387 Y66.64 E.04737
G1 X37.045 Y65.338 E.04737
G1 X36.778 Y64.019 E.04737
G1 X36.586 Y62.687 E.04737
G1 X36.471 Y61.345 E.04737
G1 X36.432 Y60 E.04737
G1 X36.471 Y58.655 E.04737
G1 X36.586 Y57.313 E.04737
G1 X36.778 Y55.981 E.04737
G1 X37.045 Y54.662 E.04737
G1 X37.387 Y53.36 E.04737
G1 X37.803 Y52.08 E.04737
G1 X38.291 Y50.826 E.04737
G1 X38.85 Y49.601 E.04737
G1 X39.479 Y48.411 E.04737
G1 X40.174 Y47.258 E.04737
G1 X40.933 Y46.147 E.04737
G1 X41.755 Y45.081 E.04737
G1 X42.637 Y44.064 E.04737
G1 X43.575 Y43.099 E.04737
G1 X44.567 Y42.189 E.04737
G1 X45.608 Y41.337 E.04737
G1 X46.697 Y40.546 E.04737
G1 X47.83 Y39.818 E.04737
G1 X49.002 Y39.156 E.04737
G1 X50.21 Y38.562 E.04737
G1 X51.449 Y38.038 E.04737
G1 X52.717 Y37.586 E.04737
G1 X54.009 Y37.207 E.04737
G1 X55.32 Y36.902 E.04737
G1 X56.646 Y36.672 E.04737
G1 X57.983 Y36.519 E.04737
G1 X59.327 Y36.442 E.04737
G1 X60.673 Y36.442 E.04737
G1 X61.571 Y36.493 E.03164
G1 X62.017 Y36.519 E.01573
G1 X63.354 Y36.672 E.04737
G1 X64.68 Y36.902 E.04737
G1 X65.991 Y37.207 E.04737
G1 X67.283 Y37.586 E.04737
G1 X68.513 Y38.025 E.04596
G1 X68.385 Y38.464 F21000
G1 F3000
G1 X69.6 Y38.978 E.04645
G1 X70.785 Y39.56 E.04645
G1 X71.934 Y40.209 E.04645
G1 X73.044 Y40.923 E.04645
G1 X74.112 Y41.699 E.04645
G1 X75.134 Y42.534 E.04645
G1 X76.106 Y43.427 E.04645
G1 X77.026 Y44.373 E.04645
G1 X77.891 Y45.371 E.04645
G1 X78.697 Y46.416 E.04645
G1 X79.442 Y47.506 E.04645
G1 X80.123 Y48.636 E.04645
G1 X80.739 Y49.803 E.04645
G1 X81.288 Y51.004 E.04645
G1 X81.766 Y52.234 E.04645
G1 X82.174 Y53.489 E.04645
G1 X82.51 Y54.766 E.04645
G1 X82.772 Y56.059 E.04645
G1 X82.96 Y57.366 E.04645
G1 X83.073 Y58.681 E.04645
G1 X83.11 Y60 E.04645
G1 X83.073 Y61.319 E.04645
G1 X82.96 Y62.634 E.04645
G1 X82.772 Y63.941 E.04645
G1 X82.51 Y65.234 E.04645
G1 X82.174 Y66.511 E.04645
G1 X81.766 Y67.766 E.04645
G1 X81.288 Y68.996 E.04645
G1 X80.739 Y70.197 E.04645
G1 X80.123 Y71.364 E.04645
G1 X79.442 Y72.494 E.04645
G1 X78.697 Y73.584 E.04645
G1 X77.891 Y74.629 E.04645
G1 X77.026 Y75.627 E.04645
G1 X76.106 Y76.573 E.04645
G1 X75.134 Y77.466 E.04645
G1 X74.112 Y78.301 E.04645
G1 X73.044 Y79.077 E.04645
G1 X71.934 Y79.791 E.04645
G1 X71.163 Y80.226 E.03118
G1 X70.785 Y80.44 E.01527
G1 X69.6 Y81.022 E.04645
G1 X68.385 Y81.536 E.04645
G1 X67.142 Y81.979 E.04645
G1 X65.875 Y82.351 E.04645
G1 X64.589 Y82.65 E.04645
G1 X63.289 Y82.875 E.04645
G1 X62.409 Y82.976 E.03118
G1 X61.978 Y83.026 E.01527
G1 X60.66 Y83.101 E.04645
G1 X59.34 Y83.101 E.04645
G1 X58.022 Y83.026 E.04645
G1 X56.711 Y82.875 E.04645
G1 X55.411 Y82.65 E.04645
G1 X54.125 Y82.351 E.04645
G1 X52.859 Y81.979 E.04645
G1 X51.615 Y81.536 E.04645
G1 X50.4 Y81.022 E.04645
G1 X49.215 Y80.44 E.04645
G1 X48.066 Y79.791 E.04645
G1 X46.956 Y79.077 E.04645
G1 X45.888 Y78.301 E.04645
G1 X44.866 Y77.466 E.04645
G1 X43.894 Y76.573 E.04645
G1 X42.974 Y75.627 E.04645
G1 X42.109 Y74.629 E.04645
G1 X41.303 Y73.584 E.04645
G1 X40.558 Y72.494 E.04645
G1 X39.877 Y71.364 E.04645
G1 X39.261 Y70.197 E.04645
G1 X38.712 Y68.996 E.04645
G1 X38.234 Y67.766 E.04645
G1 X37.826 Y66.511 E.04645
G1 X37.49 Y65.234 E.04645
G1 X37.228 Y63.941 E.04645
G1 X37.04 Y62.634 E.04645
G1 X36.927 Y61.319 E.04645
G1 X36.89 Y60 E.04645
G1 X36.927 Y58.681 E.04645
G1 X37.04 Y57.366 E.04645
G1 X37.228 Y56.059 E.04645
G1 X37.49 Y54.766 E.04645
G1 X37.826 Y53.489 E.04645
G1 X38.234 Y52.234 E.04645
G1 X38.712 Y51.004 E.04645
G1 X39.261 Y49.803 E.04645
G1 X39.877 Y48.636 E.04645
G1 X40.558 Y47.506 E.04645
G1 X41.303 Y46.416 E.04645
G1 X42.109 Y45.371 E.04645
G1 X42.974 Y44.373 E.04645
G1 X43.894 Y43.427 E.04645
G1 X44.866 Y42.534 E.04645
G1 X45.888 Y41.699 E.04645
G1 X46.956 Y40.923 E.04645
G1 X48.066 Y40.209 E.04645
G1 X49.215 Y39.56 E.04645
G1 X50.4 Y38.978 E.04645
G1 X51.615 Y38.464 E.04645
G1 X52.859 Y38.021 E.04645
G1 X54.125 Y37.649 E.04645
G1 X55.411 Y37.35 E.04645
G1 X56.711 Y37.125 E.04645
G1 X58.022 Y36.974 E.04645
G1 X59.34 Y36.899 E.04645
G1 X60.66 Y36.899 E.04645
G1 X61.545 Y36.95 E.03118
G1 X61.978 Y36.974 E.01527
G1 X63.289 Y37.125 E.04645
G1 X64.589 Y37.35 E.04645
G1 X65.875 Y37.649 E.04645
G1 X67.141 Y38.021 E.04645
G1 X68.347 Y38.451 E.04504
G1 X68.219 Y38.89 F21000
G1 F3000
G1 X69.41 Y39.394 E.04553
G1 X70.571 Y39.965 E.04553
G1 X71.698 Y40.601 E.04553
G1 X72.786 Y41.3 E.04553
G1 X73.833 Y42.061 E.04553
G1 X74.835 Y42.88 E.04553
