; HEADER_BLOCK_START
; generated by OrcaSlicer 1.6.3 on 2023-06-02 at 19:59:19
; total layer number: 40
; HEADER_BLOCK_END

; THUMBNAIL_BLOCK_START
; THUMBNAIL_BLOCK_END

; external perimeters extrusion width = 0.40mm
; perimeters extrusion width = 0.45mm
; infill extrusion width = 0.45mm
; solid infill extrusion width = 0.40mm
; top infill extrusion width = 0.40mm
; support material extrusion width = 0.40mm
; first layer extrusion width = 0.50mm

; EXECUTABLE_BLOCK_START
EXCLUDE_OBJECT_DEFINE NAME=(Unsaved).stl_id_0_copy_0 CENTER=60,60 POLYGON=[[39.3868,64.6736],[39.4355,64.2717],[39.5379,63.88],[39.6921,63.5057],[39.8953,63.1556],[40.1437,62.8359],[43.217,59.5576],[43.5079,59.2943],[53.3041,51.9461],[53.7202,51.6415],[53.9563,51.4815],[54.3819,51.2149],[54.6406,51.0656],[55.0724,50.8367],[55.3534,50.7005],[55.7881,50.5089],[56.0908,50.3883],[56.5255,50.2331],[56.849,50.1306],[57.2807,50.0107],[57.624,49.9287],[58.0498,49.843],[58.4116,49.7837],[58.829,49.7306],[59.2076,49.6964],[59.6143,49.6743],[60.0079,49.6673],[60.4015,49.6743],[60.8082,49.6964],[61.1867,49.7306],[61.6042,49.7837],[61.9659,49.843],[62.3918,49.9287],[62.7351,50.0107],[63.1667,50.1306],[63.4903,50.2331],[63.9249,50.3883],[64.2277,50.5089],[64.6624,50.7005],[64.9434,50.8367],[65.3751,51.0656],[65.6339,51.2149],[66.0595,51.4815],[66.2955,51.6415],[66.7117,51.9461],[76.495,59.2992],[76.7864,59.5645],[79.8635,62.8692],[80.1123,63.1924],[80.3149,63.5464],[80.4677,63.9246],[80.5677,64.32],[80.6132,64.7254],[80.6032,65.1332],[80.5381,65.5358],[80.4189,65.9259],[80.2479,66.2962],[80.0283,66.6399],[79.7019,67.0369],[79.3366,67.3982],[78.9361,67.7201],[78.5047,67.9993],[78.0469,68.2326],[77.5675,68.4178],[77.0717,68.5528],[76.5647,68.6362],[64.9315,70.2917],[64.5161,70.3327],[55.4996,70.3327],[55.0842,70.2917],[43.3205,68.6198],[42.823,68.5249],[42.3376,68.3801],[41.8694,68.1869],[41.4231,67.9474],[41.0034,67.6639],[40.6144,67.3394],[40.2603,66.9772],[39.9447,66.5811],[39.7315,66.2369],[39.5666,65.8672],[39.4529,65.4787],[39.3927,65.0784],[39.3868,64.6736]]
M73 P0 R14
;TYPE:Custom
START_PRINT T_BED=110 T_EXTRUDER=260
G90
G21
M83 ; use relative distances for extrusion
; Filament gcode

    PRESSURE_ADVANCE_SELECT FILAMENT=ABS
M106 S0
;LAYER_CHANGE
;Z:0.2
;HEIGHT:0.2
;BEFORE_LAYER_CHANGE
;0.2
G92 E0

;AFTER_LAYER_CHANGE
;0.2
SET_VELOCITY_LIMIT ACCEL_TO_DECEL=500
M204 S1000
G1 E-.5 F3000
G1 Z.2 F21000
G1 X42.378 Y56.499
G1 E.5 F1800
;TYPE:Skirt
;WIDTH:0.5
G1 F3000
G1 X51.545 Y49.623 E.40328
G1 X53.334 Y48.46 E.0751
G1 X55.134 Y47.637 E.06966
G1 X57.08 Y47.067 E.07138
G1 X58.871 Y46.801 E.06372
G1 X60.889 Y46.783 E.07101
G1 X62.154 Y46.922 E.04481
G1 X63.922 Y47.317 E.06374
G1 X65.08 Y47.712 E.04307
G1 X66.902 Y48.583 E.07105
G1 X68.473 Y49.625 E.06637
G1 X78.246 Y56.97 E.43024
G1 X78.919 Y57.579 E.03195
G1 X82.427 Y61.423 E.18317
G1 X83.017 Y62.455 E.04183
G1 X83.393 Y63.605 E.04259
G1 X83.509 Y64.401 E.02828
G1 X83.517 Y65.204 E.02828
G1 X83.325 Y66.387 E.04218
G1 X83.065 Y67.148 E.02828
G1 X82.703 Y67.865 E.02828
G1 X81.751 Y69.109 E.05512
G1 X80.762 Y69.991 E.04666
G1 X80.088 Y70.446 E.02862
G1 X79.097 Y70.951 E.03914
G1 X77.837 Y71.365 E.04666
G1 X64.516 Y73.247 E.47348
G1 X55.209 Y73.232 E.32757
G1 X42.911 Y71.505 E.43706
G1 X41.505 Y71.173 E.05085
G1 X40.491 Y70.755 E.03858
G1 X39.372 Y70.079 E.046
G1 X38.531 Y69.377 E.03858
G1 X37.467 Y68.116 E.05805
G1 X37.07 Y67.424 E.02807
G1 X36.77 Y66.685 E.02807
G1 X36.571 Y65.908 E.02824
G1 X36.479 Y65.115 E.02808
G1 X36.494 Y64.323 E.02789
G1 X36.616 Y63.535 E.02807
G1 X36.998 Y62.396 E.04227
G1 X37.595 Y61.367 E.04186
G1 X41.091 Y57.565 E.1818
G1 X41.759 Y56.963 E.03164
G1 X42.33 Y56.535 E.02511
G1 X42.631 Y56.933 F21000
G1 F3000
G1 X51.819 Y49.989 E.40533
G1 X53.542 Y48.867 E.07236
G1 X55.281 Y48.069 E.06735
G1 X57.163 Y47.516 E.06901
G1 X58.921 Y47.256 E.06255
G1 X60.873 Y47.24 E.0687
G1 X62.071 Y47.371 E.04242
G1 X63.977 Y47.811 E.06885
G1 X65.799 Y48.522 E.06885
G1 X67.462 Y49.466 E.06727
G1 X77.971 Y57.335 E.46207
G1 X78.585 Y57.89 E.02911
G1 X81.662 Y61.195 E.15892
G1 X82.247 Y61.976 E.03436
G1 X82.746 Y63.004 E.04022
G1 X83.009 Y64.046 E.03782
G1 X83.06 Y65.193 E.0404
G1 X82.888 Y66.254 E.03782
G1 X82.479 Y67.326 E.0404
G1 X81.926 Y68.2 E.03639
G1 X81.064 Y69.145 E.04501
G1 X80.271 Y69.783 E.03583
G1 X79.163 Y70.422 E.04501
G1 X78.213 Y70.789 E.03583
G1 X76.911 Y71.069 E.04688
G1 X64.757 Y72.778 E.43194
G1 X55.5 Y72.79 E.32581
G1 X42.362 Y70.938 E.46692
G1 X41.401 Y70.651 E.03532
G1 X40.261 Y70.112 E.04437
G1 X39.429 Y69.551 E.03532
G1 X38.503 Y68.695 E.04437
G1 X37.643 Y67.531 E.05095
G1 X37.095 Y66.168 E.05169
G1 X36.93 Y64.709 E.05169
G1 X37.161 Y63.259 E.05169
G1 X37.567 Y62.273 E.03753
G1 X38.204 Y61.328 E.0401
G1 X41.568 Y57.736 E.17321
G1 X42.583 Y56.969 E.04476
; printing object (Unsaved).stl id:0 copy 0
EXCLUDE_OBJECT_START NAME=(Unsaved).stl_id_0_copy_0
G1 E-.5
G1 Z.4 F21000
G1 X73.055 Y61.274
G1 Z.2
G1 E.5 F1800
;TYPE:Inner wall
;WIDTH:0.499999
G1 F3000
G1 X72.795 Y61.606 E.01485
G1 X72.531 Y62.099 E.01965
G1 X72.322 Y62.679 E.02169
G1 X72.216 Y63.191 E.01842
G1 X72.189 Y63.724 E.01878
G1 X72.26 Y64.393 E.02367
G1 X72.414 Y64.945 E.02018
G1 X72.637 Y65.459 E.01969
G1 X73.037 Y66.064 E.02554
G1 X73.421 Y66.467 E.01957
G1 X70.681 Y66.479 E.09644
G1 X70.651 Y65.762 E.02528
G1 X70.573 Y65.296 E.01661
G1 X70.434 Y64.764 E.01935
G1 X70.162 Y64.099 E.0253
G1 X69.909 Y63.651 E.01809
G1 X70.224 Y63.199 E.01939
G1 X70.486 Y62.708 E.01958
G1 X70.696 Y62.157 E.02077
G1 X70.851 Y61.523 E.02299
G1 X70.922 Y60.841 E.02411
G1 X73.439 Y60.846 E.08857
G1 X73.243 Y61.036 E.00961
G1 X73.092 Y61.227 E.00858
G1 X73.408 Y61.561 F21000
G1 F3000
G1 X73.169 Y61.869 E.01374
G1 X72.948 Y62.286 E.01659
G1 X72.767 Y62.784 E.01864
G1 X72.66 Y63.371 E.021
G1 X72.665 Y64.009 E.02248
G1 X72.75 Y64.508 E.01779
G1 X72.918 Y64.995 E.01812
G1 X73.193 Y65.503 E.02034
G1 X73.591 Y66.002 E.02249
G1 X74.077 Y66.418 E.02248
G1 X74.632 Y66.733 E.02249
G1 X75.139 Y66.91 E.01889
G1 X70.181 Y66.95 E.1745
G1 X70.225 Y66.204 E.0263
G1 X70.186 Y65.699 E.01783
G1 X70.074 Y65.155 E.01955
G1 X69.863 Y64.539 E.02291
G1 X69.617 Y64.054 E.01915
G1 X69.336 Y63.628 E.01794
G1 X69.439 Y63.514 E.00543
G1 X69.823 Y62.98 E.02314
G1 X70.07 Y62.519 E.01842
G1 X70.265 Y62.005 E.01935
G1 X70.405 Y61.425 E.02097
G1 X70.468 Y60.789 E.02249
G1 X70.453 Y60.345 E.01566
G1 X70.751 Y60.384 E.01055
G1 X73.37 Y60.388 E.09219
G1 X74.552 Y60.408 E.0416
G1 X74.963 Y60.465 E.0146
G1 X74.592 Y60.62 E.01415
G1 X74.04 Y60.943 E.02249
G1 X73.56 Y61.364 E.02248
G1 X73.445 Y61.513 E.00663
G1 E-.5
G1 Z.4 F21000
G1 X69.592 Y58.962
G1 Z.2
G1 E.5 F1800
;WIDTH:0.455165
G1 F3000
G1 X69.504 Y58.77 E.00671
;WIDTH:0.485129
G1 X69.416 Y58.578 E.0072
G1 X69.071 Y58.104 E.01994
G1 X68.704 Y57.742 E.01758
G1 X69.084 Y57.264 E.02081
G1 X69.249 Y57.741 E.01718
G1 X69.509 Y58.666 E.03273
;WIDTH:0.455165
G1 X69.575 Y58.905 E.00786
G1 E-.5
G1 Z.4 F21000
G1 X66.761 Y58.075
G1 X66.072 Y57.877
G1 Z.2
G1 E.5 F1800
;TYPE:Outer wall
;WIDTH:0.38292
G1 F3000
G1 X65.627 Y57.901 E.01166
G1 E-.5
G1 Z.4 F21000
G1 X64.874 Y58.218
G1 X64.547 Y58.397
G1 X63.549 Y59.085
G1 X63.441 Y59.48
G1 X63.336 Y60.279
G1 X63.308 Y60.667
G1 X63.336 Y61.056
G1 X63.439 Y61.837
G1 X63.55 Y62.25
G1 X64.547 Y62.938
G1 X64.889 Y63.125
G1 X65.255 Y63.26
G1 X66.068 Y63.458
G1 Z.2
G1 E.5 F1800
G1 F3000
G1 X65.614 Y63.433 E.01191
G1 E-.5
G1 Z.4 F21000
G1 X66.454 Y63.637
G1 X66.828 Y63.777
G1 X67.172 Y63.965
G1 X68.247 Y64.665
G1 X68.655 Y64.958
G1 X69.011 Y65.342
G1 X69.117 Y65.828
G1 X68.983 Y66.324
G1 X68.743 Y66.767
G1 X68.02 Y67.838
G1 X67.439 Y68.625
G1 Z.2
G1 E.5 F1800
;WIDTH:0.409884
M73 P1 R14
G1 F3000
G1 X66.954 Y68.987 E.0171
;WIDTH:0.41871
G1 X66.909 Y69.016 E.00154
G1 E-.5
G1 Z.4 F21000
G1 X66.063 Y69.096
G1 X65.665 Y69.124
G1 X65.266 Y69.096
G1 X64.884 Y69.013
G1 X64.484 Y68.91
G1 X64.084 Y68.784
G1 X63.711 Y68.578
G1 X63.396 Y68.301
G1 X60.832 Y64.918
G1 Z.2
G1 E.5 F1800
;TYPE:Inner wall
;WIDTH:0.52946
G1 F3000
G1 X60.701 Y65.495 E.02218
G1 X60.372 Y65.453 E.01243
;WIDTH:0.516378
G1 X59.829 Y65.449 E.0198
;WIDTH:0.529464
G1 X59.315 Y65.495 E.01932
G1 X59.185 Y64.919 E.02215
G1 X59.643 Y64.982 E.01735
;WIDTH:0.51638
G1 X60.188 Y64.985 E.01985
;WIDTH:0.52946
G1 X60.772 Y64.924 E.022
G1 E-.5
G1 Z.4 F21000
G1 X61.656 Y64.159
G1 Z.2
G1 E.5 F1800
;WIDTH:0.499999
G1 F3000
G1 X61.537 Y64.379 E.00881
G1 X61.301 Y64.989 E.02303
G1 X61.168 Y65.556 E.0205
G1 X61.114 Y66.074 E.01833
G1 X60.412 Y65.926 E.02525
G1 X59.835 Y65.91 E.02033
G1 X59.435 Y65.954 E.01414
G1 X58.902 Y66.074 E.01924
G1 X58.882 Y65.794 E.00988
G1 X58.791 Y65.298 E.01774
G1 X58.609 Y64.699 E.02204
G1 X58.36 Y64.159 E.02093
G1 X58.585 Y64.257 E.00864
G1 X59.196 Y64.442 E.02244
G1 X59.835 Y64.524 E.02267
G1 X60.469 Y64.501 E.02233
G1 X61.094 Y64.372 E.02247
G1 X61.6 Y64.18 E.01904
G1 E-.5
G1 Z.4 F21000
G1 X62.932 Y63.259
G1 Z.2
G1 E.5 F1800
;WIDTH:0.526591
G1 F3000
G1 X62.57 Y63.607 E.01869
G1 X62.232 Y64.07 E.02136
;WIDTH:0.499999
G1 X61.946 Y64.584 E.0207
G1 X61.735 Y65.131 E.02062
G1 X61.615 Y65.653 E.01886
G1 X61.561 Y66.236 E.02061
G1 X61.586 Y66.769 E.01876
G1 X61.253 Y66.606 E.01304
G1 X60.727 Y66.442 E.0194
G1 X60.181 Y66.367 E.0194
G1 X59.511 Y66.404 E.02362
G1 X58.929 Y66.549 E.02111
G1 X58.43 Y66.769 E.0192
G1 X58.455 Y66.236 E.01876
G1 X58.401 Y65.653 E.02061
G1 X58.264 Y65.084 E.02061
G1 X58.046 Y64.536 E.02075
G1 X57.748 Y64.021 E.02093
;WIDTH:0.526154
G1 X57.443 Y63.604 E.01925
G1 X57.071 Y63.247 E.01916
;WIDTH:0.524606
G1 X57.38 Y62.85 E.01866
;WIDTH:0.526643
G1 X57.774 Y63.254 E.021
G1 X58.232 Y63.572 E.02075
;WIDTH:0.499999
G1 X58.734 Y63.825 E.01979
G1 X59.216 Y63.981 E.01785
G1 X59.723 Y64.063 E.01805
G1 X60.293 Y64.063 E.02008
G1 X60.801 Y63.98 E.0181
G1 X61.319 Y63.811 E.01916
G1 X61.83 Y63.546 E.02027
;WIDTH:0.526106
G1 X62.246 Y63.25 E.019
G1 X62.636 Y62.85 E.02077
;WIDTH:0.524485
G1 X62.897 Y63.211 E.01649
G1 X63.697 Y63.303 F21000
;WIDTH:0.499999
G1 F3000
G1 X63.255 Y63.599 E.01872
G1 X62.874 Y63.976 E.01883
G1 X62.565 Y64.4 E.01849
G1 X62.32 Y64.866 E.01853
G1 X62.149 Y65.349 E.01804
G1 X62.046 Y65.859 E.01832
G1 X62.017 Y66.379 E.01832
G1 X62.061 Y66.898 E.01832
G1 X62.215 Y67.499 E.02183
G1 X62.273 Y67.586 E.00368
;WIDTH:0.456095
G1 X62.33 Y67.673 E.00333
;WIDTH:0.41219
G1 X62.388 Y67.76 E.00298
;WIDTH:0.368285
G1 X62.446 Y67.848 E.00262
;WIDTH:0.32438
G1 X62.702 Y68.288 E.01104
;WIDTH:0.317087
G1 X63.014 Y68.696 E.01084
;WIDTH:0.359314
G1 X63.093 Y68.798 E.00314
;WIDTH:0.40154
G1 X63.172 Y68.899 E.00356
;WIDTH:0.443766
G1 X63.251 Y69.001 E.00398
;WIDTH:0.485992
G1 X63.331 Y69.102 E.00439
;WIDTH:0.528218
G1 X63.41 Y69.204 E.00481
G1 X63.322 Y69.175 E.00346
;WIDTH:0.480896
G1 X63.233 Y69.147 E.00313
;WIDTH:0.433573
G1 X63.145 Y69.118 E.00279
;WIDTH:0.386251
G1 X63.057 Y69.089 E.00245
;WIDTH:0.338928
G1 X62.738 Y68.794 E.00992
;WIDTH:0.316352
G1 X62.418 Y68.34 E.01167
;WIDTH:0.357918
G1 X62.313 Y68.163 E.005
;WIDTH:0.405278
G1 X62.209 Y67.985 E.00575
;WIDTH:0.452639
G1 X62.104 Y67.808 E.0065
;WIDTH:0.499999
G1 X61.999 Y67.63 E.00726
G1 X61.633 Y67.328 E.01672
G1 X61.221 Y67.09 E.01672
G1 X60.677 Y66.897 E.0203
G1 X60.181 Y66.824 E.01765
G1 X59.587 Y66.855 E.02094
G1 X59.079 Y66.98 E.01843
G1 X58.491 Y67.257 E.02286
G1 X58.077 Y67.571 E.01826
G1 X58.011 Y67.676 E.00438
;WIDTH:0.456423
G1 X57.944 Y67.781 E.00397
;WIDTH:0.412847
G1 X57.878 Y67.886 E.00355
;WIDTH:0.369271
G1 X57.811 Y67.992 E.00313
;WIDTH:0.325695
G1 X57.536 Y68.438 E.01142
;WIDTH:0.317249
G1 X57.196 Y68.89 E.01194
G1 X56.713 Y69.283 E.01315
;WIDTH:0.291201
G1 X56.147 Y69.515 E.01171
G1 X55.767 Y69.568 E.00732
G1 X56.097 Y69.4 E.00707
;WIDTH:0.292629
G1 X56.636 Y69.034 E.01253
;WIDTH:0.315495
G1 X57.049 Y68.644 E.01192
G1 X57.345 Y68.241 E.01051
;WIDTH:0.357429
G1 X57.615 Y67.791 E.01268
;WIDTH:0.404953
G1 X57.688 Y67.663 E.00414
;WIDTH:0.452476
G1 X57.762 Y67.534 E.00468
;WIDTH:0.499999
G1 X57.836 Y67.405 E.00523
G1 X57.954 Y66.898 E.01832
G1 X57.999 Y66.379 E.01832
G1 X57.97 Y65.859 E.01832
G1 X57.867 Y65.349 E.01832
G1 X57.692 Y64.859 E.01833
G1 X57.444 Y64.39 E.01868
G1 X57.141 Y63.976 E.01805
G1 X56.748 Y63.588 E.01943
G1 X56.319 Y63.303 E.01813
G1 X56.714 Y62.941 E.01887
G1 X57.07 Y62.449 E.02139
G1 X57.332 Y61.893 E.02164
G1 X57.482 Y62.181 E.01146
G1 X57.805 Y62.619 E.01915
G1 X58.168 Y62.964 E.0176
G1 X58.583 Y63.242 E.0176
G1 X59.061 Y63.454 E.01839
G1 X59.556 Y63.575 E.01795
G1 X60.181 Y63.61 E.02203
G1 X60.675 Y63.539 E.01757
G1 X61.134 Y63.392 E.01693
G1 X61.595 Y63.154 E.01829
G1 X62.015 Y62.829 E.01867
G1 X62.373 Y62.427 E.01894
G1 X62.684 Y61.893 E.02177
G1 X62.756 Y62.086 E.00727
G1 X62.998 Y62.543 E.01817
G1 X63.318 Y62.962 E.01859
G1 X63.652 Y63.263 E.01581
G1 E-.5
G1 Z.4 F21000
G1 X56.304 Y68.578
G1 X55.939 Y68.781
G1 X55.532 Y68.91
G1 X55.14 Y69.011
G1 X54.757 Y69.094
G1 X54.351 Y69.124
G1 X53.953 Y69.096
G1 X53.107 Y69.016
G1 Z.2
G1 E.5 F1800
;TYPE:Outer wall
;WIDTH:0.41811
G1 F3000
G1 X52.552 Y68.604 E.01997
;WIDTH:0.38292
G1 X52.543 Y68.597 E.00029
G1 E-.5
G1 Z.4 F21000
G1 X51.995 Y67.838
G1 X51.289 Y66.765
G1 X51.058 Y66.324
G1 X50.899 Y65.828
G1 X51.005 Y65.342
G1 X51.354 Y64.965
G1 X51.769 Y64.665
G1 X52.831 Y63.973
G1 X53.188 Y63.777
G1 X53.944 Y63.458
G1 Z.2
G1 E.5 F1800
G1 F3000
G1 X54.406 Y63.434 E.0121
G1 E-.5
G1 Z.4 F21000
G1 X55.127 Y63.125
G1 X55.469 Y62.938
G1 X56.466 Y62.25
G1 X56.577 Y61.837
G1 X56.68 Y61.056
G1 X56.708 Y60.667
G1 X56.68 Y60.279
G1 X56.577 Y59.498
G1 X56.466 Y59.085
G1 X55.469 Y58.397
G1 X55.142 Y58.218
G1 X54.761 Y58.075
G1 X53.947 Y57.877
G1 Z.2
G1 E.5 F1800
G1 F3000
G1 X54.385 Y57.901 E.01147
G1 E-.5
G1 Z.4 F21000
G1 X51.312 Y57.742
G1 Z.2
G1 E.5 F1800
;TYPE:Inner wall
;WIDTH:0.485338
G1 F3000
G1 X51.075 Y57.962 E.01102
G1 X50.699 Y58.425 E.02031
G1 X50.569 Y58.676 E.00963
;WIDTH:0.458315
G1 X50.438 Y58.926 E.00904
G1 X50.513 Y58.65 E.00917
;WIDTH:0.485338
G1 X50.76 Y57.764 E.03133
G1 X50.932 Y57.263 E.01803
G1 X51.275 Y57.695 E.0188
G1 E-.5
G1 Z.4 F21000
G1 X51.654 Y53.775
G1 Z.2
G1 E.5 F1800
;TYPE:Outer wall
;WIDTH:0.419924
G1 F3000
G1 X52.152 Y53.117 E.02396
;WIDTH:0.38292
G1 X52.772 Y52.549 E.02199
G1 E-.5
G1 Z.4 F21000
G1 X53.562 Y52.324
G1 X53.953 Y52.239
G1 X54.343 Y52.211
G1 X54.75 Y52.239
G1 X55.571 Y52.34
G1 X56.028 Y52.401
G1 X56.5 Y52.53
G1 X56.975 Y52.737
G1 X60.852 Y56.434
G1 Z.2
G1 E.5 F1800
;TYPE:Inner wall
;WIDTH:0.499999
G1 F3000
G1 X60.317 Y56.357 E.01903
G1 X59.705 Y56.357 E.02152
G1 X59.165 Y56.434 E.01922
G1 X59.238 Y56.133 E.0109
G1 X59.338 Y55.573 E.02003
G1 X59.367 Y54.858 E.0252
G1 X59.294 Y54.145 E.0252
G1 X59.168 Y53.593 E.01995
G1 X58.977 Y53.066 E.01973
G1 X58.646 Y52.415 E.02569
G1 X58.396 Y52.046 E.01569
G1 X58.755 Y51.98 E.01285
G1 X59.352 Y51.915 E.02116
G1 X59.992 Y51.89 E.02253
G1 X60.605 Y51.912 E.02158
G1 X61.115 Y51.966 E.01806
G1 X61.621 Y52.046 E.01802
G1 X61.44 Y52.297 E.0109
G1 X61.16 Y52.801 E.02028
G1 X60.963 Y53.268 E.01783
G1 X60.809 Y53.744 E.01763
G1 X60.678 Y54.448 E.0252
G1 X60.649 Y55.163 E.0252
G1 X60.723 Y55.882 E.02541
G1 X60.838 Y56.376 E.01787
G1 E-.5
G1 Z.4 F21000
G1 X61.655 Y57.175
G1 Z.2
G1 E.5 F1800
G1 F3000
G1 X61.43 Y57.078 E.00861
G1 X60.82 Y56.893 E.02244
G1 X60.188 Y56.81 E.02244
G1 X59.55 Y56.833 E.02245
G1 X58.926 Y56.961 E.02244
G1 X58.361 Y57.175 E.02126
G1 X58.609 Y56.635 E.02091
G1 X58.791 Y56.036 E.02204
G1 X58.882 Y55.54 E.01774
G1 X58.911 Y54.89 E.02291
G1 X58.848 Y54.242 E.02291
G1 X58.692 Y53.61 E.02291
G1 X58.447 Y53.002 E.02307
G1 X58.204 Y52.565 E.01761
G1 X57.876 Y52.115 E.01959
G1 X57.555 Y51.77 E.01658
G1 X57.99 Y51.656 E.01583
G1 X58.688 Y51.528 E.02497
G1 X59.319 Y51.459 E.02231
G1 X59.991 Y51.433 E.02369
G1 X60.661 Y51.456 E.02359
G1 X61.365 Y51.533 E.02491
G1 X61.955 Y51.643 E.02114
G1 X62.46 Y51.77 E.01833
G1 X62.14 Y52.115 E.01658
G1 X61.761 Y52.65 E.02308
G1 X61.464 Y53.233 E.02302
G1 X61.256 Y53.841 E.02262
G1 X61.147 Y54.36 E.01864
G1 X61.105 Y54.89 E.01873
G1 X61.134 Y55.54 E.02291
G1 X61.224 Y56.034 E.01765
G1 X61.407 Y56.635 E.02213
G1 X61.63 Y57.121 E.0188
G1 E-.5
G1 Z.4 F21000
G1 X62.636 Y58.485
