; HEADER_BLOCK_START
; generated by OrcaSlicer 1.6.3 on 2023-06-09 at 21:26:24
; total layer number: 33
; HEADER_BLOCK_END

; THUMBNAIL_BLOCK_START
; THUMBNAIL_BLOCK_END

; external perimeters extrusion width = 0.30mm
; perimeters extrusion width = 0.30mm
; infill extrusion width = 0.30mm
; solid infill extrusion width = 0.30mm
; top infill extrusion width = 0.30mm
; support material extrusion width = 0.30mm
; first layer extrusion width = 0.30mm

; EXECUTABLE_BLOCK_START
EXCLUDE_OBJECT_DEFINE NAME=(Unsaved).stl_id_0_copy_0 CENTER=60,60 POLYGON=[[50.625,55.001],[54.435,39.483],[54.439,39.467],[54.469,39.371],[54.483,39.339],[54.525,39.267],[54.555,39.225],[54.599,39.175],[54.649,39.131],[54.691,39.101],[54.763,39.059],[54.795,39.045],[54.891,39.015],[54.907,39.011],[54.965,39.003],[55.023,39.001],[59.019,39.001],[59.165,39.005],[59.253,39.013],[59.311,39.021],[59.455,39.049],[59.485,39.055],[59.597,39.085],[59.709,39.123],[59.737,39.133],[59.873,39.191],[59.925,39.217],[60.003,39.259],[60.127,39.337],[61.123,39.999],[61.925,40.533],[65.929,43.203],[67.733,44.407],[67.831,44.481],[67.929,44.555],[68.105,44.725],[68.259,44.917],[68.387,45.127],[68.439,45.239],[68.489,45.349],[68.527,45.467],[68.563,45.583],[68.587,45.705],[68.609,45.825],[68.617,45.947],[68.625,46.071],[69.375,60.999],[69.375,61.163],[69.373,61.303],[69.371,61.425],[69.367,61.531],[68.625,78.999],[68.611,79.235],[68.607,79.261],[68.569,79.465],[68.555,79.517],[68.501,79.691],[68.471,79.765],[68.407,79.905],[68.357,79.999],[68.289,80.109],[68.277,80.127],[68.187,80.247],[68.147,80.297],[68.089,80.361],[67.985,80.467],[67.841,80.587],[67.791,80.623],[67.687,80.693],[67.581,80.757],[67.525,80.785],[67.355,80.861],[67.177,80.923],[67.117,80.939],[66.995,80.965],[66.873,80.985],[66.811,80.991],[66.625,80.999],[55.125,80.999],[54.929,80.991],[54.873,80.985],[54.733,80.961],[54.625,80.937],[54.543,80.913],[54.385,80.859],[54.359,80.847],[54.181,80.763],[54.157,80.751],[54.013,80.663],[53.943,80.615],[53.855,80.547],[53.751,80.453],[53.711,80.413],[53.621,80.317],[53.579,80.267],[53.539,80.217],[53.463,80.111],[53.443,80.083],[53.393,79.999],[53.339,79.903],[53.293,79.803],[53.251,79.701],[53.241,79.673],[53.181,79.473],[53.177,79.453],[53.137,79.229],[50.625,56.499],[50.625,55.001]]
M73 P0 R9
;TYPE:Custom
START_PRINT T_BED=110 T_EXTRUDER=260
G90
G21
M83 ; use relative distances for extrusion
; Filament gcode

    PRESSURE_ADVANCE_SELECT FILAMENT=ABS
M106 S0
;LAYER_CHANGE
;Z:0.2
;HEIGHT:0.2
;BEFORE_LAYER_CHANGE
;0.2
G92 E0

;AFTER_LAYER_CHANGE
;0.2
M204 S500
; printing object (Unsaved).stl id:0 copy 0
EXCLUDE_OBJECT_START NAME=(Unsaved).stl_id_0_copy_0
G1 E-.5 F3000
G1 Z.2 F21000
G1 X64.736 Y38.722
G1 E.5 F1800
;TYPE:Support
;WIDTH:0.3
G1 F3000
G1 X70.25 Y38.722 E.10915
G1 X70.25 Y41.479 E.05457
G1 X73.007 Y41.479 E.05457
G1 X73.007 Y64.736 E.46035
G1 X70.25 Y64.736 E.05457
G1 X70.25 Y67.493 E.05457
G1 X67.493 Y67.493 E.05457
G1 X67.493 Y71.807 E.0854
G1 X73.007 Y71.807 E.10915
G1 X73.007 Y81.278 E.18747
G1 X67.264 Y81.278 E.11367
G1 X67.238 Y81.162 E.00235
G1 X67.453 Y81.091 E.00448
G1 X67.697 Y80.978 E.00532
G1 X67.945 Y80.82 E.00582
G1 X68.144 Y80.658 E.00509
G1 X68.333 Y80.464 E.00536
G1 X68.503 Y80.238 E.0056
G1 X68.632 Y80.014 E.0051
G1 X68.737 Y79.772 E.00523
G1 X68.81 Y79.532 E.00497
G1 X68.858 Y79.273 E.00521
G1 X68.881 Y78.906 E.00728
G1 X68.733 Y78.749 E.00427
G1 X64.028 Y78.749 E.09312
G1 X62.175 Y76.897 E.05186
G1 X62.175 Y68.797 E.16033
G1 X62.029 Y68.651 E.0041
G1 X57.132 Y68.651 E.09693
G1 X56.806 Y68.634 E.00646
G1 X56.49 Y68.587 E.00632
G1 X56.18 Y68.51 E.00632
G1 X55.881 Y68.402 E.00629
G1 X55.593 Y68.266 E.0063
G1 X55.318 Y68.101 E.00635
G1 X55.062 Y67.911 E.00631
G1 X54.826 Y67.698 E.00629
G1 X54.613 Y67.462 E.00629
G1 X54.423 Y67.206 E.00631
G1 X54.258 Y66.931 E.00635
G1 X54.122 Y66.643 E.0063
G1 X54.014 Y66.344 E.00629
G1 X53.937 Y66.034 E.00632
G1 X53.89 Y65.718 E.00632
G1 X53.873 Y65.392 E.00646
G1 X53.873 Y57.408 E.15806
G1 X53.89 Y57.082 E.00646
G1 X53.937 Y56.766 E.00632
G1 X54.014 Y56.456 E.00632
G1 X54.122 Y56.157 E.00629
G1 X54.258 Y55.869 E.0063
G1 X54.423 Y55.594 E.00635
G1 X54.613 Y55.338 E.00631
G1 X54.826 Y55.102 E.00629
G1 X55.062 Y54.888 E.0063
G1 X55.318 Y54.697 E.00632
G1 X55.592 Y54.534 E.00632
G1 X55.881 Y54.398 E.00631
G1 X56.18 Y54.29 E.0063
G1 X56.49 Y54.213 E.00632
G1 X56.806 Y54.166 E.00632
G1 X57.132 Y54.149 E.00646
G1 X64.227 Y54.149 E.14044
G1 X64.373 Y54.003 E.0041
G1 X64.373 Y50.763 E.06413
G1 X64.413 Y50.559 E.00411
G1 X64.521 Y50.397 E.00386
G1 X64.683 Y50.289 E.00386
G1 X64.887 Y50.251 E.0041
G1 X68.729 Y50.251 E.07605
G1 X68.875 Y50.105 E.0041
G1 X68.875 Y47.397 E.05359
G1 X68.729 Y47.251 E.0041
G1 X64.029 Y47.251 E.09303
G1 X62.175 Y45.397 E.05189
G1 X62.175 Y40.47 E.09753
G1 X62.116 Y40.36 E.00248
G1 X60.263 Y39.127 E.04405
G1 X60.035 Y38.992 E.00524
G1 X59.803 Y38.891 E.005
G1 X59.536 Y38.81 E.00554
G1 X59.276 Y38.764 E.00522
G1 X58.022 Y38.751 E.02483
G1 X58.022 Y35.965 E.05515
G1 X64.736 Y35.965 E.1329
G1 X64.736 Y38.683 E.05381
M73 P1 R9
G1 E-.5
G1 Z.4 F21000
G1 X61.475 Y45.419
G1 X61.475 Y45.687
G1 X63.523 Y53.299
G1 X57.661 Y53.299
G1 X57.138 Y54.38
G1 Z.2
G1 E.5 F1800
G1 F3000
G1 X64.322 Y54.38 E.14222
G1 X64.604 Y54.098 E.00789
G1 X64.604 Y50.775 E.06578
G1 X64.628 Y50.648 E.00256
G1 X64.685 Y50.561 E.00206
G1 X64.772 Y50.504 E.00206
G1 X64.898 Y50.482 E.00252
G1 X68.824 Y50.482 E.07773
G1 X69.106 Y50.2 E.00789
G1 X69.106 Y47.302 E.05738
G1 X68.824 Y47.02 E.00789
G1 X64.124 Y47.02 E.09303
G1 X62.406 Y45.302 E.04809
G1 X62.406 Y40.412 E.09678
G1 X62.292 Y40.199 E.00478
G1 X60.389 Y38.933 E.04526
G1 X60.134 Y38.783 E.00585
G1 X59.863 Y38.667 E.00583
G1 X59.61 Y38.59 E.00523
G1 X59.326 Y38.537 E.00573
G1 X59.03 Y38.52 E.00586
G1 X58.253 Y38.52 E.01539
G1 X58.253 Y36.196 E.04599
G1 X64.504 Y36.196 E.12374
G1 X64.504 Y38.953 E.05457
G1 X70.018 Y38.953 E.10915
G1 X70.018 Y41.71 E.05457
G1 X72.775 Y41.71 E.05457
G1 X72.775 Y64.504 E.45119
G1 X70.018 Y64.504 E.05457
G1 X70.018 Y67.261 E.05457
G1 X67.261 Y67.261 E.05457
G1 X67.261 Y72.038 E.09456
G1 X72.775 Y72.038 E.10915
G1 X72.775 Y81.047 E.17831
G1 X68.022 Y81.047 E.09409
G1 X68.296 Y80.833 E.00687
G1 X68.524 Y80.597 E.0065
G1 X68.684 Y80.384 E.00528
G1 X68.829 Y80.137 E.00567
G1 X68.957 Y79.846 E.00629
G1 X69.033 Y79.593 E.00524
G1 X69.087 Y79.308 E.00573
G1 X69.118 Y78.82 E.00968
G1 X68.833 Y78.518 E.00823
G1 X64.124 Y78.518 E.0932
G1 X62.406 Y76.801 E.04807
G1 X62.406 Y68.702 E.16033
G1 X62.124 Y68.42 E.00789
G1 X57.138 Y68.42 E.09871
G1 X56.829 Y68.403 E.00612
G1 X56.535 Y68.36 E.00588
G1 X56.248 Y68.288 E.00586
G1 X55.97 Y68.188 E.00585
G1 X55.702 Y68.062 E.00585
G1 X55.447 Y67.908 E.0059
G1 X55.208 Y67.732 E.00587
G1 X54.99 Y67.534 E.00584
G1 X54.792 Y67.316 E.00584
G1 X54.616 Y67.077 E.00587
G1 X54.462 Y66.822 E.0059
G1 X54.336 Y66.554 E.00585
G1 X54.236 Y66.276 E.00585
G1 X54.164 Y65.989 E.00586
G1 X54.121 Y65.695 E.00588
G1 X54.104 Y65.386 E.00612
G1 X54.104 Y57.414 E.15782
G1 X54.121 Y57.105 E.00612
G1 X54.164 Y56.811 E.00588
G1 X54.236 Y56.524 E.00586
G1 X54.336 Y56.246 E.00585
G1 X54.462 Y55.978 E.00585
G1 X54.616 Y55.723 E.0059
G1 X54.792 Y55.484 E.00587
G1 X54.99 Y55.266 E.00584
G1 X55.209 Y55.067 E.00586
G1 X55.447 Y54.89 E.00587
G1 X55.701 Y54.739 E.00586
M73 P2 R9
G1 X55.97 Y54.612 E.00587
G1 X56.248 Y54.512 E.00585
G1 X56.535 Y54.44 E.00586
G1 X56.829 Y54.397 E.00588
G1 X57.138 Y54.38 E.00612
G1 X57.145 Y54.666 F21000
G1 F3000
G1 X64.441 Y54.666 E.14441
G1 X64.89 Y54.217 E.01258
G1 X64.89 Y50.768 E.06826
G1 X68.943 Y50.768 E.08022
G1 X69.392 Y50.319 E.01258
G1 X69.392 Y47.183 E.06206
G1 X68.943 Y46.734 E.01258
G1 X64.243 Y46.734 E.09303
G1 X62.692 Y45.183 E.04341
G1 X62.692 Y40.34 E.09586
G1 X62.51 Y40.001 E.00762
G1 X60.544 Y38.693 E.04675
G1 X60.256 Y38.525 E.00659
G1 X59.954 Y38.396 E.00651
G1 X59.643 Y38.304 E.00643
G1 X59.368 Y38.254 E.00553
G1 X59.034 Y38.234 E.00662
G1 X58.539 Y38.234 E.00981
G1 X58.539 Y36.482 E.03468
G1 X64.219 Y36.482 E.11243
G1 X64.219 Y39.239 E.05457
G1 X69.733 Y39.239 E.10915
G1 X69.733 Y41.996 E.05457
G1 X72.49 Y41.996 E.05457
G1 X72.49 Y64.219 E.43988
G1 X69.733 Y64.219 E.05457
G1 X69.733 Y66.976 E.05457
G1 X66.976 Y66.976 E.05457
G1 X66.976 Y72.324 E.10587
G1 X72.49 Y72.324 E.10915
G1 X72.49 Y80.761 E.16701
G1 X68.758 Y80.761 E.07387
G1 X68.943 Y80.51 E.00617
G1 X69.099 Y80.236 E.00625
G1 X69.212 Y79.981 E.00552
G1 X69.309 Y79.667 E.0065
G1 X69.375 Y79.305 E.0073
G1 X69.41 Y78.714 E.01171
G1 X68.956 Y78.232 E.01311
G1 X64.242 Y78.232 E.0933
G1 X62.692 Y76.683 E.04338
G1 X62.692 Y68.583 E.16033
G1 X62.243 Y68.134 E.01258
G1 X57.145 Y68.134 E.10091
G1 X56.857 Y68.119 E.00571
G1 X56.591 Y68.08 E.00533
G1 X56.331 Y68.014 E.0053
G1 X56.079 Y67.924 E.0053
G1 X55.837 Y67.81 E.0053
G1 X55.606 Y67.67 E.00535
G1 X55.39 Y67.511 E.00532
G1 X55.192 Y67.332 E.00527
G1 X55.013 Y67.134 E.00528
G1 X54.854 Y66.918 E.00532
G1 X54.714 Y66.687 E.00535
G1 X54.6 Y66.445 E.0053
G1 X54.51 Y66.193 E.0053
G1 X54.444 Y65.933 E.0053
G1 X54.405 Y65.667 E.00533
G1 X54.39 Y65.379 E.00571
G1 X54.39 Y57.421 E.15752
G1 X54.405 Y57.133 E.00571
G1 X54.444 Y56.867 E.00533
G1 X54.51 Y56.607 E.0053
G1 X54.6 Y56.355 E.0053
G1 X54.714 Y56.113 E.0053
G1 X54.854 Y55.882 E.00534
G1 X55.013 Y55.666 E.00532
G1 X55.192 Y55.468 E.00527
G1 X55.391 Y55.288 E.00531
G1 X55.606 Y55.128 E.0053
G1 X55.835 Y54.991 E.00529
G1 X56.079 Y54.876 E.00533
G1 X56.331 Y54.786 E.0053
G1 X56.591 Y54.72 E.0053
G1 X56.857 Y54.681 E.00533
G1 X57.145 Y54.666 E.00571
G1 X57.152 Y54.952 F21000
G1 F3000
G1 X64.559 Y54.952 E.14661
G1 X65.176 Y54.335 E.01726
G1 X65.176 Y51.054 E.06495
G1 X69.061 Y51.054 E.07691
G1 X69.678 Y50.437 E.01726
G1 X69.678 Y47.065 E.06675
G1 X69.061 Y46.448 E.01726
G1 X64.361 Y46.448 E.09303
M73 P3 R9
G1 X62.978 Y45.065 E.03873
G1 X62.978 Y40.269 E.09494
G1 X62.728 Y39.803 E.01046
G1 X60.699 Y38.453 E.04824
G1 X60.379 Y38.267 E.00733
G1 X60.045 Y38.125 E.00718
G1 X59.702 Y38.024 E.00708
G1 X59.344 Y37.964 E.00719
G1 X58.824 Y37.948 E.01029
G1 X58.824 Y36.768 E.02338
G1 X63.933 Y36.768 E.10112
G1 X63.933 Y39.525 E.05457
G1 X69.447 Y39.525 E.10915
G1 X69.447 Y42.282 E.05457
G1 X72.204 Y42.282 E.05457
G1 X72.204 Y63.933 E.42857
G1 X69.447 Y63.933 E.05457
G1 X69.447 Y66.69 E.05457
G1 X66.69 Y66.69 E.05457
G1 X66.69 Y72.61 E.11718
G1 X72.204 Y72.61 E.10915
G1 X72.204 Y80.475 E.1557
G1 X69.306 Y80.475 E.05737
G1 X69.476 Y80.088 E.00838
G1 X69.599 Y79.685 E.00834
G1 X69.66 Y79.33 E.00713
G1 X69.703 Y78.608 E.01432
G1 X69.079 Y77.946 E.01799
G1 X64.361 Y77.946 E.09341
G1 X62.978 Y76.565 E.0387
G1 X62.978 Y68.465 E.16033
G1 X62.361 Y67.848 E.01726
G1 X57.152 Y67.848 E.1031
G1 X56.646 Y67.799 E.01006
G1 X56.415 Y67.741 E.00473
G1 X55.972 Y67.557 E.00949
G1 X55.571 Y67.29 E.00955
G1 X55.234 Y66.953 E.00942
G1 X54.967 Y66.552 E.00955
G1 X54.783 Y66.109 E.00949
G1 X54.725 Y65.878 E.00473
G1 X54.676 Y65.372 E.01006
G1 X54.676 Y57.429 E.15723
G1 X54.725 Y56.922 E.01006
G1 X54.783 Y56.691 E.00473
G1 X54.967 Y56.248 E.00949
G1 X55.234 Y55.847 E.00954
G1 X55.573 Y55.509 E.00946
G1 X55.764 Y55.366 E.00474
G1 X55.969 Y55.244 E.00472
G1 X56.415 Y55.059 E.00954
G1 X56.646 Y55.001 E.00473
G1 X56.885 Y54.966 E.00478
G1 X57.152 Y54.952 E.0053
G1 X57.16 Y55.237 F21000
G1 F3000
G1 X64.677 Y55.237 E.1488
G1 X65.461 Y54.453 E.02195
G1 X65.461 Y51.339 E.06164
G1 X69.179 Y51.339 E.0736
G1 X69.963 Y50.555 E.02195
G1 X69.963 Y46.947 E.07143
G1 X69.179 Y46.163 E.02195
G1 X64.479 Y46.163 E.09303
G1 X63.263 Y44.947 E.03404
G1 X63.263 Y40.197 E.09402
G1 X62.946 Y39.605 E.0133
G1 X60.854 Y38.213 E.04973
G1 X60.501 Y38.009 E.00807
G1 X60.21 Y37.881 E.0063
G1 X59.836 Y37.763 E.00776
G1 X59.452 Y37.689 E.00773
G1 X59.11 Y37.666 E.00679
G1 X59.11 Y37.053 E.01212
G1 X63.647 Y37.053 E.08981
G1 X63.647 Y39.81 E.05457
M73 P4 R9
G1 X69.161 Y39.81 E.10915
G1 X69.161 Y42.567 E.05457
G1 X71.918 Y42.567 E.05457
G1 X71.918 Y63.647 E.41726
G1 X69.161 Y63.647 E.05457
G1 X69.161 Y66.404 E.05457
G1 X66.404 Y66.404 E.05457
G1 X66.404 Y72.895 E.12848
G1 X71.918 Y72.895 E.10915
G1 X71.918 Y80.19 E.14439
G1 X69.748 Y80.19 E.04296
G1 X69.861 Y79.817 E.0077
G1 X69.935 Y79.437 E.00767
G1 X69.995 Y78.502 E.01855
G1 X69.203 Y77.661 E.02288
G1 X64.479 Y77.661 E.09351
G1 X63.263 Y76.446 E.03401
G1 X63.263 Y68.347 E.16033
G1 X62.479 Y67.563 E.02195
G1 X57.16 Y67.563 E.10529
G1 X56.702 Y67.519 E.0091
G1 X56.498 Y67.467 E.00417
G1 X56.107 Y67.305 E.00839
G1 X55.752 Y67.068 E.00844
G1 X55.456 Y66.772 E.00829
G1 X55.219 Y66.417 E.00844
G1 X55.057 Y66.026 E.00839
G1 X55.005 Y65.822 E.00417
G1 X54.961 Y65.364 E.0091
G1 X54.961 Y57.436 E.15693
G1 X55.005 Y56.978 E.0091
G1 X55.057 Y56.774 E.00417
G1 X55.219 Y56.383 E.00839
G1 X55.456 Y56.028 E.00844
G1 X55.754 Y55.73 E.00836
G1 X56.104 Y55.496 E.00831
G1 X56.498 Y55.333 E.00845
G1 X56.914 Y55.25 E.00839
G1 X57.16 Y55.237 E.00488
G1 X57.167 Y55.523 F21000
G1 F3000
G1 X64.796 Y55.523 E.151
G1 X65.747 Y54.572 E.02663
G1 X65.747 Y51.625 E.05833
G1 X69.298 Y51.625 E.07028
G1 X70.249 Y50.674 E.02663
G1 X70.249 Y46.828 E.07612
G1 X69.298 Y45.877 E.02663
G1 X64.598 Y45.877 E.09303
G1 X63.549 Y44.828 E.02936
G1 X63.549 Y40.096 E.09367
G1 X68.876 Y40.096 E.10544
G1 X68.876 Y42.853 E.05457
G1 X71.633 Y42.853 E.05457
G1 X71.633 Y63.362 E.40595
G1 X68.876 Y63.362 E.05457
G1 X68.876 Y66.119 E.05457
G1 X66.119 Y66.119 E.05457
G1 X66.119 Y73.181 E.13979
M73 P5 R9
G1 X71.633 Y73.181 E.10915
G1 X71.633 Y79.904 E.13308
G1 X70.139 Y79.904 E.02956
G1 X70.229 Y79.382 E.01049
G1 X70.288 Y78.396 E.01955
G1 X69.326 Y77.375 E.02776
G1 X64.597 Y77.375 E.09361
G1 X63.549 Y76.328 E.02933
G1 X63.549 Y68.228 E.16033
G1 X62.598 Y67.277 E.02663
G1 X56.942 Y67.265 E.11195
G1 X56.581 Y67.194 E.00727
G1 X56.241 Y67.053 E.00729
G1 X56.082 Y66.957 E.00368
G1 X55.799 Y66.725 E.00725
G1 X55.677 Y66.591 E.00359
G1 X55.471 Y66.283 E.00734
G1 X55.33 Y65.943 E.00729
G1 X55.286 Y65.766 E.0036
G1 X55.247 Y65.357 E.00814
G1 X55.247 Y57.443 E.15664
G1 X55.286 Y57.034 E.00814
G1 X55.33 Y56.857 E.0036
G1 X55.471 Y56.517 E.00729
G1 X55.677 Y56.209 E.00734
G1 X55.936 Y55.95 E.00725
G1 X56.238 Y55.749 E.00718
G1 X56.581 Y55.606 E.00737
G1 X56.942 Y55.535 E.00728
G1 X57.167 Y55.523 E.00447
G1 X57.175 Y55.809 F21000
G1 F3000
G1 X64.914 Y55.809 E.15319
G1 X66.033 Y54.69 E.03131
G1 X66.033 Y51.911 E.05502
G1 X69.416 Y51.911 E.06697
G1 X70.535 Y50.792 E.03131
G1 X70.535 Y46.71 E.0808
G1 X69.416 Y45.591 E.03131
G1 X64.716 Y45.591 E.09303
G1 X63.835 Y44.71 E.02467
G1 X63.835 Y40.382 E.08568
G1 X68.59 Y40.382 E.09413
M73 P5 R8
G1 X68.59 Y43.139 E.05457
G1 X71.347 Y43.139 E.05457
G1 X71.347 Y63.076 E.39465
G1 X68.59 Y63.076 E.05457
G1 X68.59 Y65.833 E.05457
G1 X65.833 Y65.833 E.05457
G1 X65.833 Y73.467 E.1511
G1 X71.347 Y73.467 E.10915
G1 X71.347 Y79.618 E.12177
G1 X70.488 Y79.618 E.017
G1 X70.58 Y78.29 E.02637
G1 X69.449 Y77.089 E.03264
G1 X64.715 Y77.089 E.09371
G1 X63.835 Y76.209 E.02465
G1 X63.835 Y68.11 E.16032
G1 X62.716 Y66.991 E.03131
G1 X56.97 Y66.981 E.11373
G1 X56.665 Y66.92 E.00616
G1 X56.376 Y66.801 E.00619
G1 X56.241 Y66.719 E.00312
G1 X56.001 Y66.523 E.00614
G1 X55.898 Y66.41 E.00303
G1 X55.723 Y66.148 E.00623
G1 X55.604 Y65.859 E.00619
G1 X55.566 Y65.71 E.00304
G1 X55.533 Y65.349 E.00718
G1 X55.543 Y57.246 E.16039
M73 P6 R8
G1 X55.604 Y56.941 E.00616
G1 X55.723 Y56.652 E.00619
G1 X55.898 Y56.39 E.00623
G1 X56.118 Y56.171 E.00614
G1 X56.372 Y56.001 E.00605
G1 X56.665 Y55.88 E.00628
G1 X56.97 Y55.819 E.00616
G1 X57.175 Y55.809 E.00406
G1 X57.182 Y56.094 F21000
G1 F3000
G1 X65.032 Y56.094 E.15538
G1 X66.318 Y54.808 E.036
G1 X66.318 Y52.196 E.0517
G1 X69.534 Y52.196 E.06366
G1 X71.062 Y50.669 E.04275
G1 X71.062 Y62.79 E.23993
G1 X68.304 Y62.79 E.05457
G1 X68.304 Y65.547 E.05457
G1 X65.547 Y65.547 E.05457
G1 X65.547 Y73.752 E.16241
G1 X71.062 Y73.752 E.10915
G1 X71.062 Y78.384 E.09168
G1 X69.573 Y76.804 E.04297
G1 X64.834 Y76.804 E.09381
G1 X64.12 Y76.091 E.01996
G1 X64.12 Y67.992 E.16032
G1 X62.834 Y66.706 E.036
G1 X56.999 Y66.696 E.11552
G1 X56.748 Y66.647 E.00505
G1 X56.511 Y66.548 E.00509
