; HEADER_BLOCK_START
; generated by OrcaSlicer 1.6.3 on 2023-06-02 at 12:03:46
; total layer number: 198
; HEADER_BLOCK_END

; THUMBNAIL_BLOCK_START
; THUMBNAIL_BLOCK_END

; external perimeters extrusion width = 0.40mm
; perimeters extrusion width = 0.45mm
; infill extrusion width = 0.45mm
; solid infill extrusion width = 0.40mm
; top infill extrusion width = 0.40mm
; support material extrusion width = 0.40mm
; first layer extrusion width = 0.50mm

; EXECUTABLE_BLOCK_START
EXCLUDE_OBJECT_DEFINE NAME=(Unsaved).stl_id_0_copy_0 CENTER=60,60 POLYGON=[[47.338,29.55],[47.3811,29.0025],[47.5093,28.4684],[47.7195,27.961],[48.0064,27.4927],[48.3631,27.0751],[48.7808,26.7184],[49.249,26.4315],[49.7564,26.2213],[50.2905,26.0931],[50.838,26.05],[69.162,26.05],[69.7095,26.0931],[70.2436,26.2213],[70.751,26.4315],[71.2193,26.7184],[71.6369,27.0751],[71.9936,27.4927],[72.2805,27.961],[72.4907,28.4684],[72.6189,29.0025],[72.662,29.55],[72.662,91.95],[72.6119,92.395],[72.5933,92.4698],[72.4639,92.8178],[72.3428,93.0334],[72.2257,93.197],[71.909,93.5137],[71.7096,93.6527],[71.5298,93.7519],[71.1398,93.8915],[71.1071,93.8999],[70.662,93.95],[49.338,93.95],[48.893,93.8999],[48.8602,93.8915],[48.4702,93.7519],[48.2904,93.6527],[48.091,93.5137],[47.7743,93.197],[47.6572,93.0334],[47.5361,92.8178],[47.4067,92.4698],[47.3881,92.395],[47.338,91.95],[47.338,29.55]]
M73 P0 R45
;TYPE:Custom
START_PRINT T_BED=110 T_EXTRUDER=260
G90
G21
M83 ; use relative distances for extrusion
; Filament gcode

    PRESSURE_ADVANCE_SELECT FILAMENT=ABS
M106 S0
;LAYER_CHANGE
;Z:0.2
;HEIGHT:0.2
;BEFORE_LAYER_CHANGE
;0.2
G92 E0

;AFTER_LAYER_CHANGE
;0.2
SET_VELOCITY_LIMIT ACCEL_TO_DECEL=500
M204 S1000
G1 E-.5 F3000
G1 Z.2 F21000
G1 X46.643 Y26.835
G1 E.5 F1800
;TYPE:Skirt
;WIDTH:0.5
G1 F3000
G1 X47.436 Y25.89 E.04339
G1 X48.563 Y25.101 E.04842
G1 X49.37 Y24.774 E.03065
G1 X50.221 Y24.591 E.03065
G1 X69.416 Y24.559 E.67554
G1 X70.63 Y24.774 E.04339
G1 X71.437 Y25.101 E.03065
G1 X72.175 Y25.564 E.03066
G1 X72.822 Y26.148 E.03065
G1 X73.357 Y26.835 E.03066
G1 X73.765 Y27.604 E.03065
G1 X74.033 Y28.433 E.03066
G1 X74.153 Y29.296 E.03065
G1 X74.164 Y81.122 E1.82395
G1 X74.029 Y82.06 E.03338
G1 X73.491 Y83.178 E.04365
G1 X72.649 Y83.999 E.0414
G1 X71.701 Y84.466 E.03717
G1 X70.731 Y84.637 E.03468
G1 X50.292 Y84.653 E.71931
G1 X49.265 Y84.628 E.03615
G1 X48.463 Y84.504 E.02857
G1 X47.635 Y84.182 E.03126
G1 X46.597 Y83.315 E.04758
G1 X46.017 Y82.187 E.04465
G1 X45.836 Y81.122 E.03804
G1 X45.836 Y29.55 E1.815
G1 X45.879 Y28.933 E.02176
G1 X46.062 Y28.082 E.03065
G1 X46.618 Y26.889 E.04631
G1 X47.017 Y27.097 F21000
G1 F3000
G1 X47.759 Y26.213 E.04059
G1 X48.756 Y25.515 E.04284
G1 X49.488 Y25.215 E.02785
G1 X50.261 Y25.047 E.02785
G1 X69.376 Y25.015 E.67274
G1 X70.512 Y25.215 E.04058
G1 X71.244 Y25.515 E.02785
G1 X71.913 Y25.938 E.02785
G1 X72.499 Y26.471 E.02785
G1 X72.983 Y27.097 E.02785
G1 X73.35 Y27.798 E.02785
G1 X73.591 Y28.552 E.02785
G1 X73.697 Y29.336 E.02785
G1 X73.707 Y81.122 E1.82255
G1 X73.586 Y81.951 E.02951
G1 X73.113 Y82.922 E.038
G1 X72.402 Y83.614 E.03491
G1 X71.573 Y84.027 E.0326
G1 X70.725 Y84.18 E.0303
G1 X50.292 Y84.196 E.71913
G1 X49.277 Y84.171 E.03575
G1 X48.565 Y84.058 E.02536
G1 X47.84 Y83.774 E.02741
G1 X46.949 Y83.023 E.04102
G1 X46.459 Y82.072 E.03765
G1 X46.293 Y81.122 E.03394
G1 X46.293 Y29.55 E1.815
G1 X46.503 Y28.2 E.04808
G1 X46.992 Y27.151 E.04073
; printing object (Unsaved).stl id:0 copy 0
EXCLUDE_OBJECT_START NAME=(Unsaved).stl_id_0_copy_0
G1 E-.5
G1 Z.4 F21000
G1 X65.946 Y56.47
G1 Z.2
G1 E.5 F1800
;TYPE:Inner wall
;WIDTH:0.499999
G1 F3000
G1 X66.245 Y56.543 E.01081
G1 X67.004 Y56.576 E.02676
G1 X67.761 Y56.461 E.02692
G1 X68.505 Y56.191 E.02788
G1 X69.028 Y55.881 E.02139
G1 X69.028 Y79.026 E.81454
G1 X68.436 Y78.872 E.02155
G1 X67.56 Y78.784 E.03097
G1 X66.71 Y78.843 E.03
G1 X66.202 Y78.946 E.01823
G1 X65.808 Y79.066 E.0145
G1 X65.226 Y79.308 E.02219
G1 X64.846 Y79.515 E.01524
G1 X59.99 Y79.494 E.17088
G1 X55.128 Y79.514 E.17113
G1 X54.755 Y79.311 E.01493
G1 X53.8 Y78.952 E.03592
G1 X53.078 Y78.817 E.02587
G1 X52.326 Y78.785 E.02647
G1 X51.49 Y78.887 E.02966
G1 X50.972 Y79.029 E.0189
G1 X50.972 Y55.515 E.82755
G1 X51.347 Y55.91 E.01919
G1 X51.961 Y56.365 E.02689
G1 X52.676 Y56.704 E.02785
G1 X53.429 Y56.89 E.0273
G1 X54.194 Y56.926 E.02695
G1 X54.753 Y56.861 E.0198
G1 X55.287 Y56.712 E.0195
G1 X55.688 Y56.548 E.01526
G1 X56.159 Y56.288 E.01892
G1 X56.623 Y55.927 E.0207
G1 X56.921 Y55.629 E.01483
G1 X57.373 Y55.018 E.02674
G1 X57.614 Y54.561 E.01821
G1 X57.813 Y53.967 E.02205
G1 X57.895 Y53.559 E.01464
G1 X57.941 Y53.003 E.01961
G1 X58.007 Y31.568 E.75439
G1 X57.965 Y31.013 E.01958
G1 X57.784 Y30.265 E.0271
G1 X57.525 Y29.688 E.02225
G1 X63.196 Y29.692 E.19958
G1 X63.044 Y30.06 E.01404
G1 X62.862 Y30.809 E.02712
G1 X62.818 Y31.364 E.01959
G1 X62.847 Y52.647 E.74904
G1 X62.916 Y53.368 E.02546
G1 X63.078 Y53.955 E.02144
G1 X63.244 Y54.351 E.01512
G1 X63.492 Y54.799 E.01802
G1 X63.863 Y55.275 E.02125
G1 X64.161 Y55.573 E.01483
G1 X64.653 Y55.953 E.02188
G1 X65.094 Y56.195 E.01772
G1 X65.495 Y56.361 E.01525
G1 X65.888 Y56.456 E.01425
G1 X66.161 Y56.053 F21000
G1 F3000
G1 X66.632 Y56.121 E.01674
G1 X67.308 Y56.087 E.02382
G1 X67.973 Y55.919 E.02415
G1 X68.605 Y55.618 E.02462
G1 X69.146 Y55.213 E.02379
G1 X69.485 Y54.849 E.01751
G1 X69.485 Y79.688 E.87419
G1 X69.154 Y79.544 E.01272
G1 X68.374 Y79.325 E.0285
G1 X67.576 Y79.241 E.02826
G1 X66.801 Y79.291 E.02733
G1 X65.983 Y79.489 E.0296
G1 X65.401 Y79.73 E.02219
G1 X64.984 Y79.973 E.017
G1 X59.99 Y79.951 E.17575
G1 X54.991 Y79.972 E.17592
G1 X54.58 Y79.733 E.01674
G1 X53.704 Y79.398 E.03302
G1 X53.044 Y79.273 E.02363
G1 X52.36 Y79.241 E.0241
G1 X51.61 Y79.328 E.02656
G1 X50.886 Y79.526 E.02643
G1 X50.515 Y79.677 E.01411
G1 X50.515 Y54.184 E.89718
;WIDTH:0.54735
G1 X50.538 Y53.625 E.02173
G1 X50.595 Y53.815 E.00768
;WIDTH:0.523595
G1 X50.838 Y54.469 E.02581
;WIDTH:0.499999
G1 X51.184 Y55.051 E.02385
G1 X51.638 Y55.558 E.02396
G1 X52.178 Y55.964 E.02378
G1 X52.809 Y56.266 E.02461
G1 X53.475 Y56.435 E.02418
G1 X54.151 Y56.471 E.02383
G1 X54.664 Y56.413 E.01816
G1 X55.157 Y56.274 E.01805
G1 X55.533 Y56.113 E.01438
G1 X56.062 Y55.794 E.02176
G1 X56.568 Y55.339 E.02396
G1 X56.971 Y54.801 E.02366
G1 X57.271 Y54.177 E.02433
G1 X57.441 Y53.512 E.02415
G1 X57.484 Y53.002 E.01803
G1 X57.55 Y31.567 E.75439
G1 X57.51 Y31.057 E.018
G1 X57.346 Y30.395 E.024
G1 X57.049 Y29.766 E.02447
G1 X56.652 Y29.23 E.02346
G1 X64.008 Y29.235 E.25887
G1 X63.78 Y29.563 E.01406
G1 X63.482 Y30.191 E.02446
G1 X63.317 Y30.854 E.02402
G1 X63.275 Y31.363 E.018
G1 X63.313 Y52.813 E.75488
G1 X63.411 Y53.478 E.02367
G1 X63.646 Y54.134 E.02453
G1 X63.994 Y54.715 E.02384
G1 X64.451 Y55.219 E.02394
G1 X64.993 Y55.623 E.0238
G1 X65.452 Y55.861 E.01819
G1 X65.97 Y56.025 E.01913
G1 X66.102 Y56.044 E.00467
G1 E-.5
G1 Z.4 F21000
G1 X56.443 Y40.878
G1 X56.472 Y31.534
G1 X56.43 Y31.101
G1 X56.294 Y30.643
G1 X56.07 Y30.222
G1 X55.769 Y29.854
G1 X55.392 Y29.591
G1 X54.945 Y29.441
G1 X54.497 Y29.358
G1 X54.064 Y29.331
G1 X53.636 Y29.356
G1 X53.189 Y29.438
G1 X52.742 Y29.585
G1 X52.356 Y29.848
G1 X50.542 Y31.612
G1 Z.2
G1 E.5 F1800
;WIDTH:0.554288
G1 F3000
G1 X50.518 Y31.532 E.00329
;WIDTH:0.505722
G1 X50.493 Y31.452 E.00298
;WIDTH:0.457156
G1 X50.469 Y31.373 E.00266
;WIDTH:0.408589
G1 X50.445 Y31.293 E.00235
;WIDTH:0.360023
G1 X50.42 Y31.213 E.00204
;WIDTH:0.320742
G1 X50.425 Y31.03 E.00391
;WIDTH:0.364557
G1 X50.447 Y30.68 E.00868
;WIDTH:0.408372
G1 X50.469 Y30.33 E.00986
;WIDTH:0.45218
G1 X50.493 Y30.129 E.00638
;WIDTH:0.495987
G1 X50.517 Y29.928 E.00706
;WIDTH:0.539794
G1 X50.541 Y29.727 E.00775
;WIDTH:0.583685
G1 X50.565 Y29.526 E.00843
G1 X50.644 Y29.357 E.00777
G1 X50.814 Y29.278 E.00779
G1 X51.381 Y29.269 E.02363
G1 X51.113 Y29.612 E.01815
G1 X51.049 Y29.762 E.00679
;WIDTH:0.550285
G1 X50.985 Y29.912 E.00637
;WIDTH:0.516885
G1 X50.92 Y30.062 E.00595
;WIDTH:0.483485
G1 X50.863 Y30.287 E.00786
;WIDTH:0.440568
G1 X50.805 Y30.511 E.00709
;WIDTH:0.397651
G1 X50.747 Y30.735 E.00633
;WIDTH:0.354733
G1 X50.688 Y31.226 E.01187
;WIDTH:0.360023
G1 X50.659 Y31.303 E.00202
;WIDTH:0.408589
G1 X50.63 Y31.381 E.00233
;WIDTH:0.457156
G1 X50.6 Y31.458 E.00263
;WIDTH:0.505722
G1 X50.571 Y31.535 E.00294
;WIDTH:0.554288
G1 X50.563 Y31.556 E.00089
G1 E-.5
G1 Z.4 F21000
G1 X52.356 Y29.848
G1 X52.742 Y29.585
G1 X53.189 Y29.438
G1 X53.636 Y29.356
G1 X54.064 Y29.331
G1 X54.497 Y29.358
G1 X54.945 Y29.441
G1 X55.392 Y29.591
G1 X55.769 Y29.854
G1 X56.07 Y30.222
G1 X56.294 Y30.643
G1 X56.43 Y31.101
G1 X69.887 Y80.423
G1 Z.2
G1 E.5 F1800
;WIDTH:0.499999
G1 F3000
G1 X69.017 Y79.98 E.03437
G1 X68.313 Y79.778 E.02577
G1 X67.591 Y79.698 E.02555
G1 X66.892 Y79.739 E.02466
G1 X66.158 Y79.911 E.02651
G1 X65.576 Y80.152 E.02219
G1 X65.126 Y80.431 E.01864
G1 X59.989 Y80.408 E.18077
G1 X54.849 Y80.43 E.1809
G1 X54.405 Y80.155 E.01839
G1 X53.607 Y79.845 E.03011
G1 X53.011 Y79.728 E.02138
G1 X52.394 Y79.697 E.02174
G1 X51.731 Y79.769 E.02347
G1 X50.746 Y80.072 E.03627
G1 X50.058 Y80.421 E.02717
G1 X50.058 Y29.64 E1.78718
G1 X50.109 Y29.285 E.01263
G1 X50.292 Y29.004 E.01178
G1 X50.573 Y28.821 E.0118
G1 X50.895 Y28.77 E.01147
G1 X52.881 Y28.771 E.06992
G1 X52.479 Y28.975 E.01589
G1 X52.009 Y29.329 E.02069
G1 X51.616 Y29.769 E.02078
G1 X51.315 Y30.276 E.02075
G1 X51.115 Y30.848 E.02131
G1 X51.026 Y31.547 E.0248
G1 X50.96 Y52.986 E.75453
G1 X51.012 Y53.542 E.01967
G1 X51.147 Y54.025 E.01766
G1 X51.408 Y54.566 E.02112
G1 X51.759 Y55.034 E.0206
G1 X52.199 Y55.429 E.02078
G1 X52.712 Y55.733 E.021
G1 X53.286 Y55.933 E.0214
G1 X53.869 Y56.015 E.0207
G1 X54.45 Y55.983 E.0205
G1 X55.028 Y55.836 E.02097
G1 X55.317 Y55.71 E.01112
G1 X55.773 Y55.44 E.01864
G1 X56.216 Y55.048 E.0208
G1 X56.57 Y54.583 E.02058
G1 X56.834 Y54.044 E.02111
G1 X56.976 Y53.538 E.01851
G1 X57.027 Y53.001 E.01899
G1 X57.091 Y32.086 E.73605
G1 X57.055 Y31.1 E.03473
G1 X56.908 Y30.525 E.0209
G1 X56.646 Y29.981 E.02124
G1 X56.288 Y29.507 E.0209
G1 X55.854 Y29.118 E.02052
G1 X55.241 Y28.772 E.02477
G1 X65.171 Y28.782 E.34949
G1 X64.705 Y29.141 E.02069
G1 X64.314 Y29.583 E.02079
G1 X64.014 Y30.093 E.02082
G1 X63.817 Y30.665 E.02129
G1 X63.732 Y31.363 E.02473
G1 X63.762 Y52.646 E.74904
G1 X63.849 Y53.345 E.02479
G1 X64.048 Y53.917 E.02131
G1 X64.348 Y54.425 E.02075
G1 X64.741 Y54.866 E.02078
G1 X65.209 Y55.22 E.02068
G1 X65.756 Y55.484 E.02136
G1 X66.333 Y55.633 E.02098
G1 X66.915 Y55.666 E.02051
G1 X67.497 Y55.585 E.02068
G1 X68.071 Y55.386 E.02138
G1 X68.586 Y55.082 E.02103
G1 X69.026 Y54.689 E.02079
G1 X69.378 Y54.221 E.0206
G1 X69.64 Y53.681 E.02112
G1 X69.661 Y53.515 E.00589
;WIDTH:0.451709
G1 X69.683 Y53.35 E.00527
;WIDTH:0.403419
G1 X69.705 Y53.184 E.00465
;WIDTH:0.355129
G1 X69.743 Y52.638 E.01315
;WIDTH:0.343036
G1 X69.721 Y31.355 E.49182
;WIDTH:0.363584
G1 X69.691 Y30.896 E.01135
;WIDTH:0.403058
G1 X69.635 Y30.608 E.00814
;WIDTH:0.442531
G1 X69.58 Y30.32 E.00903
;WIDTH:0.487818
G1 X69.519 Y30.149 E.0062
;WIDTH:0.533104
G1 X69.458 Y29.979 E.00683
;WIDTH:0.57839
G1 X69.397 Y29.809 E.00746
;WIDTH:0.623676
G1 X69.336 Y29.638 E.00809
;WIDTH:0.64356
G1 X68.994 Y29.2 E.02571
G1 X68.597 Y28.855 E.02431
G1 X68.947 Y28.853 E.01619
G1 X69.408 Y28.901 E.02146
G1 X69.614 Y29.011 E.01079
G1 X69.815 Y29.285 E.0157
;WIDTH:0.636511
G1 X69.898 Y29.621 E.01583
;WIDTH:0.589463
G1 X69.92 Y29.798 E.00751
;WIDTH:0.544698
G1 X69.942 Y29.975 E.0069
;WIDTH:0.499933
G1 X69.961 Y30.191 E.00761
;WIDTH:0.463029
G1 X69.979 Y30.406 E.00699
;WIDTH:0.426125
G1 X69.998 Y30.621 E.00638
;WIDTH:0.38922
G1 X70.021 Y31.354 E.01956
;WIDTH:0.343036
G1 X70.028 Y52.638 E.49182
;WIDTH:0.328496
G1 X70.028 Y52.64 E.00004
;WIDTH:0.355129
G1 X70.015 Y53.211 E.01373
;WIDTH:0.403419
G1 X69.991 Y53.382 E.00481
;WIDTH:0.451709
G1 X69.967 Y53.554 E.00546
;WIDTH:0.499999
G1 X69.942 Y53.726 E.0061
G1 X69.942 Y80.418 E.93941
G1 X69.759 Y80.882 F21000
G1 F3000
G1 X69.717 Y80.883 E.00146
G1 X69.492 Y80.725 E.00967
G1 X68.88 Y80.416 E.02414
G1 X68.252 Y80.231 E.02305
G1 X67.607 Y80.154 E.02284
G1 X66.983 Y80.187 E.022
G1 X66.334 Y80.333 E.02343
G1 X65.751 Y80.575 E.02219
G1 X65.268 Y80.889 E.0203
G1 X59.991 Y80.865 E.18569
G1 X54.707 Y80.887 E.18598
G1 X54.229 Y80.577 E.02006
G1 X53.51 Y80.292 E.02721
G1 X52.977 Y80.184 E.01914
G1 X52.428 Y80.152 E.01937
G1 X51.852 Y80.21 E.02038
G1 X50.963 Y80.473 E.03261
G1 X50.253 Y80.882 E.02885
G1 X49.6 Y80.87 E.02296
G1 X49.6 Y29.957 E1.7918
G1 X49.622 Y29.336 E.02189
G1 X49.769 Y28.933 E.01509
G1 X50.045 Y28.605 E.01509
G1 X50.416 Y28.39 E.01509
G1 X50.875 Y28.313 E.01638
G1 X52.787 Y28.314 E.06731
;WIDTH:0.54391
G1 X53.091 Y28.336 E.01174
;WIDTH:0.587821
G1 X53.395 Y28.358 E.01277
;WIDTH:0.608384
G1 X53.958 Y28.369 E.02451
;WIDTH:0.625941
G1 X54.523 Y28.378 E.02539
G1 X54.717 Y28.357 E.00875
;WIDTH:0.583961
G1 X54.911 Y28.336 E.00812
;WIDTH:0.54198
G1 X55.104 Y28.315 E.00749
;WIDTH:0.499999
G1 X65.532 Y28.322 E.36697
;WIDTH:0.51936
G1 X66.661 Y28.325 E.04143
;WIDTH:0.521928
G1 X67.767 Y28.323 E.04079
;WIDTH:0.499999
G1 X69.146 Y28.324 E.04853
G1 X69.511 Y28.382 E.01301
G1 X69.779 Y28.481 E.01007
G1 X70.107 Y28.757 E.01509
G1 X70.322 Y29.128 E.01509
G1 X70.4 Y29.621 E.01757
G1 X70.4 Y80.873 E1.80377
G1 X69.819 Y80.882 E.02044
G1 X69.766 Y81.382 F21000
;TYPE:Outer wall
;WIDTH:0.585841
G1 F3000
G1 X69.552 Y81.385 E.00892
G1 X69.259 Y81.167 E.01528
G1 X68.73 Y80.893 E.02491
G1 X68.185 Y80.726 E.02384
G1 X67.624 Y80.654 E.02361
G1 X67.083 Y80.676 E.02266
G1 X66.441 Y80.83 E.02759
G1 X65.892 Y81.064 E.02492
G1 X65.423 Y81.389 E.02387
G1 X59.989 Y81.365 E.22715
G1 X54.552 Y81.388 E.22731
G1 X54.037 Y81.039 E.026
G1 X53.533 Y80.829 E.02282
G1 X52.978 Y80.688 E.02394
G1 X52.505 Y80.651 E.01985
G1 X51.983 Y80.692 E.02186
G1 X51.202 Y80.913 E.03397
G1 X50.648 Y81.213 E.02632
G1 X50.419 Y81.385 E.01196
G1 X49.451 Y81.367 E.04047
G1 X49.155 Y81.283 E.01289
G1 X49.1 Y81.077 E.00894
G1 X49.1 Y29.64 E2.15023
G1 X49.167 Y29.103 E.02263
G1 X49.334 Y28.682 E.01893
G1 X49.615 Y28.327 E.0189
G1 X49.97 Y28.046 E.01892
G1 X50.39 Y27.879 E.0189
G1 X50.853 Y27.812 E.01956
G1 X69.146 Y27.824 E.7647
G1 X69.608 Y27.892 E.0195
G1 X70.03 Y28.046 E.01881
G1 X70.36 Y28.302 E.01746
G1 X70.666 Y28.682 E.02037
G1 X70.842 Y29.138 E.02044
G1 X70.9 Y29.621 E.02034
G1 X70.9 Y81.089 E2.15152
M73 P1 R45
G1 X70.828 Y81.288 E.00887
G1 X70.657 Y81.37 E.00794
G1 X69.826 Y81.381 E.03475
G1 X69.743 Y81.346
G1 E-.5
G1 Z.4 F21000
G1 X53.989 Y55.555
G1 Z.2
G1 E.5 F1800
;TYPE:Inner wall
;WIDTH:0.499999
G1 F3000
G1 X53.914 Y55.56 E.00265
G1 X53.419 Y55.496 E.01758
G1 X52.93 Y55.331 E.01815
G1 X52.49 Y55.076 E.01789
G1 X52.114 Y54.746 E.01763
G1 X51.811 Y54.351 E.01752
G1 X51.585 Y53.895 E.01791
G1 X51.454 Y53.403 E.0179
G1 X51.418 Y52.983 E.01484
G1 X51.483 Y31.548 E.75439
G1 X51.552 Y30.981 E.02011
G1 X51.717 Y30.494 E.01809
G1 X51.968 Y30.06 E.01767
G1 X52.298 Y29.683 E.01763
G1 X52.694 Y29.378 E.01757
G1 X53.156 Y29.15 E.01813
;WIDTH:0.541621
G1 X53.317 Y29.086 E.00668
;WIDTH:0.583242
G1 X53.479 Y29.021 E.00724
;WIDTH:0.624863
G1 X53.641 Y28.957 E.00779
G1 X54.145 Y28.933 E.02262
;WIDTH:0.625941
G1 X54.494 Y28.959 E.01572
G1 X54.656 Y29.025 E.00784
;WIDTH:0.583961
G1 X54.818 Y29.09 E.00727
;WIDTH:0.54198
G1 X54.979 Y29.156 E.00671
;WIDTH:0.499999
G1 X55.439 Y29.387 E.01812
G1 X55.934 Y29.796 E.0226
G1 X56.242 Y30.197 E.01777
G1 X56.469 Y30.655 E.018
G1 X56.6 Y31.144 E.01781
G1 X56.634 Y32.085 E.03314
G1 X56.57 Y52.999 E.73605
G1 X56.517 Y53.508 E.01802
G1 X56.363 Y54.001 E.01815
G1 X56.12 Y54.443 E.01776
G1 X55.796 Y54.829 E.01773
G1 X55.36 Y55.169 E.01948
G1 X54.898 Y55.397 E.01813
G1 X54.407 Y55.528 E.01788
G1 X54.049 Y55.551 E.01262
G1 X54.09 Y55.052 F21000
;TYPE:Outer wall
;WIDTH:0.585841
G1 F3000
G1 X53.964 Y55.063 E.00528
G1 X53.564 Y55.017 E.01683
G1 X53.168 Y54.892 E.01735
G1 X52.809 Y54.691 E.01721
G1 X52.502 Y54.43 E.01684
G1 X52.252 Y54.115 E.01681
G1 X52.064 Y53.752 E.01709
G1 X51.952 Y53.356 E.01722
G1 X51.918 Y52.985 E.01557
G1 X51.983 Y31.55 E.89607
G1 X52.03 Y31.127 E.01778
G1 X52.156 Y30.732 E.01731
G1 X52.354 Y30.378 E.01699
