; HEADER_BLOCK_START
; generated by OrcaSlicer 1.6.3 on 2023-06-06 at 21:26:18
; total layer number: 29
; HEADER_BLOCK_END

; THUMBNAIL_BLOCK_START
; THUMBNAIL_BLOCK_END

; external perimeters extrusion width = 0.40mm
; perimeters extrusion width = 0.45mm
; infill extrusion width = 0.45mm
; solid infill extrusion width = 0.40mm
; top infill extrusion width = 0.40mm
; first layer extrusion width = 0.50mm

; external perimeters extrusion width = 0.40mm
; perimeters extrusion width = 0.45mm
; infill extrusion width = 0.45mm
; solid infill extrusion width = 0.40mm
; top infill extrusion width = 0.40mm
; first layer extrusion width = 0.50mm

; EXECUTABLE_BLOCK_START
EXCLUDE_OBJECT_DEFINE NAME=(Unsaved).stl_id_0_copy_0 CENTER=71.6152,60 POLYGON=[[62.39,55],[65.09,43],[65.9016,39.4829],[65.9105,39.4447],[65.9357,39.3704],[65.9704,39.3],[65.9912,39.2667],[66.0658,39.1757],[66.1567,39.1011],[66.19,39.0804],[66.2604,39.0457],[66.3348,39.0204],[66.373,39.0115],[66.4312,39.0029],[66.49,39],[70.4845,39],[70.6314,39.0054],[70.7192,39.0138],[70.7774,39.0216],[70.9219,39.0484],[70.9506,39.0551],[71.0641,39.0858],[71.1756,39.1232],[71.2031,39.1335],[71.3382,39.1913],[71.391,39.2172],[71.4687,39.2589],[71.5939,39.3359],[77.39,43.2],[79.1994,44.4063],[79.4214,44.5779],[79.6172,44.7789],[79.7829,45.0053],[79.9152,45.2527],[80.0117,45.5161],[80.0704,45.7905],[80.09,46.0704],[80.84,61],[80.8403,61.1626],[80.8391,61.3026],[80.8367,61.4242],[80.8333,61.5309],[80.09,79],[80.0729,79.261],[80.0713,79.2734],[80.0219,79.5176],[80.0153,79.5416],[79.9378,79.7654],[79.9232,79.7997],[79.8221,80],[79.7967,80.0427],[79.7424,80.1268],[79.6534,80.2473],[79.6382,80.2662],[79.5557,80.3608],[79.4506,80.4659],[79.4502,80.4663],[79.307,80.5872],[79.2577,80.6238],[79.1536,80.6938],[79.0467,80.7564],[78.9909,80.7856],[78.8208,80.8617],[78.8203,80.8619],[78.6434,80.9219],[78.5836,80.9381],[78.4617,80.9652],[78.3388,80.9845],[78.2767,80.9913],[78.09,81],[66.59,81],[66.394,80.9904],[66.3383,80.9841],[66.1998,80.9616],[66.0905,80.9366],[66.0094,80.9138],[65.8507,80.8583],[65.8246,80.8477],[65.6471,80.7638],[65.6226,80.7504],[65.4787,80.6628],[65.4099,80.6147],[65.3211,80.5459],[65.2161,80.4533],[65.1769,80.413],[65.045,80.268],[65.0044,80.2171],[64.8854,80.0445],[64.8588,80],[64.806,79.9027],[64.7586,79.8026],[64.758,79.8012],[64.7169,79.7],[64.6653,79.5427],[64.6468,79.4723],[64.609,79.274],[64.6043,79.2378],[62.39,56.5],[62.39,55]]
EXCLUDE_OBJECT_DEFINE NAME=(Unsaved).stl_id_1_copy_0 CENTER=48.3848,60 POLYGON=[[39.0675,54.95],[41.7945,42.83],[42.6141,39.2778],[42.6231,39.2392],[42.6486,39.1641],[42.6836,39.093],[42.7046,39.0593],[42.78,38.9675],[42.8718,38.8921],[42.9055,38.8712],[42.9766,38.8361],[43.0516,38.8106],[43.0902,38.8016],[43.1491,38.7929],[43.2085,38.79],[47.2429,38.79],[47.3912,38.7955],[47.4799,38.804],[47.5387,38.8118],[47.6847,38.8389],[47.7136,38.8456],[47.8282,38.8767],[47.9408,38.9144],[47.9686,38.9249],[48.1051,38.9833],[48.1584,39.0094],[48.2369,39.0515],[48.3633,39.1293],[54.2175,43.032],[56.045,44.2503],[56.2691,44.4237],[56.4668,44.6267],[56.6342,44.8553],[56.7679,45.1052],[56.8653,45.3713],[56.9246,45.6484],[56.9445,45.9311],[57.702,61.01],[57.7022,61.1743],[57.701,61.3156],[57.6986,61.4384],[57.6951,61.5462],[56.9445,79.19],[56.9272,79.4537],[56.9255,79.4661],[56.8756,79.7128],[56.869,79.737],[56.7907,79.963],[56.776,79.9977],[56.6738,80.2],[56.6482,80.2432],[56.5933,80.3281],[56.5035,80.4498],[56.4881,80.4689],[56.4048,80.5644],[56.2986,80.6706],[56.2982,80.671],[56.1536,80.793],[56.1038,80.83],[55.9986,80.9007],[55.8907,80.9639],[55.8343,80.9935],[55.6626,81.0703],[55.662,81.0705],[55.4834,81.1311],[55.423,81.1475],[55.2998,81.1748],[55.1757,81.1943],[55.1129,81.2012],[54.9245,81.21],[43.3095,81.21],[43.1114,81.2003],[43.0552,81.1939],[42.9153,81.1712],[42.8049,81.146],[42.723,81.123],[42.5627,81.0669],[42.5363,81.0562],[42.3571,80.9714],[42.3323,80.958],[42.187,80.8694],[42.1176,80.8209],[42.0278,80.7513],[41.9217,80.6578],[41.8821,80.6171],[41.7489,80.4707],[41.708,80.4193],[41.5878,80.245],[41.5609,80.2],[41.5076,80.1017],[41.4597,80.0006],[41.4591,79.9992],[41.4176,79.897],[41.3655,79.7382],[41.3467,79.667],[41.3086,79.4667],[41.3038,79.4302],[39.0675,56.465],[39.0675,54.95]]
M73 P0 R10
;TYPE:Custom
START_PRINT T_BED=110 T_EXTRUDER=260
G90
G21
M83 ; use relative distances for extrusion
; Filament gcode

    PRESSURE_ADVANCE_SELECT FILAMENT=ABS
M106 S0
;LAYER_CHANGE
;Z:0.2
;HEIGHT:0.2
;BEFORE_LAYER_CHANGE
;0.2
G92 E0

;AFTER_LAYER_CHANGE
;0.2
SET_VELOCITY_LIMIT ACCEL_TO_DECEL=500
M204 S1000
G1 E-.5 F3000
G1 Z.2 F21000
G1 X40.365 Y37.328
G1 E.5 F1800
;TYPE:Skirt
;WIDTH:0.5
G1 F3000
G1 X41.128 Y36.561 E.03807
G1 X41.789 Y36.18 E.02686
G1 X42.672 Y35.921 E.03237
G1 X47.248 Y35.876 E.16106
G1 X70.516 Y36.086 E.81892
G1 X71.794 Y36.266 E.04542
G1 X73.066 Y36.821 E.04885
G1 X75.007 Y38.109 E.08195
G1 X75.49 Y38.513 E.0222
G1 X82.19 Y45.48 E.34017
G1 X83.004 Y47.5 E.07664
G1 X82.997 Y79.199 E1.11562
G1 X82.864 Y80.151 E.0338
G1 X82.383 Y81.386 E.04665
G1 X81.763 Y82.26 E.03774
G1 X80.802 Y83.095 E.0448
G1 X80.058 Y83.5 E.02981
G1 X79.476 Y83.712 E.02181
G1 X78.116 Y83.914 E.04837
G1 X54.951 Y84.124 E.81532
G1 X43.309 Y84.124 E.40971
G1 X42.253 Y84.007 E.03742
G1 X41.087 Y83.593 E.04353
G1 X40.057 Y82.897 E.04377
G1 X39.219 Y81.943 E.04466
G1 X38.718 Y80.986 E.03803
G1 X38.41 Y79.757 E.04459
G1 X36.167 Y56.748 E.81364
G1 X36.153 Y54.95 E.06327
G1 X36.224 Y54.31 E.02265
G1 X39.783 Y38.585 E.56743
G1 X39.988 Y37.986 E.02227
G1 X40.335 Y37.38 E.02459
G1 X40.728 Y37.606 F21000
G1 F3000
G1 X40.729 Y37.605 E.00002
G1 X41.407 Y36.924 E.03384
G1 X41.964 Y36.602 E.02265
G1 X42.732 Y36.374 E.02817
G1 X47.248 Y36.333 E.15896
G1 X70.512 Y36.543 E.81878
G1 X71.662 Y36.703 E.04085
G1 X72.835 Y37.215 E.04507
G1 X75.161 Y38.83 E.09964
G1 X81.861 Y45.797 E.34017
G1 X82.547 Y47.5 E.06462
G1 X82.547 Y79 E1.10861
G1 X82.417 Y80.056 E.03744
G1 X82.104 Y80.932 E.03274
G1 X81.643 Y81.686 E.0311
G1 X80.807 Y82.53 E.0418
G1 X80.35 Y82.839 E.01944
G1 X79.582 Y83.197 E.0298
G1 X78.79 Y83.4 E.02877
G1 X78.112 Y83.457 E.02395
G1 X54.947 Y83.667 E.81532
G1 X43.309 Y83.667 E.40956
M73 P1 R10
G1 X42.339 Y83.558 E.03438
G1 X41.283 Y83.18 E.03949
G1 X40.349 Y82.545 E.03972
G1 X39.748 Y81.897 E.03111
G1 X39.148 Y80.832 E.04303
G1 X38.865 Y79.713 E.04062
G1 X36.622 Y56.703 E.81364
G1 X36.67 Y54.411 E.08071
G1 X40.229 Y38.688 E.56734
G1 X40.41 Y38.16 E.01964
G1 X40.699 Y37.658 E.02038
; printing object (Unsaved).stl id:0 copy 0
EXCLUDE_OBJECT_START NAME=(Unsaved).stl_id_0_copy_0
G1 E-.5
G1 Z.4 F21000
G1 X71.369 Y51.679
G1 Z.2
G1 E.5 F1800
;TYPE:Inner wall
;WIDTH:0.499999
G1 F3000
G1 X71.955 Y51.316 E.02426
G1 X72.497 Y50.83 E.02562
G1 X72.866 Y50.322 E.0221
G1 X72.998 Y50.071 E.00998
;WIDTH:0.472115
G1 X73.13 Y49.82 E.00937
;WIDTH:0.477779
G1 X73.367 Y49.153 E.02371
;WIDTH:0.483722
G1 X73.462 Y48.702 E.01563
G1 X73.878 Y49.113 E.01984
G1 X73.613 Y49.676 E.02111
;WIDTH:0.486
G1 X73.42 Y50.25 E.02065
;WIDTH:0.499999
G1 X73.369 Y50.746 E.01754
G1 X73.369 Y51.679 E.03284
G1 X71.429 Y51.679 E.06827
G1 E-.5
G1 Z.4 F21000
G1 X66.854 Y52.367
G1 Z.2
G1 E.5 F1800
G1 F3000
G1 X66.854 Y51.181 E.04174
G1 X66.94 Y51.236 E.00359
G1 X67.407 Y51.444 E.018
;WIDTH:0.50919
G1 X68.216 Y51.647 E.02995
G1 X68.587 Y51.668 E.01334
;WIDTH:0.507301
G1 X69.593 Y51.668 E.03596
;WIDTH:0.517185
G1 X69.835 Y51.655 E.00884
;WIDTH:0.553297
G1 X70.336 Y51.601 E.0198
G1 X70.563 Y51.521 E.0095
;WIDTH:0.526648
G1 X70.791 Y51.44 E.00901
;WIDTH:0.499999
G1 X71.252 Y51.23 E.01782
G1 X71.656 Y50.97 E.01689
G1 X72.038 Y50.639 E.01782
G1 X72.352 Y50.276 E.01688
G1 X72.626 Y49.85 E.01782
G1 X72.825 Y49.414 E.01689
G1 X72.968 Y48.928 E.01782
G1 X73.054 Y48.203 E.0257
G1 X73.054 Y47.659 E.01914
G1 X74.166 Y48.77 E.05532
G1 X74.523 Y49.032 E.01558
G1 X74.388 Y49.165 E.00667
G1 X74.173 Y49.502 E.01405
G1 X73.908 Y50.112 E.0234
G1 X73.826 Y50.746 E.0225
G1 X73.826 Y52.136 E.04893
G1 X70.943 Y52.136 E.10147
;WIDTH:0.526648
G1 X70.657 Y52.123 E.01064
;WIDTH:0.553297
G1 X70.372 Y52.109 E.01123
G1 X69.593 Y52.132 E.03063
;WIDTH:0.507301
G1 X68.588 Y52.132 E.03593
;WIDTH:0.50919
G1 X68.225 Y52.16 E.01308
G1 X67.4 Y52.274 E.02991
;WIDTH:0.499999
G1 X66.854 Y52.45 E.02017
G1 X66.854 Y52.427 E.0008
G1 X66.397 Y53.073 F21000
G1 F3000
G1 X66.397 Y50.234 E.09992
G1 X66.761 Y50.578 E.01762
G1 X67.187 Y50.852 E.01783
G1 X67.505 Y50.997 E.01231
G1 X67.991 Y51.139 E.01782
G1 X68.587 Y51.207 E.02113
G1 X69.768 Y51.195 E.04157
G1 X70.267 Y51.123 E.01772
G1 X70.602 Y51.024 E.01229
G1 X71.062 Y50.814 E.01782
G1 X71.356 Y50.625 E.01231
G1 X71.831 Y50.205 E.02229
G1 X72.195 Y49.675 E.02263
G1 X72.387 Y49.285 E.01531
G1 X72.529 Y48.799 E.01782
G1 X72.597 Y48.203 E.02113
G1 X72.597 Y46.556 E.05797
G1 X74.489 Y48.447 E.09415
G1 X74.854 Y48.699 E.0156
G1 X75.149 Y48.789 E.01088
G1 X75.702 Y48.807 E.01945
G1 X75.388 Y48.927 E.01181
G1 X75.214 Y49.043 E.00735
G1 X74.741 Y49.455 E.02208
G1 X74.585 Y49.7 E.01024
G1 X74.349 Y50.235 E.02058
G1 X74.283 Y50.746 E.01812
G1 X74.283 Y52.593 E.06501
G1 X68.588 Y52.593 E.20043
G1 X68.273 Y52.619 E.01112
G1 X67.466 Y52.731 E.02867
G1 X66.755 Y52.962 E.02633
G1 X66.404 Y53.122 E.01355
G1 X65.918 Y53.971 F21000
G1 F3000
G1 X65.94 Y53.125 E.02979
G1 X65.94 Y49.589 E.12442
G1 X65.917 Y49.334 E.00902
;WIDTH:0.453939
G1 X65.894 Y49.079 E.00811
;WIDTH:0.407879
G1 X65.871 Y48.824 E.0072
;WIDTH:0.361819
G1 X65.851 Y48.203 E.01526
;WIDTH:0.321525
G1 X65.851 Y43.305 E.10506
G1 X66.129 Y42.876 E.01099
G1 X66.129 Y48.203 E.11427
;WIDTH:0.325746
G1 X66.134 Y48.3 E.00213
;WIDTH:0.364419
G1 X66.159 Y48.537 E.0059
;WIDTH:0.403092
G1 X66.184 Y48.774 E.00661
;WIDTH:0.441765
G1 X66.209 Y49.011 E.00732
;WIDTH:0.470882
G1 X66.303 Y49.25 E.00847
;WIDTH:0.499999
G1 X66.397 Y49.489 E.00905
G1 X66.515 Y49.673 E.00768
G1 X67.008 Y50.193 E.02522
G1 X67.634 Y50.558 E.0255
G1 X68.12 Y50.701 E.01782
G1 X68.587 Y50.75 E.01655
G1 X69.703 Y50.742 E.03927
G1 X70.412 Y50.608 E.02538
G1 X71.057 Y50.279 E.02549
G1 X71.583 Y49.782 E.02549
G1 X71.909 Y49.26 E.02165
G1 X72.081 Y48.705 E.02044
G1 X72.14 Y48.203 E.01781
G1 X72.126 Y45.533 E.09398
;WIDTH:0.47146
G1 X72.126 Y42.497 E.10016
;WIDTH:0.476458
G1 X72.121 Y42.389 E.00362
;WIDTH:0.512568
G1 X72.067 Y41.888 E.01822
;WIDTH:0.554047
G1 X72.012 Y41.694 E.00791
;WIDTH:0.595526
G1 X71.958 Y41.501 E.00855
;WIDTH:0.637005
G1 X71.904 Y41.307 E.00919
G1 X71.831 Y41.212 E.00551
;WIDTH:0.603456
G1 X71.757 Y41.117 E.0052
;WIDTH:0.569907
G1 X71.683 Y41.021 E.00489
;WIDTH:0.536358
G1 X71.504 Y40.841 E.00964
;WIDTH:0.502129
G1 X71.326 Y40.661 E.00897
;WIDTH:0.4679
G1 X70.936 Y40.383 E.01566
;WIDTH:0.452816
G1 X70.534 Y40.184 E.01416
;WIDTH:0.411071
G1 X70.286 Y40.128 E.00719
;WIDTH:0.379277
G1 X70.039 Y40.072 E.00657
;WIDTH:0.347483
G1 X69.593 Y40.039 E.01049
;WIDTH:0.321384
G1 X68.587 Y40.039 E.02156
;WIDTH:0.32561
G1 X68.49 Y40.044 E.00213
;WIDTH:0.36175
G1 X68.14 Y40.091 E.00867
;WIDTH:0.39789
G1 X67.79 Y40.138 E.00965
;WIDTH:0.437643
G1 X67.635 Y40.19 E.00495
;WIDTH:0.477395
G1 X67.481 Y40.242 E.00545
;WIDTH:0.517148
G1 X67.326 Y40.294 E.00595
;WIDTH:0.5569
G1 X67.172 Y40.347 E.00645
G1 X66.768 Y40.69 E.02098
G1 X66.768 Y39.879 E.03212
G1 X67.21 Y39.854 E.01749
;WIDTH:0.508028
G1 X67.462 Y39.83 E.00907
;WIDTH:0.459262
G1 X67.714 Y39.805 E.00812
;WIDTH:0.410496
G1 X67.966 Y39.781 E.00717
;WIDTH:0.361729
G1 X68.587 Y39.761 E.01526
;WIDTH:0.321384
G1 X69.593 Y39.761 E.02156
;WIDTH:0.347483
G1 X70.082 Y39.774 E.01147
;WIDTH:0.387106
G1 X70.409 Y39.811 E.00872
;WIDTH:0.426729
G1 X70.736 Y39.848 E.00973
;WIDTH:0.452816
G1 X71.161 Y40.04 E.01471
;WIDTH:0.4679
G1 X71.604 Y40.345 E.01762
;WIDTH:0.502129
G1 X71.805 Y40.5 E.00897
;WIDTH:0.536358
G1 X72.007 Y40.654 E.00964
;WIDTH:0.569907
G1 X72.162 Y40.778 E.00804
;WIDTH:0.603456
G1 X72.317 Y40.901 E.00855
;WIDTH:0.637005
G1 X72.472 Y41.025 E.00907
G1 X72.492 Y41.407 E.01752
;WIDTH:0.595526
G1 X72.513 Y41.631 E.00955
;WIDTH:0.554047
G1 X72.534 Y41.854 E.00883
;WIDTH:0.512568
G1 X72.554 Y42.497 E.02326
;WIDTH:0.47146
G1 X72.554 Y45.533 E.10016
;WIDTH:0.478822
G1 X72.562 Y45.664 E.00442
;WIDTH:0.499999
G1 X72.766 Y46.078 E.01624
G1 X74.72 Y48.032 E.09724
G1 X75.041 Y48.282 E.01434
G1 X75.358 Y48.35 E.01139
G1 X79.24 Y48.35 E.13664
G1 X79.24 Y48.75 E.01408
G1 X79.24 Y49.15 E.01408
G1 X76.336 Y49.15 E.10222
G1 X76.163 Y49.17 E.00612
G1 X75.609 Y49.327 E.02028
G1 X75.211 Y49.63 E.01759
G1 X75.007 Y49.879 E.01133
G1 X74.793 Y50.345 E.01806
G1 X74.74 Y50.746 E.01422
G1 X74.74 Y53.05 E.0811
G1 X68.588 Y53.05 E.21651
G1 X68.321 Y53.074 E.00943
G1 X67.608 Y53.166 E.02532
G1 X66.896 Y53.397 E.02633
G1 X66.615 Y53.542 E.01112
G1 X65.956 Y53.961 E.0275
G1 E-.5
G1 Z.4 F21000
G1 X76.132 Y48.759
G1 Z.2
G1 E.5 F1800
;WIDTH:0.403594
G1 F3000
G1 X76.336 Y48.75 E.00567
;WIDTH:0.385842
G1 X78.84 Y48.75 E.06613
G1 E-.5
G1 Z.4 F21000
G1 X70.149 Y50.162
G1 Z.2
G1 E.5 F1800
;TYPE:Outer wall
;WIDTH:0.585841
G1 F3000
G1 X69.593 Y50.25 E.02355
G1 X68.587 Y50.25 E.04204
G1 X68.13 Y50.183 E.01932
G1 X67.704 Y50.046 E.01868
G1 X67.278 Y49.773 E.02117
G1 X66.893 Y49.345 E.02407
G1 X66.637 Y48.814 E.02464
G1 X66.54 Y48.203 E.02588
G1 X66.54 Y42.822 E.22495
G1 X66.563 Y42.228 E.02484
;WIDTH:0.589231
G1 X66.71 Y41.684 E.02369
M73 P2 R10
G1 X66.975 Y41.255 E.02123
;WIDTH:0.585841
G1 X67.068 Y41.13 E.0065
G1 X67.451 Y40.798 E.02116
G1 X67.976 Y40.546 E.02437
G1 X68.549 Y40.453 E.02424
G1 X69.593 Y40.45 E.04366
G1 X69.92 Y40.479 E.01371
G1 X70.407 Y40.622 E.02123
G1 X70.905 Y40.93 E.02449
G1 X71.292 Y41.361 E.02418
G1 X71.544 Y41.886 E.02437
G1 X71.637 Y42.458 E.02424
G1 X71.64 Y48.203 E.24013
G1 X71.582 Y48.629 E.01796
G1 X71.436 Y49.086 E.02006
G1 X71.161 Y49.515 E.02133
G1 X70.729 Y49.902 E.0242
G1 X70.208 Y50.152 E.02417
G1 X70.131 Y50.24
G1 E-.5
G1 Z.4 F21000
G1 X67.311 Y51.814
G1 Z.2
G1 E.5 F1800
;TYPE:Inner wall
;WIDTH:0.448506
G1 F3000
G1 X67.26 Y51.814 E.00158
G1 X67.235 Y51.858 E.00158
G1 X67.26 Y51.902 E.00158
G1 X67.311 Y51.902 E.00158
G1 X67.336 Y51.858 E.00158
G1 E-.5
G1 Z.4 F21000
G1 X65.393 Y55.976
G1 X65.261 Y56.318
G1 X65.166 Y56.672
G1 X65.109 Y57.034
G1 X65.09 Y57.4
G1 X65.09 Y65.4
G1 X65.107 Y69.739
G1 X65.937 Y69.442
G1 Z.2
G1 E.5 F1800
;WIDTH:0.578897
G1 F3000
G1 X66.68 Y69.847 E.03496
G1 X66.386 Y70.103 E.01609
G1 X65.937 Y70.727 E.03174
G1 X65.937 Y69.502 E.05056
G1 E-.5
G1 Z.4 F21000
G1 X65.373 Y68.291
G1 Z.2
G1 E.5 F1800
;WIDTH:0.494011
G1 F3000
G1 X65.551 Y68.487 E.00922
;WIDTH:0.499999
G1 X66.101 Y68.963 E.0256
G1 X66.898 Y69.404 E.03205
G1 X67.623 Y69.637 E.02681
G1 X68.136 Y69.707 E.01822
G1 X67.768 Y69.792 E.01328
G1 X67.308 Y70.002 E.01782
G1 X67.056 Y70.179 E.01082
G1 X66.597 Y70.618 E.02238
G1 X66.232 Y71.244 E.02549
;WIDTH:0.540895
G1 X66.125 Y71.566 E.01302
;WIDTH:0.58179
G1 X66.019 Y71.889 E.01409
G1 X66.004 Y72.197 E.01281
;WIDTH:0.57146
G1 X66.004 Y77.903 E.2322
;WIDTH:0.576972
G1 X66.01 Y78.018 E.00476
;WIDTH:0.613081
G1 X66.064 Y78.519 E.02212
G1 X66.125 Y78.638 E.00587
;WIDTH:0.567039
G1 X66.186 Y78.757 E.0054
;WIDTH:0.520997
G1 X66.511 Y79.367 E.02542
;WIDTH:0.499999
G1 X66.842 Y79.749 E.01781
G1 X67.408 Y80.15 E.0244
G1 X66.933 Y80.15 E.01672
G1 X66.346 Y80.112 E.02068
G1 X66.085 Y80.02 E.00976
G1 X65.85 Y79.864 E.00992
G1 X65.657 Y79.648 E.01018
G1 X65.514 Y79.362 E.01125
;WIDTH:0.520997
G1 X65.454 Y78.97 E.01462
;WIDTH:0.567039
G1 X65.475 Y78.765 E.00831
;WIDTH:0.613081
G1 X65.497 Y78.56 E.00904
G1 X65.476 Y77.903 E.02886
;WIDTH:0.57146
G1 X65.476 Y72.197 E.2322
G1 X65.457 Y71.636 E.02284
;WIDTH:0.533852
G1 X65.44 Y71.13 E.01915
;WIDTH:0.499999
G1 X65.437 Y68.538 E.09122
;WIDTH:0.494011
G1 X65.388 Y68.349 E.00679
G1 E-.5
G1 Z.4 F21000
G1 X72.156 Y70.798
G1 Z.2
G1 E.5 F1800
;WIDTH:0.354405
G1 F3000
G1 X71.96 Y70.482 E.00891
G1 X71.659 Y70.134 E.01102
G1 X72.156 Y70.134 E.01191
G1 X72.156 Y70.738 E.01447
G1 E-.5
G1 Z.4 F21000
G1 X72.704 Y79.195
G1 Z.2
G1 E.5 F1800
;WIDTH:0.362512
G1 F3000
G1 X72.834 Y78.841 E.00926
G1 X73.297 Y79.305 E.01612
G1 X72.664 Y79.305 E.01558
G1 X72.683 Y79.251 E.0014
G1 X72.331 Y79.108 F21000
;WIDTH:0.499999
