; HEADER_BLOCK_START
; generated by OrcaSlicer 1.6.3 on 2023-06-15 at 12:32:57
; total layer number: 53
; HEADER_BLOCK_END

; THUMBNAIL_BLOCK_START
; THUMBNAIL_BLOCK_END

; external perimeters extrusion width = 0.40mm
; perimeters extrusion width = 0.45mm
; infill extrusion width = 0.45mm
; solid infill extrusion width = 0.40mm
; top infill extrusion width = 0.40mm
; first layer extrusion width = 0.50mm

; EXECUTABLE_BLOCK_START
EXCLUDE_OBJECT_DEFINE NAME=(Unsaved).stl_id_0_copy_0 CENTER=60,60 POLYGON=[[37.4916,44.4392],[37.4917,35.9392],[37.4979,34.4602],[37.5914,34.4602],[82.4081,34.4602],[82.5016,34.4602],[82.5079,45.4392],[82.5084,53.9396],[82.5081,67.9602],[65.4997,85.5398],[54.4997,85.5398],[37.4979,67.9602],[37.4916,44.4392]]
M73 P0 R18
;TYPE:Custom
START_PRINT T_BED=110 T_EXTRUDER=260
G90
G21
M83 ; use relative distances for extrusion
; Filament gcode

    PRESSURE_ADVANCE_SELECT FILAMENT=ABS
M106 S0
;LAYER_CHANGE
;Z:0.2
;HEIGHT:0.2
;BEFORE_LAYER_CHANGE
;0.2
G92 E0

;AFTER_LAYER_CHANGE
;0.2
M204 S500
; printing object (Unsaved).stl id:0 copy 0
EXCLUDE_OBJECT_START NAME=(Unsaved).stl_id_0_copy_0
G1 E-.5 F3000
G1 Z.2 F21000
G1 X56.996 Y76.914
G1 E.5 F1800
;TYPE:Inner wall
;WIDTH:0.499999
G1 F3000
G1 X56.72 Y76.972 E.00992
G1 X56.348 Y77.233 E.01601
G1 X56.145 Y77.53 E.01265
G1 X56.057 Y78.018 E.01747
;WIDTH:0.457301
G1 X56.057 Y84.397 E.20352
G1 X55.643 Y84.397 E.01322
G1 X55.643 Y78.018 E.20352
;WIDTH:0.499999
G1 X55.554 Y77.53 E.01747
G1 X55.351 Y77.233 E.01265
G1 X55.164 Y77.152 E.00719
G1 X55.164 Y71.959 E.18276
G1 X55.096 Y71.142 E.02888
G1 X54.925 Y70.416 E.02624
G1 X54.661 Y69.742 E.02547
G1 X54.296 Y69.099 E.02604
G1 X53.838 Y68.51 E.02624
G1 X53.318 Y68.006 E.02547
G1 X52.722 Y67.574 E.02592
G1 X52.056 Y67.226 E.02646
G1 X51.379 Y66.986 E.02528
G1 X50.65 Y66.839 E.02615
G1 X50.001 Y66.796 E.02292
G1 X43.167 Y66.796 E.24049
G1 X43.145 Y45.503 E.74937
G1 X46.011 Y45.499 E.10086
G1 X46.631 Y45.427 E.02197
G1 X47.227 Y45.248 E.02189
G1 X47.756 Y44.983 E.02081
G1 X48.284 Y44.593 E.0231
G1 X48.688 Y44.166 E.02072
G1 X49.035 Y43.646 E.02199
G1 X49.286 Y43.072 E.02205
G1 X49.432 Y42.463 E.02203
G1 X49.474 Y41.94 E.01846
G1 X49.474 Y38.438 E.12325
G1 X49.397 Y37.718 E.0255
G1 X49.217 Y37.118 E.02205
G1 X48.937 Y36.564 E.02181
G1 X48.582 Y36.087 E.02092
G1 X48.089 Y35.624 E.02382
G1 X76.836 Y35.624 E1.01173
G1 X76.863 Y42.258 E.23347
G1 X76.858 Y44.375 E.0745
G1 X73.988 Y44.379 E.10099
G1 X73.368 Y44.452 E.02197
G1 X72.768 Y44.632 E.02205
G1 X72.21 Y44.915 E.02202
G1 X71.715 Y45.285 E.02173
G1 X71.311 Y45.713 E.02071
G1 X70.96 Y46.243 E.02238
G1 X70.704 Y46.838 E.02279
G1 X70.567 Y47.415 E.02089
G1 X70.526 Y47.938 E.01846
G1 X70.53 Y51.541 E.12678
G1 X70.602 Y52.161 E.02197
G1 X70.783 Y52.761 E.02205
G1 X71.066 Y53.319 E.02202
G1 X71.436 Y53.813 E.02173
G1 X71.871 Y54.223 E.02104
G1 X72.414 Y54.581 E.02287
G1 X72.957 Y54.815 E.02084
G1 X73.566 Y54.962 E.02203
G1 X74.089 Y55.003 E.01846
G1 X76.857 Y55.003 E.09743
G1 X76.835 Y66.796 E.41503
G1 X69.918 Y66.799 E.24344
G1 X69.188 Y66.863 E.0258
G1 X68.621 Y66.986 E.02041
G1 X67.781 Y67.299 E.03154
G1 X67.141 Y67.662 E.02591
G1 X66.57 Y68.103 E.02536
G1 X66.046 Y68.642 E.02648
G1 X65.614 Y69.239 E.02592
G1 X65.271 Y69.89 E.02592
G1 X65.025 Y70.584 E.02592
G1 X64.879 Y71.306 E.02592
G1 X64.836 Y71.959 E.02303
G1 X64.836 Y77.152 E.18276
G1 X64.648 Y77.233 E.00719
G1 X64.445 Y77.53 E.01265
G1 X64.357 Y78.018 E.01747
;WIDTH:0.457301
G1 X64.357 Y84.397 E.20352
G1 X63.943 Y84.397 E.01322
G1 X63.943 Y78.018 E.20352
;WIDTH:0.499999
G1 X63.854 Y77.53 E.01747
G1 X63.651 Y77.233 E.01265
G1 X63.279 Y76.972 E.01601
G1 X62.821 Y76.876 E.01647
G1 X62.614 Y76.876 E.0073
G1 X62.612 Y64.048 E.45145
G1 X62.54 Y63.502 E.01938
G1 X62.371 Y63.03 E.01764
G1 X62.211 Y62.74 E.01166
G1 X61.859 Y62.288 E.02016
G1 X61.367 Y61.896 E.02214
G1 X60.795 Y61.634 E.02214
G1 X60.301 Y61.523 E.01781
G1 X59.738 Y61.519 E.01981
G1 X59.204 Y61.634 E.01923
G1 X58.633 Y61.896 E.02214
G1 X58.315 Y62.134 E.01398
G1 X57.958 Y62.494 E.01785
G1 X57.628 Y63.03 E.02214
G1 X57.442 Y63.588 E.02068
G1 X57.386 Y64.118 E.01877
G1 X57.386 Y76.876 E.44899
G1 X57.178 Y76.876 E.0073
G1 X57.055 Y76.901 E.00444
G1 X57.087 Y77.352 F21000
G1 F3000
G1 X56.903 Y77.39 E.00661
G1 X56.68 Y77.547 E.00961
G1 X56.558 Y77.725 E.00759
G1 X56.493 Y78.018 E.01057
G1 X56.493 Y84.833 E.23982
G1 X55.207 Y84.833 E.04525
G1 X55.207 Y78.018 E.23982
G1 X55.141 Y77.725 E.01057
G1 X55.019 Y77.547 E.00759
G1 X54.707 Y77.413 E.01198
G1 X54.707 Y71.959 E.19192
G1 X54.65 Y71.24 E.02539
G1 X54.496 Y70.576 E.02399
G1 X54.26 Y69.961 E.02318
G1 X53.931 Y69.374 E.0237
G1 X53.515 Y68.833 E.024
G1 X53.044 Y68.372 E.02318
G1 X52.503 Y67.976 E.02363
G1 X51.896 Y67.654 E.02417
G1 X51.282 Y67.433 E.02298
G1 X50.618 Y67.295 E.02386
G1 X50.001 Y67.253 E.02178
G1 X42.71 Y67.253 E.25656
G1 X42.688 Y45.062 E.78101
G1 X43.016 Y45.046 E.01156
G1 X45.971 Y45.044 E.104
G1 X46.512 Y44.985 E.01915
G1 X47.034 Y44.834 E.01913
G1 X47.495 Y44.608 E.01806
G1 X47.961 Y44.27 E.02025
G1 X48.315 Y43.902 E.018
G1 X48.622 Y43.451 E.01917
G1 X48.845 Y42.953 E.01922
G1 X48.973 Y42.46 E.01792
G1 X49.017 Y41.946 E.01815
G1 X49.017 Y38.438 E.12345
G1 X48.977 Y37.956 E.01704
G1 X48.845 Y37.426 E.01921
G1 X48.622 Y36.927 E.01922
G1 X48.336 Y36.502 E.01803
G1 X47.938 Y36.09 E.02016
G1 X47.523 Y35.786 E.01813
G1 X47.036 Y35.546 E.01908
G1 X46.769 Y35.489 E.00963
;WIDTH:0.459076
G1 X46.501 Y35.433 E.00876
;WIDTH:0.418152
G1 X46.206 Y35.419 E.00854
;WIDTH:0.386016
G1 X45.911 Y35.405 E.00781
;WIDTH:0.353879
G1 X43.179 Y35.405 E.06541
;WIDTH:0.401508
G1 X43.112 Y35.377 E.002
;WIDTH:0.449152
G1 X43.046 Y35.349 E.00226
;WIDTH:0.496796
G1 X42.979 Y35.321 E.00253
;WIDTH:0.54444
G1 X42.912 Y35.293 E.00279
;WIDTH:0.592084
G1 X42.846 Y35.265 E.00306
;WIDTH:0.639728
G1 X42.779 Y35.237 E.00332
G1 X42.846 Y35.213 E.00325
;WIDTH:0.592084
G1 X42.912 Y35.19 E.00299
;WIDTH:0.54444
G1 X42.979 Y35.166 E.00273
;WIDTH:0.496796
G1 X43.046 Y35.142 E.00247
;WIDTH:0.449152
G1 X43.112 Y35.118 E.00221
;WIDTH:0.401508
G1 X43.179 Y35.094 E.00195
;WIDTH:0.353879
G1 X45.911 Y35.094 E.06541
;WIDTH:0.374044
G1 X46.402 Y35.104 E.01254
;WIDTH:0.416029
G1 X46.591 Y35.125 E.00545
;WIDTH:0.458014
G1 X46.779 Y35.146 E.00606
;WIDTH:0.499999
G1 X46.968 Y35.167 E.00667
G1 X77.291 Y35.167 E1.0672
G1 X77.32 Y42.259 E.2496
G1 X77.314 Y44.817 E.09001
G1 X76.983 Y44.832 E.01164
G1 X74.741 Y44.832 E.07892
G1 X73.606 Y44.872 E.03996
G1 X73.077 Y45.004 E.01921
G1 X72.578 Y45.227 E.01922
G1 X72.127 Y45.534 E.01917
G1 X71.759 Y45.888 E.018
G1 X71.439 Y46.324 E.01902
G1 X71.185 Y46.847 E.02048
G1 X71.043 Y47.338 E.01799
G1 X70.983 Y47.938 E.02122
G1 X70.985 Y51.5 E.12537
G1 X71.039 Y52.022 E.01844
G1 X71.174 Y52.512 E.01789
G1 X71.413 Y53.016 E.01963
G1 X71.722 Y53.451 E.01881
G1 X72.09 Y53.816 E.01823
G1 X72.505 Y54.108 E.01786
G1 X72.966 Y54.334 E.01806
G1 X73.488 Y54.485 E.01913
G1 X74.089 Y54.546 E.02127
G1 X76.948 Y54.546 E.10064
G1 X77.313 Y54.58 E.0129
G1 X77.32 Y58.03 E.12141
G1 X77.291 Y67.253 E.3246
G1 X69.95 Y67.255 E.25833
G1 X69.115 Y67.346 E.02956
G1 X68.624 Y67.46 E.01776
G1 X68 Y67.701 E.02352
G1 X67.414 Y68.028 E.02362
G1 X66.893 Y68.427 E.02311
G1 X66.411 Y68.916 E.02414
G1 X66.015 Y69.458 E.02363
G1 X65.699 Y70.05 E.02363
G1 X65.471 Y70.682 E.02363
G1 X65.335 Y71.339 E.02363
G1 X65.293 Y71.959 E.02189
G1 X65.293 Y77.413 E.19192
G1 X64.98 Y77.547 E.01198
G1 X64.858 Y77.725 E.00759
G1 X64.793 Y78.018 E.01057
G1 X64.793 Y84.833 E.23982
G1 X63.507 Y84.833 E.04525
G1 X63.507 Y78.018 E.23982
M73 P1 R18
G1 X63.441 Y77.725 E.01057
G1 X63.319 Y77.547 E.00759
G1 X63.096 Y77.39 E.00961
G1 X62.821 Y77.333 E.00988
G1 X62.157 Y77.333 E.02338
G1 X62.157 Y64.234 E.461
G1 X62.106 Y63.66 E.02029
G1 X61.938 Y63.177 E.01796
G1 X61.666 Y62.754 E.01772
G1 X61.281 Y62.387 E.01871
G1 X60.84 Y62.136 E.01784
G1 X60.341 Y61.993 E.01827
G1 X59.822 Y61.973 E.01827
G1 X59.314 Y62.078 E.01827
G1 X58.845 Y62.301 E.01827
G1 X58.4 Y62.673 E.0204
G1 X58.079 Y63.138 E.0199
G1 X57.904 Y63.608 E.01766
G1 X57.843 Y64.118 E.01807
G1 X57.843 Y77.333 E.46507
G1 X57.178 Y77.333 E.02338
G1 X57.146 Y77.339 E.00116
G1 X57.178 Y77.79 F21000
;TYPE:Outer wall
G1 F3000
G1 X57.012 Y77.861 E.00636
G1 X56.95 Y78.018 E.00595
G1 X56.95 Y85.29 E.25591
G1 X54.75 Y85.29 E.07743
G1 X54.75 Y78.018 E.25591
G1 X54.687 Y77.861 E.00595
G1 X54.521 Y77.79 E.00636
G1 X54.25 Y77.79 E.00955
G1 X54.25 Y71.959 E.20519
G1 X54.204 Y71.339 E.02191
G1 X54.068 Y70.736 E.02175
G1 X53.858 Y70.18 E.02089
G1 X53.565 Y69.649 E.02136
G1 X53.192 Y69.156 E.02176
G1 X52.77 Y68.738 E.02089
G1 X52.284 Y68.377 E.02134
G1 X51.736 Y68.083 E.02188
G1 X51.184 Y67.879 E.02068
G1 X50.585 Y67.751 E.02156
G1 X50.001 Y67.71 E.02063
G1 X42.254 Y67.71 E.27263
G1 X42.23 Y44.656 E.81137
G1 X43.005 Y44.589 E.02738
G1 X45.911 Y44.589 E.10225
G1 X46.353 Y44.551 E.01563
G1 X46.804 Y44.433 E.01639
G1 X47.2 Y44.252 E.01531
G1 X47.606 Y43.973 E.01737
G1 X47.917 Y43.667 E.01535
G1 X48.188 Y43.291 E.01631
G1 X48.39 Y42.871 E.01639
G1 X48.515 Y42.422 E.0164
G1 X48.56 Y41.942 E.01697
G1 X48.56 Y38.438 E.12332
G1 X48.522 Y37.996 E.01563
G1 X48.403 Y37.545 E.01639
G1 X48.208 Y37.122 E.01639
G1 X47.962 Y36.764 E.0153
G1 X47.615 Y36.413 E.01736
G1 X47.26 Y36.16 E.01533
G1 X46.842 Y35.959 E.01635
G1 X46.393 Y35.834 E.0164
G1 X45.911 Y35.789 E.01704
G1 X43.011 Y35.789 E.10204
G1 X42.226 Y35.713 E.02776
G1 X42.247 Y34.71 E.03529
G1 X77.746 Y34.71 E1.24937
G1 X77.777 Y42.26 E.26572
G1 X77.77 Y45.222 E.10424
G1 X76.994 Y45.289 E.0274
G1 X74.741 Y45.289 E.0793
G1 X73.646 Y45.327 E.03855
G1 X73.196 Y45.445 E.01639
G1 X72.773 Y45.641 E.0164
G1 X72.391 Y45.907 E.01636
G1 X72.082 Y46.211 E.01529
G1 X71.812 Y46.588 E.01631
G1 X71.6 Y47.038 E.01751
G1 X71.485 Y47.457 E.01528
G1 X71.44 Y47.938 E.01702
G1 X71.44 Y50.966 E.10657
G1 X71.478 Y51.883 E.03228
G1 X71.596 Y52.333 E.01639
G1 X71.79 Y52.754 E.01631
G1 X72.057 Y53.138 E.01644
G1 X72.362 Y53.447 E.01529
G1 X72.728 Y53.706 E.0158
G1 X73.066 Y53.876 E.0133
G1 X73.607 Y54.044 E.01993
G1 X74.089 Y54.089 E.01704
G1 X76.988 Y54.089 E.10204
G1 X77.77 Y54.165 E.02763
G1 X77.777 Y58.03 E.13602
G1 X77.746 Y67.71 E.34068
G1 X69.983 Y67.711 E.27322
G1 X69.382 Y67.756 E.02121
G1 X68.784 Y67.888 E.02156
G1 X68.219 Y68.102 E.02123
G1 X67.688 Y68.394 E.02134
G1 X67.215 Y68.751 E.02087
G1 X66.777 Y69.19 E.0218
G1 X66.416 Y69.677 E.02134
G1 X66.127 Y70.21 E.02134
G1 X65.918 Y70.779 E.02134
G1 X65.791 Y71.372 E.02134
G1 X65.75 Y71.959 E.02074
G1 X65.75 Y77.79 E.20519
G1 X65.478 Y77.79 E.00955
G1 X65.312 Y77.861 E.00636
G1 X65.25 Y78.018 E.00595
G1 X65.25 Y85.29 E.25591
G1 X63.05 Y85.29 E.07743
G1 X63.05 Y78.018 E.25591
G1 X62.987 Y77.861 E.00595
G1 X62.821 Y77.79 E.00636
G1 X61.7 Y77.79 E.03947
G1 X61.7 Y64.234 E.47709
G1 X61.655 Y63.74 E.01746
G1 X61.516 Y63.354 E.01441
G1 X61.289 Y63.014 E.01441
G1 X60.987 Y62.737 E.01441
G1 X60.628 Y62.541 E.01441
G1 X60.232 Y62.437 E.01441
G1 X59.822 Y62.43 E.01441
G1 X59.423 Y62.521 E.01441
G1 X59.058 Y62.706 E.01441
G1 X58.747 Y62.972 E.01441
G1 X58.509 Y63.306 E.01441
G1 X58.357 Y63.686 E.01441
G1 X58.3 Y64.118 E.01534
G1 X58.3 Y77.79 E.48116
G1 X57.238 Y77.79 E.03736
G1 X57.144 Y77.78
G1 E-.5
G1 Z.4 F21000
G1 X64.446 Y53.273
G1 Z.2
G1 E.5 F1800
;TYPE:Inner wall
G1 F3000
G1 X64.192 Y53.738 E.01863
G1 X63.866 Y53.948 E.01364
G1 X63.54 Y54.032 E.01188
G1 X61.011 Y54.038 E.08901
G1 X60.513 Y53.974 E.01766
G1 X59.945 Y53.702 E.02215
G1 X59.572 Y53.94 E.01559
G1 X59.188 Y54.035 E.01392
G1 X55.969 Y54.038 E.11329
G1 X55.566 Y53.965 E.0144
G1 X55.284 Y53.863 E.01054
G1 X54.763 Y54.003 E.01899
G1 X54.484 Y54.038 E.00992
G1 X52.074 Y54.038 E.08481
G1 X51.725 Y53.984 E.01242
G1 X51.372 Y53.797 E.01408
G1 X51.153 Y53.572 E.01104
G1 X50.993 Y53.267 E.01212
G1 X50.931 Y52.897 E.01321
G1 X50.985 Y52.551 E.01232
G1 X51.167 Y52.2 E.01393
G1 X51.595 Y51.785 E.02097
G1 X56.975 Y46.855 E.25683
G1 X57.29 Y46.65 E.01323
G1 X57.762 Y46.557 E.01694
G1 X57.896 Y46.095 E.01694
G1 X58.128 Y45.799 E.01323
G1 X58.912 Y45.08 E.03743
G1 X59.221 Y44.859 E.01339
G1 X59.688 Y44.705 E.01729
G1 X60.108 Y44.679 E.01483
G1 X60.487 Y44.761 E.01364
G1 X60.915 Y44.993 E.01714
G1 X61.023 Y45.08 E.00489
G1 X67.836 Y51.323 E.32519
G1 X68.124 Y51.695 E.01657
G1 X68.264 Y51.989 E.01147
G1 X68.338 Y52.495 E.01801
G1 X68.277 Y52.899 E.01438
G1 X68.021 Y53.401 E.01982
G1 X67.793 Y53.664 E.01223
G1 X67.456 Y53.862 E.01378
G1 X66.907 Y54.031 E.0202
G1 X65.725 Y54.038 E.0416
G1 X65.363 Y53.979 E.01292
G1 X65.152 Y53.884 E.00814
G1 X64.491 Y53.313 E.03074
G1 X64.081 Y52.978 F21000
G1 F3000
G1 X64.096 Y53.012 E.0013
G1 X63.883 Y53.401 E.01562
G1 X63.603 Y53.556 E.0113
G1 X62.949 Y53.581 E.02302
G1 X61.011 Y53.581 E.06822
G1 X60.569 Y53.513 E.01572
G1 X59.995 Y53.186 E.02326
G1 X59.838 Y53.043 E.00747
G1 X59.655 Y53.355 E.01273
G1 X59.345 Y53.537 E.01266
G1 X58.973 Y53.581 E.01321
G1 X55.969 Y53.581 E.10572
G1 X55.643 Y53.505 E.01177
G1 X55.43 Y53.367 E.00891
G1 X55.367 Y53.287 E.00361
G1 X55.04 Y53.462 E.01306
G1 X54.544 Y53.578 E.01792
G1 X52.074 Y53.581 E.08694
G1 X51.795 Y53.522 E.01004
G1 X51.584 Y53.375 E.00904
G1 X51.426 Y53.118 E.01063
G1 X51.396 Y52.794 E.01144
G1 X51.512 Y52.502 E.01106
G1 X51.904 Y52.122 E.01922
G1 X57.284 Y47.192 E.25683
G1 X57.562 Y47.037 E.01122
G1 X57.767 Y47.012 E.00724
G1 X57.9 Y47.088 E.0054
;WIDTH:0.456779
G1 X58.033 Y47.163 E.00489
;WIDTH:0.413559
G1 X58.167 Y47.239 E.00438
;WIDTH:0.370338
G1 X58.265 Y47.334 E.00344
;WIDTH:0.364379
G1 X63.838 Y52.44 E.18708
;WIDTH:0.409586
G1 X63.924 Y52.631 E.0059
;WIDTH:0.454793
G1 X64.01 Y52.821 E.00663
;WIDTH:0.499999
G1 X64.056 Y52.923 E.00394
G1 E-.5
G1 Z.4 F21000
G1 X57.208 Y51.108
G1 Z.2
G1 E.5 F1800
;TYPE:Outer wall
;WIDTH:0.657488
G1 F3000
G1 X55.693 Y52.495 E.0972
;WIDTH:0.66213
G1 X55.656 Y52.533 E.00255
G1 E-.5
G1 Z.4 F21000
G1 X58.42 Y46.176
M73 P2 R18
G1 Z.2
G1 E.5 F1800
;TYPE:Inner wall
;WIDTH:0.499999
G1 F3000
G1 X59.052 Y45.572 E.03076
G1 X59.44 Y45.261 E.0175
G1 X59.882 Y45.132 E.01622
G1 X60.24 Y45.161 E.01261
G1 X60.65 Y45.365 E.01611
G1 X67.527 Y51.66 E.32812
G1 X67.808 Y52.069 E.01746
G1 X67.881 Y52.509 E.01571
G1 X67.844 Y52.751 E.00863
G1 X67.579 Y53.233 E.01934
G1 X67.339 Y53.416 E.01063
G1 X66.856 Y53.577 E.01792
G1 X65.725 Y53.581 E.03979
G1 X65.588 Y53.567 E.00486
G1 X65.381 Y53.489 E.00778
G1 X64.635 Y52.827 E.03509
G1 X64.442 Y52.619 E.01
;WIDTH:0.454793
G1 X64.248 Y52.411 E.00901
;WIDTH:0.409586
G1 X64.055 Y52.203 E.00802
;WIDTH:0.364379
G1 X58.482 Y47.097 E.18708
;WIDTH:0.370338
G1 X58.407 Y47.019 E.00272
;WIDTH:0.413559
G1 X58.343 Y46.88 E.00438
;WIDTH:0.456779
G1 X58.279 Y46.74 E.00489
;WIDTH:0.499999
G1 X58.215 Y46.601 E.0054
G1 X58.324 Y46.268 E.01233
G1 X58.377 Y46.217 E.00257
G1 X58.745 Y46.473 F21000
;TYPE:Outer wall
G1 F3000
G1 X59.529 Y45.754 E.03743
G1 X59.711 Y45.641 E.00754
G1 X59.996 Y45.586 E.01019
G1 X60.179 Y45.624 E.00659
G1 X60.406 Y45.754 E.00919
G1 X67.218 Y51.997 E.32519
G1 X67.392 Y52.262 E.01115
G1 X67.412 Y52.603 E.01204
G1 X67.184 Y52.98 E.01549
G1 X66.778 Y53.124 E.01516
G1 X65.679 Y53.119 E.03868
G1 X65.571 Y53.064 E.00429
G1 X58.745 Y46.81 E.32582
G1 X58.671 Y46.628 E.00691
G1 X58.719 Y46.527 E.00393
G1 X58.707 Y46.402
G1 E-.5
G1 Z.4 F21000
G1 X63.646 Y52.934
G1 Z.2
G1 E.5 F1800
G1 F3000
G1 X63.535 Y53.093 E.00682
G1 X63.304 Y53.124 E.00821
G1 X61.011 Y53.124 E.0807
G1 X60.702 Y53.072 E.01101
G1 X60.303 Y52.849 E.01607
G1 X59.798 Y52.384 E.02418
;WIDTH:0.497001
G1 X59.627 Y52.224 E.00816
;WIDTH:0.492718
G1 X58.143 Y50.864 E.06973
G1 X57.882 Y50.715 E.01041
;WIDTH:0.477386
G1 X57.569 Y50.738 E.0105
;WIDTH:0.509114
G1 X57.463 Y50.815 E.00472
;WIDTH:0.540842
G1 X57.356 Y50.892 E.00504
;WIDTH:0.579724
G1 X57.307 Y50.964 E.0036
;WIDTH:0.618606
G1 X57.257 Y51.036 E.00386
;WIDTH:0.657488
G1 X57.208 Y51.108 E.00412
G1 X57.314 Y51.094 E.00504
;WIDTH:0.60772
G1 X57.419 Y51.081 E.00463
;WIDTH:0.557951
G1 X57.525 Y51.067 E.00422
;WIDTH:0.508182
G1 X57.76 Y51.143 E.00885
;WIDTH:0.492716
G1 X57.86 Y51.215 E.00426
G1 X59.323 Y52.556 E.06876
;WIDTH:0.497001
G1 X59.405 Y52.682 E.00524
