; generated by SuperSlicer 2.5.59 on 2023-08-04 at 05:08:50 UTC


;
;

;
;
; 

; external perimeters extrusion width = 0.40mm
; perimeters extrusion width = 0.46mm
; infill extrusion width = 0.64mm
; solid infill extrusion width = 0.56mm
; top infill extrusion width = 0.40mm
; first layer extrusion width = 0.50mm

; external perimeters extrusion width = 0.40mm
; perimeters extrusion width = 0.46mm
; infill extrusion width = 0.64mm
; solid infill extrusion width = 0.56mm
; top infill extrusion width = 0.40mm
; first layer extrusion width = 0.50mm

; external perimeters extrusion width = 0.40mm
; perimeters extrusion width = 0.46mm
; infill extrusion width = 0.64mm
; solid infill extrusion width = 0.56mm
; top infill extrusion width = 0.40mm
; first layer extrusion width = 0.50mm

; external perimeters extrusion width = 0.40mm
; perimeters extrusion width = 0.46mm
; infill extrusion width = 0.64mm
; solid infill extrusion width = 0.56mm
; top infill extrusion width = 0.40mm
; first layer extrusion width = 0.50mm

; object:{"name":"(Unsaved)1","id":"(Unsaved)1.stl id:0 copy 0","object_center":[55.378870,60.001513,0.000000],"boundingbox_center":[55.378870,60.001513,10.800978],"boundingbox_size":[61.630373,84.464475,21.601955]}
EXCLUDE_OBJECT_DEFINE NAME=_Unsaved_1_stl_id_0_copy_0 CENTER=55.378870,60.001513 POLYGON=[[24.563680,59.468492],[24.567584,59.282608],[24.581688,59.138492],[24.631696,58.812496],[24.653596,58.712616],[24.713704,58.496492],[24.825712,58.192500],[24.963716,57.908504],[25.111620,57.662612],[25.127724,57.640500],[25.321728,57.382512],[55.206592,19.125214],[55.594600,18.681224],[56.058608,18.313232],[56.578612,18.031246],[57.140616,17.849258],[57.726628,17.769272],[58.318620,17.795284],[58.894616,17.927296],[59.440620,18.159314],[59.932604,18.487324],[85.166008,40.826028],[85.238104,40.899916],[85.458096,41.143920],[85.548000,41.258040],[85.652096,41.409928],[85.818088,41.693928],[85.847984,41.748048],[85.954080,41.985932],[86.058072,42.283936],[86.132064,42.589936],[86.171960,42.848052],[86.178064,42.909936],[86.194056,43.237940],[86.185944,43.422052],[86.174040,43.565936],[86.124040,43.891936],[76.924672,98.861848],[76.898776,99.003720],[76.802768,99.389728],[76.778664,99.469832],[76.668760,99.765720],[76.538648,100.049832],[76.496752,100.125720],[76.292744,100.465712],[76.210640,100.585824],[76.058728,100.779712],[75.802624,101.063816],[75.518720,101.319696],[75.324616,101.469800],[75.204720,101.553688],[74.864712,101.757672],[74.788608,101.799792],[74.504704,101.929672],[74.208600,102.039776],[74.128712,102.063656],[73.742704,102.159656],[73.600600,102.185768],[73.354704,102.215648],[72.974600,102.233752],[42.774600,102.233064],[42.392704,102.214936],[42.148600,102.185040],[42.004708,102.158920],[41.620708,102.062912],[41.538604,102.039032],[41.244708,101.928912],[40.958612,101.799016],[40.882712,101.756896],[40.542716,101.552896],[40.422620,101.469000],[40.230724,101.318888],[39.946624,101.063000],[39.688736,100.778872],[39.538640,100.584984],[39.454744,100.464864],[39.250748,100.124864],[39.210648,100.048984],[39.078760,99.764864],[24.801652,60.718496],[24.697558,60.420612],[24.623666,60.114492],[24.583570,59.856604],[24.577674,59.794492],[24.563680,59.468492]]
; object:{"name":"Strain Relief LGX Umbilical Spacer(2)","id":"Strain Relief LGX Umbilical Spacer(2).stl id:1 copy 0","object_center":[27.916623,38.547197,0.000000],"boundingbox_center":[27.916623,38.547197,7.500000],"boundingbox_size":[7.099998,7.100001,15.000000]}
EXCLUDE_OBJECT_DEFINE NAME=Strain_Relief_LGX_Umbilical_Spacer_2_stl_id_1_copy_0 CENTER=27.916623,38.547197 POLYGON=[[24.366622,38.547200],[24.370000,38.392348],[24.380130,38.237796],[24.396994,38.083832],[24.420554,37.930748],[24.450772,37.778840],[24.487586,37.628392],[24.530926,37.479692],[24.580714,37.333032],[24.636850,37.188676],[24.699230,37.046904],[24.767734,36.907988],[24.842232,36.772200],[24.922582,36.639784],[25.008632,36.511000],[25.100218,36.386096],[25.197164,36.265304],[25.299288,36.148852],[25.406394,36.036972],[25.518278,35.929864],[25.634726,35.827744],[25.755520,35.730796],[25.880426,35.639208],[26.009206,35.553160],[26.141620,35.472808],[26.277414,35.398308],[26.416328,35.329804],[26.558096,35.267424],[26.702450,35.211292],[26.849118,35.161508],[26.997814,35.118164],[27.148262,35.081348],[27.300170,35.051132],[27.453254,35.027568],[27.607220,35.010708],[27.761774,35.000580],[27.916622,34.997200],[28.071470,35.000580],[28.226024,35.010708],[28.379990,35.027568],[28.533074,35.051132],[28.684982,35.081348],[28.835430,35.118164],[28.984128,35.161508],[29.130794,35.211292],[29.275148,35.267424],[29.416916,35.329804],[29.555828,35.398308],[29.691622,35.472808],[29.824036,35.553160],[29.952820,35.639208],[30.077724,35.730796],[30.198516,35.827744],[30.314968,35.929864],[30.426852,36.036972],[30.533956,36.148852],[30.636080,36.265304],[30.733026,36.386096],[30.824612,36.511000],[30.910662,36.639784],[30.991012,36.772200],[31.065510,36.907988],[31.134014,37.046904],[31.196394,37.188676],[31.252530,37.333032],[31.302316,37.479692],[31.345660,37.628392],[31.382474,37.778840],[31.412690,37.930748],[31.436252,38.083832],[31.453114,38.237796],[31.463244,38.392348],[31.466622,38.547200],[31.463244,38.702048],[31.453114,38.856600],[31.436252,39.010568],[31.412690,39.163652],[31.382474,39.315560],[31.345660,39.466008],[31.302316,39.614704],[31.252530,39.761372],[31.196394,39.905724],[31.134014,40.047492],[31.065510,40.186408],[30.991012,40.322200],[30.910662,40.454612],[30.824612,40.583396],[30.733026,40.708300],[30.636080,40.829096],[30.533956,40.945544],[30.426852,41.057428],[30.314968,41.164536],[30.198516,41.266656],[30.077724,41.363600],[29.952820,41.455188],[29.824036,41.541236],[29.691622,41.621588],[29.555828,41.696088],[29.416916,41.764592],[29.275148,41.826972],[29.130794,41.883112],[28.984128,41.932892],[28.835430,41.976236],[28.684982,42.013052],[28.533074,42.043268],[28.379990,42.066828],[28.226024,42.083692],[28.071470,42.093820],[27.916622,42.097200],[27.761774,42.093820],[27.607220,42.083692],[27.453254,42.066828],[27.300170,42.043268],[27.148262,42.013052],[26.997814,41.976236],[26.849118,41.932892],[26.702450,41.883112],[26.558096,41.826972],[26.416328,41.764592],[26.277414,41.696088],[26.141620,41.621588],[26.009206,41.541236],[25.880426,41.455188],[25.755520,41.363600],[25.634726,41.266656],[25.518278,41.164536],[25.406394,41.057428],[25.299288,40.945544],[25.197164,40.829096],[25.100218,40.708300],[25.008632,40.583396],[24.922582,40.454612],[24.842232,40.322200],[24.767734,40.186408],[24.699230,40.047492],[24.636850,39.905724],[24.580714,39.761372],[24.530926,39.614704],[24.487586,39.466008],[24.450772,39.315560],[24.420554,39.163652],[24.396994,39.010568],[24.380130,38.856600],[24.370000,38.702048],[24.366622,38.547200]]
; object:{"name":"Strain Relief LGX Umbilical Spacer(2)","id":"Strain Relief LGX Umbilical Spacer(2).stl id:2 copy 0","object_center":[92.083378,66.141404,0.000000],"boundingbox_center":[92.083378,66.141404,7.500000],"boundingbox_size":[7.099998,7.100001,15.000000]}
EXCLUDE_OBJECT_DEFINE NAME=Strain_Relief_LGX_Umbilical_Spacer_2_stl_id_2_copy_0 CENTER=92.083378,66.141404 POLYGON=[[88.533384,66.141404],[88.536760,65.986556],[88.546888,65.832000],[88.563752,65.678032],[88.587312,65.524948],[88.617528,65.373040],[88.654344,65.222596],[88.697688,65.073900],[88.747472,64.927232],[88.803608,64.782876],[88.865992,64.641104],[88.934496,64.502196],[89.008984,64.366400],[89.089344,64.233992],[89.175392,64.105208],[89.266976,63.980300],[89.363920,63.859504],[89.466048,63.743056],[89.573152,63.631172],[89.685032,63.524072],[89.801480,63.421944],[89.922280,63.324996],[90.047192,63.233412],[90.175968,63.147360],[90.308384,63.067012],[90.444176,62.992516],[90.583088,62.924012],[90.724856,62.861632],[90.869208,62.805496],[91.015880,62.755708],[91.164576,62.712364],[91.315016,62.675552],[91.466936,62.645336],[91.620008,62.621772],[91.773976,62.604912],[91.928536,62.594780],[92.083384,62.591400],[92.238232,62.594780],[92.392784,62.604912],[92.546752,62.621772],[92.699832,62.645336],[92.851744,62.675552],[93.002192,62.712364],[93.150888,62.755708],[93.297552,62.805496],[93.441912,62.861632],[93.583680,62.924012],[93.722584,62.992516],[93.858384,63.067012],[93.990800,63.147360],[94.119576,63.233412],[94.244488,63.324996],[94.365280,63.421944],[94.481728,63.524072],[94.593616,63.631172],[94.700712,63.743056],[94.802840,63.859504],[94.899792,63.980300],[94.991368,64.105208],[95.077424,64.233992],[95.157776,64.366400],[95.232272,64.502196],[95.300776,64.641104],[95.363152,64.782876],[95.419288,64.927232],[95.469080,65.073900],[95.512424,65.222596],[95.549232,65.373040],[95.579456,65.524948],[95.603016,65.678032],[95.619872,65.832000],[95.630008,65.986556],[95.633376,66.141404],[95.630008,66.296248],[95.619872,66.450804],[95.603016,66.604768],[95.579456,66.757860],[95.549232,66.909768],[95.512424,67.060212],[95.469080,67.208912],[95.419288,67.355576],[95.363152,67.499928],[95.300776,67.641704],[95.232272,67.780608],[95.157776,67.916408],[95.077424,68.048824],[94.991368,68.177600],[94.899792,68.302504],[94.802840,68.423304],[94.700712,68.539752],[94.593616,68.651632],[94.481728,68.758736],[94.365280,68.860864],[94.244488,68.957808],[94.119576,69.049392],[93.990800,69.135448],[93.858384,69.215792],[93.722584,69.290288],[93.583680,69.358792],[93.441912,69.421176],[93.297552,69.477312],[93.150888,69.527096],[93.002192,69.570440],[92.851744,69.607256],[92.699832,69.637472],[92.546752,69.661032],[92.392784,69.677896],[92.238232,69.688024],[92.083384,69.691408],[91.928536,69.688024],[91.773976,69.677896],[91.620008,69.661032],[91.466936,69.637472],[91.315016,69.607256],[91.164576,69.570440],[91.015880,69.527096],[90.869208,69.477312],[90.724856,69.421176],[90.583088,69.358792],[90.444176,69.290288],[90.308384,69.215792],[90.175968,69.135448],[90.047192,69.049392],[89.922280,68.957808],[89.801480,68.860864],[89.685032,68.758736],[89.573152,68.651632],[89.466048,68.539752],[89.363920,68.423304],[89.266976,68.302504],[89.175392,68.177600],[89.089344,68.048824],[89.008984,67.916408],[88.934496,67.780608],[88.865992,67.641704],[88.803608,67.499928],[88.747472,67.355576],[88.697688,67.208912],[88.654344,67.060212],[88.617528,66.909768],[88.587312,66.757860],[88.563752,66.604768],[88.546888,66.450804],[88.536760,66.296248],[88.533384,66.141404]]
; plater:{"center":[60.000000,60.001513,0.000000],"boundingbox_center":[60.000000,60.001513,10.800978],"boundingbox_size":[71.266753,84.464475,21.601955]}

M73 P0 R35
;TYPE:Custom
; custom gcode: start_gcode
START_PRINT T_BED=110 T_EXTRUDER=260
; custom gcode end: start_gcode
M107
G21 ; set units to millimeters
G90 ; use absolute coordinates
M82 ; use absolute distances for extrusion
G92 E0
; custom gcode: start_filament_gcode
; filament start gcode

    PRESSURE_ADVANCE_SELECT FILAMENT=ABS
; custom gcode end: start_filament_gcode
;_TOOLCHANGE 0
M104 S260 ; set temperature
M109 S260 ; set temperature and wait for it to be reached
M190 S110 ; set bed temperature and wait for it to be reached
;LAYER_CHANGE
;Z:0.2
;HEIGHT:0.2
G1 Z0.2 F12000
M73 P0 R35
G1 E-0.5 F2400
M204 S2000
G1 X23.674 Y32.752 F12000
G1 E0 F1800
;TYPE:Skirt
;WIDTH:0.52
G1 X22.576 Y33.75 E0.05451
G1 X21.942 Y34.562 E0.09234
G1 X21.311 Y35.734 E0.14124
G1 X20.942 Y36.835 E0.1839
G1 X20.737 Y38.396 E0.24173
G1 X20.814 Y59.947 E1.0334
G1 X21.148 Y61.663 E1.09762
G1 X35.493 Y100.91 E2.63258
G1 X35.786 Y101.627 E2.66104
G1 X36.369 Y102.666 E2.70481
G1 X37.52 Y104.016 E2.76997
G1 X38.983 Y105.083 E2.83647
G1 X40.636 Y105.769 E2.90224
G1 X42.429 Y106.05 E2.9689
G1 X49.181 Y106.136 E3.21695
G1 X66.622 Y106.137 E3.85762
G1 X73.113 Y106.061 E4.09606
G1 X73.967 Y106.003 E4.12752
G1 X75.138 Y105.769 E4.17139
G1 X76.263 Y105.353 E4.21544
G1 X77.311 Y104.763 E4.2596
G1 X78.662 Y103.61 E4.32486
G1 X79.405 Y102.667 E4.36896
G1 X79.778 Y102.055 E4.3953
G1 X98.31 Y69.723 E5.76423
G1 X98.854 Y68.53 E5.8124
G1 X99.181 Y67.239 E5.8613
G1 X99.263 Y66.293 E5.89621
G1 X99.223 Y65.366 E5.93028
G1 X99.077 Y64.518 E5.96189
G1 X98.785 Y63.559 E5.99871
G1 X89.354 Y40.303 E6.92056
G1 X88.784 Y39.279 E6.96362
G1 X88.032 Y38.343 E7.00775
G1 X87.555 Y37.892 E7.03183
G1 X86.588 Y37.194 E7.07566
G1 X85.488 Y36.661 E7.12055
G1 X83.789 Y36.252 E7.18476
G1 X28.392 Y31.381 E9.22755
G1 X27.141 Y31.408 E9.27349
G1 X25.901 Y31.654 E9.31995
G1 X24.665 Y32.146 E9.36882
G1 X23.674 Y32.752 E9.41147
G1 X23.948 Y33.143 F12000
G1 F1800
G1 X22.92 Y34.08 E9.46255
G1 X22.345 Y34.818 E9.49694
G1 X21.756 Y35.907 E9.54241
G1 X21.403 Y36.958 E9.58316
G1 X21.214 Y38.396 E9.63642
G1 X21.274 Y59.299 E10.40426
G1 X21.354 Y60.482 E10.44784
G1 X21.596 Y61.5 E10.48625
G1 X35.941 Y100.746 E12.02121
G1 X36.227 Y101.445 E12.04894
G1 X36.776 Y102.417 E12.08996
G1 X37.83 Y103.654 E12.14964
G1 X39.233 Y104.677 E12.21342
G1 X40.747 Y105.305 E12.27366
G1 X42.466 Y105.574 E12.33755
G1 X49.181 Y105.659 E12.58425
G1 X66.619 Y105.659 E13.22482
G1 X73.107 Y105.584 E13.46314
G1 X73.93 Y105.527 E13.49346
G1 X75.027 Y105.305 E13.53456
G1 X76.081 Y104.912 E13.57587
G1 X77.061 Y104.357 E13.61725
G1 X78.299 Y103.3 E13.67704
G1 X78.998 Y102.418 E13.7184
G1 X79.364 Y101.818 E13.74423
G1 X97.896 Y69.486 E15.11317
G1 X98.409 Y68.357 E15.15872
G1 X98.711 Y67.156 E15.20419
G1 X98.786 Y66.293 E15.23604
G1 X98.748 Y65.408 E15.26858
G1 X98.609 Y64.611 E15.29828
G1 X98.343 Y63.738 E15.3318
G1 X88.912 Y40.483 E16.25364
G1 X88.378 Y39.528 E16.29382
G1 X87.674 Y38.659 E16.3349
G1 X86.359 Y37.613 E16.39662
G1 X85.337 Y37.114 E16.4384
G1 X83.717 Y36.724 E16.49961
G1 X28.35 Y31.857 E18.5413
G1 X27.183 Y31.883 E18.58419
G1 X26.044 Y32.109 E18.62684
G1 X24.894 Y32.565 E18.67226
G1 X23.948 Y33.143 E18.71301
G92 E0
G1 E-0.5 F2400
; printing object (Unsaved)1.stl id:0 copy 0
EXCLUDE_OBJECT_START NAME=_Unsaved_1_stl_id_0_copy_0
G1 X47.031 Y101.641 F12000
G1 E0 F1800
;TYPE:Internal perimeter
;WIDTH:0.5
G1 X46.598 Y101.22 E0.02123
G1 X46.28 Y100.738 E0.04157
G1 X46.182 Y100.521 E0.04994
G1 X46.042 Y100.116 E0.06503
G1 X45.983 Y99.785 E0.07684
G1 X45.961 Y99.454 E0.08852
G1 X45.961 Y93.761 E0.28888
G1 X46.014 Y93.23 E0.30767
G1 X46.19 Y92.68 E0.32801
G1 X46.481 Y92.165 E0.34882
G1 X46.855 Y91.741 E0.3687
G1 X47.285 Y91.412 E0.38776
G1 X47.612 Y91.235 E0.40086
G1 X48.186 Y91.044 E0.42215
G1 X48.683 Y90.989 E0.43974
G1 X67.034 Y90.987 E1.08559
G1 X67.52 Y91.034 E1.10278
G1 X68.045 Y91.185 E1.12198
G1 X68.501 Y91.422 E1.14008
G1 X68.873 Y91.705 E1.15653
G1 X69.289 Y92.161 E1.17826
G1 X69.586 Y92.679 E1.19929
G1 X69.772 Y93.324 E1.22291
G1 X69.812 Y93.767 E1.23855
G1 X69.811 Y99.474 E1.43939
M73 P1 R34
G1 X69.75 Y100.041 E1.45948
G1 X69.55 Y100.621 E1.48107
G1 X69.227 Y101.153 E1.50296
G1 X68.898 Y101.48 E1.5193
G1 X68.735 Y101.67 E1.5281
;TYPE:Unknown
G1 X68.521 Y101.919
;TYPE:Internal perimeter
G1 X68.358 Y102.109 E1.5369
;TYPE:External perimeter
G1 X67.093 Y102.168 E1.58146
G1 X48.919 Y102.169 E2.22108
;TYPE:Internal perimeter
G1 X48.998 Y101.713 E2.23737
;TYPE:External perimeter
G1 X67 Y101.714 E2.87094
G1 X67.474 Y101.688 E2.88762
G1 X67.969 Y101.564 E2.9056
G1 X68.426 Y101.304 E2.9241
G1 X68.866 Y100.868 E2.9459
G1 X69.134 Y100.426 E2.96408
G1 X69.301 Y99.941 E2.98214
G1 X69.354 Y99.449 E2.99957
G1 X69.354 Y93.787 E3.19882
G1 X69.321 Y93.409 E3.2122
G1 X69.163 Y92.859 E3.23233
G1 X68.918 Y92.432 E3.24965
G1 X68.564 Y92.044 E3.26814
G1 X68.256 Y91.81 E3.28175
G1 X67.874 Y91.611 E3.29688
G1 X67.435 Y91.485 E3.31298
G1 X67.012 Y91.445 E3.32791
G1 X48.708 Y91.446 E3.9721
G1 X48.285 Y91.493 E3.9871
G1 X47.795 Y91.656 E4.00528
G1 X47.534 Y91.797 E4.0157
G1 X47.168 Y92.077 E4.03193
G1 X46.856 Y92.432 E4.04856
G1 X46.611 Y92.864 E4.06603
G1 X46.464 Y93.323 E4.08301
G1 X46.418 Y93.784 E4.09931
G1 X46.418 Y99.439 E4.29834
G1 X46.437 Y99.73 E4.30859
G1 X46.486 Y100 E4.31826
G1 X46.682 Y100.516 E4.33767
G1 X46.952 Y100.927 E4.355
G1 X47.321 Y101.286 E4.3731
G1 X47.636 Y101.485 E4.38621
G1 X47.932 Y101.613 E4.39758
G1 X48.347 Y101.691 E4.41242
