; HEADER_BLOCK_START
; generated by OrcaSlicer 1.6.3-beta on 2023-05-30 at 10:17:52
; total layer number: 53
; HEADER_BLOCK_END

; THUMBNAIL_BLOCK_START
; THUMBNAIL_BLOCK_END

; external perimeters extrusion width = 0.40mm
; perimeters extrusion width = 0.45mm
; infill extrusion width = 0.45mm
; solid infill extrusion width = 0.40mm
; top infill extrusion width = 0.40mm
; first layer extrusion width = 0.40mm

; EXECUTABLE_BLOCK_START
EXCLUDE_OBJECT_DEFINE NAME=(Unsaved).stl_id_0_copy_0 CENTER=60,60 POLYGON=[[37.4916,28.729],[37.4917,20.229],[37.4953,18.75],[37.5061,18.75],[82.4933,18.75],[82.5042,18.75],[82.5079,29.729],[82.5084,38.2294],[82.5081,52.25],[74.9997,100.75],[61.5855,101.25],[58.414,101.25],[58.4129,101.25],[58.2212,101.231],[58.1552,101.216],[58.0313,101.174],[57.914,101.116],[57.8566,101.08],[57.7076,100.958],[57.7069,100.957],[54.5855,97.8358],[54.5849,97.8351],[54.3368,97.5327],[54.152,97.1869],[54.1518,97.1865],[37.4953,52.25],[37.4916,28.729]]
M73 P0 R26
;TYPE:Custom
START_PRINT T_BED=110 T_EXTRUDER=260
G90
G21
M83 ; use relative distances for extrusion
; Filament gcode

    PRESSURE_ADVANCE_SELECT FILAMENT=ABS
M106 S0
;LAYER_CHANGE
;Z:0.2
;HEIGHT:0.2
;BEFORE_LAYER_CHANGE
;0.2
G92 E0

;AFTER_LAYER_CHANGE
;0.2
SET_VELOCITY_LIMIT ACCEL_TO_DECEL=500
M204 S1000
G1 E-.5 F3000
G1 Z.2 F21000
G1 X39.726 Y17.274
G1 E.5 F1800
;TYPE:Skirt
;WIDTH:0.4
G1 F3000
G1 X40.82 Y16.308 E.04014
G1 X42.004 Y16.036 E.0334
G1 X77.995 Y16.036 E.98955
G1 X79.401 Y16.428 E.04014
G1 X80.401 Y17.493 E.04014
G1 X80.71 Y18.739 E.0353
G1 X80.71 Y52.259 E.9216
G1 X77.709 Y100.917 E1.34037
G1 X77.23 Y102.297 E.04014
G1 X76.106 Y103.228 E.04014
G1 X75.101 Y103.462 E.02838
G1 X61.691 Y103.962 E.36894
G1 X57.804 Y103.907 E.10689
G1 X56.874 Y103.623 E.02675
G1 X56.259 Y103.267 E.01952
G1 X55.788 Y102.876 E.01684
G1 X52.487 Y99.558 E.12868
G1 X51.943 Y98.812 E.02537
G1 X51.555 Y97.975 E.02539
G1 X39.384 Y52.958 E1.28214
G1 X39.29 Y52.254 E.01951
G1 X39.291 Y18.668 E.92343
G1 X39.708 Y17.332 E.03849
G1 X40.059 Y17.449 F21000
G1 F3000
G1 X40.079 Y17.39 E.0017
G1 X41.149 Y16.553 E.03735
G1 X42.004 Y16.393 E.02392
G1 X77.995 Y16.393 E.98955
G1 X79.296 Y16.784 E.03735
G1 X80.165 Y17.829 E.03735
G1 X80.352 Y18.74 E.02558
G1 X80.352 Y52.258 E.92152
G1 X77.352 Y100.895 E1.3398
G1 X76.881 Y102.17 E.03735
G1 X75.785 Y102.972 E.03735
G1 X75.087 Y103.106 E.01953
G1 X61.678 Y103.605 E.36894
G1 X57.851 Y103.553 E.10524
G1 X57.011 Y103.293 E.02418
G1 X56.04 Y102.624 E.0324
G1 X52.763 Y99.331 E.12772
G1 X52.258 Y98.644 E.02345
G1 X51.896 Y97.871 E.02347
G1 X39.729 Y52.865 E1.28184
G1 X39.647 Y52.254 E.01694
G1 X39.648 Y18.679 E.92311
G1 X40.04 Y17.506 E.034
; printing object (Unsaved).stl id:0 copy 0
EXCLUDE_OBJECT_START NAME=(Unsaved).stl_id_0_copy_0
G1 E-.5
G1 Z.4 F21000
G1 X72.491 Y98.852
G1 Z.2
G1 E.5 F1800
;TYPE:Outer wall
G1 F3000
G1 X72.058 Y99.054 E.01313
G1 X71.586 Y99.18 E.01342
G1 X71.1 Y99.223 E.01342
G1 X70.613 Y99.18 E.01342
G1 X70.141 Y99.054 E.01344
G1 X69.691 Y98.842 E.01369
G1 X69.299 Y98.567 E.01314
G1 X68.954 Y98.222 E.01342
G1 X68.674 Y97.822 E.01342
G1 X68.468 Y97.38 E.01342
G1 X68.341 Y96.908 E.01342
G1 X68.299 Y96.421 E.01344
G1 X68.344 Y95.925 E.01369
G1 X68.468 Y95.464 E.01314
G1 X68.674 Y95.021 E.01342
G1 X68.954 Y94.621 E.01342
G1 X69.299 Y94.276 E.01342
G1 X69.699 Y93.996 E.01342
G1 X70.142 Y93.789 E.01344
G1 X70.624 Y93.662 E.01369
G1 X71.1 Y93.62 E.01314
G1 X71.586 Y93.663 E.01342
G1 X72.058 Y93.789 E.01342
G1 X72.5 Y93.996 E.01342
G1 X72.9 Y94.276 E.01342
G1 X73.246 Y94.621 E.01342
G1 X73.526 Y95.021 E.01342
G1 X73.732 Y95.464 E.01342
G1 X73.858 Y95.935 E.01342
G1 X73.901 Y96.422 E.01342
G1 X73.858 Y96.908 E.01342
G1 X73.732 Y97.38 E.01344
G1 X73.52 Y97.831 E.01369
G1 X73.246 Y98.222 E.01314
G1 X72.9 Y98.567 E.01342
G1 X72.541 Y98.819 E.01207
G1 X72.49 Y98.932
G1 E-.5
G1 Z.4 F21000
G1 X72.676 Y99.012
G1 X73.052 Y98.749
G1 X73.366 Y98.323
G1 X73.55 Y97.848
G1 X73.675 Y97.359
G1 X73.743 Y96.888
G1 X73.943 Y94.247
G1 Z.2
G1 E.5 F1800
;TYPE:Inner wall
G1 F3000
G1 X73.502 Y93.807 E.01712
G1 X73.943 Y93.807 E.0121
G1 X73.943 Y94.187 E.01045
G1 E-.5
G1 Z.4 F21000
G1 X74.132 Y95.375
G1 Z.2
G1 E.5 F1800
G1 F3000
G1 X73.873 Y94.82 E.01682
G1 X73.553 Y94.363 E.01535
G1 X73.158 Y93.968 E.01535
G1 X72.633 Y93.6 E.01765
G1 X72.68 Y93.45 E.00432
G1 X74.3 Y93.45 E.04454
G1 X74.3 Y95.337 E.05189
G1 X74.19 Y95.362 E.00308
G1 E-.5
G1 Z.4 F21000
G1 X73.366 Y94.52
G1 X72.928 Y94.243
G1 X72.459 Y94.067
G1 X71.998 Y93.954
G1 X71.546 Y93.891
G1 X71.1 Y93.871
G1 X70.663 Y93.891
G1 X70.202 Y93.954
G1 X69.741 Y94.067
G1 X63.136 Y96.433
G1 X63.656 Y96.479
G1 Z.2
G1 E.5 F1800
G1 F3000
G1 X63.607 Y97.04 E.01549
G1 X63.446 Y97.641 E.01712
G1 X63.177 Y98.212 E.01733
G1 X62.828 Y98.711 E.01674
G1 X62.389 Y99.15 E.01707
G1 X61.88 Y99.506 E.01707
G1 X61.318 Y99.768 E.01707
G1 X60.718 Y99.929 E.01707
G1 X60.1 Y99.983 E.01707
G1 X59.481 Y99.929 E.01707
G1 X58.88 Y99.767 E.01712
G1 X58.31 Y99.499 E.01733
G1 X57.811 Y99.15 E.01675
G1 X57.372 Y98.711 E.01707
G1 X57.016 Y98.202 E.01707
G1 X56.753 Y97.64 E.01707
G1 X56.593 Y97.04 E.01707
G1 X56.539 Y96.422 E.01707
G1 X56.593 Y95.803 E.01707
G1 X56.753 Y95.204 E.01707
G1 X57.016 Y94.641 E.01707
G1 X57.372 Y94.133 E.01707
G1 X57.811 Y93.694 E.01707
G1 X58.319 Y93.338 E.01707
G1 X58.884 Y93.074 E.01712
G1 X59.493 Y92.914 E.01733
G1 X60.1 Y92.86 E.01675
G1 X60.718 Y92.915 E.01707
G1 X61.318 Y93.075 E.01707
G1 X61.88 Y93.338 E.01707
G1 X62.389 Y93.694 E.01707
G1 X62.828 Y94.133 E.01707
G1 X63.184 Y94.641 E.01707
G1 X63.446 Y95.204 E.01707
G1 X63.607 Y95.803 E.01707
G1 X63.661 Y96.419 E.01699
G1 X63.3 Y96.392 F21000
G1 F3000
G1 X63.302 Y96.422 E.00082
G1 X63.254 Y96.978 E.01535
G1 X63.109 Y97.518 E.01539
G1 X62.867 Y98.032 E.01561
G1 X62.553 Y98.48 E.01505
G1 X62.158 Y98.875 E.01535
G1 X61.701 Y99.195 E.01535
G1 X61.195 Y99.431 E.01535
G1 X60.656 Y99.576 E.01535
G1 X60.1 Y99.624 E.01535
G1 X59.544 Y99.576 E.01535
G1 X59.003 Y99.431 E.01539
G1 X58.489 Y99.189 E.01561
G1 X58.041 Y98.875 E.01505
G1 X57.646 Y98.48 E.01535
G1 X57.326 Y98.023 E.01535
G1 X57.09 Y97.517 E.01535
G1 X56.946 Y96.978 E.01535
G1 X56.897 Y96.422 E.01535
G1 X56.946 Y95.865 E.01535
G1 X57.09 Y95.326 E.01535
G1 X57.326 Y94.82 E.01535
G1 X57.646 Y94.363 E.01535
G1 X58.041 Y93.968 E.01535
G1 X58.498 Y93.648 E.01535
G1 X59.006 Y93.411 E.01539
G1 X59.555 Y93.267 E.01561
G1 X60.1 Y93.219 E.01505
G1 X60.656 Y93.268 E.01535
G1 X61.195 Y93.412 E.01535
G1 X61.701 Y93.648 E.01535
G1 X62.158 Y93.968 E.01535
G1 X62.553 Y94.363 E.01535
G1 X62.873 Y94.82 E.01535
G1 X63.109 Y95.326 E.01535
G1 X63.254 Y95.865 E.01535
G1 X63.295 Y96.332 E.01288
G1 X62.898 Y96.452 F21000
;TYPE:Outer wall
G1 F3000
G1 X62.858 Y96.908 E.01258
G1 X62.732 Y97.38 E.01344
G1 X62.52 Y97.831 E.01369
G1 X62.246 Y98.222 E.01314
G1 X61.9 Y98.567 E.01342
G1 X61.5 Y98.847 E.01342
G1 X61.058 Y99.054 E.01342
G1 X60.586 Y99.18 E.01342
G1 X60.1 Y99.223 E.01342
G1 X59.613 Y99.18 E.01342
G1 X59.141 Y99.054 E.01344
G1 X58.691 Y98.842 E.01369
G1 X58.299 Y98.567 E.01314
G1 X57.954 Y98.222 E.01342
G1 X57.674 Y97.822 E.01342
G1 X57.468 Y97.38 E.01342
G1 X57.341 Y96.908 E.01342
G1 X57.299 Y96.422 E.01342
G1 X57.341 Y95.935 E.01342
G1 X57.468 Y95.464 E.01342
G1 X57.674 Y95.021 E.01342
G1 X57.954 Y94.621 E.01342
G1 X58.299 Y94.276 E.01342
G1 X58.699 Y93.996 E.01342
G1 X59.142 Y93.789 E.01344
G1 X59.624 Y93.662 E.01369
G1 X60.1 Y93.62 E.01314
G1 X60.586 Y93.663 E.01342
G1 X61.058 Y93.789 E.01342
G1 X61.5 Y93.996 E.01342
G1 X61.9 Y94.276 E.01342
G1 X62.246 Y94.621 E.01342
G1 X62.526 Y95.021 E.01342
G1 X62.732 Y95.464 E.01342
G1 X62.858 Y95.935 E.01342
G1 X62.898 Y96.392 E.01262
G1 X62.967 Y96.492
G1 E-.5
G1 Z.4 F21000
G1 X57.402 Y84.653
G1 Z.2
G1 E.5 F1800
;TYPE:Inner wall
G1 F3000
G1 X57.087 Y84.153 E.01626
G1 X56.848 Y83.469 E.0199
G1 X56.779 Y82.849 E.01715
G1 X56.779 Y48.31 E.94964
G1 X56.848 Y47.69 E.01715
G1 X57.087 Y47.007 E.0199
G1 X57.473 Y46.394 E.0199
G1 X57.984 Y45.882 E.0199
G1 X58.597 Y45.497 E.0199
G1 X59.28 Y45.258 E.0199
G1 X59.963 Y45.181 E.0189
G1 X60.707 Y45.254 E.02055
G1 X61.402 Y45.497 E.02024
G1 X62.015 Y45.882 E.0199
G1 X62.527 Y46.394 E.0199
G1 X62.912 Y47.007 E.0199
G1 X63.151 Y47.69 E.0199
G1 X63.221 Y48.31 E.01715
G1 X63.221 Y82.849 E.94964
M73 P1 R26
G1 X63.151 Y83.469 E.01715
G1 X62.912 Y84.153 E.0199
G1 X62.527 Y84.765 E.0199
G1 X62.015 Y85.277 E.0199
G1 X61.402 Y85.662 E.0199
G1 X60.719 Y85.901 E.0199
G1 X60 Y85.982 E.0199
G1 X59.28 Y85.901 E.0199
G1 X58.597 Y85.662 E.0199
G1 X57.984 Y85.277 E.0199
G1 X57.473 Y84.765 E.0199
G1 X57.434 Y84.704 E.002
G1 X57.701 Y84.458 F21000
G1 F3000
G1 X57.411 Y83.997 E.01497
G1 X57.199 Y83.389 E.01769
G1 X57.136 Y82.829 E.01549
G1 X57.136 Y48.33 E.94854
G1 X57.199 Y47.77 E.01549
G1 X57.411 Y47.163 E.01769
G1 X57.753 Y46.618 E.01769
G1 X58.208 Y46.163 E.01769
G1 X58.753 Y45.821 E.01769
G1 X59.36 Y45.608 E.01769
G1 X59.966 Y45.54 E.01676
G1 X60.63 Y45.605 E.01834
G1 X61.246 Y45.821 E.01796
G1 X61.791 Y46.163 E.01769
G1 X62.246 Y46.618 E.01769
G1 X62.588 Y47.163 E.01769
G1 X62.801 Y47.77 E.01769
G1 X62.864 Y48.33 E.01549
G1 X62.864 Y82.829 E.94854
G1 X62.801 Y83.389 E.01549
G1 X62.588 Y83.997 E.01769
G1 X62.246 Y84.541 E.01769
G1 X61.791 Y84.996 E.01769
G1 X61.246 Y85.339 E.01769
G1 X60.639 Y85.551 E.01769
G1 X60 Y85.623 E.01769
G1 X59.36 Y85.551 E.01769
G1 X58.753 Y85.339 E.01769
G1 X58.208 Y84.996 E.01769
G1 X57.753 Y84.541 E.01769
G1 X57.733 Y84.508 E.00107
G1 X58 Y84.262 F21000
G1 F3000
G1 X57.735 Y83.841 E.01369
G1 X57.549 Y83.309 E.01548
G1 X57.493 Y82.809 E.01383
G1 X57.493 Y48.35 E.94744
G1 X57.549 Y47.85 E.01383
G1 X57.735 Y47.318 E.01548
G1 X58.034 Y46.842 E.01548
G1 X58.432 Y46.444 E.01548
G1 X58.909 Y46.144 E.01548
G1 X59.44 Y45.958 E.01548
G1 X59.969 Y45.899 E.01462
G1 X60.552 Y45.956 E.01613
G1 X61.09 Y46.144 E.01567
G1 X61.567 Y46.444 E.01548
G1 X61.965 Y46.842 E.01548
G1 X62.265 Y47.318 E.01548
G1 X62.45 Y47.85 E.01548
G1 X62.507 Y48.35 E.01383
G1 X62.507 Y82.809 E.94744
G1 X62.45 Y83.309 E.01383
G1 X62.265 Y83.841 E.01548
G1 X61.965 Y84.317 E.01548
G1 X61.567 Y84.715 E.01548
G1 X61.09 Y85.015 E.01548
G1 X60.559 Y85.201 E.01548
G1 X60 Y85.264 E.01548
G1 X59.44 Y85.201 E.01548
G1 X58.909 Y85.015 E.01548
G1 X58.432 Y84.715 E.01548
G1 X58.034 Y84.317 E.01548
G1 X58.032 Y84.313 E.00014
G1 X58.299 Y84.067 F21000
G1 F3000
G1 X58.059 Y83.685 E.0124
G1 X57.899 Y83.229 E.01326
G1 X57.85 Y82.789 E.01218
G1 X57.85 Y48.37 E.94633
G1 X57.899 Y47.93 E.01218
G1 X58.059 Y47.474 E.01326
G1 X58.315 Y47.066 E.01326
G1 X58.656 Y46.725 E.01326
G1 X59.065 Y46.468 E.01326
G1 X59.52 Y46.309 E.01326
G1 X59.971 Y46.258 E.01248
G1 X60.475 Y46.307 E.01392
G1 X60.935 Y46.468 E.01339
G1 X61.343 Y46.725 E.01326
G1 X61.684 Y47.066 E.01326
G1 X61.941 Y47.474 E.01326
G1 X62.1 Y47.93 E.01326
G1 X62.15 Y48.37 E.01218
G1 X62.15 Y82.789 E.94633
G1 X62.1 Y83.229 E.01218
G1 X61.941 Y83.685 E.01326
G1 X61.684 Y84.093 E.01326
G1 X61.343 Y84.434 E.01326
G1 X60.935 Y84.691 E.01326
G1 X60.479 Y84.85 E.01326
G1 X60 Y84.904 E.01326
G1 X59.52 Y84.85 E.01326
G1 X59.065 Y84.691 E.01326
G1 X58.656 Y84.434 E.01326
G1 X58.336 Y84.114 E.01248
G1 X58.664 Y83.876 F21000
;TYPE:Outer wall
G1 F3000
G1 X58.63 Y83.842 E.0013
G1 X58.421 Y83.51 E.01079
G1 X58.292 Y83.14 E.01079
G1 X58.25 Y82.767 E.01032
G1 X58.25 Y48.392 E.9451
G1 X58.292 Y48.019 E.01032
G1 X58.421 Y47.649 E.01079
G1 X58.63 Y47.317 E.01079
G1 X58.907 Y47.039 E.01079
G1 X59.24 Y46.831 E.01079
G1 X59.61 Y46.701 E.01079
G1 X59.974 Y46.66 E.01008
G1 X60.388 Y46.701 E.01144
G1 X60.76 Y46.831 E.01083
G1 X61.092 Y47.039 E.01079
G1 X61.369 Y47.317 E.01079
G1 X61.578 Y47.649 E.01079
G1 X61.708 Y48.019 E.01079
G1 X61.75 Y48.392 E.01032
G1 X61.75 Y82.767 E.9451
G1 X61.708 Y83.14 E.01032
G1 X61.578 Y83.51 E.01079
G1 X61.369 Y83.842 E.01079
G1 X61.092 Y84.12 E.01079
G1 X60.76 Y84.328 E.01079
G1 X60.39 Y84.458 E.01079
G1 X60 Y84.502 E.01079
G1 X59.61 Y84.458 E.01079
G1 X59.24 Y84.328 E.01079
G1 X58.907 Y84.12 E.01079
G1 X58.706 Y83.918 E.00783
G1 X58.654 Y83.879
G1 E-.5
G1 Z.4 F21000
G1 X58.539 Y84.085
G1 X58.445 Y83.99
G1 X58.208 Y83.613
G1 X58.061 Y83.193
G1 X58.014 Y82.78
G1 X53.76 Y37.7
G1 X51.763 Y37.7
G1 X51.497 Y37.016
G1 X56.259 Y30.977
G1 Z.2
G1 E.5 F1800
;TYPE:Inner wall
G1 F3000
G1 X58.581 Y28.849 E.0866
G1 X58.931 Y28.601 E.01178
G1 X59.433 Y28.406 E.01481
G1 X59.967 Y28.339 E.01482
G1 X60.502 Y28.406 E.01482
G1 X61.004 Y28.601 E.01481
G1 X61.353 Y28.849 E.01178
G1 X68.322 Y35.235 E.25988
G1 X68.593 Y35.55 E.01143
G1 X68.829 Y36.017 E.01438
G1 X68.948 Y36.526 E.01438
G1 X68.942 Y37.049 E.01438
G1 X68.813 Y37.555 E.01438
G1 X68.566 Y38.017 E.01438
G1 X68.217 Y38.406 E.01438
G1 X67.786 Y38.701 E.01438
G1 X67.296 Y38.885 E.01438
G1 X66.883 Y38.935 E.01143
G1 X65.045 Y38.935 E.05056
G1 X64.7 Y38.619 E.01286
G1 X64.577 Y38.935 E.00932
G1 X60.903 Y38.935 E.10101
G1 X60.379 Y38.87 E.01451
G1 X59.972 Y38.712 E.012
G1 X59.452 Y38.932 E.01552
G1 X56.836 Y38.935 E.07193
G1 X55.57 Y38.888 E.03484
G1 X55.324 Y38.774 E.00747
G1 X55.18 Y38.836 E.00431
G1 X54.635 Y38.931 E.01521
G1 X50.918 Y38.937 E.10218
G1 X50.039 Y36.677 E.06668
G1 X56.215 Y31.018 E.2303
G1 X56.8 Y30.966 F21000
G1 F3000
G1 X58.806 Y29.127 E.07483
G1 X59.101 Y28.918 E.00995
G1 X59.521 Y28.754 E.01237
G1 X59.967 Y28.699 E.01238
G1 X60.414 Y28.754 E.01238
G1 X60.834 Y28.918 E.01237
G1 X61.128 Y29.127 E.00995
G1 X68.065 Y35.484 E.25868
G1 X68.294 Y35.75 E.00966
G1 X68.491 Y36.14 E.01201
G1 X68.591 Y36.565 E.01201
G1 X68.586 Y37.002 E.01201
G1 X68.477 Y37.425 E.01201
G1 X68.272 Y37.81 E.01201
G1 X67.98 Y38.136 E.01201
G1 X67.619 Y38.382 E.01201
G1 X67.211 Y38.536 E.01201
G1 X66.862 Y38.578 E.00966
G1 X65.183 Y38.578 E.04615
G1 X64.556 Y38.003 E.0234
G1 X64.332 Y38.578 E.01696
G1 X60.925 Y38.578 E.09369
G1 X60.467 Y38.521 E.01268
G1 X59.966 Y38.326 E.01477
G1 X59.38 Y38.575 E.01752
G1 X56.843 Y38.578 E.06975
G1 X55.655 Y38.534 E.03267
G1 X55.329 Y38.383 E.00988
G1 X55.077 Y38.491 E.00755
G1 X54.603 Y38.574 E.01322
G1 X51.162 Y38.579 E.09461
G1 X50.461 Y36.775 E.05324
G1 X56.756 Y31.006 E.23475
G1 X57.341 Y30.955 F21000
G1 F3000
G1 X59.031 Y29.406 E.06305
G1 X59.272 Y29.234 E.00812
G1 X59.609 Y29.103 E.00993
G1 X59.967 Y29.059 E.00994
G1 X60.326 Y29.103 E.00994
G1 X60.663 Y29.234 E.00993
G1 X60.904 Y29.406 E.00812
G1 X67.808 Y35.732 E.25749
G1 X67.995 Y35.95 E.00788
G1 X68.153 Y36.263 E.00964
G1 X68.233 Y36.604 E.00964
G1 X68.229 Y36.955 E.00964
G1 X68.142 Y37.295 E.00964
G1 X67.977 Y37.604 E.00964
G1 X67.743 Y37.865 E.00964
G1 X67.453 Y38.063 E.00964
G1 X67.125 Y38.187 E.00964
G1 X66.841 Y38.221 E.00788
G1 X65.322 Y38.221 E.04174
G1 X64.412 Y37.387 E.03393
G1 X64.088 Y38.221 E.0246
G1 X60.947 Y38.221 E.08637
G1 X60.555 Y38.172 E.01085
G1 X60.126 Y38.005 E.01267
G1 X60.008 Y37.921 E.00399
G1 X59.307 Y38.218 E.02093
G1 X56.849 Y38.221 E.06758
G1 X55.74 Y38.18 E.0305
G1 X55.335 Y37.992 E.01228
G1 X54.974 Y38.147 E.01079
G1 X54.572 Y38.217 E.01123
G1 X51.406 Y38.222 E.08704
G1 X50.882 Y36.873 E.03979
G1 X57.296 Y30.995 E.23921
G1 X57.881 Y30.943 F21000
G1 F3000
G1 X59.256 Y29.684 E.05127
G1 X59.443 Y29.551 E.00629
G1 X59.697 Y29.452 E.00749
G1 X59.967 Y29.419 E.0075
G1 X60.238 Y29.452 E.0075
G1 X60.492 Y29.551 E.00749
G1 X60.679 Y29.684 E.00629
G1 X67.551 Y35.981 E.25629
G1 X67.696 Y36.15 E.00611
G1 X67.815 Y36.386 E.00727
G1 X67.876 Y36.644 E.00727
G1 X67.873 Y36.908 E.00727
G1 X67.807 Y37.164 E.00727
G1 X67.682 Y37.398 E.00727
G1 X67.506 Y37.595 E.00727
G1 X67.287 Y37.744 E.00727
G1 X67.04 Y37.837 E.00727
G1 X66.819 Y37.864 E.00611
G1 X65.461 Y37.864 E.03734
G1 X64.269 Y36.771 E.04446
G1 X63.844 Y37.864 E.03223
G1 X60.969 Y37.864 E.07905
G1 X60.643 Y37.824 E.00902
G1 X60.297 Y37.689 E.01022
G1 X60.029 Y37.498 E.00904
G1 X59.839 Y37.321 E.00714
G1 X59.662 Y37.68 E.01098
G1 X59.234 Y37.861 E.01279
G1 X56.855 Y37.864 E.0654
G1 X55.825 Y37.826 E.02834
G1 X55.302 Y37.582 E.01588
G1 X55.23 Y37.648 E.00268
G1 X54.872 Y37.802 E.01072
G1 X54.541 Y37.86 E.00924
G1 X51.651 Y37.865 E.07947
G1 X51.303 Y36.971 E.02635
G1 X57.837 Y30.984 E.24366
G1 E-.5
G1 Z.4 F21000
