; generated by SuperSlicer 2.5.59 on 2023-08-03 at 19:51:44 UTC


;
;

;
;
; 

; external perimeters extrusion width = 0.40mm
; perimeters extrusion width = 0.46mm
; infill extrusion width = 0.64mm
; solid infill extrusion width = 0.56mm
; top infill extrusion width = 0.40mm
; first layer extrusion width = 0.50mm

; external perimeters extrusion width = 0.40mm
; perimeters extrusion width = 0.46mm
; infill extrusion width = 0.64mm
; solid infill extrusion width = 0.56mm
; top infill extrusion width = 0.40mm
; first layer extrusion width = 0.50mm

; object:{"name":"(Unsaved)","id":"(Unsaved).stl id:0 copy 0","object_center":[59.999946,70.024971,0.000000],"boundingbox_center":[59.999946,70.024971,5.250862],"boundingbox_size":[45.038208,65.570495,10.501723]}
EXCLUDE_OBJECT_DEFINE NAME=_Unsaved_stl_id_0_copy_0 CENTER=59.999946,70.024971 POLYGON=[[37.480844,39.625756],[37.480856,39.483756],[37.517052,37.239752],[37.533056,37.239740],[37.547056,37.239736],[37.571052,37.239732],[37.621056,37.239728],[37.915056,37.239728],[38.217052,37.239736],[38.595056,37.239752],[39.043052,37.239776],[39.557052,37.239808],[40.125052,37.239844],[41.365052,37.239936],[41.657052,37.239960],[42.183052,37.240004],[42.611052,37.240040],[77.017048,37.243076],[77.737056,37.243140],[78.441056,37.243208],[79.769048,37.243340],[80.367048,37.243404],[80.907048,37.243464],[81.381056,37.243524],[81.781048,37.243576],[82.099056,37.243620],[82.331056,37.243660],[82.471056,37.243696],[82.519048,37.243720],[82.517992,49.287720],[82.517160,58.685724],[82.516224,69.241688],[66.013228,102.810224],[65.511224,102.810200],[54.513220,102.809216],[54.013220,102.809160],[37.514228,69.237720],[37.480844,39.625756]]
; object:{"name":"Front round standoff","id":"Front round standoff.stl id:1 copy 0","object_center":[60.000102,24.214726,0.000000],"boundingbox_center":[60.000102,24.214726,10.783501],"boundingbox_size":[55.000000,14.050001,21.567001]}
EXCLUDE_OBJECT_DEFINE NAME=Front_round_standoff_stl_id_1_copy_0 CENTER=60.000102,24.214726 POLYGON=[[32.500104,26.239728],[32.508228,25.870712],[32.511554,25.802584],[32.532684,25.502176],[32.545876,25.366640],[32.573612,25.134038],[32.602970,24.933090],[32.631104,24.766458],[32.682686,24.503122],[32.704608,24.403136],[32.784802,24.077920],[32.793564,24.045716],[32.897522,23.694650],[32.909038,23.658646],[33.016044,23.350400],[33.055054,23.246450],[33.148690,23.013412],[33.222450,22.842464],[33.295022,22.684146],[33.410762,22.447796],[33.454594,22.363056],[33.619484,22.063528],[33.626972,22.050584],[33.813612,21.744136],[33.848032,21.690714],[34.015956,21.442098],[34.095788,21.330376],[34.234152,21.145370],[34.362068,20.983504],[34.468340,20.854852],[34.646140,20.651044],[34.718660,20.571442],[34.947232,20.333916],[34.985256,20.296042],[35.264508,20.032984],[35.268272,20.029546],[35.567852,19.772860],[35.597108,19.749074],[35.882636,19.528028],[35.944116,19.482970],[36.209132,19.298228],[36.304572,19.235396],[36.546728,19.084002],[36.677500,19.007028],[36.894908,18.885808],[37.061876,18.798502],[37.253172,18.704100],[37.456636,18.610384],[37.621016,18.539324],[37.860708,18.443190],[37.997932,18.391936],[38.272972,18.297376],[38.383388,18.262396],[38.692308,18.173350],[38.775540,18.151544],[39.117560,18.071448],[39.173012,18.059882],[39.547568,17.991946],[39.575112,17.987642],[43.198264,17.439722],[43.377412,17.414816],[43.778260,17.364004],[44.043952,17.333860],[44.362000,17.301638],[44.712424,17.270838],[44.948612,17.252890],[45.382356,17.225786],[45.537696,17.217916],[46.053244,17.198744],[46.129776,17.196806],[46.724624,17.189726],[74.322672,17.189726],[74.694840,17.192496],[75.065584,17.200766],[75.092736,17.201590],[75.803104,17.233598],[75.862072,17.237166],[76.536624,17.287958],[76.629952,17.296426],[77.264896,17.363466],[77.395640,17.379308],[77.628784,17.409312],[77.993000,17.460634],[78.158400,17.485734],[78.357176,17.517424],[78.721160,17.579702],[78.917536,17.615610],[79.087104,17.647936],[79.455400,17.722314],[79.672304,17.768804],[79.825568,17.802892],[80.197192,17.889726],[80.422000,17.945178],[80.642048,18.001592],[81.074624,18.118758],[81.165904,18.144556],[81.495016,18.240664],[81.903304,18.366754],[82.263048,18.502936],[82.316528,18.524812],[82.614216,18.654582],[82.720824,18.704444],[82.956344,18.821172],[83.115096,18.905150],[83.289416,19.002448],[83.498232,19.126376],[83.613720,19.198416],[83.869160,19.367498],[83.928816,19.408808],[84.226856,19.627852],[84.234224,19.633340],[84.529456,19.871726],[84.570320,19.906714],[84.814056,20.123678],[84.898600,20.203298],[85.087536,20.388916],[85.210768,20.516790],[85.349440,20.667156],[85.505984,20.846310],[85.599288,20.958112],[85.783384,21.190942],[85.836104,21.260806],[86.042240,21.549728],[86.056704,21.570716],[86.260760,21.886582],[86.281808,21.921668],[86.448488,22.207808],[86.501416,22.305726],[86.620080,22.533796],[86.700472,22.700832],[86.775752,22.863946],[86.878392,23.105888],[86.915680,23.197660],[87.040104,23.534340],[87.149184,23.873384],[87.168984,23.941312],[87.243144,24.214198],[87.280832,24.369356],[87.322184,24.556178],[87.356160,24.727386],[87.369952,24.802702],[87.385752,24.894334],[87.410736,25.053412],[87.431528,25.203796],[87.436080,25.240144],[87.448528,25.344662],[87.462136,25.475184],[87.472768,25.594538],[87.480824,25.701900],[87.486728,25.796448],[87.490856,25.877354],[87.493632,25.943794],[87.495456,25.995100],[87.496696,26.034996],[87.497528,26.066064],[87.498064,26.089214],[87.498416,26.106148],[87.498544,26.112558],[87.498640,26.117690],[87.498728,26.122442],[87.500104,26.239728],[87.498432,26.369146],[87.497120,26.412308],[87.487920,26.588508],[87.485960,26.615536],[87.473312,26.756648],[87.461352,26.861010],[87.451448,26.935592],[87.425800,27.098522],[87.424664,27.104972],[87.390840,27.279286],[87.375992,27.346824],[87.354816,27.436306],[87.315456,27.585986],[87.306408,27.617914],[87.260688,27.768386],[87.243184,27.821868],[87.198560,27.949828],[87.159368,28.053898],[87.143880,28.093182],[87.067832,28.273410],[87.064216,28.281512],[87.004944,28.409146],[86.957944,28.504154],[86.914840,28.587084],[86.844544,28.714772],[86.840832,28.721284],[86.740344,28.889322],[86.713136,28.932374],[86.663440,29.008602],[86.575192,29.136908],[86.545192,29.178654],[86.462488,29.289236],[86.427320,29.334386],[86.330320,29.453664],[86.269896,29.524334],[86.242664,29.555340],[86.103296,29.706284],[86.096800,29.713018],[86.004992,29.805644],[85.927920,29.879796],[85.845760,29.955450],[85.750624,30.038952],[85.744192,30.044444],[85.578416,30.179782],[85.552576,30.199830],[85.480768,30.254158],[85.353520,30.345574],[85.296064,30.384914],[85.196704,30.450232],[85.147520,30.481324],[85.000104,30.569852],[84.935088,30.606746],[84.899792,30.626240],[84.716712,30.721538],[84.691952,30.733698],[84.591448,30.781346],[84.492952,30.825418],[84.373136,30.875646],[84.273136,30.914808],[84.264328,30.918136],[84.045192,30.995008],[84.031416,30.999462],[83.946368,31.025992],[83.794768,31.069202],[83.709720,31.091206],[83.612712,31.114366],[83.554976,31.127184],[83.368344,31.163766],[83.312624,31.173268],[83.273752,31.179512],[83.068272,31.207340],[83.022744,31.212336],[82.931104,31.221116],[82.822552,31.229318],[82.674600,31.236682],[82.586408,31.238982],[82.576048,31.239150],[37.500104,31.239728],[37.325608,31.236682],[37.158888,31.228072],[36.977460,31.212336],[36.819272,31.193158],[36.631864,31.163766],[36.482824,31.135148],[36.290492,31.091206],[36.151120,31.054314],[35.955016,30.995008],[35.825708,30.951030],[35.627072,30.875646],[35.508100,30.825782],[35.308248,30.733698],[35.199780,30.679154],[35.000104,30.569852],[34.902184,30.511824],[34.704140,30.384914],[34.616704,30.324578],[34.421796,30.179782],[34.344664,30.118284],[34.154448,29.955450],[34.087336,29.893908],[33.903404,29.713018],[33.845924,29.652492],[33.669880,29.453664],[33.621548,29.395166],[33.455018,29.178654],[33.415252,29.123128],[33.259862,28.889322],[33.228004,28.837646],[33.085366,28.587084],[33.060676,28.540052],[32.932376,28.273410],[32.914048,28.231734],[32.801640,27.949828],[32.788800,27.914126],[32.693794,27.617914],[32.685516,27.588710],[32.609364,27.279286],[32.604684,27.257008],[32.548764,26.935592],[32.546672,26.920560],[32.512284,26.588508],[32.511760,26.580940],[32.500104,26.239728]]
; plater:{"center":[60.000102,59.999972,0.000000],"boundingbox_center":[60.000102,59.999972,10.783501],"boundingbox_size":[55.000000,85.620494,21.567001]}

M73 P0 R37
;TYPE:Custom
; custom gcode: start_gcode
START_PRINT T_BED=110 T_EXTRUDER=260
; custom gcode end: start_gcode
M107
G21 ; set units to millimeters
G90 ; use absolute coordinates
M82 ; use absolute distances for extrusion
G92 E0
; custom gcode: start_filament_gcode
; filament start gcode

    PRESSURE_ADVANCE_SELECT FILAMENT=ABS
; custom gcode end: start_filament_gcode
;_TOOLCHANGE 0
M104 S260 ; set temperature
M109 S260 ; set temperature and wait for it to be reached
M190 S110 ; set bed temperature and wait for it to be reached
;LAYER_CHANGE
;Z:0.2
;HEIGHT:0.2
G1 Z0.2 F12000
M73 P0 R37
G1 E-0.5 F2400
M204 S2000
G1 X30.624 Y19.895 F12000
G1 E0 F1800
;TYPE:Skirt
;WIDTH:0.52
G1 X30.149 Y20.626 E0.03201
G1 X29.619 Y21.766 E0.07818
G1 X29.031 Y23.656 E0.15092
G1 X28.797 Y25.188 E0.20784
G1 X28.755 Y26.503 E0.25615
G1 X29.007 Y28.335 E0.32411
G1 X38.542 Y70.383 E1.90789
M73 P0 R37
G1 X50.584 Y104.123 E3.22385
G1 X51.104 Y105.095 E3.26434
G1 X52.416 Y106.195 E3.32725
G1 X54.083 Y106.589 E3.39015
G1 X65.943 Y106.59 E3.82582
G1 X67.033 Y106.427 E3.86632
G1 X68.511 Y105.561 E3.92922
G1 X69.443 Y104.124 E3.99213
G1 X81.616 Y69.954 E5.32461
G1 X90.98 Y28.394 E6.88953
G1 X91.205 Y27.141 E6.93632
G1 X91.231 Y25.59 E6.99327
G1 X91.027 Y23.979 E7.05293
G1 X90.43 Y21.916 E7.13183
G1 X89.601 Y20.202 E7.20176
G1 X88.512 Y18.64 E7.2717
G1 X87.191 Y17.271 E7.34159
G1 X85.875 Y16.258 E7.4026
G1 X84.479 Y15.457 E7.46172
G1 X82.998 Y14.858 E7.52041
G1 X81.353 Y14.394 E7.58318
G1 X78.92 Y13.899 E7.6744
G1 X76.988 Y13.656 E7.74592
G1 X74.429 Y13.539 E7.84004
G1 X62.466 Y13.443 E8.2795
G1 X45.955 Y13.548 E8.88601
G1 X44.449 Y13.625 E8.94142
G1 X38.908 Y14.385 E9.14685
G1 X37.84 Y14.605 E9.1869
G1 X36.639 Y14.973 E9.23307
G1 X34.84 Y15.801 E9.3058
G1 X33.545 Y16.652 E9.36273
G1 X32.336 Y17.688 E9.42121
G1 X31.305 Y18.846 E9.47814
G1 X30.624 Y19.895 E9.52411
G1 X31.023 Y20.155 F12000
G1 F1800
G1 X30.562 Y20.865 E9.55521
G1 X30.055 Y21.96 E9.59954
G1 X29.495 Y23.768 E9.66907
G1 X29.273 Y25.213 E9.72279
G1 X29.231 Y26.47 E9.76898
G1 X29.474 Y28.238 E9.83455
G1 X38.991 Y70.223 E11.41591
G1 X51.033 Y103.962 E12.73187
G1 X52.535 Y105.718 E12.81676
G1 X54.083 Y106.112 E12.87543
G1 X65.943 Y106.113 E13.3111
G1 X68.102 Y105.289 E13.39598
G1 X68.993 Y103.964 E13.45465
G1 X81.15 Y69.849 E14.78501
G1 X90.729 Y27.105 E16.39412
G1 X90.755 Y25.604 E16.44926
G1 X90.563 Y24.087 E16.50541
G1 X89.979 Y22.073 E16.58245
G1 X89.18 Y20.428 E16.64962
G1 X88.132 Y18.93 E16.71679
G1 X86.862 Y17.616 E16.78391
G1 X85.625 Y16.665 E16.84123
G1 X84.263 Y15.882 E16.89896
G1 X82.867 Y15.317 E16.95426
G1 X81.244 Y14.859 E17.01623
G1 X78.832 Y14.368 E17.10663
G1 X76.951 Y14.132 E17.17626
G1 X74.425 Y14.016 E17.26917
G1 X62.462 Y13.92 E17.70863
G1 X45.959 Y14.025 E18.31485
G1 X44.474 Y14.101 E18.36947
G1 X38.979 Y14.857 E18.57322
G1 X37.939 Y15.072 E18.61223
G1 X36.786 Y15.427 E18.65657
G1 X35.067 Y16.22 E18.72609
G1 X33.845 Y17.023 E18.77981
G1 X32.664 Y18.035 E18.83692
G1 X31.691 Y19.126 E18.89063
G1 X31.023 Y20.155 E18.93569
G92 E0
G1 E-0.5 F2400
; printing object (Unsaved).stl id:0 copy 0
EXCLUDE_OBJECT_START NAME=_Unsaved_stl_id_0_copy_0
G1 X57.436 Y52.256 F12000
G1 E0 F1800
;TYPE:External perimeter
;WIDTH:0.5
G1 X57.285 Y52.34 E0.00607
G1 X55.711 Y53.783 E0.08125
G1 X55.614 Y53.975 E0.08883
G1 X55.785 Y54.384 E0.10443
G1 X56.636 Y54.415 E0.13438
;TYPE:Internal perimeter
G1 X56.628 Y54.872 E0.15047
G1 X55.477 Y54.831 E0.19102
G1 X55.361 Y54.555 E0.20153
G1 X54.922 Y54.788 E0.21903
G1 X54.556 Y54.858 E0.23212
G1 X54.012 Y54.877 E0.25129
G1 X51.554 Y54.881 E0.33779
G1 X51.154 Y53.851 E0.37668
G1 X56.686 Y48.782 E0.64074
G1 X56.995 Y49.119 E0.65683
;TYPE:External perimeter
G1 X51.693 Y53.977 E0.90989
G1 X51.867 Y54.423 E0.92675
G1 X54.003 Y54.42 E1.00195
G1 X54.505 Y54.402 E1.01961
G1 X54.768 Y54.352 E1.02906
G1 X55.026 Y54.215 E1.03932
G1 X55.19 Y54.04 E1.04777
G1 X57.367 Y52.047 E1.15164
G1 X57.49 Y51.96 E1.15693
G1 X57.615 Y51.91 E1.16168
G1 X57.752 Y51.893 E1.16655
G1 X57.89 Y51.911 E1.17141
G1 X58.016 Y51.96 E1.17619
G1 X58.14 Y52.048 E1.18153
G1 X59.583 Y53.37 E1.25041
G1 X60.269 Y54.11 E1.28592
G1 X60.482 Y54.278 E1.29547
G1 X60.749 Y54.388 E1.30563
G1 X61.012 Y54.422 E1.31498
G1 X63.638 Y54.424 E1.40738
G1 X63.811 Y53.978 E1.42423
G1 X57.753 Y48.425 E1.71347
G1 X57.332 Y48.811 E1.73356
;TYPE:Internal perimeter
G1 X57.023 Y48.474 E1.74964
G1 X59.24 Y46.444 E1.85542
G1 X59.679 Y46.203 E1.87306
G1 X60.289 Y46.203 E1.89451
G1 X60.728 Y46.444 E1.91214
G1 X67.675 Y52.81 E2.24375
G1 X67.84 Y52.996 E2.2525
G1 X68.153 Y52.66 E2.26866
G1 X68.479 Y52.338 E2.28477
G1 X68.849 Y52.755 E2.3044
G1 X68.85 Y47.561 E2.4872
G1 X76.411 Y47.55 E2.75332
G1 X76.375 Y38.8 E3.06128
G1 X51.185 Y38.797 E3.94778
G1 X51.184 Y50.689 E4.3663
M73 P1 R37
G1 X43.624 Y50.7 E4.63238
G1 X43.665 Y59.147 E4.92967
;WIDTH:0.488639
G1 X43.208 Y59.377 E4.94727
;WIDTH:0.5
G1 X42.751 Y59.378 E4.96335
G1 X42.749 Y68.427 E5.28182
G1 X49.997 Y68.428 E5.53692
G1 X50.728 Y68.487 E5.56274
G1 X51.461 Y68.663 E5.58926
G1 X52.163 Y68.956 E5.61602
G1 X52.801 Y69.346 E5.64235
G1 X53.374 Y69.835 E5.66886
G1 X53.878 Y70.425 E5.69619
G1 X54.268 Y71.065 E5.72254
G1 X54.558 Y71.759 E5.74901
G1 X54.735 Y72.5 E5.77582
G1 X54.775 Y72.997 E5.79338
G1 X54.318 Y73.015 E5.80948
;TYPE:External perimeter
G1 X54.282 Y72.571 E5.82516
G1 X54.122 Y71.901 E5.84942
G1 X53.86 Y71.273 E5.87337
G1 X53.507 Y70.694 E5.89721
G1 X53.05 Y70.159 E5.92199
G1 X52.532 Y69.717 E5.94595
G1 X51.954 Y69.364 E5.96978
G1 X51.319 Y69.099 E5.99401
G1 X50.656 Y68.94 E6.018
G1 X49.978 Y68.885 E6.04193
G1 X42.291 Y68.884 E6.31246
G1 X42.294 Y59.151 E6.65501
G1 X42.246 Y49.37 E6.99925
G1 X42.433 Y49.343 E7.00588
G1 X42.939 Y49.318 E7.02372
G1 X49.813 Y49.319 E7.26565
G1 X49.814 Y39.369 E7.61582
G1 X42.862 Y39.357 E7.86049
G1 X42.73 Y39.274 E7.866
G1 X42.673 Y39.214 E7.86889
G1 X42.449 Y38.843 E7.88417
G1 X42.337 Y38.503 E7.89675
G1 X42.258 Y38.177 E7.90855
G1 X42.239 Y37.974 E7.91572
G1 X42.236 Y37.425 E7.93504
G1 X43.383 Y37.425 E7.97539
G1 X77.74 Y37.428 E9.18455
G1 X77.788 Y48.88 E9.58759
G1 X77.601 Y48.907 E9.59423
G1 X77.093 Y48.932 E9.61214
G1 X70.221 Y48.931 E9.854
G1 X70.22 Y58.879 E10.2041
G1 X77.092 Y58.879 E10.44596
G1 X77.601 Y58.903 E10.46387
G1 X77.789 Y58.931 E10.47057
G1 X77.742 Y68.887 E10.82098
G1 X70.052 Y68.886 E11.09161
G1 X69.374 Y68.942 E11.11555
G1 X68.712 Y69.1 E11.13954
G1 X68.086 Y69.362 E11.16341
G1 X67.499 Y69.718 E11.18758
G1 X66.98 Y70.16 E11.21156
G1 X66.53 Y70.689 E11.236
G1 X66.174 Y71.267 E11.25988
G1 X65.911 Y71.902 E11.28409
G1 X65.748 Y72.573 E11.30838
G1 X65.696 Y73.245 E11.3321
G1 X65.693 Y102.625 E12.3661
G1 X54.333 Y102.624 E12.76591
G1 X54.336 Y73.472 E13.79188
;TYPE:Internal perimeter
G1 X54.793 Y73.454 E13.80798
G1 X54.79 Y102.167 E14.81851
G1 X58.875 Y102.167 E14.96225
G1 X58.959 Y101.919 E14.97148
G1 X58.407 Y101.496 E14.99597
G1 X58.047 Y101.026 E15.01679
G1 X57.818 Y100.477 E15.03773
G1 X57.749 Y99.94 E15.05677
G1 X57.752 Y65.325 E16.27503
G1 X57.821 Y64.79 E16.294
G1 X58.05 Y64.241 E16.31494
G1 X58.409 Y63.773 E16.33569
G1 X58.879 Y63.409 E16.35663
G1 X59.429 Y63.183 E16.37753
G1 X60.017 Y63.105 E16.39842
G1 X60.603 Y63.183 E16.41923
G1 X61.152 Y63.409 E16.44012
G1 X61.621 Y63.772 E16.46099
G1 X61.984 Y64.241 E16.48187
G1 X62.21 Y64.79 E16.50276
G1 X62.281 Y65.323 E16.52167
G1 X62.278 Y99.943 E17.74007
G1 X62.207 Y100.477 E17.75906
G1 X61.981 Y101.026 E17.77996
G1 X61.617 Y101.497 E17.80089
G1 X61.247 Y101.78 E17.81727
G1 X61.099 Y101.318 E17.83436
;TYPE:External perimeter
G1 X61.292 Y101.17 E17.84289
