; HEADER_BLOCK_START
; generated by OrcaSlicer 1.6.3 on 2023-06-09 at 16:37:15
; total layer number: 33
; HEADER_BLOCK_END

; THUMBNAIL_BLOCK_START
; THUMBNAIL_BLOCK_END

; external perimeters extrusion width = 0.30mm
; perimeters extrusion width = 0.30mm
; infill extrusion width = 0.30mm
; solid infill extrusion width = 0.30mm
; top infill extrusion width = 0.30mm
; support material extrusion width = 0.30mm
; first layer extrusion width = 0.20mm

; EXECUTABLE_BLOCK_START
EXCLUDE_OBJECT_DEFINE NAME=(Unsaved).stl_id_0_copy_0 CENTER=60,60 POLYGON=[[50.625,55.001],[54.435,39.483],[54.439,39.467],[54.469,39.371],[54.483,39.339],[54.525,39.267],[54.555,39.225],[54.599,39.175],[54.649,39.131],[54.691,39.101],[54.763,39.059],[54.795,39.045],[54.891,39.015],[54.907,39.011],[54.965,39.003],[55.023,39.001],[59.019,39.001],[59.165,39.005],[59.253,39.013],[59.311,39.021],[59.455,39.049],[59.485,39.055],[59.597,39.085],[59.709,39.123],[59.737,39.133],[59.873,39.191],[59.925,39.217],[60.003,39.259],[60.127,39.337],[61.123,39.999],[61.925,40.533],[65.925,43.201],[67.733,44.407],[67.929,44.555],[68.105,44.725],[68.259,44.917],[68.387,45.127],[68.489,45.349],[68.563,45.583],[68.609,45.825],[68.625,46.071],[69.375,60.999],[69.375,61.163],[69.373,61.303],[69.371,61.425],[69.367,61.531],[68.625,78.999],[68.611,79.235],[68.607,79.261],[68.569,79.465],[68.555,79.517],[68.501,79.691],[68.471,79.765],[68.407,79.905],[68.357,79.999],[68.289,80.109],[68.277,80.127],[68.187,80.247],[68.147,80.297],[68.089,80.361],[67.985,80.467],[67.841,80.587],[67.791,80.623],[67.687,80.693],[67.581,80.757],[67.525,80.785],[67.355,80.861],[67.177,80.923],[67.117,80.939],[66.995,80.965],[66.873,80.985],[66.811,80.991],[66.625,80.999],[55.125,80.999],[54.929,80.991],[54.873,80.985],[54.733,80.961],[54.625,80.937],[54.543,80.913],[54.385,80.859],[54.359,80.847],[54.181,80.763],[54.157,80.751],[54.013,80.663],[53.943,80.615],[53.855,80.547],[53.751,80.453],[53.711,80.413],[53.621,80.317],[53.579,80.267],[53.539,80.217],[53.463,80.111],[53.443,80.083],[53.393,79.999],[53.339,79.903],[53.293,79.803],[53.251,79.701],[53.241,79.673],[53.181,79.473],[53.177,79.453],[53.137,79.229],[50.625,56.499],[50.625,55.001]]
M73 P0 R10
;TYPE:Custom
START_PRINT T_BED=110 T_EXTRUDER=260
G90
G21
M83 ; use relative distances for extrusion
; Filament gcode

    PRESSURE_ADVANCE_SELECT FILAMENT=ABS
M106 S0
;LAYER_CHANGE
;Z:0.2
;HEIGHT:0.2
;BEFORE_LAYER_CHANGE
;0.2
G92 E0

;AFTER_LAYER_CHANGE
;0.2
M204 S500
; printing object (Unsaved).stl id:0 copy 0
EXCLUDE_OBJECT_START NAME=(Unsaved).stl_id_0_copy_0
G1 E-.5 F3000
G1 Z.2 F21000
G1 X64.786 Y38.672
G1 E.5 F1800
;TYPE:Support
;WIDTH:0.2
G1 F3000
G1 X70.3 Y38.672 E.06669
G1 X70.3 Y41.429 E.03335
G1 X73.057 Y41.429 E.03335
G1 X73.057 Y64.786 E.28249
G1 X70.3 Y64.786 E.03335
G1 X70.3 Y67.543 E.03335
G1 X67.543 Y67.543 E.03335
G1 X67.543 Y71.757 E.05097
G1 X73.057 Y71.757 E.06669
G1 X73.057 Y81.328 E.11576
G1 X67.281 Y81.328 E.06986
G1 X67.219 Y81.116 E.00268
G1 X67.434 Y81.045 E.00273
G1 X67.686 Y80.927 E.00337
G1 X67.905 Y80.787 E.00314
G1 X68.111 Y80.62 E.00321
G1 X68.304 Y80.421 E.00335
G1 X68.454 Y80.222 E.00302
G1 X68.582 Y80.003 E.00306
G1 X68.69 Y79.757 E.00325
G1 X68.764 Y79.508 E.00314
G1 X68.81 Y79.254 E.00312
G1 X68.83 Y78.925 E.00399
G1 X68.711 Y78.799 E.00209
G1 X64.008 Y78.799 E.05689
G1 X62.125 Y76.918 E.03219
G1 X62.125 Y68.818 E.09797
G1 X62.008 Y68.701 E.002
G1 X57.13 Y68.701 E.05899
G1 X56.801 Y68.684 E.00399
G1 X56.48 Y68.637 E.00392
G1 X56.165 Y68.557 E.00392
G1 X55.862 Y68.448 E.0039
G1 X55.569 Y68.31 E.00391
G1 X55.29 Y68.143 E.00394
G1 X55.03 Y67.95 E.00392
G1 X54.791 Y67.733 E.0039
G1 X54.574 Y67.494 E.0039
G1 X54.381 Y67.234 E.00392
G1 X54.214 Y66.955 E.00394
G1 X54.076 Y66.662 E.00391
G1 X53.967 Y66.359 E.0039
G1 X53.887 Y66.044 E.00392
G1 X53.84 Y65.723 E.00392
G1 X53.823 Y65.394 E.00399
G1 X53.823 Y57.406 E.09661
G1 X53.84 Y57.077 E.00399
G1 X53.887 Y56.756 E.00392
G1 X53.967 Y56.441 E.00392
G1 X54.076 Y56.138 E.0039
G1 X54.214 Y55.845 E.00391
G1 X54.381 Y55.566 E.00394
G1 X54.574 Y55.306 E.00392
G1 X54.791 Y55.067 E.0039
G1 X55.03 Y54.85 E.00391
G1 X55.29 Y54.656 E.00392
G1 X55.569 Y54.49 E.00392
G1 X55.862 Y54.352 E.00391
G1 X56.165 Y54.243 E.0039
G1 X56.48 Y54.163 E.00392
G1 X56.801 Y54.116 E.00392
G1 X57.13 Y54.099 E.00399
G1 X64.206 Y54.099 E.08558
G1 X64.323 Y53.982 E.002
G1 X64.323 Y50.76 E.03897
G1 X64.367 Y50.54 E.00271
G1 X64.485 Y50.361 E.00259
G1 X64.664 Y50.243 E.00259
G1 X64.884 Y50.201 E.00271
G1 X68.708 Y50.201 E.04624
G1 X68.825 Y50.084 E.002
G1 X68.825 Y47.418 E.03224
G1 X68.708 Y47.301 E.002
G1 X64.008 Y47.301 E.05685
G1 X62.125 Y45.418 E.03221
G1 X62.125 Y40.483 E.05969
G1 X62.078 Y40.394 E.00121
G1 X60.236 Y39.169 E.02676
G1 X60.013 Y39.038 E.00313
G1 X59.785 Y38.938 E.00302
G1 X59.525 Y38.859 E.00328
G1 X59.272 Y38.814 E.00311
G1 X57.972 Y38.801 E.01573
G1 X57.972 Y35.915 E.03491
G1 X64.786 Y35.915 E.08241
G1 X64.786 Y38.648 E.03306
G1 E-.5
G1 Z.4 F21000
G1 X61.475 Y45.394
G1 X61.475 Y45.687
G1 X63.523 Y53.299
G1 X57.596 Y53.299
M73 P1 R10
G1 X57.134 Y54.24
G1 Z.2
G1 E.5 F1800
G1 F3000
G1 X64.264 Y54.24 E.08624
G1 X64.464 Y54.04 E.00342
G1 X64.464 Y50.768 E.03958
G1 X64.498 Y50.594 E.00214
G1 X64.586 Y50.462 E.00192
G1 X64.718 Y50.374 E.00192
G1 X64.891 Y50.342 E.00212
G1 X68.766 Y50.342 E.04687
G1 X68.966 Y50.142 E.00342
G1 X68.966 Y47.36 E.03366
G1 X68.766 Y47.16 E.00342
G1 X64.066 Y47.16 E.05685
G1 X62.266 Y45.36 E.03079
G1 X62.266 Y40.447 E.05941
G1 X62.185 Y40.296 E.00207
G1 X60.312 Y39.05 E.02721
G1 X60.093 Y38.92 E.00309
G1 X59.837 Y38.806 E.00338
G1 X59.555 Y38.721 E.00357
G1 X59.284 Y38.673 E.00333
G1 X58.113 Y38.66 E.01416
G1 X58.113 Y36.056 E.03149
G1 X64.644 Y36.056 E.07899
G1 X64.644 Y38.813 E.03335
G1 X70.158 Y38.813 E.06669
G1 X70.158 Y41.57 E.03335
G1 X72.915 Y41.57 E.03335
G1 X72.915 Y64.644 E.27907
G1 X70.158 Y64.644 E.03335
G1 X70.158 Y67.401 E.03335
G1 X67.401 Y67.401 E.03335
G1 X67.401 Y71.898 E.05439
G1 X72.915 Y71.898 E.06669
G1 X72.915 Y81.187 E.11234
G1 X67.458 Y81.187 E.06601
G1 X67.758 Y81.049 E.004
G1 X67.985 Y80.904 E.00325
G1 X68.204 Y80.727 E.00341
G1 X68.414 Y80.509 E.00366
G1 X68.57 Y80.303 E.00312
G1 X68.706 Y80.07 E.00326
G1 X68.824 Y79.802 E.00355
G1 X68.903 Y79.537 E.00333
G1 X68.951 Y79.266 E.00333
G1 X68.975 Y78.872 E.00478
G1 X68.772 Y78.658 E.00357
G1 X64.066 Y78.658 E.05692
G1 X62.266 Y76.86 E.03077
G1 X62.266 Y68.76 E.09797
G1 X62.066 Y68.56 E.00342
G1 X57.134 Y68.56 E.05966
G1 X56.815 Y68.543 E.00386
G1 X56.508 Y68.498 E.00376
G1 X56.207 Y68.422 E.00375
G1 X55.916 Y68.317 E.00374
G1 X55.636 Y68.186 E.00374
G1 X55.369 Y68.025 E.00377
G1 X55.12 Y67.841 E.00375
G1 X54.891 Y67.633 E.00373
G1 X54.683 Y67.404 E.00373
G1 X54.499 Y67.155 E.00375
G1 X54.338 Y66.888 E.00377
G1 X54.207 Y66.608 E.00374
G1 X54.102 Y66.317 E.00374
G1 X54.026 Y66.016 E.00375
G1 X53.981 Y65.709 E.00376
G1 X53.964 Y65.39 E.00386
G1 X53.964 Y57.41 E.09652
G1 X53.981 Y57.091 E.00386
G1 X54.026 Y56.784 E.00376
G1 X54.102 Y56.483 E.00375
G1 X54.207 Y56.192 E.00374
G1 X54.338 Y55.912 E.00374
G1 X54.499 Y55.645 E.00377
G1 X54.683 Y55.396 E.00375
G1 X54.891 Y55.167 E.00373
G1 X55.12 Y54.959 E.00374
G1 X55.369 Y54.773 E.00375
G1 X55.635 Y54.615 E.00375
G1 X55.916 Y54.483 E.00375
G1 X56.207 Y54.378 E.00374
G1 X56.508 Y54.302 E.00375
G1 X56.815 Y54.257 E.00376
G1 X57.134 Y54.24 E.00386
G1 X57.138 Y54.415 F21000
G1 F3000
G1 X64.337 Y54.415 E.08706
G1 X64.639 Y54.113 E.00517
G1 X64.639 Y50.777 E.04034
G1 X64.66 Y50.661 E.00142
G1 X64.71 Y50.586 E.00109
G1 X64.785 Y50.536 E.00109
G1 X64.899 Y50.517 E.0014
G1 X68.839 Y50.517 E.04765
G1 X69.141 Y50.215 E.00517
G1 X69.141 Y47.287 E.03541
G1 X68.839 Y46.985 E.00517
G1 X64.139 Y46.985 E.05685
G1 X62.441 Y45.287 E.02904
G1 X62.441 Y40.403 E.05907
G1 X62.319 Y40.175 E.00313
G1 X60.407 Y38.904 E.02776
M73 P2 R10
G1 X60.149 Y38.752 E.00363
G1 X59.874 Y38.634 E.00361
G1 X59.591 Y38.55 E.00358
G1 X59.331 Y38.503 E.00319
G1 X59.031 Y38.485 E.00364
G1 X58.287 Y38.485 E.00899
G1 X58.287 Y36.231 E.02727
G1 X64.47 Y36.231 E.07477
G1 X64.47 Y38.988 E.03335
G1 X69.984 Y38.988 E.06669
G1 X69.984 Y41.745 E.03335
G1 X72.741 Y41.745 E.03335
G1 X72.741 Y64.47 E.27485
G1 X69.984 Y64.47 E.03335
G1 X69.984 Y67.227 E.03335
G1 X67.227 Y67.227 E.03335
G1 X67.227 Y72.073 E.05861
G1 X72.741 Y72.073 E.06669
G1 X72.741 Y81.012 E.10812
G1 X68.13 Y81.012 E.05576
G1 X68.341 Y80.839 E.0033
G1 X68.53 Y80.643 E.00329
G1 X68.712 Y80.404 E.00364
G1 X68.872 Y80.128 E.00385
G1 X68.99 Y79.857 E.00357
G1 X69.067 Y79.602 E.00323
G1 X69.125 Y79.282 E.00393
G1 X69.153 Y78.807 E.00575
G1 X68.848 Y78.483 E.00539
G1 X64.139 Y78.483 E.05696
G1 X62.441 Y76.787 E.02902
G1 X62.441 Y68.687 E.09797
G1 X62.139 Y68.385 E.00517
G1 X57.138 Y68.385 E.06048
G1 X56.832 Y68.369 E.00371
G1 X56.542 Y68.326 E.00355
G1 X56.258 Y68.255 E.00354
G1 X55.983 Y68.156 E.00353
G1 X55.718 Y68.031 E.00353
G1 X55.466 Y67.88 E.00356
G1 X55.23 Y67.705 E.00354
G1 X55.014 Y67.51 E.00352
G1 X54.819 Y67.294 E.00352
G1 X54.644 Y67.058 E.00354
G1 X54.493 Y66.806 E.00356
G1 X54.368 Y66.541 E.00353
G1 X54.269 Y66.266 E.00353
G1 X54.198 Y65.982 E.00354
G1 X54.155 Y65.692 E.00355
G1 X54.139 Y65.386 E.00371
G1 X54.139 Y57.414 E.09641
G1 X54.155 Y57.108 E.00371
G1 X54.198 Y56.818 E.00355
G1 X54.269 Y56.534 E.00354
G1 X54.368 Y56.259 E.00353
G1 X54.493 Y55.994 E.00353
G1 X54.644 Y55.742 E.00356
G1 X54.819 Y55.506 E.00354
G1 X55.014 Y55.29 E.00352
G1 X55.231 Y55.094 E.00354
G1 X55.466 Y54.919 E.00354
G1 X55.717 Y54.769 E.00354
G1 X55.983 Y54.644 E.00355
G1 X56.258 Y54.545 E.00353
G1 X56.542 Y54.474 E.00354
G1 X56.832 Y54.431 E.00355
G1 X57.138 Y54.415 E.00371
G1 X57.143 Y54.589 F21000
G1 F3000
G1 X64.409 Y54.589 E.08788
G1 X64.813 Y54.185 E.00692
G1 X64.823 Y50.699 E.04216
G1 X68.911 Y50.691 E.04944
G1 X69.315 Y50.287 E.00692
G1 X69.315 Y47.215 E.03715
G1 X68.911 Y46.811 E.00692
G1 X64.211 Y46.811 E.05685
G1 X62.615 Y45.215 E.02729
G1 X62.615 Y40.36 E.05872
G1 X62.452 Y40.054 E.00419
G1 X60.502 Y38.757 E.02832
G1 X60.224 Y38.594 E.0039
G1 X59.93 Y38.469 E.00387
G1 X59.627 Y38.379 E.00382
G1 X59.357 Y38.33 E.00332
G1 X59.033 Y38.311 E.00392
G1 X58.462 Y38.311 E.00691
G1 X58.462 Y36.405 E.02304
G1 X64.295 Y36.405 E.07055
G1 X64.295 Y39.162 E.03335
G1 X69.809 Y39.162 E.06669
G1 X69.809 Y41.92 E.03335
G1 X72.566 Y41.92 E.03335
G1 X72.566 Y64.295 E.27063
M73 P3 R10
G1 X69.809 Y64.295 E.03335
G1 X69.809 Y67.052 E.03335
G1 X67.052 Y67.052 E.03335
G1 X67.052 Y72.247 E.06283
G1 X72.566 Y72.247 E.06669
G1 X72.566 Y80.838 E.1039
G1 X68.604 Y80.838 E.04792
G1 X68.855 Y80.505 E.00504
G1 X69.03 Y80.203 E.00422
G1 X69.155 Y79.913 E.00383
G1 X69.235 Y79.647 E.00335
G1 X69.294 Y79.339 E.00379
G1 X69.332 Y78.743 E.00723
G1 X68.923 Y78.309 E.00721
G1 X64.211 Y78.309 E.05699
G1 X62.615 Y76.715 E.02727
G1 X62.615 Y68.615 E.09796
G1 X62.211 Y68.211 E.00692
G1 X57.143 Y68.211 E.0613
G1 X56.849 Y68.195 E.00356
G1 X56.576 Y68.155 E.00335
G1 X56.309 Y68.088 E.00333
G1 X56.05 Y67.994 E.00333
G1 X55.801 Y67.877 E.00333
G1 X55.563 Y67.734 E.00336
G1 X55.341 Y67.57 E.00334
G1 X55.138 Y67.386 E.00332
G1 X54.954 Y67.183 E.00331
G1 X54.79 Y66.961 E.00334
G1 X54.647 Y66.723 E.00336
G1 X54.53 Y66.474 E.00333
G1 X54.436 Y66.215 E.00333
G1 X54.369 Y65.948 E.00333
G1 X54.329 Y65.675 E.00335
G1 X54.313 Y65.381 E.00356
G1 X54.313 Y57.419 E.0963
G1 X54.329 Y57.125 E.00356
G1 X54.369 Y56.852 E.00335
G1 X54.436 Y56.585 E.00333
G1 X54.53 Y56.326 E.00333
G1 X54.647 Y56.077 E.00333
G1 X54.79 Y55.839 E.00336
G1 X54.954 Y55.617 E.00334
G1 X55.138 Y55.414 E.00332
G1 X55.342 Y55.229 E.00333
G1 X55.563 Y55.064 E.00333
G1 X55.799 Y54.923 E.00333
G1 X56.05 Y54.806 E.00335
G1 X56.309 Y54.712 E.00333
G1 X56.576 Y54.645 E.00333
G1 X56.849 Y54.605 E.00335
G1 X57.143 Y54.589 E.00356
G1 X57.148 Y54.764 F21000
G1 F3000
G1 X64.481 Y54.764 E.0887
G1 X64.988 Y54.257 E.00867
G1 X64.988 Y50.866 E.04102
G1 X68.983 Y50.866 E.04832
G1 X69.49 Y50.359 E.00867
G1 X69.49 Y47.143 E.0389
G1 X68.983 Y46.636 E.00867
G1 X64.283 Y46.636 E.05685
G1 X62.79 Y45.143 E.02554
G1 X62.79 Y40.316 E.05838
G1 X62.585 Y39.933 E.00525
G1 X60.597 Y38.611 E.02887
G1 X60.346 Y38.461 E.00353
G1 X60.033 Y38.321 E.00416
G1 X59.663 Y38.208 E.00468
G1 X59.328 Y38.151 E.00411
G1 X58.637 Y38.136 E.00836
G1 X58.637 Y36.58 E.01882
G1 X64.121 Y36.58 E.06633
G1 X64.121 Y39.337 E.03335
G1 X69.635 Y39.337 E.06669
G1 X69.635 Y42.094 E.03335
G1 X72.392 Y42.094 E.03335
G1 X72.392 Y64.121 E.2664
G1 X69.635 Y64.121 E.03335
G1 X69.635 Y66.878 E.03335
G1 X66.878 Y66.878 E.03335
G1 X66.878 Y72.422 E.06706
G1 X72.392 Y72.422 E.06669
G1 X72.392 Y80.663 E.09967
G1 X68.968 Y80.663 E.04141
G1 X69.188 Y80.278 E.00536
G1 X69.321 Y79.968 E.00408
G1 X69.404 Y79.693 E.00347
G1 X69.473 Y79.313 E.00467
G1 X69.511 Y78.678 E.0077
G1 X68.998 Y78.134 E.00903
G1 X64.283 Y78.134 E.05703
G1 X62.79 Y76.642 E.02553
G1 X62.79 Y68.543 E.09796
M73 P4 R10
G1 X62.283 Y68.036 E.00867
G1 X57.148 Y68.036 E.06211
G1 X56.867 Y68.021 E.0034
G1 X56.61 Y67.984 E.00314
G1 X56.36 Y67.921 E.00312
G1 X56.117 Y67.833 E.00313
G1 X55.883 Y67.723 E.00312
G1 X55.66 Y67.589 E.00315
G1 X55.452 Y67.435 E.00313
G1 X55.261 Y67.263 E.00311
G1 X55.089 Y67.072 E.00311
G1 X54.935 Y66.864 E.00313
G1 X54.801 Y66.641 E.00315
G1 X54.691 Y66.407 E.00312
G1 X54.603 Y66.164 E.00313
G1 X54.54 Y65.914 E.00312
G1 X54.503 Y65.657 E.00314
G1 X54.488 Y65.376 E.0034
G1 X54.488 Y57.424 E.09619
G1 X54.503 Y57.143 E.0034
G1 X54.54 Y56.886 E.00314
G1 X54.603 Y56.636 E.00312
G1 X54.691 Y56.393 E.00313
G1 X54.801 Y56.159 E.00312
G1 X54.935 Y55.936 E.00315
G1 X55.089 Y55.728 E.00313
G1 X55.261 Y55.537 E.00311
G1 X55.453 Y55.364 E.00313
G1 X55.66 Y55.209 E.00312
G1 X55.881 Y55.078 E.00311
G1 X56.117 Y54.967 E.00315
G1 X56.36 Y54.879 E.00313
G1 X56.61 Y54.816 E.00312
G1 X56.867 Y54.779 E.00314
G1 X57.148 Y54.764 E.0034
G1 X57.152 Y54.939 F21000
G1 F3000
G1 X64.554 Y54.939 E.08952
G1 X65.162 Y54.33 E.01042
G1 X65.162 Y51.041 E.03978
G1 X69.056 Y51.041 E.04709
G1 X69.665 Y50.432 E.01042
G1 X69.665 Y47.07 E.04065
G1 X69.056 Y46.462 E.01042
G1 X64.356 Y46.462 E.05685
G1 X62.965 Y45.07 E.02379
G1 X62.965 Y40.272 E.05804
G1 X62.718 Y39.812 E.00631
G1 X60.692 Y38.464 E.02943
G1 X60.373 Y38.279 E.00446
G1 X60.041 Y38.137 E.00437
G1 X59.699 Y38.037 E.00431
G1 X59.343 Y37.977 E.00437
G1 X58.811 Y37.962 E.00643
G1 X58.811 Y36.754 E.0146
G1 X63.946 Y36.754 E.06211
G1 X63.946 Y39.512 E.03335
G1 X69.46 Y39.512 E.06669
G1 X69.46 Y42.269 E.03335
G1 X72.217 Y42.269 E.03335
G1 X72.217 Y63.946 E.26218
G1 X69.46 Y63.946 E.03335
G1 X69.46 Y66.703 E.03335
G1 X66.703 Y66.703 E.03335
G1 X66.703 Y72.596 E.07128
G1 X72.217 Y72.596 E.06669
G1 X72.217 Y80.489 E.09545
G1 X69.277 Y80.489 E.03557
G1 X69.464 Y80.083 E.0054
G1 X69.586 Y79.682 E.00507
G1 X69.647 Y79.329 E.00433
G1 X69.689 Y78.613 E.00868
G1 X69.074 Y77.959 E.01086
G1 X64.355 Y77.959 E.05707
G1 X62.965 Y76.57 E.02378
G1 X62.965 Y68.47 E.09796
G1 X62.356 Y67.862 E.01042
G1 X57.152 Y67.862 E.06293
G1 X56.644 Y67.812 E.00618
G1 X56.411 Y67.754 E.00291
G1 X55.966 Y67.569 E.00583
G1 X55.562 Y67.3 E.00586
G1 X55.224 Y66.962 E.00578
G1 X54.955 Y66.558 E.00586
G1 X54.771 Y66.113 E.00583
G1 X54.712 Y65.88 E.00291
G1 X54.663 Y65.372 E.00618
G1 X54.663 Y57.428 E.09608
G1 X54.712 Y56.92 E.00618
G1 X54.77 Y56.687 E.00291
G1 X54.955 Y56.242 E.00583
G1 X55.224 Y55.838 E.00586
G1 X55.564 Y55.499 E.00581
G1 X55.757 Y55.355 E.00291
G1 X55.963 Y55.232 E.0029
G1 X56.411 Y55.046 E.00586
G1 X56.644 Y54.988 E.00291
G1 X56.884 Y54.953 E.00294
G1 X57.152 Y54.939 E.00325
G1 X57.157 Y55.113 F21000
G1 F3000
G1 X64.626 Y55.113 E.09034
G1 X65.337 Y54.402 E.01216
G1 X65.337 Y51.215 E.03854
G1 X69.128 Y51.215 E.04585
G1 X69.839 Y50.504 E.01216
G1 X69.839 Y46.998 E.0424
M73 P5 R10
G1 X69.128 Y46.287 E.01216
G1 X64.428 Y46.287 E.05685
G1 X63.139 Y44.998 E.02204
G1 X63.139 Y40.228 E.05769
G1 X62.851 Y39.691 E.00737
G1 X60.787 Y38.318 E.02999
G1 X60.448 Y38.121 E.00474
G1 X60.096 Y37.972 E.00462
G1 X59.735 Y37.867 E.00455
G1 X59.357 Y37.803 E.00463
G1 X58.986 Y37.786 E.0045
G1 X58.986 Y36.929 E.01036
