; generated by SuperSlicer 2.5.59 on 2023-01-17 at 04:52:58 UTC


;
;

;
;
; 

; external perimeters extrusion width = 0.40mm
; perimeters extrusion width = 0.46mm
; infill extrusion width = 0.64mm
; solid infill extrusion width = 0.56mm
; top infill extrusion width = 0.40mm
; first layer extrusion width = 0.50mm

; object:{"name":"1x3","id":"1x3.stl id:0 copy 0","object_center":[60.000000,60.000000,0.000000],"boundingbox_center":[60.000000,60.000000,7.300000],"boundingbox_size":[34.099998,69.599998,14.600000]}
; plater:{"center":[60.000000,60.000000,0.000000],"boundingbox_center":[60.000000,60.000000,7.300000],"boundingbox_size":[34.099998,69.599998,14.600000]}

M73 P0 R20
;TYPE:Custom
; custom gcode: start_gcode
START_PRINT T_BED=60 T_EXTRUDER=200
; custom gcode end: start_gcode
M107
G21 ; set units to millimeters
G90 ; use absolute coordinates
M83 ; use relative distances for extrusion
; custom gcode: start_filament_gcode
; Filament gcode

    PRESSURE_ADVANCE_SELECT FILAMENT=PLA
; custom gcode end: start_filament_gcode
;_TOOLCHANGE 0
M104 S200 ; set temperature
M109 S200 ; set temperature and wait for it to be reached
M190 S60 ; set bed temperature and wait for it to be reached
;LAYER_CHANGE
;Z:0.2
;HEIGHT:0.2
G1 Z0.2 F12000
G92 E0
M73 P0 R20
G1 E-0.8 F3000
M204 S2000
G1 X41.344 Y25.21 F12000
G1 E0.8 F1800
;TYPE:Skirt
;WIDTH:0.52
G1 X40.947 Y25.908 E0.02962
G1 X40.578 Y26.922 E0.0398
G1 X40.378 Y28.405 E0.05521
G1 X40.378 Y91.633 E2.33264
G1 X40.589 Y93.134 E0.05594
G1 X40.857 Y93.893 E0.02969
G1 X41.227 Y94.608 E0.02969
G1 X41.694 Y95.264 E0.02969
G1 X42.247 Y95.848 E0.02968
G1 X42.934 Y96.388 E0.03223
G1 X43.658 Y96.803 E0.0308
G1 X44.672 Y97.172 E0.0398
G1 X46.155 Y97.372 E0.05521
G1 X74.308 Y97.351 E1.03865
M73 P0 R20
G1 X75.106 Y97.23 E0.02976
G1 X75.877 Y97.001 E0.02969
G1 X76.609 Y96.666 E0.02969
G1 X77.313 Y96.213 E0.03086
G1 X78.166 Y95.428 E0.04276
G1 X78.656 Y94.79 E0.02969
G1 X79.053 Y94.092 E0.02962
G1 X79.422 Y93.078 E0.0398
G1 X79.622 Y91.595 E0.05522
G1 X79.589 Y27.846 E2.35185
G1 X79.387 Y26.789 E0.03972
G1 X79.008 Y25.824 E0.03824
G1 X78.422 Y24.887 E0.04079
G1 X77.667 Y24.079 E0.04078
G1 X76.773 Y23.43 E0.04077
G1 X75.771 Y22.964 E0.04078
G1 X74.303 Y22.652 E0.05537
G1 X45.591 Y22.658 E1.05926
G1 X44.519 Y22.867 E0.04028
G1 X43.765 Y23.148 E0.02969
G1 X43.057 Y23.531 E0.02969
G1 X42.409 Y24.008 E0.02969
G1 X41.834 Y24.572 E0.02969
G1 X41.344 Y25.21 E0.02969
G1 X41.784 Y25.501 F12000
G1 F1800
G1 X41.372 Y26.125 E0.02758
G1 X41.035 Y27.061 E0.03673
G1 X40.855 Y28.405 E0.05001
G1 X40.855 Y91.633 E2.33264
G1 X41.052 Y93.019 E0.05165
G1 X41.641 Y94.369 E0.05434
G1 X42.578 Y95.505 E0.05433
G1 X43.211 Y95.999 E0.02962
G1 X43.875 Y96.378 E0.02819
G1 X44.811 Y96.715 E0.03673
G1 X46.155 Y96.895 E0.05001
G1 X74.259 Y96.876 E1.03681
G1 X75.699 Y96.558 E0.05441
G1 X76.371 Y96.253 E0.02724
G1 X77.016 Y95.84 E0.02826
G1 X77.817 Y95.103 E0.04015
G1 X78.628 Y93.875 E0.05427
G1 X78.965 Y92.939 E0.03673
G1 X79.145 Y91.595 E0.05001
G1 X79.144 Y28.331 E2.33396
G1 X79.064 Y27.514 E0.03028
G1 X78.823 Y26.596 E0.03502
G1 X78.401 Y25.705 E0.03638
G1 X77.803 Y24.886 E0.0374
G1 X77.06 Y24.196 E0.0374
G1 X76.199 Y23.661 E0.0374
G1 X75.251 Y23.3 E0.0374
G1 X74.249 Y23.126 E0.03755
G1 X45.649 Y23.132 E1.05512
G1 X44.642 Y23.327 E0.03782
G1 X43.303 Y23.94 E0.05434
G1 X42.183 Y24.897 E0.05434
G1 X41.784 Y25.501 E0.0267
G1 E-0.8 F3000
; printing object 1x3.stl id:0 copy 0
; acceleration to travel
M204 S4000
G1 X44.187 Y27.128 F12000
; decel to extrusion
M204 S2000
G1 X45.388 Y27.942
; end travel
G1 E0.8 F1800
;TYPE:Internal perimeter
;WIDTH:0.5
G1 X45.459 Y27.84 E0.00439
G1 X45.543 Y27.75 E0.00438
G1 X45.64 Y27.671 E0.00439
G1 X45.746 Y27.608 E0.00439
G1 X45.86 Y27.559 E0.00439
G1 X45.98 Y27.527 E0.00439
G1 X46.115 Y27.51 E0.00478
G1 X73.816 Y27.508 E0.97913
M73 P1 R20
G1 X74.003 Y27.529 E0.00665
G1 X74.205 Y27.588 E0.00743
G1 X74.346 Y27.665 E0.00568
G1 X74.477 Y27.773 E0.00601
G1 X74.585 Y27.904 E0.00601
G1 X74.669 Y28.058 E0.0062
G1 X74.713 Y28.195 E0.00508
G1 X74.741 Y28.408 E0.00758
G1 X74.742 Y91.539 E2.23145
G1 X74.721 Y91.764 E0.00797
G1 X74.659 Y91.967 E0.00753
G1 X74.612 Y92.058 E0.0036
G1 X74.541 Y92.16 E0.00439
G1 X74.46 Y92.246 E0.00419
G1 X74.343 Y92.34 E0.00532
G1 X74.24 Y92.399 E0.00419
G1 X74.125 Y92.446 E0.00439
G1 X74.004 Y92.476 E0.00439
G1 X73.859 Y92.491 E0.00517
G1 X46.211 Y92.492 E0.97725
G1 X45.986 Y92.471 E0.00796
G1 X45.783 Y92.409 E0.00753
G1 X45.697 Y92.365 E0.00341
G1 X45.574 Y92.277 E0.00532
G1 X45.489 Y92.195 E0.00419
G1 X45.413 Y92.097 E0.00439
G1 X45.351 Y91.99 E0.00438
G1 X45.304 Y91.875 E0.00439
G1 X45.275 Y91.76 E0.00419
G1 X45.258 Y91.577 E0.00649
G1 X45.258 Y28.461 E2.2309
G1 X45.279 Y28.236 E0.00797
G1 X45.341 Y28.033 E0.00753
G1 X45.388 Y27.942 E0.0036
G1 X44.995 Y27.706 F12000
G1 F1800
G1 X45.103 Y27.552 E0.00665
G1 X45.231 Y27.414 E0.00664
G1 X45.377 Y27.296 E0.00665
G1 X45.538 Y27.199 E0.00665
G1 X45.711 Y27.126 E0.00665
G1 X45.893 Y27.077 E0.00665
G1 X46.087 Y27.053 E0.0069
G1 X73.842 Y27.051 E0.98104
G1 X74.094 Y27.079 E0.00896
G1 X74.38 Y27.163 E0.01054
G1 X74.603 Y27.284 E0.00895
G1 X74.802 Y27.448 E0.00912
G1 X74.966 Y27.647 E0.00912
G1 X75.091 Y27.877 E0.00924
G1 X75.161 Y28.094 E0.00805
G1 X75.198 Y28.378 E0.01012
G1 X75.2 Y91.561 E2.23328
G1 X75.171 Y91.853 E0.01037
G1 X75.084 Y92.139 E0.01057
G1 X75.005 Y92.294 E0.00614
G1 X74.897 Y92.448 E0.00665
G1 X74.771 Y92.583 E0.00652
G1 X74.6 Y92.719 E0.00772
G1 X74.441 Y92.811 E0.00652
G1 X74.266 Y92.882 E0.00665
G1 X74.084 Y92.927 E0.00665
G1 X73.883 Y92.948 E0.00715
G1 X46.189 Y92.95 E0.97888
G1 X45.897 Y92.921 E0.01037
G1 X45.611 Y92.834 E0.01057
G1 X45.459 Y92.757 E0.00602
G1 X45.281 Y92.63 E0.00772
G1 X45.149 Y92.502 E0.00652
G1 X45.033 Y92.354 E0.00665
G1 X44.939 Y92.191 E0.00664
G1 X44.868 Y92.016 E0.00665
G1 X44.824 Y91.837 E0.00652
G1 X44.801 Y91.599 E0.00847
G1 X44.8 Y28.439 E2.23245
M73 P2 R19
G1 X44.829 Y28.147 E0.01037
G1 X44.916 Y27.861 E0.01057
G1 X44.995 Y27.706 E0.00614
G1 X44.602 Y27.47 F12000
;TYPE:External perimeter
G1 F1800
G1 X44.747 Y27.264 E0.0089
G1 X44.918 Y27.079 E0.0089
G1 X45.114 Y26.921 E0.0089
G1 X45.33 Y26.791 E0.0089
G1 X45.562 Y26.693 E0.00891
G1 X45.805 Y26.627 E0.0089
G1 X46.059 Y26.596 E0.00901
G1 X73.868 Y26.594 E0.98294
G1 X74.185 Y26.63 E0.01127
G1 X74.555 Y26.738 E0.01365
G1 X74.859 Y26.904 E0.01223
G1 X75.126 Y27.124 E0.01223
G1 X75.346 Y27.391 E0.01223
G1 X75.512 Y27.696 E0.01228
G1 X75.609 Y27.992 E0.01101
G1 X75.655 Y28.348 E0.01266
G1 X75.657 Y91.583 E2.23512
G1 X75.622 Y91.943 E0.01277
G1 X75.509 Y92.311 E0.01361
G1 X75.398 Y92.53 E0.00869
G1 X75.253 Y92.736 E0.0089
G1 X75.083 Y92.92 E0.00885
G1 X74.858 Y93.098 E0.01012
G1 X74.642 Y93.223 E0.00885
G1 X74.408 Y93.317 E0.0089
G1 X74.164 Y93.378 E0.00891
G1 X73.907 Y93.405 E0.00912
G1 X46.167 Y93.407 E0.9805
G1 X45.807 Y93.372 E0.01277
G1 X45.439 Y93.259 E0.01361
G1 X45.221 Y93.149 E0.00863
G1 X44.988 Y92.982 E0.01012
G1 X44.808 Y92.808 E0.00885
G1 X44.653 Y92.61 E0.00891
G1 X44.527 Y92.392 E0.0089
G1 X44.433 Y92.158 E0.00891
G1 X44.372 Y91.915 E0.00885
G1 X44.344 Y91.621 E0.01045
G1 X44.343 Y28.417 E2.234
M73 P3 R19
G1 X44.378 Y28.057 E0.01277
G1 X44.491 Y27.689 E0.01361
G1 X44.602 Y27.47 E0.00869
;WIPE_START
M204 S4000
G1 X45.002 Y27.486 F12000
;WIPE_END
G1 E-0.8 F3000
; acceleration to travel
G1 X64.612 Y28.08 F12000
; decel to extrusion
M204 S2000
G1 X74.596 Y28.382
; end travel
G1 E0.8 F1800
;TYPE:Solid infill
;WIDTH:0.500861
G1 F2400
G1 X73.88 Y27.666 E0.03583
G1 X73.233 Y27.666 F12000
G1 F2400
G1 X74.604 Y29.036 E0.06863
G1 X74.604 Y29.683 F12000
G1 F2400
G1 X72.587 Y27.665 E0.10102
G1 X71.94 Y27.665 F12000
G1 F2400
G1 X74.604 Y30.329 E0.13341
G1 X74.604 Y30.976 F12000
G1 F2400
G1 X71.293 Y27.664 E0.1658
G1 X70.646 Y27.664 F12000
G1 F2400
G1 X74.604 Y31.622 E0.19819
G1 X74.604 Y32.269 F12000
G1 F2400
G1 X69.999 Y27.664 E0.23058
G1 X69.352 Y27.663 F12000
G1 F2400
G1 X74.604 Y32.915 E0.26297
G1 X74.604 Y33.561 F12000
G1 F2400
G1 X68.706 Y27.663 E0.29536
G1 X68.059 Y27.662 F12000
G1 F2400
G1 X74.604 Y34.208 E0.32775
G1 X74.604 Y34.854 F12000
G1 F2400
G1 X67.412 Y27.662 E0.36014
G1 X66.765 Y27.661 F12000
G1 F2400
G1 X74.604 Y35.501 E0.39253
G1 X74.604 Y36.147 F12000
G1 F2400
G1 X66.118 Y27.661 E0.42492
G1 X65.471 Y27.661 F12000
G1 F2400
G1 X74.604 Y36.793 E0.45731
G1 X74.604 Y37.44 F12000
G1 F2400
G1 X64.824 Y27.66 E0.4897
G1 X64.178 Y27.66 F12000
G1 F2400
G1 X74.604 Y38.086 E0.52209
G1 X74.604 Y38.733 F12000
G1 F2400
G1 X63.531 Y27.659 E0.55448
G1 X62.884 Y27.659 F12000
G1 F2400
G1 X74.604 Y39.379 E0.58687
G1 X74.604 Y40.026 F12000
G1 F2400
G1 X62.237 Y27.658 E0.61926
M73 P3 R19
G1 X61.59 Y27.658 F12000
G1 F2400
G1 X74.604 Y40.672 E0.65165
G1 X74.604 Y41.318 F12000
G1 F2400
G1 X60.943 Y27.658 E0.68404
G1 X60.297 Y27.657 F12000
G1 F2400
G1 X74.604 Y41.965 E0.71643
G1 X74.604 Y42.611 F12000
G1 F2400
G1 X59.65 Y27.657 E0.74882
G1 X59.003 Y27.656 F12000
G1 F2400
G1 X74.604 Y43.258 E0.78121
G1 X74.604 Y43.904 F12000
G1 F2400
G1 X58.356 Y27.656 E0.8136
G1 X57.709 Y27.655 F12000
G1 F2400
G1 X74.604 Y44.551 E0.84599
G1 X74.604 Y45.197 F12000
G1 F2400
G1 X57.062 Y27.655 E0.87838
G1 X56.416 Y27.654 F12000
G1 F2400
G1 X74.604 Y45.843 E0.91077
G1 X74.604 Y46.49 F12000
G1 F2400
G1 X55.769 Y27.654 E0.94316
G1 X55.122 Y27.654 F12000
G1 F2400
G1 X74.604 Y47.136 E0.97555
G1 X74.604 Y47.783 F12000
G1 F2400
G1 X54.475 Y27.653 E1.00794
G1 X53.828 Y27.653 F12000
G1 F2400
G1 X74.604 Y48.429 E1.04032
G1 X74.604 Y49.075 F12000
G1 F2400
G1 X53.181 Y27.652 E1.07271
G1 X52.534 Y27.652 F12000
G1 F2400
G1 X74.604 Y49.722 E1.1051
G1 X74.604 Y50.368 F12000
G1 F2400
G1 X51.888 Y27.651 E1.13749
G1 X51.241 Y27.651 F12000
G1 F2400
G1 X74.605 Y51.015 E1.16988
G1 X74.605 Y51.661 F12000
G1 F2400
G1 X50.594 Y27.651 E1.20227
M73 P4 R19
G1 X49.947 Y27.65 F12000
G1 F2400
G1 X74.605 Y52.308 E1.23466
G1 X74.605 Y52.954 F12000
G1 F2400
G1 X49.3 Y27.65 E1.26705
G1 X48.653 Y27.649 F12000
G1 F2400
G1 X74.605 Y53.6 E1.29944
G1 X74.605 Y54.247 F12000
G1 F2400
G1 X48.007 Y27.649 E1.33183
G1 X47.36 Y27.648 F12000
G1 F2400
G1 X74.605 Y54.893 E1.36422
G1 X74.605 Y55.54 F12000
G1 F2400
G1 X46.713 Y27.648 E1.39661
G1 X46.084 Y27.666 F12000
G1 F2400
G1 X74.605 Y56.186 E1.4281
G1 X74.605 Y56.833 F12000
G1 F2400
G1 X45.648 Y27.876 E1.44991
G1 X45.428 Y28.303 F12000
G1 F2400
G1 X74.605 Y57.479 E1.46094
G1 X74.605 Y58.125 F12000
G1 F2400
G1 X45.395 Y28.915 E1.46262
G1 X45.395 Y29.562 F12000
G1 F2400
G1 X74.605 Y58.772 E1.46262
G1 X74.605 Y59.418 F12000
G1 F2400
G1 X45.395 Y30.208 E1.46262
M73 P5 R19
G1 X45.395 Y30.855 F12000
G1 F2400
G1 X74.605 Y60.065 E1.46263
G1 X74.605 Y60.711 F12000
G1 F2400
G1 X45.395 Y31.501 E1.46263
G1 X45.395 Y32.147 F12000
G1 F2400
G1 X74.605 Y61.357 E1.46263
G1 X74.605 Y62.004 F12000
G1 F2400
G1 X45.395 Y32.794 E1.46263
G1 X45.395 Y33.44 F12000
G1 F2400
G1 X74.605 Y62.65 E1.46263
G1 X74.605 Y63.297 F12000
G1 F2400
G1 X45.395 Y34.087 E1.46263
G1 X45.395 Y34.733 F12000
G1 F2400
G1 X74.605 Y63.943 E1.46263
G1 X74.605 Y64.59 F12000
G1 F2400
G1 X45.395 Y35.379 E1.46263
G1 X45.395 Y36.026 F12000
G1 F2400
G1 X74.605 Y65.236 E1.46263
G1 X74.605 Y65.882 F12000
G1 F2400
G1 X45.395 Y36.672 E1.46263
G1 X45.395 Y37.319 F12000
G1 F2400
G1 X74.605 Y66.529 E1.46263
M73 P6 R18
G1 X74.605 Y67.175 F12000
G1 F2400
G1 X45.395 Y37.965 E1.46263
G1 X45.395 Y38.612 F12000
G1 F2400
G1 X74.605 Y67.822 E1.46263
G1 X74.605 Y68.468 F12000
G1 F2400
G1 X45.395 Y39.258 E1.46263
G1 X45.395 Y39.904 F12000
G1 F2400
G1 X74.605 Y69.115 E1.46263
G1 X74.605 Y69.761 F12000
G1 F2400
G1 X45.395 Y40.551 E1.46263
G1 X45.395 Y41.197 F12000
G1 F2400
G1 X74.605 Y70.407 E1.46263
G1 X74.605 Y71.054 F12000
G1 F2400
G1 X45.395 Y41.844 E1.46263
G1 X45.395 Y42.49 F12000
G1 F2400
G1 X74.605 Y71.7 E1.46263
G1 X74.605 Y72.347 F12000
G1 F2400
G1 X45.395 Y43.136 E1.46263
G1 X45.395 Y43.783 F12000
G1 F2400
G1 X74.605 Y72.993 E1.46264
G1 X74.605 Y73.639 F12000
G1 F2400
G1 X45.395 Y44.429 E1.46264
M73 P7 R18
G1 X45.395 Y45.076 F12000
G1 F2400
G1 X74.605 Y74.286 E1.46264
G1 X74.605 Y74.932 F12000
G1 F2400
G1 X45.395 Y45.722 E1.46264
G1 X45.395 Y46.368 F12000
G1 F2400
G1 X74.605 Y75.579 E1.46264
G1 X74.605 Y76.225 F12000
G1 F2400
G1 X45.395 Y47.015 E1.46264
G1 X45.395 Y47.661 F12000
G1 F2400
G1 X74.605 Y76.872 E1.46264
M73 P8 R18
G1 X74.605 Y77.518 F12000
G1 F2400
G1 X45.395 Y48.308 E1.46264
G1 X45.395 Y48.954 F12000
G1 F2400
G1 X74.605 Y78.164 E1.46264
G1 X74.605 Y78.811 F12000
G1 F2400
G1 X45.395 Y49.6 E1.46264
G1 X45.395 Y50.247 F12000
G1 F2400
G1 X74.605 Y79.457 E1.46264
G1 X74.605 Y80.104 F12000
G1 F2400
G1 X45.395 Y50.893 E1.46264
G1 X45.395 Y51.54 F12000
G1 F2400
G1 X74.605 Y80.75 E1.46264
M73 P8 R18
G1 X74.605 Y81.397 F12000
G1 F2400
G1 X45.395 Y52.186 E1.46264
G1 X45.395 Y52.833 F12000
G1 F2400
G1 X74.605 Y82.043 E1.46264
G1 X74.605 Y82.689 F12000
G1 F2400
G1 X45.395 Y53.479 E1.46264
G1 X45.395 Y54.125 F12000
G1 F2400
G1 X74.605 Y83.336 E1.46264
G1 X74.605 Y83.982 F12000
G1 F2400
G1 X45.395 Y54.772 E1.46264
G1 X45.395 Y55.418 F12000
G1 F2400
G1 X74.605 Y84.629 E1.46264
G1 X74.605 Y85.275 F12000
G1 F2400
G1 X45.395 Y56.065 E1.46264
G1 X45.395 Y56.711 F12000
G1 F2400
G1 X74.605 Y85.921 E1.46265
G1 X74.605 Y86.568 F12000
G1 F2400
G1 X45.395 Y57.357 E1.46265
G1 X45.395 Y58.004 F12000
G1 F2400
G1 X74.605 Y87.214 E1.46265
G1 X74.605 Y87.861 F12000
G1 F2400
G1 X45.395 Y58.65 E1.46265
M73 P9 R18
G1 X45.395 Y59.297 F12000
G1 F2400
G1 X74.605 Y88.507 E1.46265
G1 X74.605 Y89.154 F12000
G1 F2400
G1 X45.395 Y59.943 E1.46265
G1 X45.395 Y60.589 F12000
G1 F2400
G1 X74.605 Y89.8 E1.46265
G1 X74.605 Y90.446 F12000
G1 F2400
G1 X45.395 Y61.236 E1.46265
G1 X45.395 Y61.882 F12000
G1 F2400
G1 X74.605 Y91.093 E1.46265
G1 X74.57 Y91.704 F12000
G1 F2400
G1 X45.395 Y62.529 E1.4609
G1 X45.395 Y63.175 F12000
G1 F2400
G1 X74.345 Y92.125 E1.44961
G1 X73.906 Y92.333 F12000
G1 F2400
G1 X45.395 Y63.822 E1.42764
G1 X45.395 Y64.468 F12000
G1 F2400
G1 X73.281 Y92.354 E1.39633
G1 X72.635 Y92.354 F12000
G1 F2400
G1 X45.395 Y65.114 E1.36397
G1 X45.395 Y65.761 F12000
G1 F2400
G1 X71.988 Y92.354 E1.3316
G1 X71.342 Y92.354 F12000
G1 F2400
G1 X45.395 Y66.407 E1.29924
M73 P11 R18
G1 X45.395 Y67.054 F12000
G1 F2400
G1 X70.695 Y92.354 E1.26687
G1 X70.049 Y92.354 F12000
G1 F2400
G1 X45.395 Y67.7 E1.2345
G1 X45.395 Y68.346 F12000
G1 F2400
G1 X69.403 Y92.354 E1.20214
G1 X68.756 Y92.354 F12000
G1 F2400
G1 X45.395 Y68.993 E1.16977
G1 X45.395 Y69.639 F12000
G1 F2400
G1 X68.11 Y92.354 E1.13741
G1 X67.464 Y92.354 F12000
G1 F2400
G1 X45.395 Y70.286 E1.10504
G1 X45.395 Y70.932 F12000
G1 F2400
G1 X66.817 Y92.354 E1.07267
G1 X66.171 Y92.354 F12000
G1 F2400
G1 X45.395 Y71.578 E1.04031
G1 X45.395 Y72.225 F12000
G1 F2400
G1 X65.524 Y92.354 E1.00794
G1 X64.878 Y92.354 F12000
G1 F2400
G1 X45.395 Y72.871 E0.97558
G1 X45.395 Y73.518 F12000
G1 F2400
G1 X64.232 Y92.355 E0.94321
G1 X63.585 Y92.355 F12000
G1 F2400
G1 X45.395 Y74.164 E0.91084
G1 X45.395 Y74.811 F12000
G1 F2400
G1 X62.939 Y92.355 E0.87848
G1 X62.293 Y92.355 F12000
G1 F2400
G1 X45.395 Y75.457 E0.84611
G1 X45.395 Y76.103 F12000
G1 F2400
G1 X61.646 Y92.355 E0.81375
M73 P11 R18
G1 X61 Y92.355 F12000
G1 F2400
G1 X45.395 Y76.75 E0.78138
G1 X45.395 Y77.396 F12000
G1 F2400
G1 X60.353 Y92.355 E0.74901
G1 X59.707 Y92.355 F12000
G1 F2400
G1 X45.395 Y78.043 E0.71665
G1 X45.395 Y78.689 F12000
G1 F2400
G1 X59.061 Y92.355 E0.68428
G1 X58.414 Y92.355 F12000
G1 F2400
G1 X45.395 Y79.335 E0.65192
G1 X45.395 Y79.982 F12000
G1 F2400
G1 X57.768 Y92.355 E0.61955
G1 X57.122 Y92.355 F12000
G1 F2400
G1 X45.395 Y80.628 E0.58718
G1 X45.395 Y81.275 F12000
G1 F2400
G1 X56.475 Y92.355 E0.55482
G1 X55.829 Y92.355 F12000
G1 F2400
G1 X45.395 Y81.921 E0.52245
G1 X45.395 Y82.567 F12000
G1 F2400
G1 X55.182 Y92.355 E0.49009
G1 X54.536 Y92.355 F12000
G1 F2400
G1 X45.395 Y83.214 E0.45772
G1 X45.395 Y83.86 F12000
G1 F2400
G1 X53.89 Y92.355 E0.42535
G1 X53.243 Y92.355 F12000
G1 F2400
G1 X45.395 Y84.507 E0.39299
G1 X45.395 Y85.153 F12000
G1 F2400
G1 X52.597 Y92.355 E0.36062
G1 X51.951 Y92.355 F12000
G1 F2400
G1 X45.395 Y85.799 E0.32826
