; HEADER_BLOCK_START
; generated by OrcaSlicer 1.6.3 on 2023-07-23 at 17:36:44
; total layer number: 25
; HEADER_BLOCK_END

; THUMBNAIL_BLOCK_START
; THUMBNAIL_BLOCK_END

; external perimeters extrusion width = 0.40mm
; perimeters extrusion width = 0.45mm
; infill extrusion width = 0.45mm
; solid infill extrusion width = 0.40mm
; top infill extrusion width = 0.40mm
; first layer extrusion width = 0.50mm

; EXECUTABLE_BLOCK_START
EXCLUDE_OBJECT_DEFINE NAME=2020_L_Bracket.stl_id_0_copy_0 CENTER=60,60 POLYGON=[[30,33],[30.0164,32.6864],[30.0656,32.3763],[30.1468,32.073],[30.2594,31.7798],[30.4019,31.5],[30.5729,31.2366],[30.7706,30.9926],[30.9926,30.7706],[31.2366,30.573],[31.5,30.4019],[31.7798,30.2594],[32.0729,30.1468],[32.3763,30.0656],[32.6864,30.0164],[33,30],[87,30],[87.3136,30.0164],[87.6237,30.0656],[87.927,30.1468],[88.2202,30.2594],[88.5,30.4019],[88.7634,30.573],[89.0074,30.7706],[89.2294,30.9926],[89.427,31.2366],[89.5981,31.5],[89.7406,31.7798],[89.8532,32.073],[89.9344,32.3763],[89.9836,32.6864],[90,33],[90,47],[89.9836,47.3136],[89.9344,47.6237],[89.8532,47.9271],[89.7406,48.2202],[89.5981,48.5],[89.427,48.7634],[89.2294,49.0074],[49.2294,89.0074],[49.0074,89.2294],[48.7634,89.4271],[48.5,89.5981],[48.2202,89.7406],[47.9271,89.8532],[47.6237,89.9344],[47.3136,89.9836],[47,90],[33,90],[32.6864,89.9836],[32.3763,89.9344],[32.0729,89.8532],[31.7798,89.7406],[31.5,89.5981],[31.2366,89.4271],[30.9926,89.2294],[30.7706,89.0074],[30.5729,88.7634],[30.4019,88.5],[30.2594,88.2202],[30.1468,87.9271],[30.0656,87.6237],[30.0164,87.3136],[30,87],[30,33]]
M73 P0 R16
;TYPE:Custom
START_PRINT T_BED=110 T_EXTRUDER=260
G90
G21
M83 ; use relative distances for extrusion
; Filament gcode

    PRESSURE_ADVANCE_SELECT FILAMENT=ABS
M106 S0
;LAYER_CHANGE
;Z:0.2
;HEIGHT:0.2
;BEFORE_LAYER_CHANGE
;0.2
G92 E0

;AFTER_LAYER_CHANGE
;0.2
SET_VELOCITY_LIMIT ACCEL_TO_DECEL=500
M204 S1000
G1 E-.5 F3000
G1 Z.2 F21000
G1 X28.71 Y28.932
M73 P0 R15
G1 E.5 F1800
;TYPE:Skirt
;WIDTH:0.5
G1 F3000
G1 X29.403 Y28.308 E.03281
G1 X30.457 Y27.663 E.0435
G1 X31.622 Y27.251 E.0435
G1 X32.847 Y27.09 E.0435
G1 X87.153 Y27.09 E1.9112
G1 X88.074 Y27.186 E.0326
G1 X88.971 Y27.426 E.0327
G1 X90.087 Y27.958 E.0435
G1 X90.841 Y28.506 E.03281
G1 X91.688 Y29.398 E.04328
G1 X92.195 Y30.177 E.03271
G1 X92.574 Y31.029 E.03281
G1 X92.813 Y31.92 E.03249
G1 X92.914 Y33 E.03816
G1 X92.894 Y47.466 E.50912
G1 X92.749 Y48.378 E.03249
G1 X92.342 Y49.532 E.04307
G1 X91.871 Y50.351 E.03324
G1 X91.29 Y51.068 E.03249
G1 X51.068 Y91.29 E2.00192
G1 X50.087 Y92.042 E.0435
G1 X48.681 Y92.668 E.05416
G1 X47.153 Y92.91 E.05448
G1 X32.847 Y92.91 E.50345
G1 X31.92 Y92.813 E.03281
G1 X30.741 Y92.464 E.04328
G1 X29.913 Y92.042 E.03271
G1 X28.932 Y91.29 E.0435
G1 X28.129 Y90.351 E.0435
G1 X27.539 Y89.265 E.0435
G1 X27.187 Y88.08 E.0435
G1 X27.086 Y87 E.03816
G1 X27.09 Y32.847 E1.90584
G1 X27.187 Y31.92 E.03281
G1 X27.539 Y30.735 E.0435
G1 X28.129 Y29.649 E.0435
G1 X28.672 Y28.979 E.03038
G1 X29.025 Y29.265 F21000
G1 F3000
G1 X29.033 Y29.255 E.00043
G1 X29.69 Y28.663 E.03112
G1 X30.664 Y28.07 E.04014
G1 X31.74 Y27.692 E.04014
G1 X32.871 Y27.546 E.04014
G1 X87.129 Y27.546 E1.90952
G1 X88.003 Y27.638 E.03095
G1 X88.808 Y27.853 E.02931
G1 X89.838 Y28.341 E.04014
G1 X90.554 Y28.861 E.03112
G1 X91.333 Y29.685 E.03992
G1 X91.787 Y30.385 E.02935
G1 X92.147 Y31.192 E.03112
G1 X92.361 Y31.992 E.02913
G1 X92.457 Y33 E.03564
G1 X92.437 Y47.442 E.50828
G1 X92.308 Y48.26 E.02913
G1 X91.934 Y49.325 E.03974
G1 X91.488 Y50.102 E.03152
G1 X90.967 Y50.745 E.02913
G1 X50.745 Y90.967 E2.00192
G1 X50.102 Y91.488 E.02913
G1 X48.808 Y92.147 E.05111
G1 X47.442 Y92.437 E.04913
G1 X33 Y92.457 E.50828
G1 X31.992 Y92.361 E.03564
G1 X30.905 Y92.037 E.03992
G1 X30.162 Y91.659 E.02935
G1 X29.255 Y90.967 E.04014
G1 X28.512 Y90.102 E.04014
G1 X27.965 Y89.101 E.04014
G1 X27.639 Y88.008 E.04014
G1 X27.543 Y87 E.03564
G1 X27.543 Y33 E1.90047
M73 P1 R15
G1 X27.639 Y31.992 E.03564
G1 X27.965 Y30.899 E.04014
G1 X28.512 Y29.898 E.04014
G1 X28.988 Y29.311 E.02659
; printing object 2020_L_Bracket.stl id:0 copy 0
EXCLUDE_OBJECT_START NAME=2020_L_Bracket.stl_id_0_copy_0
G1 E-.5
G1 Z.4 F21000
G1 X40.984 Y50.742
G1 Z.2
G1 E.5 F1800
;TYPE:Inner wall
G1 F3000
G1 X41.088 Y50.762 E.00375
G1 X41.611 Y50.932 E.01934
G1 X42.108 Y51.166 E.01934
G1 X42.572 Y51.46 E.01934
G1 X42.995 Y51.81 E.01934
G1 X43.371 Y52.211 E.01934
G1 X43.69 Y52.649 E.01905
G1 X43.958 Y53.134 E.01953
G1 X44.161 Y53.648 E.01943
G1 X44.298 Y54.18 E.01934
G1 X44.367 Y54.725 E.01934
G1 X44.367 Y55.275 E.01934
G1 X44.299 Y55.812 E.01905
G1 X44.162 Y56.35 E.01953
G1 X43.959 Y56.863 E.01943
G1 X43.694 Y57.345 E.01934
G1 X43.371 Y57.789 E.01934
G1 X42.995 Y58.19 E.01934
G1 X42.572 Y58.54 E.01934
G1 X42.108 Y58.834 E.01934
G1 X41.611 Y59.068 E.01934
G1 X41.088 Y59.238 E.01934
G1 X40.548 Y59.341 E.01934
G1 X40 Y59.376 E.01934
G1 X39.452 Y59.341 E.01934
G1 X38.912 Y59.238 E.01934
G1 X38.389 Y59.068 E.01934
G1 X37.892 Y58.834 E.01934
G1 X37.428 Y58.54 E.01934
G1 X37.005 Y58.19 E.01934
G1 X36.629 Y57.789 E.01934
G1 X36.306 Y57.345 E.01934
G1 X36.041 Y56.863 E.01934
G1 X35.839 Y56.352 E.01934
G1 X35.704 Y55.828 E.01905
G1 X35.633 Y55.277 E.01953
G1 X35.633 Y54.725 E.01943
G1 X35.701 Y54.188 E.01905
G1 X35.838 Y53.65 E.01953
G1 X36.041 Y53.137 E.01943
G1 X36.302 Y52.663 E.01905
G1 X36.627 Y52.213 E.01953
G1 X37.005 Y51.81 E.01944
G1 X37.428 Y51.46 E.01934
G1 X37.892 Y51.166 E.01934
G1 X38.389 Y50.932 E.01934
G1 X38.912 Y50.762 E.01934
G1 X39.452 Y50.659 E.01934
G1 X39.992 Y50.625 E.01905
G1 X40.546 Y50.658 E.01953
G1 X40.925 Y50.731 E.01358
G1 X40.895 Y51.19 F21000
G1 F3000
G1 X40.974 Y51.205 E.00283
G1 X41.442 Y51.357 E.01731
G1 X41.887 Y51.567 E.01732
G1 X42.303 Y51.831 E.01731
G1 X42.682 Y52.144 E.01732
G1 X43.019 Y52.503 E.01731
G1 X43.303 Y52.895 E.01705
G1 X43.544 Y53.33 E.0175
G1 X43.726 Y53.789 E.01739
G1 X43.848 Y54.266 E.01732
G1 X43.91 Y54.754 E.01731
G1 X43.91 Y55.246 E.01732
G1 X43.849 Y55.727 E.01705
G1 X43.727 Y56.209 E.0175
G1 X43.545 Y56.668 E.01739
G1 X43.308 Y57.099 E.01732
G1 X43.019 Y57.497 E.01731
G1 X42.682 Y57.856 E.01731
G1 X42.303 Y58.169 E.01732
G1 X41.887 Y58.433 E.01732
G1 X41.442 Y58.643 E.01731
G1 X40.974 Y58.795 E.01731
G1 X40.491 Y58.887 E.01732
G1 X40 Y58.918 E.01731
G1 X39.509 Y58.887 E.01731
G1 X39.026 Y58.795 E.01732
G1 X38.558 Y58.643 E.01732
G1 X38.113 Y58.433 E.01731
G1 X37.697 Y58.169 E.01732
G1 X37.318 Y57.856 E.01731
G1 X36.981 Y57.497 E.01731
G1 X36.692 Y57.099 E.01731
G1 X36.455 Y56.668 E.01732
G1 X36.274 Y56.211 E.01731
G1 X36.154 Y55.741 E.01705
G1 X36.09 Y55.248 E.0175
G1 X36.09 Y54.754 E.01739
G1 X36.151 Y54.273 E.01705
G1 X36.273 Y53.791 E.0175
G1 X36.455 Y53.332 E.01739
G1 X36.689 Y52.907 E.01705
G1 X36.98 Y52.504 E.0175
G1 X37.318 Y52.144 E.01739
G1 X37.697 Y51.831 E.01731
G1 X38.113 Y51.567 E.01732
G1 X38.558 Y51.357 E.01731
G1 X39.026 Y51.205 E.01731
G1 X39.509 Y51.113 E.01732
G1 X39.992 Y51.083 E.01705
G1 X40.489 Y51.113 E.0175
G1 X40.836 Y51.179 E.01245
G1 X40.807 Y51.639 F21000
G1 F3000
G1 X40.86 Y51.649 E.0019
G1 X41.274 Y51.783 E.01529
G1 X41.667 Y51.968 E.01529
G1 X42.034 Y52.201 E.01529
G1 X42.368 Y52.478 E.01529
G1 X42.666 Y52.795 E.01529
G1 X42.917 Y53.141 E.01504
G1 X43.13 Y53.525 E.01548
G1 X43.29 Y53.931 E.01535
G1 X43.398 Y54.352 E.01529
G1 X43.453 Y54.783 E.01529
G1 X43.453 Y55.217 E.01529
G1 X43.399 Y55.641 E.01504
G1 X43.291 Y56.068 E.01548
G1 X43.13 Y56.473 E.01535
G1 X42.921 Y56.854 E.01529
G1 X42.666 Y57.205 E.01529
G1 X42.368 Y57.522 E.01529
G1 X42.034 Y57.799 E.01529
G1 X41.667 Y58.032 E.01529
G1 X41.274 Y58.217 E.01529
G1 X40.86 Y58.351 E.01529
G1 X40.434 Y58.432 E.01529
G1 X40 Y58.46 E.01529
G1 X39.566 Y58.432 E.01529
G1 X39.14 Y58.351 E.01529
G1 X38.726 Y58.217 E.01529
G1 X38.333 Y58.032 E.01529
G1 X37.966 Y57.799 E.01529
G1 X37.632 Y57.522 E.01529
G1 X37.334 Y57.205 E.01529
G1 X37.079 Y56.854 E.01529
G1 X36.87 Y56.473 E.01529
G1 X36.71 Y56.069 E.01529
G1 X36.603 Y55.655 E.01504
G1 X36.547 Y55.219 E.01548
G1 X36.547 Y54.783 E.01535
G1 X36.601 Y54.359 E.01504
G1 X36.709 Y53.932 E.01548
G1 X36.87 Y53.527 E.01535
G1 X37.076 Y53.152 E.01504
G1 X37.333 Y52.796 E.01548
G1 X37.632 Y52.478 E.01535
G1 X37.966 Y52.201 E.01529
G1 X38.333 Y51.968 E.01529
G1 X38.726 Y51.783 E.01529
G1 X39.14 Y51.649 E.01529
G1 X39.566 Y51.568 E.01529
G1 X39.993 Y51.541 E.01504
G1 X40.432 Y51.567 E.01548
G1 X40.748 Y51.628 E.01133
G1 X40.719 Y52.087 F21000
G1 F3000
G1 X40.746 Y52.093 E.00098
G1 X41.105 Y52.209 E.01327
G1 X41.446 Y52.37 E.01327
G1 X41.764 Y52.572 E.01327
G1 X42.055 Y52.812 E.01327
G1 X42.313 Y53.087 E.01327
G1 X42.531 Y53.386 E.01304
G1 X42.716 Y53.721 E.01346
G1 X42.855 Y54.072 E.0133
G1 X42.949 Y54.438 E.01327
G1 X42.996 Y54.812 E.01327
G1 X42.996 Y55.188 E.01327
G1 X42.949 Y55.556 E.01304
G1 X42.855 Y55.927 E.01346
G1 X42.716 Y56.278 E.0133
G1 X42.534 Y56.608 E.01327
G1 X42.313 Y56.913 E.01327
G1 X42.055 Y57.188 E.01327
G1 X41.764 Y57.428 E.01327
G1 X41.446 Y57.63 E.01327
G1 X41.105 Y57.791 E.01327
G1 X40.746 Y57.907 E.01327
G1 X40.376 Y57.978 E.01327
G1 X40 Y58.002 E.01327
G1 X39.624 Y57.978 E.01327
G1 X39.254 Y57.907 E.01327
G1 X38.895 Y57.791 E.01327
G1 X38.554 Y57.63 E.01327
G1 X38.236 Y57.428 E.01327
G1 X37.945 Y57.188 E.01327
G1 X37.687 Y56.913 E.01327
G1 X37.466 Y56.608 E.01327
G1 X37.284 Y56.278 E.01327
G1 X37.145 Y55.928 E.01327
G1 X37.053 Y55.569 E.01304
G1 X37.004 Y55.19 E.01346
G1 X37.004 Y54.812 E.0133
G1 X37.051 Y54.444 E.01304
G1 X37.145 Y54.073 E.01346
G1 X37.284 Y53.722 E.0133
G1 X37.462 Y53.397 E.01304
G1 X37.686 Y53.087 E.01345
G1 X37.945 Y52.812 E.0133
G1 X38.236 Y52.572 E.01327
G1 X38.554 Y52.37 E.01327
G1 X38.895 Y52.209 E.01327
G1 X39.254 Y52.093 E.01327
G1 X39.624 Y52.022 E.01327
G1 X39.994 Y51.999 E.01304
G1 X40.375 Y52.022 E.01345
G1 X40.66 Y52.076 E.01021
G1 X40.614 Y52.576 F21000
;TYPE:Outer wall
G1 F3000
G1 X40.622 Y52.578 E.00028
G1 X40.921 Y52.675 E.01105
G1 X41.205 Y52.809 E.01105
G1 X41.47 Y52.977 E.01105
G1 X41.712 Y53.177 E.01105
G1 X41.927 Y53.406 E.01105
G1 X42.108 Y53.655 E.01085
G1 X42.263 Y53.935 E.01124
G1 X42.378 Y54.227 E.01107
G1 X42.456 Y54.531 E.01105
G1 X42.496 Y54.843 E.01105
G1 X42.496 Y55.157 E.01105
G1 X42.457 Y55.463 E.01085
G1 X42.378 Y55.772 E.01124
G1 X42.263 Y56.065 E.01107
G1 X42.111 Y56.34 E.01105
G1 X41.927 Y56.594 E.01105
G1 X41.712 Y56.823 E.01105
G1 X41.47 Y57.023 E.01105
G1 X41.205 Y57.191 E.01105
G1 X40.921 Y57.325 E.01105
G1 X40.622 Y57.422 E.01105
G1 X40.313 Y57.481 E.01105
G1 X40 Y57.501 E.01105
G1 X39.687 Y57.481 E.01105
G1 X39.378 Y57.422 E.01105
G1 X39.079 Y57.325 E.01105
G1 X38.795 Y57.191 E.01105
G1 X38.53 Y57.023 E.01105
G1 X38.288 Y56.823 E.01105
G1 X38.073 Y56.594 E.01105
G1 X37.889 Y56.34 E.01105
G1 X37.737 Y56.065 E.01105
G1 X37.622 Y55.773 E.01105
G1 X37.545 Y55.474 E.01085
G1 X37.504 Y55.157 E.01124
G1 X37.504 Y54.843 E.01107
G1 X37.543 Y54.537 E.01085
G1 X37.622 Y54.228 E.01124
G1 X37.737 Y53.935 E.01107
G1 X37.886 Y53.665 E.01085
G1 X38.073 Y53.406 E.01124
G1 X38.288 Y53.177 E.01107
G1 X38.53 Y52.977 E.01105
G1 X38.795 Y52.809 E.01105
G1 X39.079 Y52.675 E.01105
G1 X39.378 Y52.578 E.01105
G1 X39.687 Y52.519 E.01105
G1 X39.994 Y52.5 E.01085
G1 X40.313 Y52.519 E.01124
G1 X40.555 Y52.565 E.00868
G1 X40.615 Y52.575
G1 E-.5
G1 Z.4 F21000
G1 X40.618 Y52.235
G1 X40.706 Y52.252
G1 X41.044 Y52.362
G1 X41.367 Y52.514
G1 X41.668 Y52.705
G1 X41.942 Y52.932
G1 X42.186 Y53.192
G1 X42.392 Y53.475
G1 X42.567 Y53.791
G1 X42.698 Y54.123
G1 X42.787 Y54.468
G1 X42.831 Y54.822
G1 X42.831 Y55.178
G1 X42.788 Y55.525
G1 X42.699 Y55.876
G1 X38.491 Y70.899
G1 Z.2
G1 E.5 F1800
;TYPE:Inner wall
G1 F3000
G1 X38.912 Y70.762 E.01559
G1 X39.452 Y70.659 E.01934
G1 X39.992 Y70.625 E.01905
G1 X40.546 Y70.658 E.01953
G1 X41.088 Y70.762 E.01944
G1 X41.611 Y70.932 E.01934
G1 X42.108 Y71.166 E.01934
G1 X42.572 Y71.46 E.01934
G1 X42.995 Y71.81 E.01934
G1 X43.371 Y72.211 E.01934
G1 X43.694 Y72.655 E.01934
G1 X43.959 Y73.137 E.01934
G1 X44.161 Y73.648 E.01934
G1 X44.298 Y74.18 E.01934
G1 X44.367 Y74.725 E.01934
G1 X44.367 Y75.275 E.01934
G1 X44.299 Y75.812 E.01905
G1 X44.162 Y76.35 E.01953
G1 X43.959 Y76.863 E.01944
G1 X43.694 Y77.345 E.01934
G1 X43.371 Y77.789 E.01934
G1 X43.001 Y78.184 E.01905
G1 X42.574 Y78.538 E.01953
G1 X42.108 Y78.834 E.01944
G1 X41.611 Y79.068 E.01934
G1 X41.088 Y79.238 E.01934
G1 X40.548 Y79.341 E.01934
G1 X40 Y79.376 E.01934
G1 X39.452 Y79.341 E.01934
G1 X38.92 Y79.24 E.01905
G1 X38.392 Y79.07 E.01953
G1 X37.892 Y78.834 E.01944
G1 X37.428 Y78.54 E.01934
G1 X37.005 Y78.19 E.01934
G1 X36.629 Y77.789 E.01934
G1 X36.306 Y77.345 E.01934
G1 X36.041 Y76.863 E.01934
G1 X35.839 Y76.352 E.01934
G1 X35.704 Y75.828 E.01905
G1 X35.633 Y75.277 E.01953
G1 X35.633 Y74.725 E.01943
G1 X35.701 Y74.188 E.01905
G1 X35.838 Y73.65 E.01953
G1 X36.041 Y73.137 E.01944
G1 X36.302 Y72.663 E.01905
G1 X36.627 Y72.213 E.01953
G1 X37.005 Y71.81 E.01943
G1 X37.428 Y71.46 E.01934
G1 X37.892 Y71.166 E.01934
G1 X38.389 Y70.932 E.01934
G1 X38.433 Y70.917 E.00164
G1 X38.634 Y71.333 F21000
G1 F3000
G1 X39.026 Y71.205 E.01449
G1 X39.509 Y71.113 E.01731
G1 X39.992 Y71.083 E.01705
G1 X40.489 Y71.113 E.0175
G1 X40.974 Y71.205 E.01739
G1 X41.442 Y71.357 E.01731
G1 X41.887 Y71.567 E.01731
G1 X42.303 Y71.831 E.01731
G1 X42.682 Y72.144 E.01732
G1 X43.019 Y72.503 E.01731
G1 X43.308 Y72.901 E.01731
G1 X43.545 Y73.332 E.01732
G1 X43.726 Y73.789 E.01731
G1 X43.848 Y74.266 E.01731
G1 X43.91 Y74.754 E.01731
G1 X43.91 Y75.246 E.01732
G1 X43.849 Y75.727 E.01705
G1 X43.727 Y76.209 E.0175
G1 X43.545 Y76.668 E.01739
G1 X43.308 Y77.099 E.01732
G1 X43.019 Y77.497 E.01731
G1 X42.687 Y77.85 E.01705
G1 X42.305 Y78.168 E.0175
G1 X41.887 Y78.433 E.01739
G1 X41.442 Y78.643 E.01731
G1 X40.974 Y78.795 E.01732
G1 X40.491 Y78.887 E.01732
G1 X40 Y78.918 E.01731
G1 X39.509 Y78.887 E.01731
G1 X39.033 Y78.796 E.01705
G1 X38.56 Y78.643 E.0175
G1 X38.113 Y78.433 E.01739
G1 X37.697 Y78.169 E.01731
G1 X37.318 Y77.856 E.01732
G1 X36.981 Y77.497 E.01731
G1 X36.692 Y77.099 E.01731
G1 X36.455 Y76.668 E.01732
G1 X36.274 Y76.211 E.01731
G1 X36.154 Y75.741 E.01705
G1 X36.09 Y75.248 E.0175
G1 X36.09 Y74.754 E.01739
G1 X36.151 Y74.273 E.01705
G1 X36.273 Y73.791 E.0175
G1 X36.455 Y73.332 E.01739
G1 X36.689 Y72.907 E.01705
G1 X36.98 Y72.504 E.0175
G1 X37.318 Y72.144 E.01739
G1 X37.697 Y71.831 E.01731
G1 X38.113 Y71.567 E.01732
G1 X38.558 Y71.357 E.01731
G1 X38.577 Y71.351 E.00071
G1 X38.778 Y71.767 F21000
G1 F3000
G1 X39.14 Y71.649 E.01339
G1 X39.566 Y71.568 E.01529
G1 X39.993 Y71.541 E.01504
G1 X40.432 Y71.567 E.01548
G1 X40.86 Y71.649 E.01535
G1 X41.274 Y71.783 E.01529
G1 X41.667 Y71.968 E.01529
G1 X42.034 Y72.201 E.01529
G1 X42.368 Y72.478 E.01529
G1 X42.666 Y72.795 E.01529
G1 X42.921 Y73.146 E.01529
G1 X43.13 Y73.527 E.01529
G1 X43.29 Y73.931 E.01529
G1 X43.398 Y74.352 E.01529
G1 X43.453 Y74.783 E.01529
G1 X43.453 Y75.217 E.01529
G1 X43.399 Y75.641 E.01504
G1 X43.291 Y76.068 E.01548
G1 X43.13 Y76.473 E.01535
G1 X42.921 Y76.854 E.01529
G1 X42.666 Y77.205 E.01529
G1 X42.373 Y77.517 E.01504
G1 X42.035 Y77.798 E.01548
G1 X41.667 Y78.032 E.01535
G1 X41.274 Y78.217 E.01529
G1 X40.86 Y78.351 E.01529
G1 X40.434 Y78.432 E.01529
G1 X40 Y78.46 E.01529
G1 X39.566 Y78.432 E.01529
G1 X39.146 Y78.352 E.01504
G1 X38.728 Y78.217 E.01548
G1 X38.333 Y78.032 E.01535
G1 X37.966 Y77.799 E.01529
G1 X37.632 Y77.522 E.01529
G1 X37.334 Y77.205 E.01529
G1 X37.079 Y76.854 E.01529
G1 X36.87 Y76.473 E.01529
G1 X36.71 Y76.069 E.01529
G1 X36.603 Y75.655 E.01504
G1 X36.547 Y75.219 E.01548
G1 X36.547 Y74.783 E.01535
G1 X36.601 Y74.359 E.01504
G1 X36.709 Y73.932 E.01548
G1 X36.87 Y73.527 E.01535
G1 X37.076 Y73.152 E.01504
G1 X37.333 Y72.796 E.01548
G1 X37.632 Y72.478 E.01535
G1 X37.966 Y72.201 E.01529
G1 X38.333 Y71.968 E.01529
G1 X38.721 Y71.786 E.01508
G1 X38.87 Y72.221 F21000
G1 F3000
G1 X38.895 Y72.209 E.00098
G1 X39.254 Y72.093 E.01327
G1 X39.624 Y72.022 E.01327
G1 X39.994 Y71.999 E.01304
G1 X40.375 Y72.022 E.01345
G1 X40.746 Y72.093 E.0133
G1 X41.105 Y72.209 E.01327
G1 X41.446 Y72.37 E.01327
G1 X41.764 Y72.572 E.01327
