; HEADER_BLOCK_START
; generated by OrcaSlicer 1.6.3 on 2023-06-06 at 21:33:20
; total layer number: 25
; HEADER_BLOCK_END

; THUMBNAIL_BLOCK_START
; THUMBNAIL_BLOCK_END

; external perimeters extrusion width = 0.40mm
; perimeters extrusion width = 0.45mm
; infill extrusion width = 0.45mm
; solid infill extrusion width = 0.40mm
; top infill extrusion width = 0.40mm
; first layer extrusion width = 0.50mm

; external perimeters extrusion width = 0.40mm
; perimeters extrusion width = 0.45mm
; infill extrusion width = 0.45mm
; solid infill extrusion width = 0.40mm
; top infill extrusion width = 0.40mm
; first layer extrusion width = 0.50mm

; EXECUTABLE_BLOCK_START
EXCLUDE_OBJECT_DEFINE NAME=2020_L_Bracket.stl_id_0_copy_0 CENTER=46.2528,40.863 POLYGON=[[16.2528,13.863],[16.2692,13.5494],[16.3184,13.2392],[16.3996,12.9359],[16.5122,12.6428],[16.6547,12.363],[16.8258,12.0996],[17.0234,11.8556],[17.2454,11.6335],[17.4895,11.4359],[17.7528,11.2649],[18.0326,11.1223],[18.3258,11.0098],[18.6291,10.9285],[18.9392,10.8794],[19.2528,10.863],[73.2528,10.863],[73.5664,10.8794],[73.8765,10.9285],[74.1799,11.0098],[74.473,11.1223],[74.7528,11.2649],[75.0162,11.4359],[75.2602,11.6335],[75.4822,11.8556],[75.6799,12.0996],[75.8509,12.363],[75.9935,12.6428],[76.106,12.9359],[76.1873,13.2392],[76.2364,13.5494],[76.2528,13.863],[76.2528,27.863],[76.2364,28.1765],[76.1873,28.4867],[76.106,28.79],[75.9935,29.0832],[75.8509,29.363],[75.6799,29.6263],[75.4822,29.8704],[35.4823,69.8704],[35.2602,70.0924],[35.0162,70.29],[34.7528,70.461],[34.473,70.6036],[34.1799,70.7161],[33.8766,70.7974],[33.5664,70.8465],[33.2528,70.863],[19.2528,70.863],[18.9392,70.8465],[18.6291,70.7974],[18.3258,70.7161],[18.0326,70.6036],[17.7528,70.461],[17.4895,70.29],[17.2454,70.0924],[17.0234,69.8704],[16.8258,69.6263],[16.6547,69.363],[16.5122,69.0832],[16.3996,68.79],[16.3184,68.4867],[16.2692,68.1765],[16.2528,67.863],[16.2528,13.863]]
EXCLUDE_OBJECT_DEFINE NAME=Tarantula_2020_L_Bracket.stl_id_1_copy_0 CENTER=74.7457,71.1446 POLYGON=[[44.9007,44.8556],[44.909,44.613],[44.9338,44.3714],[44.9751,44.1321],[45.0326,43.8962],[45.106,43.6648],[45.1951,43.4389],[45.2994,43.2196],[45.4184,43.008],[45.5516,42.805],[45.6983,42.6115],[45.8579,42.4285],[46.0296,42.2568],[46.2126,42.0972],[46.406,41.9505],[46.6091,41.8173],[46.8207,41.6983],[47.04,41.594],[47.2659,41.505],[47.4973,41.4315],[47.7332,41.374],[47.9725,41.3328],[48.214,41.3079],[48.4567,41.2996],[101.035,41.2996],[101.277,41.3079],[101.519,41.3328],[101.758,41.374],[101.994,41.4315],[102.226,41.505],[102.451,41.594],[102.671,41.6983],[102.882,41.8173],[103.085,41.9505],[103.279,42.0972],[103.462,42.2568],[103.634,42.4285],[103.793,42.6115],[103.94,42.805],[104.073,43.008],[104.192,43.2196],[104.296,43.4389],[104.385,43.6648],[104.459,43.8962],[104.516,44.1321],[104.558,44.3714],[104.582,44.613],[104.591,44.8556],[104.591,97.4336],[104.582,97.6763],[104.558,97.9178],[104.516,98.1571],[104.459,98.393],[104.385,98.6245],[104.296,98.8503],[104.192,99.0696],[104.073,99.2813],[103.94,99.4843],[103.793,99.6778],[103.634,99.8608],[103.462,100.032],[103.279,100.192],[103.085,100.339],[102.882,100.472],[102.671,100.591],[102.451,100.695],[102.226,100.784],[101.994,100.858],[101.758,100.915],[101.519,100.957],[101.277,100.981],[101.035,100.99],[88.5827,100.99],[88.34,100.981],[88.0985,100.957],[87.8592,100.915],[87.6233,100.858],[87.3918,100.784],[87.1659,100.695],[86.9467,100.591],[86.735,100.472],[86.532,100.339],[86.3385,100.192],[86.1555,100.032],[85.9838,99.8608],[45.8579,59.7288],[45.6983,59.5458],[45.5516,59.3523],[45.4184,59.1493],[45.2994,58.9376],[45.1951,58.7183],[45.106,58.4925],[45.0326,58.261],[44.9751,58.0251],[44.9338,57.7858],[44.909,57.5443],[44.9007,57.3016],[44.9007,44.8556]]
M73 P0 R32
;TYPE:Custom
START_PRINT T_BED=110 T_EXTRUDER=260
G90
G21
M83 ; use relative distances for extrusion
; Filament gcode

    PRESSURE_ADVANCE_SELECT FILAMENT=ABS
M106 S0
;LAYER_CHANGE
;Z:0.2
;HEIGHT:0.2
;BEFORE_LAYER_CHANGE
;0.2
G92 E0

;AFTER_LAYER_CHANGE
;0.2
SET_VELOCITY_LIMIT ACCEL_TO_DECEL=500
M204 S1000
G1 E-.5 F3000
G1 Z.2 F21000
G1 X14.382 Y10.512
G1 E.5 F1800
;TYPE:Skirt
;WIDTH:0.5
G1 F3000
G1 X14.963 Y9.795 E.03249
G1 X15.656 Y9.171 E.03281
G1 X16.71 Y8.526 E.0435
G1 X17.875 Y8.114 E.0435
G1 X19.1 Y7.953 E.0435
G1 X73.405 Y7.953 E1.9112
G1 X74.631 Y8.114 E.0435
G1 X75.517 Y8.402 E.03281
G1 X76.603 Y8.992 E.0435
G1 X77.543 Y9.795 E.0435
G1 X105.83 Y40.513 E1.46964
G1 X106.732 Y41.791 E.05506
G1 X107.236 Y43.015 E.04657
G1 X107.429 Y43.876 E.03107
G1 X107.505 Y44.856 E.03457
G1 X107.481 Y97.974 E1.86945
G1 X107.348 Y98.847 E.03107
G1 X107.007 Y99.919 E.03959
G1 X106.613 Y100.71 E.03108
G1 X106.115 Y101.439 E.03107
G1 X105.377 Y102.229 E.03806
G1 X104.684 Y102.776 E.03108
G1 X103.707 Y103.325 E.03945
G1 X102.876 Y103.635 E.03122
G1 X102.014 Y103.828 E.03107
G1 X101.134 Y103.902 E.03107
G1 X88.583 Y103.904 E.44174
G1 X87.368 Y103.788 E.04294
G1 X86.323 Y103.495 E.0382
G1 X16.875 Y73.278 E2.66546
G1 X15.656 Y72.555 E.04991
G1 X14.759 Y71.704 E.0435
G1 X14.058 Y70.686 E.0435
G1 X13.585 Y69.544 E.0435
G1 X13.391 Y68.632 E.03281
G1 X13.339 Y67.863 E.02714
G1 X13.339 Y13.863 E1.90047
G1 X13.44 Y12.783 E.03816
G1 X13.792 Y11.598 E.0435
G1 X14.353 Y10.565 E.04139
G1 X14.753 Y10.784 F21000
G1 F3000
G1 X14.765 Y10.761 E.00089
G1 X15.286 Y10.118 E.02913
G1 X15.943 Y9.526 E.03112
G1 X16.917 Y8.933 E.04014
G1 X17.993 Y8.555 E.04014
G1 X19.124 Y8.409 E.04014
G1 X73.381 Y8.409 E1.90952
G1 X74.512 Y8.555 E.04014
G1 X75.354 Y8.828 E.03112
G1 X76.354 Y9.375 E.04014
G1 X77.22 Y10.118 E.04014
G1 X105.485 Y40.814 E1.46855
G1 X106.334 Y42.015 E.05177
G1 X106.801 Y43.153 E.04328
G1 X106.979 Y43.954 E.02888
G1 X107.048 Y44.856 E.03183
G1 X107.038 Y97.76 E1.86192
G1 X106.904 Y98.739 E.03477
G1 X106.671 Y99.526 E.02888
G1 X106.334 Y100.274 E.02888
G1 X105.751 Y101.162 E.0374
G1 X105.077 Y101.884 E.03477
G1 X104.433 Y102.393 E.02888
G1 X103.51 Y102.913 E.03728
G1 X102.737 Y103.2 E.029
G1 X101.936 Y103.378 E.02888
G1 X101.119 Y103.445 E.02888
G1 X88.583 Y103.447 E.44119
G1 X87.445 Y103.337 E.04022
G1 X86.49 Y103.07 E.03489
G1 X17.058 Y72.859 E2.6649
G1 X15.943 Y72.2 E.04558
G1 X15.114 Y71.417 E.04014
G1 X14.465 Y70.478 E.04014
G1 X14.026 Y69.426 E.04014
G1 X13.842 Y68.561 E.03113
G1 X13.796 Y67.863 E.02462
G1 X13.796 Y13.863 E1.90047
G1 X13.892 Y12.855 E.03564
G1 X14.218 Y11.762 E.04014
G1 X14.724 Y10.836 E.03713
; printing object 2020_L_Bracket.stl id:0 copy 0
EXCLUDE_OBJECT_START NAME=2020_L_Bracket.stl_id_0_copy_0
G1 E-.5
G1 Z.4 F21000
G1 X34.576 Y29.379
G1 Z.2
G1 E.5 F1800
;TYPE:Inner wall
;WIDTH:0.499999
G1 F3000
G1 X34.309 Y29.73 E.0155
G1 X34.105 Y30.227 E.0189
G1 X34.032 Y30.784 E.0198
G1 X34.032 Y67.749 E1.30092
G1 X33.953 Y68.175 E.01525
G1 X33.766 Y68.433 E.01122
G1 X33.563 Y68.56 E.00842
G1 X33.195 Y68.642 E.01328
G1 X19.416 Y68.642 E.48491
G1 X19.018 Y68.589 E.01412
G1 X18.742 Y68.429 E.01125
G1 X18.556 Y68.174 E.01111
G1 X18.474 Y67.805 E.0133
G1 X18.474 Y13.977 E1.8944
G1 X18.552 Y13.551 E.01525
G1 X18.74 Y13.293 E.01122
G1 X18.943 Y13.166 E.00842
G1 X19.311 Y13.084 E.01328
G1 X73.139 Y13.084 E1.8944
G1 X73.565 Y13.162 E.01525
G1 X73.823 Y13.35 E.01122
G1 X73.982 Y13.626 E.01122
G1 X74.032 Y13.942 E.01125
G1 X74.032 Y27.699 E.48418
G1 X73.979 Y28.097 E.01412
G1 X73.819 Y28.374 E.01125
G1 X73.563 Y28.56 E.01111
G1 X73.195 Y28.642 E.0133
G1 X36.282 Y28.642 E1.2991
G1 X35.982 Y28.65 E.01056
G1 X35.457 Y28.765 E.0189
G1 X35.009 Y28.986 E.01758
G1 X34.659 Y29.269 E.01584
G1 X34.612 Y29.331 E.00275
G1 X34.923 Y29.677 F21000
G1 F3000
G1 X34.707 Y29.955 E.0124
G1 X34.547 Y30.346 E.01487
G1 X34.489 Y30.784 E.01558
G1 X34.489 Y67.773 E1.30176
G1 X34.413 Y68.24 E.01666
G1 X34.245 Y68.584 E.01346
G1 X33.97 Y68.85 E.01347
G1 X33.632 Y69.029 E.01347
G1 X33.207 Y69.099 E.01516
G1 X19.343 Y69.099 E.48791
M73 P1 R32
G1 X18.877 Y69.024 E.0166
G1 X18.531 Y68.854 E.01357
G1 X18.267 Y68.581 E.01338
G1 X18.086 Y68.242 E.01351
G1 X18.017 Y67.817 E.01516
G1 X18.017 Y13.953 E1.89566
G1 X18.093 Y13.486 E.01666
G1 X18.261 Y13.142 E.01347
G1 X18.536 Y12.876 E.01347
G1 X18.874 Y12.697 E.01347
G1 X19.299 Y12.627 E.01516
G1 X73.163 Y12.627 E1.89566
G1 X73.63 Y12.703 E.01666
G1 X73.974 Y12.871 E.01346
G1 X74.24 Y13.146 E.01347
G1 X74.419 Y13.484 E.01347
G1 X74.489 Y13.942 E.0163
G1 X74.489 Y27.773 E.48676
G1 X74.414 Y28.238 E.0166
G1 X74.244 Y28.585 E.01357
G1 X73.971 Y28.849 E.01338
G1 X73.632 Y29.029 E.01351
G1 X73.207 Y29.099 E.01516
G1 X36.282 Y29.099 E1.29952
G1 X35.797 Y29.142 E.01715
G1 X35.354 Y29.312 E.01668
G1 X35.008 Y29.567 E.01515
G1 X34.96 Y29.629 E.00275
G1 X35.297 Y29.948 F21000
G1 F3000
G1 X35.196 Y30.041 E.00481
G1 X35.015 Y30.378 E.01348
G1 X34.946 Y30.784 E.01451
G1 X34.946 Y67.699 E1.29918
G1 X34.936 Y67.893 E.00683
G1 X34.848 Y68.381 E.01745
G1 X34.617 Y68.854 E.01851
G1 X34.238 Y69.22 E.01852
G1 X33.774 Y69.466 E.01852
G1 X33.219 Y69.556 E.01979
G1 X19.416 Y69.556 E.48576
G1 X19.223 Y69.546 E.00683
G1 X18.736 Y69.458 E.01738
G1 X18.261 Y69.226 E.01862
G1 X17.896 Y68.848 E.0185
G1 X17.649 Y68.384 E.0185
G1 X17.56 Y67.829 E.01979
G1 X17.56 Y14.026 E1.89351
G1 X17.57 Y13.833 E.00683
G1 X17.658 Y13.345 E.01745
G1 X17.889 Y12.872 E.01851
G1 X18.267 Y12.506 E.01852
G1 X18.732 Y12.259 E.01852
G1 X19.287 Y12.17 E.01979
G1 X73.089 Y12.17 E1.89351
G1 X73.283 Y12.18 E.00683
G1 X73.771 Y12.268 E.01745
G1 X74.244 Y12.499 E.01851
G1 X74.609 Y12.877 E.01852
G1 X74.856 Y13.342 E.01851
G1 X74.946 Y13.942 E.02135
G1 X74.936 Y27.893 E.491
G1 X74.848 Y28.379 E.01738
G1 X74.616 Y28.855 E.01862
G1 X74.238 Y29.22 E.0185
G1 X73.774 Y29.466 E.0185
G1 X73.219 Y29.556 E.01979
G1 X36.282 Y29.556 E1.29994
G1 X35.899 Y29.587 E.01352
G1 X35.506 Y29.753 E.01501
G1 X35.341 Y29.907 E.00795
G1 X35.605 Y30.283 F21000
G1 F3000
G1 X35.465 Y30.482 E.00855
G1 X35.403 Y30.784 E.01087
G1 X35.403 Y67.699 E1.29918
G1 X35.352 Y68.309 E.02153
G1 X35.213 Y68.736 E.01578
G1 X34.989 Y69.124 E.01579
G1 X34.689 Y69.457 E.01579
G1 X34.326 Y69.721 E.01579
G1 X33.916 Y69.904 E.01579
G1 X33.231 Y70.013 E.02442
G1 X19.416 Y70.013 E.48618
G1 X18.806 Y69.962 E.02154
G1 X18.385 Y69.825 E.01559
G1 X17.991 Y69.598 E.01599
G1 X17.658 Y69.299 E.01577
G1 X17.395 Y68.936 E.01579
G1 X17.212 Y68.526 E.01579
G1 X17.103 Y67.841 E.02442
G1 X17.103 Y14.026 E1.89393
G1 X17.154 Y13.417 E.02153
G1 X17.293 Y12.99 E.01578
G1 X17.517 Y12.602 E.01579
G1 X17.817 Y12.268 E.01579
G1 X18.18 Y12.005 E.01579
G1 X18.59 Y11.822 E.01579
G1 X19.275 Y11.713 E.02442
G1 X73.089 Y11.713 E1.89393
M73 P1 R31
G1 X73.476 Y11.741 E.01363
G1 X73.912 Y11.834 E.01571
G1 X74.32 Y12.015 E.01569
G1 X74.681 Y12.277 E.0157
G1 X74.979 Y12.609 E.0157
G1 X75.202 Y12.995 E.0157
G1 X75.34 Y13.419 E.0157
G1 X75.403 Y13.942 E.01852
G1 X75.403 Y27.699 E.48418
G1 X75.352 Y28.309 E.02154
G1 X75.215 Y28.731 E.01559
G1 X74.988 Y29.125 E.01599
G1 X74.689 Y29.457 E.01577
G1 X74.326 Y29.721 E.01579
G1 X73.916 Y29.904 E.01579
G1 X73.231 Y30.013 E.02442
G1 X36.282 Y30.013 E1.30036
G1 X35.916 Y30.057 E.01297
G1 X35.653 Y30.215 E.01079
G1 X35.64 Y30.235 E.00082
G1 X35.975 Y30.6 F21000
;TYPE:Outer wall
;WIDTH:0.585841
G1 F3000
G1 X35.903 Y30.784 E.00828
G1 X35.903 Y67.847 E1.54933
G1 X35.843 Y68.414 E.02383
G1 X35.672 Y68.94 E.02314
G1 X35.395 Y69.42 E.02314
G1 X35.025 Y69.831 E.02315
G1 X34.577 Y70.157 E.02314
G1 X34.071 Y70.382 E.02315
G1 X33.8 Y70.439 E.01157
G1 X33.244 Y70.513 E.02348
G1 X19.269 Y70.513 E.58418
G1 X18.702 Y70.453 E.02383
G1 X18.181 Y70.285 E.02289
G1 X17.696 Y70.005 E.0234
G1 X17.285 Y69.635 E.02314
G1 X16.959 Y69.187 E.02315
G1 X16.734 Y68.681 E.02315
G1 X16.676 Y68.409 E.01164
G1 X16.603 Y67.854 E.02341
G1 X16.603 Y13.879 E2.25632
G1 X16.662 Y13.312 E.02383
G1 X16.833 Y12.786 E.02314
G1 X17.11 Y12.306 E.02315
G1 X17.481 Y11.895 E.02314
G1 X17.929 Y11.569 E.02315
G1 X18.434 Y11.344 E.02315
G1 X18.705 Y11.287 E.01157
G1 X19.262 Y11.213 E.02348
G1 X73.237 Y11.213 E2.25632
G1 X73.804 Y11.272 E.02383
G1 X74.33 Y11.444 E.02314
G1 X74.81 Y11.72 E.02315
G1 X75.221 Y12.091 E.02314
G1 X75.546 Y12.539 E.02315
G1 X75.772 Y13.045 E.02314
G1 X75.845 Y13.388 E.01468
G1 X75.903 Y13.942 E.02328
G1 X75.903 Y27.847 E.58127
G1 X75.843 Y28.414 E.02383
G1 X75.674 Y28.935 E.02289
G1 X75.395 Y29.42 E.0234
G1 X75.025 Y29.831 E.02314
G1 X74.577 Y30.157 E.02315
G1 X74.071 Y30.382 E.02315
G1 X73.799 Y30.44 E.01164
G1 X73.244 Y30.513 E.02341
G1 X36.282 Y30.513 E1.54512
G1 X36.15 Y30.514 E.00552
G1 X36.029 Y30.574 E.00564
G1 X35.936 Y30.594
G1 E-.5
G1 Z.4 F21000
G1 X36.029 Y30.177
G1 X60.045 Y18.296
G1 X60.376 Y18.165
G1 X60.715 Y18.078
G1 X61.074 Y18.031
G1 X61.431 Y18.031
G1 X61.778 Y18.075
G1 X65.095 Y18.813
G1 Z.2
G1 E.5 F1800
;TYPE:Inner wall
;WIDTH:0.499999
G1 F3000
G1 X65.198 Y19.001 E.00751
G1 X65.404 Y19.52 E.01966
G1 X65.537 Y20.04 E.0189
G1 X65.624 Y20.863 E.02912
G1 X65.537 Y21.686 E.02912
G1 X65.404 Y22.206 E.0189
G1 X65.198 Y22.725 E.01966
G1 X64.939 Y23.196 E.0189
G1 X64.611 Y23.648 E.01966
G1 X64.243 Y24.04 E.0189
G1 X63.813 Y24.396 E.01966
G1 X63.359 Y24.683 E.0189
G1 X62.854 Y24.921 E.01966
G1 X62.343 Y25.087 E.0189
G1 X61.794 Y25.192 E.01966
G1 X61.26 Y25.226 E.01886
G1 X60.707 Y25.191 E.01947
G1 X60.182 Y25.092 E.01881
G1 X59.645 Y24.919 E.01985
G1 X59.156 Y24.689 E.01904
G1 X58.684 Y24.389 E.01966
G1 X58.27 Y24.047 E.0189
G1 X57.888 Y23.64 E.01966
G1 X57.572 Y23.205 E.0189
G1 X57.303 Y22.716 E.01966
G1 X57.105 Y22.216 E.0189
G1 X56.966 Y21.675 E.01966
G1 X56.899 Y21.142 E.0189
G1 X56.899 Y20.584 E.01966
G1 X56.966 Y20.051 E.01891
G1 X57.105 Y19.51 E.01967
G1 X57.303 Y19.01 E.0189
G1 X57.572 Y18.521 E.01966
G1 X57.888 Y18.086 E.0189
G1 X58.27 Y17.679 E.01966
G1 X58.684 Y17.337 E.0189
G1 X59.156 Y17.037 E.01966
G1 X59.64 Y16.809 E.01886
G1 X60.166 Y16.638 E.01947
G1 X60.691 Y16.537 E.01881
G1 X61.254 Y16.5 E.01985
G1 X61.794 Y16.534 E.01904
G1 X62.343 Y16.639 E.01966
G1 X62.853 Y16.804 E.01886
G1 X63.353 Y17.039 E.01947
G1 X63.805 Y17.325 E.01881
G1 X64.24 Y17.684 E.01985
G1 X64.611 Y18.078 E.01904
G1 X64.939 Y18.53 E.01966
G1 X65.066 Y18.761 E.00928
G1 X64.862 Y19.392 F21000
G1 F3000
G1 X64.979 Y19.688 E.0112
G1 X65.084 Y20.097 E.01487
G1 X65.167 Y20.863 E.0271
G1 X65.084 Y21.628 E.0271
G1 X64.979 Y22.038 E.01487
G1 X64.773 Y22.557 E.01966
G1 X64.57 Y22.927 E.01487
G1 X64.241 Y23.379 E.01966
G1 X63.952 Y23.687 E.01487
G1 X63.521 Y24.043 E.01966
G1 X63.165 Y24.27 E.01487
G1 X62.659 Y24.508 E.01966
G1 X62.257 Y24.638 E.01487
G1 X61.709 Y24.743 E.01966
G1 X61.288 Y24.77 E.01483
G1 X60.736 Y24.735 E.01947
G1 X60.323 Y24.657 E.0148
G1 X59.786 Y24.484 E.01985
G1 X59.401 Y24.303 E.01498
G1 X58.929 Y24.003 E.01966
G1 X58.603 Y23.734 E.01487
G1 X58.221 Y23.327 E.01966
G1 X57.973 Y22.985 E.01487
G1 X57.704 Y22.495 E.01966
G1 X57.548 Y22.103 E.01487
G1 X57.409 Y21.561 E.01966
G1 X57.356 Y21.142 E.01487
G1 X57.356 Y20.584 E.01966
G1 X57.409 Y20.165 E.01487
G1 X57.548 Y19.623 E.01967
G1 X57.704 Y19.23 E.01487
G1 X57.973 Y18.741 E.01966
G1 X58.221 Y18.399 E.01487
G1 X58.603 Y17.992 E.01966
G1 X58.929 Y17.723 E.01487
G1 X59.401 Y17.423 E.01966
G1 X59.782 Y17.244 E.01483
G1 X60.308 Y17.072 E.01947
G1 X60.721 Y16.993 E.0148
G1 X61.284 Y16.957 E.01985
G1 X61.709 Y16.983 E.01498
G1 X62.257 Y17.088 E.01966
G1 X62.658 Y17.218 E.01483
G1 X63.159 Y17.453 E.01947
G1 X63.514 Y17.678 E.0148
G1 X63.95 Y18.037 E.01985
G1 X64.241 Y18.347 E.01498
M73 P2 R31
G1 X64.57 Y18.799 E.01966
G1 X64.773 Y19.169 E.01487
G1 X64.84 Y19.337 E.00635
G1 X64.542 Y19.878 F21000
G1 F3000
G1 X64.63 Y20.155 E.01023
G1 X64.71 Y20.863 E.02508
G1 X64.63 Y21.571 E.02508
G1 X64.455 Y22.119 E.02023
G1 X64.2 Y22.659 E.02102
G1 X63.871 Y23.111 E.01966
G1 X63.661 Y23.335 E.01084
G1 X63.23 Y23.691 E.01966
G1 X62.465 Y24.094 E.03044
G1 X61.623 Y24.294 E.03044
G1 X61.316 Y24.313 E.01081
G1 X60.764 Y24.279 E.01947
G1 X59.926 Y24.049 E.03058
G1 X59.646 Y23.917 E.01092
G1 X59.174 Y23.617 E.01966
G1 X58.554 Y23.014 E.03044
G1 X58.373 Y22.765 E.01084
G1 X58.104 Y22.275 E.01966
G1 X57.991 Y21.989 E.01084
G1 X57.852 Y21.448 E.01966
G1 X57.813 Y20.862 E.02065
G1 X57.841 Y20.325 E.01893
