; HEADER_BLOCK_START
; generated by OrcaSlicer 1.6.2 on 2023-05-24 at 15:52:39
; total layer number: 100
; HEADER_BLOCK_END

; THUMBNAIL_BLOCK_START
; THUMBNAIL_BLOCK_END

; external perimeters extrusion width = 0.40mm
; perimeters extrusion width = 0.45mm
; infill extrusion width = 0.45mm
; solid infill extrusion width = 0.40mm
; top infill extrusion width = 0.40mm
; support material extrusion width = 0.40mm
; first layer extrusion width = 0.50mm

; external perimeters extrusion width = 0.40mm
; perimeters extrusion width = 0.45mm
; infill extrusion width = 0.45mm
; solid infill extrusion width = 0.40mm
; top infill extrusion width = 0.40mm
; support material extrusion width = 0.40mm
; first layer extrusion width = 0.50mm

; external perimeters extrusion width = 0.40mm
; perimeters extrusion width = 0.45mm
; infill extrusion width = 0.45mm
; solid infill extrusion width = 0.40mm
; top infill extrusion width = 0.40mm
; support material extrusion width = 0.40mm
; first layer extrusion width = 0.50mm

; external perimeters extrusion width = 0.40mm
; perimeters extrusion width = 0.45mm
; infill extrusion width = 0.45mm
; solid infill extrusion width = 0.40mm
; top infill extrusion width = 0.40mm
; support material extrusion width = 0.40mm
; first layer extrusion width = 0.50mm

; EXECUTABLE_BLOCK_START
EXCLUDE_OBJECT_DEFINE NAME=2020_angle.stl_id_0_copy_0 CENTER=75.8389,45 POLYGON=[[65.8389,35],[85.8389,35],[85.8389,55],[65.8389,55],[65.8389,35]]
EXCLUDE_OBJECT_DEFINE NAME=2020_angle.stl_id_1_copy_0 CENTER=45.8389,45 POLYGON=[[35.8389,35],[55.8389,35],[55.8389,55],[35.8389,55],[35.8389,35]]
EXCLUDE_OBJECT_DEFINE NAME=2020Corner.stl_id_2_copy_0 CENTER=69.6611,75 POLYGON=[[61.1611,65],[78.1611,65],[78.1611,85],[61.1611,85],[61.1611,65]]
EXCLUDE_OBJECT_DEFINE NAME=2020Corner.stl_id_3_copy_0 CENTER=42.6611,75 POLYGON=[[34.1611,65],[51.1611,65],[51.1611,85],[34.1611,85],[34.1611,65]]
M73 P0 R34
;TYPE:Custom
START_PRINT T_BED=110 T_EXTRUDER=260
G90
G21
M83 ; use relative distances for extrusion
; Filament gcode

    PRESSURE_ADVANCE_SELECT FILAMENT=ABS
M106 S0
;LAYER_CHANGE
;Z:0.2
;HEIGHT:0.2
;BEFORE_LAYER_CHANGE
;0.2
G92 E0

;AFTER_LAYER_CHANGE
;0.2
SET_VELOCITY_LIMIT ACCEL_TO_DECEL=500
M204 S1000
G1 E-.5 F3000
G1 Z.2 F21000
G1 X33.403 Y33.4
G1 E.5 F1800
;TYPE:Skirt
;WIDTH:0.5
G1 F3000
G1 X34.535 Y32.394 E.05327
G1 X35.839 Y32.086 E.04716
G1 X85.839 Y32.086 E1.75969
G1 X87.301 Y32.479 E.05327
G1 X88.368 Y33.552 E.05327
G1 X88.753 Y35 E.05272
G1 X88.753 Y51.853 E.59312
G1 X88.678 Y52.51 E.02329
G1 X81 Y85.658 E1.19746
G1 X80.287 Y86.993 E.05327
G1 X79.001 Y87.791 E.05327
G1 X78.161 Y87.914 E.02987
G1 X34.161 Y87.914 E1.54853
G1 X32.699 Y87.521 E.05327
G1 X31.632 Y86.448 E.05327
G1 X31.247 Y85 E.05272
G1 X31.252 Y64.837 E.7096
G1 X32.929 Y34.837 E1.05747
G1 X33.385 Y33.457 E.05116
G1 X33.83 Y33.615 F21000
G1 F3000
G1 X33.851 Y33.556 E.00223
G1 X34.951 Y32.709 E.04884
G1 X35.839 Y32.543 E.0318
G1 X85.839 Y32.543 E1.75969
G1 X87.17 Y32.935 E.04884
G1 X88.077 Y33.985 E.04884
G1 X88.296 Y35 E.03653
G1 X88.296 Y51.853 E.59312
G1 X88.233 Y52.407 E.01964
G1 X80.555 Y85.554 E1.19746
G1 X79.873 Y86.763 E.04884
G1 X78.161 Y87.457 E.065
G1 X34.161 Y87.457 E1.54853
G1 X32.83 Y87.065 E.04884
G1 X31.923 Y86.015 E.04884
G1 X31.704 Y85 E.03653
G1 X31.704 Y65 E.70388
G1 X33.386 Y34.863 E1.06229
G1 X33.81 Y33.672 E.04449
; printing object 2020_angle.stl id:0 copy 0
EXCLUDE_OBJECT_START NAME=2020_angle.stl_id_0_copy_0
G1 E-.5
G1 Z.4 F21000
G1 X74.377 Y38.836
G1 Z.2
G1 E.5 F1800
;TYPE:Outer wall
G1 F3000
G1 X75.075 Y38.548 E.02657
G1 X75.465 Y38.496 E.01386
G1 X75.839 Y38.447 E.01327
G1 X76.603 Y38.548 E.02713
G1 X77.315 Y38.843 E.02713
G1 X77.927 Y39.312 E.02713
G1 X78.396 Y39.924 E.02713
G1 X78.691 Y40.636 E.02713
G1 X78.792 Y41.4 E.02713
G1 X78.691 Y42.164 E.02713
G1 X78.396 Y42.877 E.02713
G1 X77.927 Y43.488 E.02713
G1 X77.315 Y43.957 E.02713
G1 X76.603 Y44.252 E.02713
G1 X75.839 Y44.353 E.02713
G1 X75.075 Y44.252 E.02713
G1 X74.362 Y43.957 E.02713
G1 X73.751 Y43.488 E.02713
G1 X73.281 Y42.877 E.02713
G1 X72.986 Y42.164 E.02713
G1 X72.886 Y41.4 E.02713
G1 X72.986 Y40.636 E.02713
G1 X73.281 Y39.924 E.02713
G1 X73.751 Y39.312 E.02713
G1 X74.327 Y38.869 E.02558
G1 X74.377 Y38.756
G1 E-.5
G1 Z.4 F21000
G1 X74.123 Y38.603
G1 X74.193 Y38.549
G1 X74.987 Y38.221
G1 X75.839 Y38.108
G1 X76.691 Y38.221
G1 X77.485 Y38.549
G1 X78.166 Y39.072
G1 X78.69 Y39.754
G1 X85.153 Y51.123
G1 X85.489 Y51.503
G1 Z.2
G1 E.5 F1800
G1 F3000
G1 X66.189 Y51.503 E.67924
G1 X66.189 Y35.35 E.56848
G1 X85.489 Y35.35 E.67924
G1 X85.489 Y51.443 E.56637
G1 X85.411 Y51.484
G1 E-.5
G1 Z.4 F21000
G1 X84.425 Y35.487
G1 Z.2
G1 E.5 F1800
;TYPE:Bottom surface
;WIDTH:0.501174
G1 F6300
G1 X85.146 Y36.208 E.03597
G1 X85.146 Y36.856 E.02287
G1 X83.983 Y35.693 E.05804
G1 X83.335 Y35.693 E.02287
G1 X85.146 Y37.504 E.09038
G1 X85.146 Y38.152 E.02287
G1 X82.687 Y35.693 E.12272
G1 X82.039 Y35.693 E.02287
G1 X85.146 Y38.8 E.15506
G1 X85.146 Y39.448 E.02287
G1 X81.391 Y35.693 E.18739
G1 X80.743 Y35.693 E.02287
G1 X85.146 Y40.096 E.21973
G1 X85.146 Y40.744 E.02287
G1 X80.094 Y35.693 E.25207
G1 X79.446 Y35.693 E.02287
G1 X85.146 Y41.392 E.28441
G1 X85.146 Y42.041 E.02287
G1 X78.798 Y35.693 E.31675
G1 X78.15 Y35.693 E.02287
G1 X85.146 Y42.689 E.34909
G1 X85.146 Y43.337 E.02287
G1 X77.502 Y35.693 E.38142
G1 X76.854 Y35.693 E.02287
G1 X85.146 Y43.985 E.41376
G1 X85.146 Y44.633 E.02287
G1 X76.206 Y35.693 E.4461
G1 X75.558 Y35.693 E.02287
G1 X85.146 Y45.281 E.47844
G1 X85.146 Y45.929 E.02287
G1 X74.91 Y35.693 E.51078
G1 X74.262 Y35.693 E.02287
G1 X76.846 Y38.277 E.12897
G1 X77.488 Y38.543 E.02451
G1 X78.171 Y39.067 E.03039
G1 X78.696 Y39.751 E.03039
G1 X78.962 Y40.393 E.02451
G1 X85.146 Y46.577 E.3086
G1 X85.146 Y47.225 E.02287
G1 X79.11 Y41.189 E.3012
G1 X79.138 Y41.4 E.00752
G1 X79.084 Y41.811 E.01461
G1 X85.146 Y47.873 E.30251
G1 X85.146 Y48.521 E.02287
G1 X78.982 Y42.357 E.30757
G1 X78.792 Y42.816 E.0175
G1 X85.146 Y49.169 E.31704
G1 X85.146 Y49.817 E.02287
G1 X78.558 Y43.229 E.32875
G1 X78.276 Y43.596 E.01631
G1 X85.146 Y50.465 E.34279
G1 X85.146 Y51.113 E.02287
G1 X77.942 Y43.909 E.3595
G1 X77.575 Y44.19 E.01631
G1 X84.545 Y51.16 E.34778
G1 X83.896 Y51.16 E.02287
G1 X77.138 Y44.402 E.33723
G1 X76.677 Y44.588 E.01756
G1 X83.248 Y51.16 E.32792
G1 X82.6 Y51.16 E.02287
G1 X76.104 Y44.664 E.32415
G1 X75.839 Y44.699 E.00944
G1 X75.438 Y44.646 E.01426
G1 X82.158 Y51.366 E.33531
G1 E-.5 F3000
G1 Z.4 F21000
G1 X82.049 Y51.167
G1 X85.153 Y35.686
G1 X73.517 Y35.686
G1 X73.408 Y35.487
G1 Z.2
G1 E.5 F1800
G1 F6300
G1 X76.05 Y38.129 E.13183
G1 X75.839 Y38.101 E.00751
G1 X75.428 Y38.155 E.01461
G1 X72.966 Y35.693 E.12288
G1 X72.318 Y35.693 E.02287
G1 X74.881 Y38.257 E.12793
G1 X74.423 Y38.446 E.0175
G1 X71.67 Y35.693 E.1374
G1 X71.022 Y35.693 E.02287
G1 X74.01 Y38.681 E.14911
G1 X73.643 Y38.962 E.01631
G1 X70.373 Y35.693 E.16315
G1 X69.725 Y35.693 E.02287
G1 X73.33 Y39.297 E.17986
G1 X73.049 Y39.664 E.01631
G1 X69.077 Y35.693 E.19816
G1 X68.429 Y35.693 E.02287
G1 X72.837 Y40.101 E.21995
G1 X72.65 Y40.562 E.01756
G1 X67.781 Y35.693 E.24297
M73 P1 R34
G1 X67.133 Y35.693 E.02287
G1 X72.575 Y41.135 E.27155
G1 X72.54 Y41.4 E.00944
G1 X72.593 Y41.801 E.01426
G1 X66.532 Y35.739 E.30245
G1 X66.532 Y36.387 E.02287
G1 X72.832 Y42.688 E.31441
G1 X72.982 Y43.049 E.01379
G1 X73.506 Y43.733 E.03038
G1 X74.189 Y44.257 E.03039
G1 X74.551 Y44.406 E.01379
G1 X81.304 Y51.16 E.337
G1 X80.656 Y51.16 E.02287
G1 X66.532 Y37.036 E.7048
G1 X66.532 Y37.684 E.02287
G1 X80.008 Y51.16 E.67246
G1 X79.36 Y51.16 E.02287
G1 X66.532 Y38.332 E.64013
G1 X66.532 Y38.98 E.02287
G1 X78.712 Y51.16 E.60779
G1 X78.064 Y51.16 E.02287
G1 X66.532 Y39.628 E.57545
G1 X66.532 Y40.276 E.02287
G1 X77.416 Y51.16 E.54311
G1 X76.768 Y51.16 E.02287
G1 X66.532 Y40.924 E.51077
G1 X66.532 Y41.572 E.02287
G1 X76.12 Y51.16 E.47843
G1 X75.472 Y51.16 E.02287
G1 X66.532 Y42.22 E.4461
G1 X66.532 Y42.868 E.02287
G1 X74.823 Y51.16 E.41376
G1 X74.175 Y51.16 E.02287
G1 X66.532 Y43.516 E.38142
G1 X66.532 Y44.164 E.02287
G1 X73.527 Y51.16 E.34908
G1 X72.879 Y51.16 E.02287
G1 X66.532 Y44.812 E.31674
G1 X66.532 Y45.46 E.02287
G1 X72.231 Y51.16 E.2844
G1 X71.583 Y51.16 E.02287
G1 X66.532 Y46.109 E.25207
G1 X66.532 Y46.757 E.02287
G1 X70.935 Y51.16 E.21973
G1 X70.287 Y51.16 E.02287
G1 X66.532 Y47.405 E.18739
G1 X66.532 Y48.053 E.02287
G1 X69.639 Y51.16 E.15505
G1 X68.991 Y51.16 E.02287
G1 X66.532 Y48.701 E.12271
G1 X66.532 Y49.349 E.02287
G1 X68.343 Y51.16 E.09037
G1 X67.695 Y51.16 E.02287
G1 X66.532 Y49.997 E.05804
G1 X66.532 Y50.645 E.02287
G1 X67.252 Y51.366 E.03596
; stop printing object 2020_angle.stl id:0 copy 0
EXCLUDE_OBJECT_END NAME=2020_angle.stl_id_0_copy_0
; printing object 2020_angle.stl id:1 copy 0
EXCLUDE_OBJECT_START NAME=2020_angle.stl_id_1_copy_0
G1 E-.5 F3000
G1 Z.4 F21000
G1 X47.254 Y38.949
G1 X46.571 Y38.666
G1 X45.839 Y38.569
G1 X45.106 Y38.666
G1 X44.377 Y38.836
G1 Z.2
G1 E.5 F1800
;TYPE:Outer wall
;WIDTH:0.5
G1 F3000
G1 X45.075 Y38.548 E.02657
G1 X45.465 Y38.496 E.01386
G1 X45.839 Y38.447 E.01327
G1 X46.603 Y38.548 E.02713
G1 X47.315 Y38.843 E.02713
G1 X47.927 Y39.312 E.02713
G1 X48.396 Y39.924 E.02713
G1 X48.691 Y40.636 E.02713
G1 X48.792 Y41.4 E.02713
G1 X48.691 Y42.164 E.02713
G1 X48.396 Y42.877 E.02713
G1 X47.927 Y43.488 E.02713
G1 X47.315 Y43.957 E.02713
G1 X46.603 Y44.252 E.02713
G1 X45.839 Y44.353 E.02713
G1 X45.075 Y44.252 E.02713
G1 X44.362 Y43.957 E.02713
G1 X43.751 Y43.488 E.02713
G1 X43.281 Y42.877 E.02713
G1 X42.986 Y42.164 E.02713
G1 X42.886 Y41.4 E.02713
G1 X42.986 Y40.636 E.02713
G1 X43.281 Y39.924 E.02713
G1 X43.751 Y39.312 E.02713
G1 X44.327 Y38.869 E.02558
G1 X44.377 Y38.756
G1 E-.5
G1 Z.4 F21000
G1 X44.123 Y38.603
G1 X44.193 Y38.549
G1 X44.987 Y38.221
G1 X45.839 Y38.108
G1 X46.691 Y38.221
G1 X47.485 Y38.549
G1 X48.166 Y39.072
G1 X48.69 Y39.754
G1 X55.153 Y51.123
G1 X55.489 Y51.503
G1 Z.2
G1 E.5 F1800
G1 F3000
G1 X36.189 Y51.503 E.67924
G1 X36.189 Y35.35 E.56848
G1 X55.489 Y35.35 E.67924
G1 X55.489 Y51.443 E.56637
G1 X55.411 Y51.484
G1 E-.5
G1 Z.4 F21000
G1 X54.425 Y35.487
G1 Z.2
G1 E.5 F1800
;TYPE:Bottom surface
;WIDTH:0.501174
G1 F6300
G1 X55.146 Y36.208 E.03597
G1 X55.146 Y36.856 E.02287
G1 X53.983 Y35.693 E.05804
G1 X53.335 Y35.693 E.02287
G1 X55.146 Y37.504 E.09038
G1 X55.146 Y38.152 E.02287
G1 X52.687 Y35.693 E.12272
G1 X52.039 Y35.693 E.02287
G1 X55.146 Y38.8 E.15506
G1 X55.146 Y39.448 E.02287
G1 X51.391 Y35.693 E.18739
G1 X50.743 Y35.693 E.02287
G1 X55.146 Y40.096 E.21973
G1 X55.146 Y40.744 E.02287
G1 X50.094 Y35.693 E.25207
G1 X49.446 Y35.693 E.02287
G1 X55.146 Y41.392 E.28441
G1 X55.146 Y42.041 E.02287
G1 X48.798 Y35.693 E.31675
G1 X48.15 Y35.693 E.02287
G1 X55.146 Y42.689 E.34909
G1 X55.146 Y43.337 E.02287
G1 X47.502 Y35.693 E.38142
G1 X46.854 Y35.693 E.02287
G1 X55.146 Y43.985 E.41376
G1 X55.146 Y44.633 E.02287
G1 X46.206 Y35.693 E.4461
G1 X45.558 Y35.693 E.02287
G1 X55.146 Y45.281 E.47844
G1 X55.146 Y45.929 E.02287
G1 X44.91 Y35.693 E.51078
G1 X44.262 Y35.693 E.02287
G1 X46.846 Y38.277 E.12897
G1 X47.488 Y38.543 E.02451
G1 X48.171 Y39.067 E.03039
G1 X48.696 Y39.751 E.03039
G1 X48.962 Y40.393 E.02451
G1 X55.146 Y46.577 E.3086
G1 X55.146 Y47.225 E.02287
G1 X49.11 Y41.189 E.3012
G1 X49.138 Y41.4 E.00752
G1 X49.084 Y41.811 E.01461
G1 X55.146 Y47.873 E.30251
G1 X55.146 Y48.521 E.02287
G1 X48.982 Y42.357 E.30757
G1 X48.792 Y42.816 E.0175
G1 X55.146 Y49.169 E.31704
G1 X55.146 Y49.817 E.02287
G1 X48.558 Y43.229 E.32875
G1 X48.276 Y43.596 E.01631
G1 X55.146 Y50.465 E.34279
G1 X55.146 Y51.113 E.02287
G1 X47.942 Y43.909 E.3595
G1 X47.575 Y44.19 E.01631
G1 X54.545 Y51.16 E.34778
G1 X53.896 Y51.16 E.02287
G1 X47.138 Y44.402 E.33723
G1 X46.677 Y44.588 E.01756
G1 X53.248 Y51.16 E.32792
G1 X52.6 Y51.16 E.02287
G1 X46.104 Y44.664 E.32415
G1 X45.839 Y44.699 E.00944
G1 X45.438 Y44.646 E.01426
G1 X52.158 Y51.366 E.33531
G1 E-.5 F3000
G1 Z.4 F21000
G1 X52.049 Y51.167
G1 X55.153 Y35.686
G1 X43.517 Y35.686
G1 X43.408 Y35.487
G1 Z.2
G1 E.5 F1800
G1 F6300
G1 X46.05 Y38.129 E.13183
G1 X45.839 Y38.101 E.00751
G1 X45.428 Y38.155 E.01461
G1 X42.966 Y35.693 E.12288
G1 X42.318 Y35.693 E.02287
G1 X44.881 Y38.257 E.12793
G1 X44.423 Y38.446 E.0175
G1 X41.67 Y35.693 E.1374
G1 X41.022 Y35.693 E.02287
G1 X44.01 Y38.681 E.14911
G1 X43.643 Y38.962 E.01631
G1 X40.373 Y35.693 E.16315
G1 X39.725 Y35.693 E.02287
G1 X43.33 Y39.297 E.17986
G1 X43.049 Y39.664 E.01631
G1 X39.077 Y35.693 E.19816
G1 X38.429 Y35.693 E.02287
G1 X42.837 Y40.101 E.21995
G1 X42.65 Y40.562 E.01756
G1 X37.781 Y35.693 E.24297
G1 X37.133 Y35.693 E.02287
G1 X42.575 Y41.135 E.27155
G1 X42.54 Y41.4 E.00944
G1 X42.593 Y41.801 E.01426
G1 X36.532 Y35.739 E.30245
G1 X36.532 Y36.387 E.02287
G1 X42.832 Y42.688 E.31441
G1 X42.982 Y43.049 E.01379
G1 X43.506 Y43.733 E.03038
G1 X44.189 Y44.257 E.03039
G1 X44.551 Y44.406 E.01379
G1 X51.304 Y51.16 E.337
G1 X50.656 Y51.16 E.02287
G1 X36.532 Y37.036 E.7048
G1 X36.532 Y37.684 E.02287
G1 X50.008 Y51.16 E.67246
G1 X49.36 Y51.16 E.02287
G1 X36.532 Y38.332 E.64013
G1 X36.532 Y38.98 E.02287
G1 X48.712 Y51.16 E.60779
G1 X48.064 Y51.16 E.02287
G1 X36.532 Y39.628 E.57545
G1 X36.532 Y40.276 E.02287
G1 X47.416 Y51.16 E.54311
G1 X46.768 Y51.16 E.02287
G1 X36.532 Y40.924 E.51077
G1 X36.532 Y41.572 E.02287
G1 X46.12 Y51.16 E.47843
G1 X45.472 Y51.16 E.02287
G1 X36.532 Y42.22 E.4461
G1 X36.532 Y42.868 E.02287
G1 X44.823 Y51.16 E.41376
G1 X44.175 Y51.16 E.02287
G1 X36.532 Y43.516 E.38142
M73 P2 R34
G1 X36.532 Y44.164 E.02287
G1 X43.527 Y51.16 E.34908
G1 X42.879 Y51.16 E.02287
G1 X36.532 Y44.812 E.31674
G1 X36.532 Y45.46 E.02287
G1 X42.231 Y51.16 E.2844
G1 X41.583 Y51.16 E.02287
G1 X36.532 Y46.109 E.25207
G1 X36.532 Y46.757 E.02287
G1 X40.935 Y51.16 E.21973
G1 X40.287 Y51.16 E.02287
G1 X36.532 Y47.405 E.18739
M73 P2 R33
G1 X36.532 Y48.053 E.02287
G1 X39.639 Y51.16 E.15505
G1 X38.991 Y51.16 E.02287
G1 X36.532 Y48.701 E.12271
G1 X36.532 Y49.349 E.02287
G1 X38.343 Y51.16 E.09037
G1 X37.695 Y51.16 E.02287
G1 X36.532 Y49.997 E.05804
G1 X36.532 Y50.645 E.02287
G1 X37.252 Y51.366 E.03596
; stop printing object 2020_angle.stl id:1 copy 0
EXCLUDE_OBJECT_END NAME=2020_angle.stl_id_1_copy_0
; printing object 2020Corner.stl id:3 copy 0
EXCLUDE_OBJECT_START NAME=2020Corner.stl_id_3_copy_0
G1 E-.5 F3000
G1 Z.4 F21000
G1 X43.173 Y71.673
G1 Z.2
G1 E.5 F1800
;TYPE:Outer wall
;WIDTH:0.5
G1 F3000
G1 X43.347 Y71.699 E.00621
G1 X43.683 Y71.799 E.01233
G1 X44.007 Y71.947 E.01253
G1 X44.316 Y72.139 E.0128
G1 X44.607 Y72.372 E.01313
G1 X44.878 Y72.644 E.01351
G1 X45.128 Y72.951 E.01391
G1 X45.354 Y73.289 E.01433
G1 X45.554 Y73.657 E.01474
G1 X45.729 Y74.049 E.01512
G1 X45.877 Y74.463 E.01547
G1 X45.996 Y74.895 E.01578
G1 X46.086 Y75.342 E.01602
G1 X46.147 Y75.8 E.01627
G1 X46.181 Y76.491 E.02434
G1 X46.166 Y76.957 E.01641
G1 X46.12 Y77.417 E.01627
G1 X46.045 Y77.869 E.01612
G1 X45.94 Y78.308 E.01591
G1 X45.807 Y78.732 E.01563
G1 X45.645 Y79.135 E.0153
G1 X45.457 Y79.516 E.01493
G1 X45.244 Y79.869 E.01453
G1 X45.006 Y80.192 E.01412
G1 X44.746 Y80.482 E.01371
G1 X44.464 Y80.735 E.01332
G1 X44.164 Y80.948 E.01296
G1 X43.847 Y81.118 E.01266
G1 X43.516 Y81.242 E.01242
G1 X43.176 Y81.318 E.01226
G1 X42.831 Y81.344 E.01218
G1 X42.486 Y81.318 E.01218
G1 X42.146 Y81.242 E.01226
G1 X41.815 Y81.118 E.01242
G1 X41.498 Y80.948 E.01266
G1 X41.198 Y80.735 E.01296
G1 X40.916 Y80.482 E.01332
G1 X40.656 Y80.192 E.01371
G1 X40.418 Y79.869 E.01412
G1 X40.205 Y79.516 E.01453
G1 X40.017 Y79.136 E.01493
G1 X39.855 Y78.732 E.0153
G1 X39.722 Y78.308 E.01563
G1 X39.617 Y77.869 E.01591
G1 X39.542 Y77.417 E.01612
G1 X39.496 Y76.957 E.01627
G1 X39.481 Y76.493 E.01634
G1 X39.496 Y76.029 E.01634
G1 X39.542 Y75.569 E.01627
G1 X39.617 Y75.117 E.01612
G1 X39.722 Y74.677 E.01591
G1 X39.855 Y74.254 E.01563
G1 X40.017 Y73.85 E.0153
G1 X40.205 Y73.47 E.01493
G1 X40.418 Y73.116 E.01453
G1 X40.656 Y72.793 E.01412
G1 X40.916 Y72.503 E.01371
G1 X41.198 Y72.251 E.01332
G1 X41.498 Y72.037 E.01296
G1 X41.815 Y71.867 E.01266
G1 X42.15 Y71.741 E.01259
G1 X42.658 Y71.648 E.01818
G1 X43.004 Y71.648 E.01217
G1 X43.113 Y71.665 E.00389
