; HEADER_BLOCK_START
; generated by OrcaSlicer 1.7.0-beta on 2023-09-23 at 09:20:14
; total layer number: 30
; HEADER_BLOCK_END

; THUMBNAIL_BLOCK_START
; THUMBNAIL_BLOCK_END

; external perimeters extrusion width = 0.40mm
; perimeters extrusion width = 0.46mm
; infill extrusion width = 0.64mm
; solid infill extrusion width = 0.56mm
; top infill extrusion width = 0.40mm
; first layer extrusion width = 0.50mm

; external perimeters extrusion width = 0.40mm
; perimeters extrusion width = 0.46mm
; infill extrusion width = 0.64mm
; solid infill extrusion width = 0.56mm
; top infill extrusion width = 0.40mm
; first layer extrusion width = 0.50mm

; external perimeters extrusion width = 0.40mm
; perimeters extrusion width = 0.46mm
; infill extrusion width = 0.64mm
; solid infill extrusion width = 0.56mm
; top infill extrusion width = 0.40mm
; first layer extrusion width = 0.50mm

; external perimeters extrusion width = 0.40mm
; perimeters extrusion width = 0.46mm
; infill extrusion width = 0.64mm
; solid infill extrusion width = 0.56mm
; top infill extrusion width = 0.40mm
; first layer extrusion width = 0.50mm

; external perimeters extrusion width = 0.40mm
; perimeters extrusion width = 0.46mm
; infill extrusion width = 0.64mm
; solid infill extrusion width = 0.56mm
; top infill extrusion width = 0.40mm
; first layer extrusion width = 0.50mm

; external perimeters extrusion width = 0.40mm
; perimeters extrusion width = 0.46mm
; infill extrusion width = 0.64mm
; solid infill extrusion width = 0.56mm
; top infill extrusion width = 0.40mm
; first layer extrusion width = 0.50mm

; external perimeters extrusion width = 0.40mm
; perimeters extrusion width = 0.46mm
; infill extrusion width = 0.64mm
; solid infill extrusion width = 0.56mm
; top infill extrusion width = 0.40mm
; first layer extrusion width = 0.50mm

; external perimeters extrusion width = 0.40mm
; perimeters extrusion width = 0.46mm
; infill extrusion width = 0.64mm
; solid infill extrusion width = 0.56mm
; top infill extrusion width = 0.40mm
; first layer extrusion width = 0.50mm

; external perimeters extrusion width = 0.40mm
; perimeters extrusion width = 0.46mm
; infill extrusion width = 0.64mm
; solid infill extrusion width = 0.56mm
; top infill extrusion width = 0.40mm
; first layer extrusion width = 0.50mm

; external perimeters extrusion width = 0.40mm
; perimeters extrusion width = 0.46mm
; infill extrusion width = 0.64mm
; solid infill extrusion width = 0.56mm
; top infill extrusion width = 0.40mm
; first layer extrusion width = 0.50mm

; external perimeters extrusion width = 0.40mm
; perimeters extrusion width = 0.46mm
; infill extrusion width = 0.64mm
; solid infill extrusion width = 0.56mm
; top infill extrusion width = 0.40mm
; first layer extrusion width = 0.50mm

; external perimeters extrusion width = 0.40mm
; perimeters extrusion width = 0.46mm
; infill extrusion width = 0.64mm
; solid infill extrusion width = 0.56mm
; top infill extrusion width = 0.40mm
; first layer extrusion width = 0.50mm

; EXECUTABLE_BLOCK_START
EXCLUDE_OBJECT_DEFINE NAME=2020_cable_clip_6mm_S.stl_id_0_copy_0 CENTER=100.5,91.5976 POLYGON=[[92.75,79.0976],[108.25,79.0976],[108.25,104.098],[92.75,104.098],[92.75,79.0976]]
EXCLUDE_OBJECT_DEFINE NAME=2020_cable_clip_6mm_S.stl_id_1_copy_0 CENTER=80,91.5976 POLYGON=[[72.25,79.0976],[87.75,79.0976],[87.75,104.098],[72.25,104.098],[72.25,79.0976]]
EXCLUDE_OBJECT_DEFINE NAME=2020_cable_clip_6mm_S.stl_id_2_copy_0 CENTER=100.5,61.5976 POLYGON=[[92.75,49.0976],[108.25,49.0976],[108.25,74.0976],[92.75,74.0976],[92.75,49.0976]]
EXCLUDE_OBJECT_DEFINE NAME=2020_cable_clip_6mm_S.stl_id_3_copy_0 CENTER=80,61.5976 POLYGON=[[72.25,49.0976],[87.75,49.0976],[87.75,74.0976],[72.25,74.0976],[72.25,49.0976]]
EXCLUDE_OBJECT_DEFINE NAME=2020_cable_clip_6mm_S.stl_id_4_copy_0 CENTER=59.5,64.4487 POLYGON=[[51.75,51.9487],[67.25,51.9487],[67.25,76.9487],[51.75,76.9487],[51.75,51.9487]]
EXCLUDE_OBJECT_DEFINE NAME=2020_cable_clip_6mm_S.stl_id_5_copy_0 CENTER=80,31.5976 POLYGON=[[72.25,19.0976],[87.75,19.0976],[87.75,44.0976],[72.25,44.0976],[72.25,19.0976]]
EXCLUDE_OBJECT_DEFINE NAME=2020_cable_clip_5mm_S.stl_id_6_copy_0 CENTER=59.75,34.4487 POLYGON=[[52.25,21.9487],[67.25,21.9487],[67.25,46.9487],[52.25,46.9487],[52.25,21.9487]]
EXCLUDE_OBJECT_DEFINE NAME=2020_cable_clip_5mm_S.stl_id_7_copy_0 CENTER=100.25,31.5976 POLYGON=[[92.75,19.0976],[107.75,19.0976],[107.75,44.0976],[92.75,44.0976],[92.75,19.0976]]
EXCLUDE_OBJECT_DEFINE NAME=2020_cable_clip_5mm_S.stl_id_8_copy_0 CENTER=39.75,36.8776 POLYGON=[[32.25,24.3776],[47.25,24.3776],[47.25,49.3776],[32.25,49.3776],[32.25,24.3776]]
EXCLUDE_OBJECT_DEFINE NAME=2020_cable_clip_5mm_S.stl_id_9_copy_0 CENTER=39.25,66.8776 POLYGON=[[31.75,54.3776],[46.75,54.3776],[46.75,79.3776],[31.75,79.3776],[31.75,54.3776]]
EXCLUDE_OBJECT_DEFINE NAME=2020_cable_clip_5mm_S.stl_id_10_copy_0 CENTER=19.25,58.4024 POLYGON=[[11.75,45.9024],[26.75,45.9024],[26.75,70.9024],[11.75,70.9024],[11.75,45.9024]]
EXCLUDE_OBJECT_DEFINE NAME=2020_cable_clip_5mm_S.stl_id_11_copy_0 CENTER=19.75,28.4024 POLYGON=[[12.25,15.9024],[27.25,15.9024],[27.25,40.9024],[12.25,40.9024],[12.25,15.9024]]
M73 P0 R36
;TYPE:Custom
START_PRINT T_BED=105 T_EXTRUDER=260
G90
G21
M83 ; use relative distances for extrusion
; Filament gcode
M106 S0
;LAYER_CHANGE
;Z:0.2
;HEIGHT:0.2
;BEFORE_LAYER_CHANGE
;0.2
G92 E0

;AFTER_LAYER_CHANGE
;0.2
;_SET_FAN_SPEED_CHANGING_LAYER
SET_VELOCITY_LIMIT ACCEL=1000 ACCEL_TO_DECEL=500
SET_VELOCITY_LIMIT SQUARE_CORNER_VELOCITY=9
G1 E-.8 F1800
G1 X10.845 Y13.349 F21000
G1 Z.2
G1 E.8 F1800
;TYPE:Skirt
;WIDTH:0.5
G1 F3000
G1 X12.25 Y12.988 E.05129
G1 X27.366 Y12.991 E.53427
G1 X107.866 Y16.186 E2.84758
G1 X109.311 Y16.637 E.0535
G1 X110.335 Y17.751 E.0535
G1 X110.664 Y19.049 E.04732
G1 X111.164 Y49.049 E1.06052
G1 X111.164 Y104.098 E1.94574
G1 X110.771 Y105.559 E.0535
G1 X109.698 Y106.627 E.0535
G1 X108.25 Y107.012 E.05295
G1 X72.25 Y107.012 E1.27245
G1 X70.848 Y106.652 E.05115
G1 X10.348 Y73.457 E2.43917
G1 X9.256 Y72.409 E.0535
G1 X8.836 Y70.902 E.0553
G1 X8.836 Y45.854 E.88536
G1 X9.336 Y15.854 E1.06052
G1 X9.754 Y14.399 E.0535
G1 X10.816 Y13.377 E.05209
G1 X11.137 Y13.762 F21000
G1 F3000
G1 X11.273 Y13.648 E.00627
G1 X12.25 Y13.445 E.03527
G1 X27.347 Y13.447 E.53363
G1 X107.847 Y16.642 E2.84758
G1 X109.162 Y17.087 E.04905
G1 X110.026 Y18.173 E.04905
G1 X110.207 Y19.057 E.03189
G1 X110.707 Y49.057 E1.06052
G1 X110.707 Y104.098 E1.94547
G1 X110.315 Y105.429 E.04905
G1 X109.265 Y106.335 E.04905
G1 X108.25 Y106.555 E.03669
G1 X72.25 Y106.555 E1.27245
G1 X71.068 Y106.252 E.04313
G1 X10.568 Y73.057 E2.43917
G1 X9.589 Y72.073 E.04905
G1 X9.293 Y70.902 E.04267
G1 X9.293 Y45.902 E.88365
G1 X9.793 Y15.861 E1.06197
G1 X10.207 Y14.537 E.04905
G1 X11.106 Y13.787 E.04136
; printing object 2020_cable_clip_6mm_S.stl id:1 copy 0
G1 E-.8 F1800
EXCLUDE_OBJECT_START NAME=2020_cable_clip_6mm_S.stl_id_1_copy_0
G1 X77.9 Y81.248 F21000
G1 E.8 F1800
;TYPE:Outer wall
G1 F3000
G1 X77.9 Y82.748 E.05302
G1 X72.6 Y82.748 E.18733
G1 X72.6 Y79.448 E.11664
G1 X87.4 Y79.448 E.52312
G1 X87.4 Y103.748 E.8589
G1 X72.6 Y103.748 E.52312
G1 X72.6 Y100.448 E.11664
G1 X77.9 Y100.448 E.18733
G1 X77.9 Y101.948 E.05302
G1 X85.6 Y101.948 E.27216
G1 X85.6 Y94.248 E.27216
G1 X84.1 Y94.248 E.05302
G1 X84.1 Y88.948 E.18733
G1 X85.6 Y88.948 E.05302
G1 X85.6 Y81.248 E.27216
G1 X77.94 Y81.248 E.27075
G1 X77.4 Y80.748 F21000
;TYPE:Inner wall
G1 F3000
G1 X77.4 Y82.248 E.05302
G1 X73.1 Y82.248 E.15199
G1 X73.1 Y79.948 E.0813
G1 X86.9 Y79.948 E.48777
G1 X86.9 Y103.248 E.82356
G1 X73.1 Y103.248 E.48777
G1 X73.1 Y100.948 E.0813
G1 X77.4 Y100.948 E.15199
G1 X77.4 Y102.448 E.05302
G1 X86.1 Y102.448 E.30751
G1 X86.1 Y93.748 E.30751
G1 X84.6 Y93.748 E.05302
G1 X84.6 Y89.448 E.15199
G1 X86.1 Y89.448 E.05302
G1 X86.1 Y80.748 E.30751
G1 X77.44 Y80.748 E.3061
G1 X76.943 Y80.405 F21000
G1 F3000
G1 X76.943 Y81.791 E.04898
G1 X73.557 Y81.791 E.11968
G1 X73.557 Y80.405 E.04898
G1 X76.903 Y80.405 E.11826
G1 X76.486 Y80.862 F21000
G1 F3000
G1 X76.486 Y81.333 E.01667
G1 X74.014 Y81.333 E.08736
G1 X74.014 Y80.862 E.01667
G1 X76.446 Y80.862 E.08595
M73 P1 R36
G1 E-.8 F1800
G1 X85.814 Y81.033 F21000
G1 X85.814 Y102.162
G1 X77.686 Y102.162
G1 X73.557 Y101.405
G1 E.8 F1800
G1 F3000
G1 X76.943 Y101.405 E.11968
G1 X76.943 Y102.791 E.04898
G1 X73.557 Y102.791 E.11968
G1 X73.557 Y101.445 E.04757
G1 X74.014 Y101.862 F21000
G1 F3000
G1 X76.486 Y101.862 E.08736
G1 X76.486 Y102.333 E.01667
G1 X74.014 Y102.333 E.08736
G1 X74.014 Y101.902 E.01526
G1 E-.8 F1800
G1 X77.686 Y102.162 F21000
G1 X85.814 Y102.162
G1 X85.814 Y94.033
G1 X85.057 Y89.905
G1 E.8 F1800
G1 F3000
G1 X86.443 Y89.905 E.04898
G1 X86.443 Y93.291 E.11968
G1 X85.057 Y93.291 E.04898
G1 X85.057 Y89.945 E.11826
G1 X85.514 Y90.362 F21000
G1 F3000
G1 X85.986 Y90.362 E.01667
G1 X85.986 Y92.833 E.08736
G1 X85.514 Y92.833 E.01667
G1 X85.514 Y90.402 E.08595
G1 E-.8 F1800
G1 X86.5 Y89.676 F21000
G1 E.8 F1800
;TYPE:Gap infill
;WIDTH:0.385842
G1 F3000
G1 X86.5 Y80.519 E.24283
G1 X86.485 Y80.448 E.00192
;WIDTH:0.434872
G1 X86.471 Y80.377 E.0022
G1 X86.329 Y80.348 E.0044
;WIDTH:0.385842
G1 X77.171 Y80.348 E.24283
G1 E-.8 F1800
G1 X87.142 Y80.929 F21000
G1 X86.5 Y93.519
M73 P1 R35
G1 E.8 F1800
;WIDTH:0.38584
G1 F3000
G1 X86.5 Y102.676 E.24283
G1 X86.485 Y102.747 E.00192
;WIDTH:0.434871
G1 X86.471 Y102.818 E.0022
G1 X86.329 Y102.848 E.0044
;WIDTH:0.38584
G1 X77.171 Y102.848 E.24283
; stop printing object 2020_cable_clip_6mm_S.stl id:1 copy 0
; printing object 2020_cable_clip_6mm_S.stl id:0 copy 0
G1 E-.8 F1800
EXCLUDE_OBJECT_END NAME=2020_cable_clip_6mm_S.stl_id_1_copy_0
EXCLUDE_OBJECT_START NAME=2020_cable_clip_6mm_S.stl_id_0_copy_0
G1 X98.4 Y81.248 F21000
G1 E.8 F1800
;TYPE:Outer wall
;WIDTH:0.5
G1 F3000
G1 X98.4 Y82.748 E.05302
G1 X93.1 Y82.748 E.18733
G1 X93.1 Y79.448 E.11664
G1 X107.9 Y79.448 E.52312
G1 X107.9 Y103.748 E.8589
G1 X93.1 Y103.748 E.52312
G1 X93.1 Y100.448 E.11664
G1 X98.4 Y100.448 E.18733
G1 X98.4 Y101.948 E.05302
G1 X106.1 Y101.948 E.27216
G1 X106.1 Y94.248 E.27216
G1 X104.6 Y94.248 E.05302
G1 X104.6 Y88.948 E.18733
G1 X106.1 Y88.948 E.05302
G1 X106.1 Y81.248 E.27216
G1 X98.44 Y81.248 E.27075
G1 X97.9 Y80.748 F21000
;TYPE:Inner wall
G1 F3000
G1 X97.9 Y82.248 E.05302
G1 X93.6 Y82.248 E.15199
G1 X93.6 Y79.948 E.0813
G1 X107.4 Y79.948 E.48777
G1 X107.4 Y103.248 E.82356
G1 X93.6 Y103.248 E.48777
G1 X93.6 Y100.948 E.0813
G1 X97.9 Y100.948 E.15199
G1 X97.9 Y102.448 E.05302
G1 X106.6 Y102.448 E.30751
G1 X106.6 Y93.748 E.30751
G1 X105.1 Y93.748 E.05302
G1 X105.1 Y89.448 E.15199
G1 X106.6 Y89.448 E.05302
G1 X106.6 Y80.748 E.30751
G1 X97.94 Y80.748 E.3061
G1 X97.443 Y80.405 F21000
G1 F3000
G1 X97.443 Y81.791 E.04898
G1 X94.057 Y81.791 E.11968
G1 X94.057 Y80.405 E.04898
G1 X97.403 Y80.405 E.11826
G1 X96.986 Y80.862 F21000
G1 F3000
G1 X96.986 Y81.333 E.01667
G1 X94.514 Y81.333 E.08736
G1 X94.514 Y80.862 E.01667
G1 X96.946 Y80.862 E.08595
G1 E-.8 F1800
G1 X106.314 Y81.033 F21000
G1 X106.314 Y102.162
G1 X98.186 Y102.162
G1 X94.057 Y101.405
G1 E.8 F1800
G1 F3000
G1 X97.443 Y101.405 E.11968
G1 X97.443 Y102.791 E.04898
G1 X94.057 Y102.791 E.11968
G1 X94.057 Y101.445 E.04757
G1 X94.514 Y101.862 F21000
G1 F3000
G1 X96.986 Y101.862 E.08736
G1 X96.986 Y102.333 E.01667
G1 X94.514 Y102.333 E.08736
G1 X94.514 Y101.902 E.01526
G1 E-.8 F1800
G1 X98.186 Y102.162 F21000
G1 X106.314 Y102.162
G1 X106.314 Y94.033
G1 X105.557 Y89.905
G1 E.8 F1800
G1 F3000
G1 X106.943 Y89.905 E.04898
G1 X106.943 Y93.291 E.11968
G1 X105.557 Y93.291 E.04898
G1 X105.557 Y89.945 E.11826
G1 X106.014 Y90.362 F21000
G1 F3000
G1 X106.486 Y90.362 E.01667
G1 X106.486 Y92.833 E.08736
G1 X106.014 Y92.833 E.01667
G1 X106.014 Y90.402 E.08595
G1 E-.8 F1800
G1 X107 Y89.676 F21000
G1 E.8 F1800
;TYPE:Gap infill
;WIDTH:0.385842
G1 F3000
G1 X107 Y80.519 E.24283
G1 X106.985 Y80.448 E.00192
;WIDTH:0.434872
G1 X106.971 Y80.377 E.0022
G1 X106.829 Y80.348 E.0044
;WIDTH:0.385842
G1 X97.671 Y80.348 E.24283
G1 E-.8 F1800
G1 X107.642 Y80.929 F21000
G1 X107 Y93.519
G1 E.8 F1800
;WIDTH:0.38584
G1 F3000
G1 X107 Y102.676 E.24283
G1 X106.985 Y102.747 E.00192
;WIDTH:0.434871
G1 X106.971 Y102.818 E.0022
G1 X106.829 Y102.848 E.0044
;WIDTH:0.38584
G1 X97.671 Y102.848 E.24283
; stop printing object 2020_cable_clip_6mm_S.stl id:0 copy 0
; printing object 2020_cable_clip_6mm_S.stl id:2 copy 0
G1 E-.8 F1800
EXCLUDE_OBJECT_END NAME=2020_cable_clip_6mm_S.stl_id_0_copy_0
EXCLUDE_OBJECT_START NAME=2020_cable_clip_6mm_S.stl_id_2_copy_0
G1 X98.4 Y51.248 F21000
G1 E.8 F1800
;TYPE:Outer wall
;WIDTH:0.5
G1 F3000
G1 X98.4 Y52.748 E.05302
G1 X93.1 Y52.748 E.18733
G1 X93.1 Y49.448 E.11664
G1 X107.9 Y49.448 E.52312
G1 X107.9 Y73.748 E.8589
G1 X93.1 Y73.748 E.52312
G1 X93.1 Y70.448 E.11664
G1 X98.4 Y70.448 E.18733
G1 X98.4 Y71.948 E.05302
G1 X106.1 Y71.948 E.27216
G1 X106.1 Y64.248 E.27216
G1 X104.6 Y64.248 E.05302
G1 X104.6 Y58.948 E.18733
G1 X106.1 Y58.948 E.05302
G1 X106.1 Y51.248 E.27216
G1 X98.44 Y51.248 E.27075
G1 X97.9 Y50.748 F21000
;TYPE:Inner wall
G1 F3000
G1 X97.9 Y52.248 E.05302
G1 X93.6 Y52.248 E.15199
G1 X93.6 Y49.948 E.0813
G1 X107.4 Y49.948 E.48777
G1 X107.4 Y73.248 E.82356
G1 X93.6 Y73.248 E.48777
G1 X93.6 Y70.948 E.0813
G1 X97.9 Y70.948 E.15199
G1 X97.9 Y72.448 E.05302
G1 X106.6 Y72.448 E.30751
G1 X106.6 Y63.748 E.30751
G1 X105.1 Y63.748 E.05302
G1 X105.1 Y59.448 E.15199
G1 X106.6 Y59.448 E.05302
G1 X106.6 Y50.748 E.30751
G1 X97.94 Y50.748 E.3061
G1 X97.443 Y50.405 F21000
G1 F3000
G1 X97.443 Y51.791 E.04898
G1 X94.057 Y51.791 E.11968
G1 X94.057 Y50.405 E.04898
G1 X97.403 Y50.405 E.11826
G1 X96.986 Y50.862 F21000
G1 F3000
G1 X96.986 Y51.333 E.01667
G1 X94.514 Y51.333 E.08736
G1 X94.514 Y50.862 E.01667
G1 X96.946 Y50.862 E.08595
G1 E-.8 F1800
G1 X106.314 Y51.033 F21000
G1 X106.314 Y72.162
G1 X98.186 Y72.162
G1 X94.057 Y71.405
G1 E.8 F1800
G1 F3000
G1 X97.443 Y71.405 E.11968
M73 P2 R35
G1 X97.443 Y72.791 E.04898
G1 X94.057 Y72.791 E.11968
G1 X94.057 Y71.445 E.04757
G1 X94.514 Y71.862 F21000
G1 F3000
G1 X96.986 Y71.862 E.08736
G1 X96.986 Y72.333 E.01667
G1 X94.514 Y72.333 E.08736
G1 X94.514 Y71.902 E.01526
G1 E-.8 F1800
G1 X98.186 Y72.162 F21000
G1 X106.314 Y72.162
G1 X106.314 Y64.033
G1 X105.557 Y59.905
G1 E.8 F1800
G1 F3000
G1 X106.943 Y59.905 E.04898
G1 X106.943 Y63.291 E.11968
G1 X105.557 Y63.291 E.04898
G1 X105.557 Y59.945 E.11826
G1 X106.014 Y60.362 F21000
G1 F3000
G1 X106.486 Y60.362 E.01667
G1 X106.486 Y62.833 E.08736
G1 X106.014 Y62.833 E.01667
G1 X106.014 Y60.402 E.08595
G1 E-.8 F1800
G1 X107 Y59.676 F21000
G1 E.8 F1800
;TYPE:Gap infill
;WIDTH:0.385842
G1 F3000
G1 X107 Y50.519 E.24283
G1 X106.985 Y50.448 E.00192
;WIDTH:0.434872
G1 X106.971 Y50.377 E.0022
G1 X106.829 Y50.348 E.0044
;WIDTH:0.385842
G1 X97.671 Y50.348 E.24283
G1 E-.8 F1800
G1 X107.642 Y50.929 F21000
G1 X107 Y63.519
G1 E.8 F1800
;WIDTH:0.38584
G1 F3000
G1 X107 Y72.676 E.24283
G1 X106.985 Y72.747 E.00192
;WIDTH:0.434871
G1 X106.971 Y72.818 E.0022
G1 X106.829 Y72.848 E.0044
;WIDTH:0.38584
G1 X97.671 Y72.848 E.24283
; stop printing object 2020_cable_clip_6mm_S.stl id:2 copy 0
; printing object 2020_cable_clip_6mm_S.stl id:3 copy 0
G1 E-.8 F1800
EXCLUDE_OBJECT_END NAME=2020_cable_clip_6mm_S.stl_id_2_copy_0
EXCLUDE_OBJECT_START NAME=2020_cable_clip_6mm_S.stl_id_3_copy_0
G1 X77.9 Y51.248 F21000
G1 E.8 F1800
;TYPE:Outer wall
;WIDTH:0.5
G1 F3000
G1 X77.9 Y52.748 E.05302
G1 X72.6 Y52.748 E.18733
G1 X72.6 Y49.448 E.11664
G1 X87.4 Y49.448 E.52312
G1 X87.4 Y73.748 E.8589
G1 X72.6 Y73.748 E.52312
G1 X72.6 Y70.448 E.11664
G1 X77.9 Y70.448 E.18733
G1 X77.9 Y71.948 E.05302
G1 X85.6 Y71.948 E.27216
G1 X85.6 Y64.248 E.27216
G1 X84.1 Y64.248 E.05302
G1 X84.1 Y58.948 E.18733
G1 X85.6 Y58.948 E.05302
G1 X85.6 Y51.248 E.27216
G1 X77.94 Y51.248 E.27075
G1 X77.4 Y50.748 F21000
;TYPE:Inner wall
G1 F3000
G1 X77.4 Y52.248 E.05302
G1 X73.1 Y52.248 E.15199
G1 X73.1 Y49.948 E.0813
G1 X86.9 Y49.948 E.48777
G1 X86.9 Y73.248 E.82356
G1 X73.1 Y73.248 E.48777
G1 X73.1 Y70.948 E.0813
G1 X77.4 Y70.948 E.15199
G1 X77.4 Y72.448 E.05302
G1 X86.1 Y72.448 E.30751
G1 X86.1 Y63.748 E.30751
