; HEADER_BLOCK_START
; generated by OrcaSlicer 1.6.3-beta on 2023-05-31 at 10:21:58
; total layer number: 30
; HEADER_BLOCK_END

; THUMBNAIL_BLOCK_START
; THUMBNAIL_BLOCK_END

; external perimeters extrusion width = 0.40mm
; perimeters extrusion width = 0.45mm
; infill extrusion width = 0.45mm
; solid infill extrusion width = 0.40mm
; top infill extrusion width = 0.40mm
; first layer extrusion width = 0.40mm

; external perimeters extrusion width = 0.40mm
; perimeters extrusion width = 0.45mm
; infill extrusion width = 0.45mm
; solid infill extrusion width = 0.40mm
; top infill extrusion width = 0.40mm
; first layer extrusion width = 0.40mm

; external perimeters extrusion width = 0.40mm
; perimeters extrusion width = 0.45mm
; infill extrusion width = 0.45mm
; solid infill extrusion width = 0.40mm
; top infill extrusion width = 0.40mm
; first layer extrusion width = 0.40mm

; external perimeters extrusion width = 0.40mm
; perimeters extrusion width = 0.45mm
; infill extrusion width = 0.45mm
; solid infill extrusion width = 0.40mm
; top infill extrusion width = 0.40mm
; first layer extrusion width = 0.40mm

; EXECUTABLE_BLOCK_START
EXCLUDE_OBJECT_DEFINE NAME=2040_clips.stl_id_0_copy_0 CENTER=87.0855,60.0776 POLYGON=[[80.586,38.6646],[91.999,38.1746],[93.585,39.7288],[93.585,80.4263],[91.999,81.9806],[80.586,81.4906],[80.586,38.6646]]
EXCLUDE_OBJECT_DEFINE NAME=2040_clips.stl_id_1_copy_0 CENTER=68.9995,60 POLYGON=[[62.5,38.8055],[73.913,38.3205],[75.499,39.8589],[75.499,80.1411],[73.913,81.6795],[62.5,81.1945],[62.5,38.8055]]
EXCLUDE_OBJECT_DEFINE NAME=2040_clips.stl_id_2_copy_0 CENTER=51.0005,60 POLYGON=[[44.501,39.024],[55.914,38.544],[57.5,40.0666],[57.5,79.9334],[55.914,81.456],[44.501,80.976],[44.501,39.024]]
EXCLUDE_OBJECT_DEFINE NAME=2040_clips.stl_id_3_copy_0 CENTER=33.0015,60 POLYGON=[[26.502,39.2425],[37.915,38.7675],[39.501,40.2742],[39.501,79.7258],[37.915,81.2325],[26.502,80.7575],[26.502,39.2425]]
M73 P0 R12
;TYPE:Custom
START_PRINT T_BED=110 T_EXTRUDER=260
G90
G21
M83 ; use relative distances for extrusion
; Filament gcode

    PRESSURE_ADVANCE_SELECT FILAMENT=ABS
M106 S0
;LAYER_CHANGE
;Z:0.2
;HEIGHT:0.2
;BEFORE_LAYER_CHANGE
;0.2
G92 E0

;AFTER_LAYER_CHANGE
;0.2
SET_VELOCITY_LIMIT ACCEL_TO_DECEL=500
M204 S1000
G1 E-.5 F3000
G1 Z.2 F21000
G1 X25.245 Y36.837
M73 P0 R11
G1 E.5 F1800
;TYPE:Skirt
;WIDTH:0.4
G1 F3000
G1 X26.389 Y36.531 E.03257
G1 X37.881 Y36.054 E.31624
G1 X73.891 Y35.606 E.99013
G1 X91.977 Y35.46 E.49728
G1 X93.899 Y36.236 E.05697
G1 X95.485 Y37.79 E.06105
G1 X96.299 Y39.729 E.05781
G1 X96.299 Y80.426 E1.11894
G1 X95.485 Y82.365 E.05781
G1 X93.899 Y83.919 E.06105
G1 X91.961 Y84.694 E.05737
G1 X37.802 Y83.944 E1.48921
G1 X26.389 Y83.469 E.31406
G1 X25.001 Y83.019 E.04014
G1 X24.046 Y81.914 E.04014
G1 X23.788 Y80.758 E.03257
G1 X23.788 Y39.243 E1.14142
G1 X24.18 Y37.836 E.04014
G1 X25.201 Y36.878 E.03849
G1 X25.452 Y37.18 F21000
G1 F3000
G1 X25.581 Y37.073 E.00461
G1 X26.404 Y36.887 E.0232
G1 X37.886 Y36.411 E.31595
G1 X73.894 Y35.963 E.99009
G1 X91.98 Y35.818 E.49728
G1 X93.649 Y36.491 E.04948
G1 X95.235 Y38.045 E.06105
G1 X95.942 Y39.729 E.0502
G1 X95.942 Y80.426 E1.11894
M73 P1 R11
G1 X95.235 Y82.11 E.0502
G1 X93.649 Y83.664 E.06105
G1 X91.966 Y84.337 E.04982
G1 X37.817 Y83.588 E1.48893
G1 X26.404 Y83.113 E.31406
G1 X25.12 Y82.667 E.03735
G1 X24.296 Y81.588 E.03735
G1 X24.145 Y80.758 E.0232
G1 X24.145 Y39.243 E1.14142
G1 X24.536 Y37.942 E.03735
G1 X25.406 Y37.218 E.0311
; printing object 2040_clips.stl id:0 copy 0
EXCLUDE_OBJECT_START NAME=2040_clips.stl_id_0_copy_0
G1 E-.5
G1 Z.4 F21000
G1 X82.07 Y40.247
G1 Z.2
G1 E.5 F1800
;TYPE:Inner wall
G1 F3000
G1 X81.743 Y40.207 E.00906
G1 X81.643 Y40.125 E.00356
G1 X81.643 Y39.677 E.01231
G1 X82.653 Y39.634 E.02779
G1 X82.361 Y40.108 E.0153
G1 X82.124 Y40.221 E.00722
G1 X82.13 Y40.614 F21000
G1 F3000
G1 X81.597 Y40.549 E.01477
G1 X81.286 Y40.294 E.01106
G1 X81.286 Y39.335 E.02636
G1 X83.31 Y39.248 E.05569
G1 X82.61 Y40.385 E.03669
G1 X82.184 Y40.588 E.01297
G1 E-.5
G1 Z.4 F21000
G1 X83.439 Y39.871
G1 X91.188 Y39.435
G1 Z.2
G1 E.5 F1800
G1 F3000
G1 X83.858 Y39.435 E.20152
G1 X83.854 Y39.225 E.00577
G1 X91.726 Y38.887 E.21663
G1 X91.863 Y39.021 E.00527
G1 X91.239 Y39.403 E.02011
G1 E-.5
G1 Z.4 F21000
G1 X93.24 Y39.997
G1 X93.121 Y40.988
G1 X92.717 Y80.297
G1 Z.2
G1 E.5 F1800
G1 F3000
G1 X92.285 Y79.62 E.02207
G1 X92.285 Y60.331 E.53035
G1 X92.446 Y60.078 E.00826
G1 X92.285 Y59.824 E.00825
G1 X92.285 Y40.535 E.53035
G1 X92.717 Y39.858 E.02207
G1 X92.885 Y40.023 E.00649
G1 X92.885 Y80.132 E1.10277
G1 X92.759 Y80.255 E.00484
G1 E-.5
M73 P2 R11
G1 Z.4 F21000
G1 X82.653 Y80.521
G1 Z.2
G1 E.5 F1800
G1 F3000
G1 X81.643 Y80.478 E.02779
G1 X81.643 Y80.03 E.01231
G1 X81.743 Y79.948 E.00356
G1 X82.07 Y79.908 E.00906
G1 X82.361 Y80.047 E.00887
G1 X82.621 Y80.47 E.01365
G1 X83.31 Y80.907 F21000
G1 F3000
G1 X81.286 Y80.82 E.05569
G1 X81.286 Y79.861 E.02636
G1 X81.597 Y79.606 E.01106
G1 X82.13 Y79.541 E.01477
G1 X82.61 Y79.771 E.01462
G1 X83.278 Y80.856 E.03504
G1 E-.5
G1 Z.4 F21000
G1 X91.847 Y81.124
G1 Z.2
G1 E.5 F1800
G1 F3000
G1 X91.863 Y81.134 E.00051
G1 X91.726 Y81.268 E.00527
G1 X83.854 Y80.93 E.21664
G1 X83.858 Y80.721 E.00577
G1 X91.188 Y80.721 E.20152
G1 X91.796 Y81.093 E.01961
G1 X91.817 Y80.637 F21000
;TYPE:Outer wall
G1 F3000
G1 X92.206 Y80.241 E.01526
G1 X91.885 Y79.737 E.01642
G1 X91.885 Y60.214 E.53677
G1 X91.972 Y60.078 E.00445
G1 X91.885 Y59.941 E.00445
G1 X91.885 Y40.418 E.53677
G1 X92.206 Y39.914 E.01642
G1 X91.817 Y39.518 E.01526
G1 X91.3 Y39.835 E.01666
G1 X83.418 Y39.835 E.21671
G1 X82.889 Y40.695 E.02777
G1 X82.198 Y41.025 E.02106
G1 X81.433 Y40.932 E.02118
G1 X80.886 Y40.483 E.01946
G1 X80.886 Y38.952 E.04209
G1 X91.882 Y38.48 E.3026
G1 X93.037 Y39.612 E.04445
G1 X93.285 Y39.855 E.00956
G1 X93.285 Y80.3 E1.11201
G1 X91.882 Y81.675 E.05401
G1 X80.886 Y81.203 E.3026
G1 X80.886 Y79.672 E.04209
G1 X81.433 Y79.223 E.01946
G1 X82.198 Y79.13 E.02118
G1 X82.889 Y79.46 E.02106
G1 X83.418 Y80.321 E.02777
G1 X91.3 Y80.321 E.21671
G1 X91.766 Y80.606 E.01501
G1 X91.886 Y80.677
G1 X91.277 Y80.985 F21000
;TYPE:Gap infill
;WIDTH:0.206971
G1 F3000
G1 X90.313 Y80.964 E.01218
;WIDTH:0.168287
G1 X89.35 Y80.943 E.0093
;WIDTH:0.129604
G1 X88.386 Y80.923 E.00643
G1 E-.5
G1 Z.4 F21000
G1 X91.795 Y80.46
G1 X92.585 Y79.759
G1 Z.2
G1 E.5 F1800
;WIDTH:0.285842
G1 F3000
G1 X92.585 Y60.192 E.36598
G1 X92.585 Y40.396 E.37027
G1 E-.5
G1 Z.4 F21000
G1 X91.277 Y39.171
G1 Z.2
G1 E.5 F1800
;WIDTH:0.20697
G1 F3000
G1 X90.313 Y39.191 E.01218
;WIDTH:0.168287
G1 X89.35 Y39.212 E.0093
;WIDTH:0.129603
G1 X88.386 Y39.233 E.00643
; stop printing object 2040_clips.stl id:0 copy 0
EXCLUDE_OBJECT_END NAME=2040_clips.stl_id_0_copy_0
; printing object 2040_clips.stl id:1 copy 0
EXCLUDE_OBJECT_START NAME=2040_clips.stl_id_1_copy_0
G1 E-.5
G1 Z.4 F21000
G1 X64.556 Y80.224
G1 Z.2
G1 E.5 F1800
;TYPE:Inner wall
;WIDTH:0.4
G1 F3000
G1 X63.557 Y80.181 E.0275
G1 X63.557 Y79.757 E.01166
G1 X63.654 Y79.679 E.00342
G1 X63.986 Y79.639 E.00919
G1 X64.279 Y79.777 E.00891
G1 X64.525 Y80.173 E.0128
G1 X65.217 Y80.609 F21000
G1 F3000
G1 X63.2 Y80.524 E.05549
G1 X63.2 Y79.587 E.02574
G1 X63.508 Y79.337 E.01093
G1 X64.045 Y79.272 E.01486
G1 X64.526 Y79.5 E.01463
G1 X65.185 Y80.558 E.03428
G1 E-.5
G1 Z.4 F21000
M73 P3 R11
G1 X73.714 Y80.809
G1 Z.2
G1 E.5 F1800
G1 F3000
G1 X73.665 Y80.968 E.00457
G1 X66.155 Y80.649 E.20667
G1 X66.16 Y80.44 E.00577
G1 X73.103 Y80.44 E.19091
G1 X73.662 Y80.778 E.01797
G1 E-.5
G1 Z.4 F21000
G1 X74.63 Y80.009
G1 Z.2
G1 E.5 F1800
G1 F3000
G1 X74.199 Y79.34 E.02189
G1 X74.199 Y60.254 E.52473
G1 X74.363 Y60 E.00832
G1 X74.199 Y59.746 E.00832
G1 X74.199 Y40.66 E.52473
G1 X74.63 Y39.991 E.02189
G1 X74.799 Y40.155 E.00647
G1 X74.799 Y79.845 E1.09124
G1 X74.673 Y79.967 E.00482
G1 E-.5
G1 Z.4 F21000
G1 X73.929 Y38.689
G1 X73.103 Y39.56
G1 Z.2
G1 E.5 F1800
G1 F3000
G1 X66.16 Y39.56 E.19091
G1 X66.155 Y39.351 E.00577
G1 X73.665 Y39.032 E.20667
G1 X73.714 Y39.191 E.00457
G1 X73.155 Y39.529 E.01797
G1 E-.5
G1 Z.4 F21000
G1 X63.986 Y40.361
G1 Z.2
G1 E.5 F1800
G1 F3000
G1 X63.654 Y40.321 E.00919
G1 X63.557 Y40.243 E.00342
G1 X63.557 Y39.819 E.01166
G1 X64.556 Y39.776 E.0275
G1 X64.279 Y40.223 E.01445
G1 X64.04 Y40.335 E.00726
G1 X64.045 Y40.728 F21000
G1 F3000
G1 X63.509 Y40.663 E.01486
G1 X63.2 Y40.413 E.01093
G1 X63.2 Y39.476 E.02574
G1 X65.217 Y39.391 E.05549
G1 X64.526 Y40.5 E.03593
G1 X64.099 Y40.702 E.01298
G1 E-.5
G1 Z.4 F21000
G1 X65.358 Y40.006
G1 X73.709 Y39.829
G1 X73.939 Y40.063
G1 X73.963 Y40.722
G1 X74.064 Y60
G1 X73.963 Y79.278
G1 X73.939 Y79.937
G1 X73.732 Y80.353
G1 Z.2
G1 E.5 F1800
;TYPE:Outer wall
G1 F3000
G1 X74.12 Y79.955 E.01527
G1 X73.799 Y79.457 E.01628
G1 X73.799 Y60.137 E.5312
G1 X73.887 Y60 E.00447
G1 X73.799 Y59.863 E.00447
G1 X73.799 Y40.543 E.5312
G1 X74.12 Y40.045 E.01628
G1 X73.732 Y39.647 E.01527
G1 X73.215 Y39.96 E.01663
G1 X65.333 Y39.96 E.21671
G1 X64.804 Y40.812 E.02756
G1 X64.112 Y41.139 E.02104
G1 X63.346 Y41.047 E.02121
G1 X62.8 Y40.603 E.01935
G1 X62.8 Y39.093 E.04151
G1 X73.797 Y38.626 E.30262
G1 X74.328 Y39.141 E.02035
G1 X75.199 Y39.986 E.03336
G1 X75.199 Y80.014 E1.10054
M73 P4 R11
G1 X73.797 Y81.374 E.05371
G1 X62.8 Y80.907 E.30262
G1 X62.8 Y79.397 E.04151
G1 X63.346 Y78.953 E.01935
G1 X64.112 Y78.861 E.02121
G1 X64.804 Y79.188 E.02104
G1 X65.333 Y80.04 E.02756
G1 X73.215 Y80.04 E.21671
G1 X73.681 Y80.322 E.01498
G1 X73.802 Y80.393
G1 X73.774 Y80.597 F21000
;TYPE:Gap infill
;WIDTH:0.430798
G1 F3000
G1 X74.067 Y80.569 E.0088
G1 X74.484 Y80.152 E.01762
G1 X74.499 Y79.476 F21000
;WIDTH:0.285842
G1 F3000
G1 X74.499 Y60.118 E.36206
G1 X74.499 Y60.118 F21000
;WIDTH:0.28584
G1 F3000
G1 X74.499 Y40.524 E.36649
G1 X74.484 Y39.848 F21000
;WIDTH:0.4308
G1 F3000
G1 X74.067 Y39.431 E.01762
G1 X73.774 Y39.403 E.00879
G1 X73.178 Y39.307 F21000
;WIDTH:0.1876
G1 F3000
G1 X71.956 Y39.333 E.01362
;WIDTH:0.139261
G1 X70.733 Y39.358 E.00907
G1 E-.5
G1 Z.4 F21000
G1 X64.15 Y40.086
G1 Z.2
G1 E.5 F1800
;WIDTH:0.236756
G1 F3000
G1 X63.736 Y40.07 E.00618
G1 E-.5
G1 Z.4 F21000
G1 X65.358 Y40.006
G1 X73.709 Y39.829
G1 X73.939 Y40.063
G1 X73.963 Y40.722
G1 X74.064 Y60
G1 X73.963 Y79.278
G1 X73.939 Y79.937
G1 X73.709 Y80.171
G1 X65.358 Y79.994
G1 X63.736 Y79.93
G1 Z.2
G1 E.5 F1800
;WIDTH:0.236754
G1 F3000
G1 X64.15 Y79.914 E.00618
G1 E-.5
G1 Z.4 F21000
G1 X70.733 Y80.642
G1 Z.2
G1 E.5 F1800
;WIDTH:0.13926
G1 F3000
G1 X71.956 Y80.667 E.00907
;WIDTH:0.187599
G1 X73.178 Y80.693 E.01362
; stop printing object 2040_clips.stl id:1 copy 0
EXCLUDE_OBJECT_END NAME=2040_clips.stl_id_1_copy_0
; printing object 2040_clips.stl id:2 copy 0
EXCLUDE_OBJECT_START NAME=2040_clips.stl_id_2_copy_0
G1 E-.5
G1 Z.4 F21000
G1 X45.988 Y40.553
G1 Z.2
G1 E.5 F1800
;TYPE:Inner wall
;WIDTH:0.4
G1 F3000
G1 X45.651 Y40.513 E.00933
G1 X45.558 Y40.438 E.00329
G1 X45.558 Y40.038 E.01101
G1 X46.547 Y39.996 E.0272
G1 X46.283 Y40.415 E.0136
G1 X46.043 Y40.527 E.00731
G1 X46.047 Y40.919 F21000
G1 F3000
G1 X45.507 Y40.855 E.01495
G1 X45.201 Y40.609 E.01081
G1 X45.201 Y39.695 E.02512
G1 X47.21 Y39.611 E.0553
G1 X46.53 Y40.694 E.03517
G1 X46.102 Y40.894 E.013
G1 E-.5
G1 Z.4 F21000
G1 X47.365 Y40.217
G1 X55.106 Y39.764
G1 Z.2
G1 E.5 F1800
G1 F3000
G1 X48.556 Y39.764 E.18009
G1 X48.552 Y39.554 E.00577
G1 X55.639 Y39.256 E.19503
G1 X55.687 Y39.416 E.00458
G1 X55.158 Y39.733 E.01697
G1 E-.5
G1 Z.4 F21000
G1 X57.155 Y40.334
G1 X57.036 Y41.33
G1 X56.631 Y79.798
G1 Z.2
G1 E.5 F1800
G1 F3000
G1 X56.2 Y79.136 E.0217
G1 X56.2 Y60.256 E.5191
G1 X56.366 Y60 E.00839
G1 X56.2 Y59.744 E.00839
G1 X56.2 Y40.864 E.5191
G1 X56.631 Y40.202 E.0217
G1 X56.8 Y40.365 E.00646
G1 X56.8 Y79.635 E1.0797
M73 P5 R11
G1 X56.674 Y79.756 E.00481
G1 E-.5
G1 Z.4 F21000
G1 X55.687 Y80.584
G1 Z.2
G1 E.5 F1800
G1 F3000
G1 X55.639 Y80.744 E.00458
G1 X48.552 Y80.446 E.19503
G1 X48.556 Y80.236 E.00577
G1 X55.106 Y80.236 E.18009
G1 X55.635 Y80.553 E.01697
G1 E-.5
G1 Z.4 F21000
G1 X46.547 Y80.004
G1 Z.2
G1 E.5 F1800
G1 F3000
G1 X45.558 Y79.962 E.0272
G1 X45.558 Y79.562 E.01101
G1 X45.651 Y79.487 E.00329
G1 X45.988 Y79.447 E.00933
G1 X46.283 Y79.585 E.00896
G1 X46.515 Y79.953 E.01195
G1 X47.21 Y80.389 F21000
G1 F3000
G1 X45.201 Y80.305 E.0553
G1 X45.201 Y79.391 E.02512
G1 X45.507 Y79.145 E.01081
G1 X46.047 Y79.081 E.01495
G1 X46.53 Y79.306 E.01465
G1 X47.179 Y80.339 E.03352
G1 E-.5
G1 Z.4 F21000
G1 X55.735 Y80.147
G1 Z.2
G1 E.5 F1800
;TYPE:Outer wall
G1 F3000
G1 X56.12 Y79.747 E.01527
G1 X55.8 Y79.255 E.01613
G1 X55.8 Y60.137 E.52563
G1 X55.889 Y60 E.0045
G1 X55.8 Y59.863 E.0045
G1 X55.8 Y40.745 E.52563
G1 X56.12 Y40.253 E.01613
G1 X55.735 Y39.853 E.01527
G1 X55.217 Y40.164 E.0166
G1 X47.335 Y40.164 E.2167
G1 X46.806 Y41.006 E.02735
G1 X46.113 Y41.33 E.02102
G1 X45.346 Y41.239 E.02125
G1 X44.801 Y40.8 E.01923
G1 X44.801 Y39.312 E.04093
G1 X55.799 Y38.849 E.30264
G1 X56.954 Y39.958 E.04403
G1 X57.2 Y40.194 E.00938
G1 X57.2 Y79.806 E1.08907
G1 X55.799 Y81.151 E.05341
G1 X44.801 Y80.688 E.30264
G1 X44.801 Y79.2 E.04093
G1 X45.346 Y78.761 E.01923
G1 X46.113 Y78.67 E.02125
G1 X46.806 Y78.994 E.02102
G1 X47.335 Y79.836 E.02735
G1 X55.217 Y79.836 E.2167
G1 X55.683 Y80.116 E.01495
G1 X55.804 Y80.187
G1 X55.786 Y80.382 F21000
;TYPE:Gap infill
;WIDTH:0.372341
G1 F3000
G1 X55.922 Y80.374 E.00347
;WIDTH:0.414611
G1 X56.059 Y80.366 E.00392
;WIDTH:0.430259
G1 X56.485 Y79.941 E.01795
G1 X56.5 Y79.27 F21000
;WIDTH:0.285842
G1 F3000
G1 X56.5 Y60.122 E.35815
G1 X56.5 Y60.122 F21000
G1 F3000
G1 X56.5 Y40.73 E.36271
G1 X56.485 Y40.059 F21000
;WIDTH:0.430256
G1 F3000
G1 X56.059 Y39.634 E.01795
;WIDTH:0.414607
G1 X55.922 Y39.626 E.00392
;WIDTH:0.372338
G1 X55.786 Y39.618 E.00347
G1 X55.166 Y39.52 F21000
;WIDTH:0.168222
G1 F3000
G1 X54.171 Y39.541 E.0096
;WIDTH:0.129571
G1 X53.177 Y39.562 E.00664
G1 E-.5
G1 Z.4 F21000
G1 X46.128 Y40.291
G1 Z.2
G1 E.5 F1800
;WIDTH:0.21018
G1 F3000
G1 X45.737 Y40.276 E.00504
G1 E-.5
G1 Z.4 F21000
G1 X47.365 Y40.217
G1 X55.71 Y40.039
G1 X55.935 Y40.271
G1 X55.964 Y40.924
G1 X56.067 Y60
G1 X55.964 Y79.076
G1 X55.935 Y79.729
G1 X55.71 Y79.961
G1 X47.365 Y79.783
M73 P6 R11
G1 X45.737 Y79.724
G1 Z.2
G1 E.5 F1800
;WIDTH:0.210179
G1 F3000
G1 X46.128 Y79.709 E.00504
G1 E-.5
G1 Z.4 F21000
G1 X53.177 Y80.438
G1 Z.2
G1 E.5 F1800
;WIDTH:0.129572
G1 F3000
G1 X54.171 Y80.459 E.00664
;WIDTH:0.168224
G1 X55.166 Y80.48 E.0096
; stop printing object 2040_clips.stl id:2 copy 0
EXCLUDE_OBJECT_END NAME=2040_clips.stl_id_2_copy_0
; printing object 2040_clips.stl id:3 copy 0
EXCLUDE_OBJECT_START NAME=2040_clips.stl_id_3_copy_0
G1 E-.5
G1 Z.4 F21000
G1 X28.537 Y79.784
G1 Z.2
G1 E.5 F1800
;TYPE:Inner wall
;WIDTH:0.4
G1 F3000
G1 X27.559 Y79.744 E.0269
G1 X27.559 Y79.367 E.01035
G1 X27.649 Y79.296 E.00315
G1 X27.991 Y79.255 E.00947
G1 X28.288 Y79.393 E.009
G1 X28.504 Y79.734 E.0111
G1 X29.204 Y80.169 F21000
G1 F3000
G1 X27.202 Y80.086 E.0551
G1 X27.202 Y79.195 E.0245
G1 X27.506 Y78.953 E.01068
G1 X28.049 Y78.889 E.01504
G1 X28.533 Y79.113 E.01466
G1 X29.172 Y80.119 E.03276
G1 E-.5
G1 Z.4 F21000
G1 X37.659 Y80.359
G1 Z.2
G1 E.5 F1800
G1 F3000
G1 X37.612 Y80.519 E.00459
G1 X30.957 Y80.242 E.18314
G1 X30.961 Y80.033 E.00577
G1 X37.109 Y80.033 E.16903
G1 X37.608 Y80.329 E.01595
G1 E-.5
G1 Z.4 F21000
G1 X38.631 Y79.587
G1 Z.2
G1 E.5 F1800
G1 F3000
G1 X38.201 Y78.933 E.02152
G1 X38.201 Y60.257 E.51348
G1 X38.37 Y60 E.00846
G1 X38.201 Y59.743 E.00846
G1 X38.201 Y41.067 E.51348
G1 X38.631 Y40.413 E.02152
G1 X38.801 Y40.575 E.00645
G1 X38.801 Y79.425 E1.06816
G1 X38.674 Y79.545 E.0048
G1 E-.5
G1 Z.4 F21000
G1 X37.945 Y39.124
G1 X37.109 Y39.967
G1 Z.2
G1 E.5 F1800
G1 F3000
G1 X30.961 Y39.967 E.16903
G1 X30.957 Y39.758 E.00577
G1 X37.612 Y39.481 E.18314
G1 X37.659 Y39.641 E.00459
G1 X37.161 Y39.937 E.01595
G1 E-.5
G1 Z.4 F21000
G1 X27.991 Y40.745
G1 Z.2
G1 E.5 F1800
G1 F3000
G1 X27.649 Y40.704 E.00947
G1 X27.559 Y40.633 E.00315
G1 X27.559 Y40.257 E.01035
G1 X28.537 Y40.216 E.0269
G1 X28.288 Y40.607 E.01275
G1 X28.045 Y40.719 E.00735
G1 X28.049 Y41.111 F21000
G1 F3000
G1 X27.506 Y41.047 E.01504
G1 X27.202 Y40.805 E.01068
G1 X27.202 Y39.914 E.0245
