; generated by SuperSlicer 2.5.59 on 2023-02-10 at 04:56:48 UTC


;
;

;
;
; 

; external perimeters extrusion width = 0.40mm
; perimeters extrusion width = 0.46mm
; infill extrusion width = 0.64mm
; solid infill extrusion width = 0.56mm
; top infill extrusion width = 0.40mm
; support material extrusion width = 0.46mm
; first layer extrusion width = 0.50mm

; object:{"name":"2_x_AAA_battery_case","id":"2_x_AAA_battery_case.stl id:0 copy 0","object_center":[60.000000,60.000000,0.000000],"boundingbox_center":[60.000000,60.000000,7.900000],"boundingbox_size":[31.594002,49.800001,15.800000]}
; plater:{"center":[60.000000,60.000000,0.000000],"boundingbox_center":[60.000000,60.000000,7.900000],"boundingbox_size":[31.594002,49.800001,15.800000]}

M73 P0 R23
;TYPE:Custom
; custom gcode: start_gcode
START_PRINT T_BED=60 T_EXTRUDER=200
; custom gcode end: start_gcode
M107
G21 ; set units to millimeters
G90 ; use absolute coordinates
M82 ; use absolute distances for extrusion
G92 E0
; custom gcode: start_filament_gcode
; Filament gcode

    PRESSURE_ADVANCE_SELECT FILAMENT=PLA
; custom gcode end: start_filament_gcode
;_TOOLCHANGE 0
M104 S200 ; set temperature
M109 S200 ; set temperature and wait for it to be reached
M190 S60 ; set bed temperature and wait for it to be reached
;LAYER_CHANGE
;Z:0.2
;HEIGHT:0.2
G1 Z0.2 F12000
M73 P0 R23
G1 E-0.8 F3000
M204 S2000
G1 X43.127 Y31.199 F12000
G1 E0 F1800
;TYPE:Skirt
;WIDTH:0.52
G1 X42.733 Y32.866 E0.06793
G1 X42.733 Y87.134 E2.22072
G1 X43.469 Y89.355 E2.31355
G1 X44.782 Y90.455 E2.38148
G1 X46.448 Y90.85 E2.44941
G1 X73.552 Y90.85 E3.52459
G1 X75.773 Y90.113 E3.61742
G1 X76.873 Y88.801 E3.68535
G1 X77.267 Y87.134 E3.75328
G1 X77.267 Y32.866 E5.90607
G1 X76.531 Y30.645 E5.9989
G1 X75.218 Y29.545 E6.06683
G1 X73.552 Y29.15 E6.13476
G1 X46.448 Y29.15 E7.20994
M73 P0 R23
G1 X44.227 Y29.887 E7.30277
G1 X43.127 Y31.199 E7.3707
G1 X43.603 Y31.32 F12000
G1 F1800
G1 X43.21 Y32.866 E7.43396
G1 X43.21 Y87.134 E9.58675
G1 X43.729 Y88.893 E9.65951
G1 X44.9 Y89.979 E9.72286
G1 X46.448 Y90.373 E9.78622
G1 X73.552 Y90.373 E10.8614
G1 X75.311 Y89.853 E10.93415
G1 X76.396 Y88.682 E10.99751
G1 X76.79 Y87.134 E11.06087
G1 X76.79 Y32.866 E13.21366
G1 X76.271 Y31.107 E13.28642
G1 X75.1 Y30.021 E13.34978
G1 X73.552 Y29.627 E13.41313
G1 X46.448 Y29.627 E14.48831
G1 X44.689 Y30.147 E14.56107
G1 X43.603 Y31.32 E14.62451
G92 E0
G1 E-0.8 F3000
; printing object 2_x_AAA_battery_case.stl id:0 copy 0
; acceleration to travel
M204 S4000
G1 X60.489 Y67.018 F12000
; decel to extrusion
M204 S1500
M73 P1 R23
G1 X66.822 Y80.404
; end travel
G1 E0 F1800
;TYPE:Support material interface
;WIDTH:0.5
G1 X73.552 Y80.404 E0.25577
G1 X73.552 Y87.134 E0.51155
G1 X66.822 Y87.134 E0.76732
G1 X66.822 Y85.581 E0.82634
G1 X67.907 Y85.581 E0.86757
G1 X67.923 Y85.581 E0.86818
G1 X68.354 Y85.564 E0.88458
G1 X68.791 Y85.547 E0.9012
G1 X68.821 Y85.545 E0.90234
G1 X69.004 Y85.525 E0.90935
G1 X69.278 Y85.494 E0.91983
G1 X69.311 Y85.489 E0.92108
G1 X69.615 Y85.43 E0.93285
G1 X69.658 Y85.419 E0.93453
G1 X69.726 Y85.398 E0.93725
G1 X69.931 Y85.336 E0.94539
G1 X69.958 Y85.429 E0.9491
G1 X69.998 Y85.565 E0.95445
G1 X70.296 Y85.477 E0.96625
G1 X70.46 Y85.429 E0.97276
G1 X70.487 Y85.419 E0.97386
G1 X70.518 Y85.408 E0.97509
G1 X70.57 Y85.386 E0.97723
G1 X70.781 Y85.295 E0.98597
G1 X70.914 Y85.212 E0.99194
G1 X70.952 Y85.178 E0.99388
G1 X71.247 Y84.922 E1.00874
G1 X71.43 Y84.522 E1.02545
G1 X71.43 Y82.878 E1.0879
G1 X71.247 Y82.478 E1.10461
G1 X70.9 Y82.177 E1.12209
G1 X70.734 Y82.08 E1.1294
G1 X70.707 Y82.071 E1.13046
G1 X70.369 Y81.952 E1.14409
G1 X70.215 Y81.898 E1.1503
G1 X70.194 Y81.893 E1.15113
G1 X70.134 Y81.877 E1.15348
G1 X69.825 Y81.824 E1.16539
G1 X69.794 Y82.005 E1.17236
G1 X69.615 Y81.97 E1.17929
G1 X69.311 Y81.911 E1.19106
G1 X69.278 Y81.906 E1.19232
G1 X68.821 Y81.855 E1.2098
G1 X68.791 Y81.853 E1.21094
G1 X67.923 Y81.819 E1.24396
G1 X67.907 Y81.819 E1.24458
G1 X66.822 Y81.819 E1.2858
G1 X66.822 Y80.404 E1.33956
G92 E0
G1 E-0.8 F3000
; acceleration to travel
M204 S4000
G1 X71.633 Y80.708 F12000
; decel to extrusion
M204 S1500
G1 X73.437 Y80.823
; end travel
G1 E0 F1800
G1 X67.133 Y80.823 E0.23962
G1 X67.133 Y81.33 E0.25892
G1 X73.241 Y81.33 E0.49107
G1 X73.241 Y81.838 E0.51037
G1 X70.936 Y81.838 E0.59796
G1 X71.082 Y81.923 E0.60435
G1 X71.502 Y82.288 E0.6255
G1 X71.528 Y82.346 E0.62793
G1 X73.241 Y82.346 E0.69302
G1 X73.241 Y82.854 E0.71232
G1 X71.74 Y82.854 E0.76935
G1 X71.74 Y83.362 E0.78865
G1 X73.241 Y83.362 E0.84568
G1 X73.241 Y83.87 E0.86499
G1 X71.74 Y83.87 E0.92202
G1 X71.74 Y84.378 E0.94132
G1 X73.241 Y84.378 E0.99835
G1 X73.241 Y84.885 E1.01766
G1 X71.605 Y84.885 E1.07982
G1 X71.502 Y85.112 E1.08928
G1 X71.178 Y85.393 E1.10558
G1 X73.241 Y85.393 E1.18396
G1 X73.241 Y85.901 E1.20327
G1 X67.133 Y85.901 E1.43541
G1 X67.133 Y86.409 E1.45472
G1 X73.437 Y86.409 E1.69434
G92 E0
G1 E-0.8 F3000
; acceleration to travel
M204 S4000
G1 X58.703 Y86.409 F12000
; decel to extrusion
M204 S1500
G1 X53.178 Y86.409
; end travel
G1 E0 F1800
G1 X53.178 Y87.134 E0.02756
G1 X46.448 Y87.134 E0.28334
G1 X46.448 Y80.404 E0.53911
G1 X53.178 Y80.404 E0.79489
G1 X53.178 Y81.819 E0.84864
G1 X52.093 Y81.819 E0.88986
G1 X52.077 Y81.819 E0.89048
G1 X51.209 Y81.853 E0.9235
G1 X51.179 Y81.855 E0.92464
G1 X50.722 Y81.906 E0.94212
G1 X50.689 Y81.911 E0.94338
G1 X50.385 Y81.97 E0.95515
G1 X50.354 Y81.976 E0.95638
G1 X50.321 Y81.798 E0.96327
G1 X49.89 Y81.876 E0.97992
G1 X49.865 Y81.88 E0.98087
G1 X49.834 Y81.886 E0.98209
G1 X49.802 Y81.894 E0.98335
G1 X49.778 Y81.899 E0.98428
G1 X49.679 Y81.929 E0.9882
G1 X49.651 Y81.937 E0.98931
G1 X49.531 Y81.974 E0.99406
G1 X49.511 Y81.981 E0.99489
G1 X49.463 Y82 E0.99684
G1 X49.179 Y82.132 E1.00874
G1 X49.087 Y82.188 E1.01283
G1 X48.911 Y82.321 E1.02123
G1 X48.768 Y82.49 E1.02964
G1 X48.623 Y82.764 E1.04143
G1 X48.563 Y83.004 E1.05085
G1 X48.563 Y84.396 E1.10372
G1 X48.623 Y84.636 E1.11313
G1 X48.695 Y84.773 E1.11903
G1 X48.768 Y84.91 E1.12493
G1 X48.911 Y85.079 E1.13333
G1 X49.087 Y85.212 E1.14173
G1 X49.134 Y85.241 E1.14382
G1 X49.179 Y85.268 E1.14583
G1 X49.299 Y85.324 E1.15085
G1 X49.464 Y85.401 E1.15777
G1 X49.536 Y85.428 E1.16069
G1 X49.685 Y85.472 E1.16658
G1 X50.008 Y85.566 E1.17936
G1 X50.075 Y85.337 E1.18843
G1 X50.192 Y85.373 E1.19309
G1 X50.345 Y85.42 E1.19919
G1 X50.374 Y85.427 E1.20031
G1 X50.396 Y85.433 E1.20118
G1 X50.621 Y85.472 E1.20984
G1 X50.861 Y85.513 E1.21909
G1 X50.88 Y85.516 E1.21982
G1 X50.901 Y85.518 E1.22064
G1 X51.632 Y85.572 E1.24849
G1 X51.654 Y85.573 E1.24934
G1 X52.097 Y85.581 E1.26616
G1 X53.178 Y85.581 E1.30726
G1 X53.178 Y86.409 E1.33871
G92 E0
G1 E-0.8 F3000
; acceleration to travel
M204 S4000
G1 X48.367 Y82.346 F12000
; decel to extrusion
M204 S1500
G1 X46.563 Y80.823
; end travel
G1 E0 F1800
G1 X52.867 Y80.823 E0.23962
G1 X52.867 Y81.33 E0.25892
G1 X46.759 Y81.33 E0.49107
G1 X46.759 Y81.838 E0.51037
G1 X49.074 Y81.838 E0.59835
G1 X49.033 Y81.857 E0.60006
G1 X48.913 Y81.93 E0.60541
G1 X48.696 Y82.094 E0.61573
G1 X48.509 Y82.314 E0.62672
G1 X48.492 Y82.346 E0.62808
G1 X46.759 Y82.346 E0.69396
M73 P1 R23
G1 X46.759 Y82.854 E0.71326
G1 X48.28 Y82.854 E0.77107
G1 X48.252 Y82.966 E0.77548
G1 X48.252 Y83.362 E0.7905
G1 X46.759 Y83.362 E0.84726
G1 X46.759 Y83.87 E0.86656
G1 X48.252 Y83.87 E0.92331
G1 X48.252 Y84.378 E0.94261
G1 X46.759 Y84.378 E0.99936
G1 X46.759 Y84.885 E1.01867
G1 X48.403 Y84.885 E1.08115
G1 X48.421 Y84.918 E1.08257
G1 X48.509 Y85.086 E1.08976
G1 X48.696 Y85.306 E1.10075
G1 X48.811 Y85.393 E1.10624
G1 X46.759 Y85.393 E1.18425
G1 X46.759 Y85.901 E1.20355
G1 X52.867 Y85.901 E1.4357
G1 X52.867 Y86.409 E1.455
G1 X46.563 Y86.409 E1.69462
G92 E0
G1 E-0.8 F3000
; acceleration to travel
M204 S4000
G1 X61.297 Y72.119 F12000
; decel to extrusion
M204 S1500
G1 X66.822 Y66.76
; end travel
G1 E0 F1800
G1 X66.822 Y65.345 E0.05381
G1 X67.327 Y65.344 E0.07301
G1 X67.826 Y65.342 E0.09197
G1 X68.344 Y65.341 E0.11165
G1 X68.389 Y65.339 E0.11336
G1 X68.846 Y65.288 E0.13085
G1 X68.877 Y65.283 E0.13202
G1 X69.36 Y65.193 E0.1507
G1 X69.383 Y65.188 E0.1516
G1 X69.431 Y65.426 E0.16084
G1 X69.826 Y65.347 E0.17614
G1 X69.888 Y65.33 E0.1786
G1 X70.066 Y65.269 E0.18574
G1 X70.332 Y65.179 E0.1964
G1 X70.414 Y65.143 E0.19981
G1 X70.731 Y64.968 E0.21359
G1 X70.815 Y64.911 E0.21742
G1 X71.057 Y64.705 E0.22952
G1 X71.162 Y64.583 E0.23562
G1 X71.312 Y64.338 E0.24653
G1 X71.378 Y64.172 E0.25332
G1 X71.427 Y63.928 E0.2628
G1 X71.437 Y63.827 E0.26664
G1 X71.437 Y56.173 E0.55755
G1 X71.427 Y56.072 E0.56139
G1 X71.405 Y55.963 E0.56563
G1 X71.378 Y55.828 E0.57087
G1 X71.312 Y55.662 E0.57766
G1 X71.162 Y55.417 E0.58857
G1 X71.057 Y55.295 E0.59467
G1 X70.813 Y55.088 E0.60685
G1 X70.722 Y55.027 E0.61101
G1 X70.356 Y54.833 E0.62675
G1 X70.271 Y54.797 E0.63025
G1 X70.052 Y54.728 E0.639
G1 X69.792 Y54.646 E0.64934
G1 X69.73 Y54.63 E0.65179
G1 X69.393 Y54.569 E0.66478
G1 X69.351 Y54.805 E0.67387
G1 X68.875 Y54.717 E0.69225
G1 X68.846 Y54.712 E0.69339
G1 X68.394 Y54.662 E0.71067
G1 X68.361 Y54.66 E0.71192
G1 X68.329 Y54.659 E0.71312
G1 X67.919 Y54.646 E0.72874
G1 X67.906 Y54.645 E0.72924
G1 X67.436 Y54.645 E0.74708
G1 X66.822 Y54.645 E0.77043
G1 X66.822 Y53.239 E0.82386
G1 X73.552 Y53.239 E1.07964
G1 X73.552 Y66.76 E1.59352
G1 X66.822 Y66.76 E1.8493
G92 E0
G1 E-0.8 F3000
; acceleration to travel
M204 S4000
G1 X71.633 Y57.411 F12000
; decel to extrusion
M204 S1500
G1 X73.437 Y53.906
; end travel
G1 E0 F1800
G1 X67.133 Y53.906 E0.23962
G1 X67.133 Y54.335 E0.25592
G1 X67.436 Y54.335 E0.26746
G1 X67.908 Y54.335 E0.28539
G1 X67.926 Y54.335 E0.28608
G1 X68.339 Y54.348 E0.30179
G1 X68.377 Y54.349 E0.30322
G1 X68.389 Y54.35 E0.30367
G1 X68.422 Y54.352 E0.30494
G1 X68.886 Y54.404 E0.32267
G1 X68.914 Y54.408 E0.32374
G1 X68.926 Y54.41 E0.32424
G1 X68.945 Y54.413 E0.32495
G1 X73.241 Y54.413 E0.48822
G1 X73.241 Y54.921 E0.50753
G1 X71.097 Y54.921 E0.58901
G1 X71.277 Y55.074 E0.59799
G1 X71.414 Y55.233 E0.60596
G1 X71.534 Y55.429 E0.6147
G1 X73.241 Y55.429 E0.67958
G1 X73.241 Y55.937 E0.69888
G1 X71.717 Y55.937 E0.75681
G1 X71.735 Y56.026 E0.76025
G1 X71.748 Y56.157 E0.76527
G1 X71.748 Y56.445 E0.7762
G1 X73.241 Y56.445 E0.83295
G1 X73.241 Y56.953 E0.85225
G1 X71.748 Y56.953 E0.909
G1 X71.748 Y57.461 E0.9283
G1 X73.241 Y57.461 E0.98505
G1 X73.241 Y57.969 E1.00436
G1 X71.748 Y57.969 E1.0611
G1 X71.748 Y58.476 E1.08041
G1 X73.241 Y58.476 E1.13715
G1 X73.241 Y58.984 E1.15646
G1 X71.748 Y58.984 E1.2132
G1 X71.748 Y59.492 E1.23251
G1 X73.241 Y59.492 E1.28925
G1 X73.241 Y60 E1.30856
G1 X71.748 Y60 E1.3653
G1 X71.748 Y60.508 E1.38461
G1 X73.241 Y60.508 E1.44136
G1 X73.241 Y61.016 E1.46066
G1 X71.748 Y61.016 E1.51741
G1 X71.748 Y61.524 E1.53671
G1 X73.241 Y61.524 E1.59346
G1 X73.241 Y62.031 E1.61276
G1 X71.748 Y62.031 E1.66951
G1 X71.748 Y62.539 E1.68881
G1 X73.241 Y62.539 E1.74556
G1 X73.241 Y63.047 E1.76486
G1 X71.748 Y63.047 E1.82161
G1 X71.748 Y63.555 E1.84091
G1 X73.241 Y63.555 E1.89766
G1 X73.241 Y64.063 E1.91696
G1 X71.717 Y64.063 E1.97489
G1 X71.677 Y64.261 E1.98255
G1 X71.591 Y64.478 E1.99142
G1 X71.534 Y64.571 E1.99558
G1 X73.241 Y64.571 E2.06045
G1 X73.241 Y65.079 E2.07975
G1 X70.767 Y65.079 E2.17377
G92 E0
G1 E-0.8 F3000
; acceleration to travel
M204 S4000
G1 X72.709 Y65.448 F12000
; decel to extrusion
M204 S1500
G1 X73.437 Y65.587
; end travel
G1 E0 F1800
G1 X68.945 Y65.587 E0.17074
G1 X68.928 Y65.59 E0.1714
G1 X68.886 Y65.596 E0.173
G1 X68.415 Y65.648 E0.19103
G1 X68.353 Y65.652 E0.19338
G1 X67.827 Y65.653 E0.21338
G1 X67.327 Y65.654 E0.2324
G1 X67.133 Y65.655 E0.23976
G1 X67.133 Y66.094 E0.25647
G1 X73.437 Y66.094 E0.49609
G92 E0
G1 E-0.8 F3000
; acceleration to travel
M204 S4000
G1 X58.703 Y66.094 F12000
; decel to extrusion
M204 S1500
G1 X53.178 Y66.094
; end travel
G1 E0 F1800
G1 X53.178 Y66.76 E0.02532
G1 X46.448 Y66.76 E0.28109
G1 X46.448 Y53.239 E0.79498
G1 X53.178 Y53.239 E1.05075
G1 X53.178 Y54.652 E1.10442
G1 X52.167 Y54.656 E1.14286
G1 X51.655 Y54.659 E1.16232
G1 X51.611 Y54.661 E1.16399
G1 X51.154 Y54.712 E1.18145
G1 X51.125 Y54.717 E1.18259
G1 X50.646 Y54.805 E1.20109
G1 X50.6 Y54.567 E1.21034
G1 X50.262 Y54.632 E1.22339
G1 X50.206 Y54.646 E1.2256
G1 X49.949 Y54.727 E1.23585
G1 X49.83 Y54.765 E1.24061
G1 X49.729 Y54.797 E1.24463
G1 X49.644 Y54.833 E1.24813
G1 X49.278 Y55.027 E1.26387
G1 X49.187 Y55.088 E1.26803
G1 X49.102 Y55.16 E1.27228
G1 X48.943 Y55.295 E1.28021
G1 X48.838 Y55.417 E1.2863
G1 X48.688 Y55.662 E1.29722
G1 X48.622 Y55.828 E1.30401
G1 X48.595 Y55.963 E1.30925
G1 X48.573 Y56.072 E1.31348
G1 X48.563 Y56.173 E1.31733
G1 X48.563 Y63.825 E1.60814
G1 X48.571 Y63.916 E1.61162
G1 X48.617 Y64.165 E1.62125
G1 X48.694 Y64.356 E1.62908
G1 X48.855 Y64.599 E1.64018
G1 X48.889 Y64.638 E1.64213
G1 X48.943 Y64.7 E1.64526
G1 X49.177 Y64.905 E1.65709
G1 X49.272 Y64.972 E1.6615
G1 X49.599 Y65.146 E1.67557
G1 X49.674 Y65.179 E1.6787
G1 X49.938 Y65.269 E1.6893
G1 X50.085 Y65.319 E1.69518
G1 X50.115 Y65.33 E1.6964
G1 X50.129 Y65.333 E1.69695
G1 X50.184 Y65.348 E1.6991
G1 X50.597 Y65.427 E1.71507
G1 X50.642 Y65.191 E1.72422
G1 X51.014 Y65.255 E1.73858
G1 X51.275 Y65.3 E1.74863
G1 X51.355 Y65.314 E1.75174
G1 X51.391 Y65.318 E1.75309
G1 X51.404 Y65.319 E1.75362
G1 X51.743 Y65.337 E1.76649
G1 X52.03 Y65.352 E1.77744
G1 X52.069 Y65.354 E1.77892
G1 X52.091 Y65.355 E1.77974
G1 X52.564 Y65.355 E1.79771
G1 X53.027 Y65.355 E1.81534
G1 X53.178 Y65.355 E1.82106
G1 X53.178 Y66.094 E1.84918
G92 E0
G1 E-0.8 F3000
; acceleration to travel
M204 S4000
G1 X53.095 Y57.23 F12000
; decel to extrusion
M204 S1500
G1 X53.064 Y53.906
; end travel
G1 E0 F1800
G1 X46.759 Y53.906 E0.23962
G1 X46.759 Y54.413 E0.25892
G1 X53.064 Y54.413 E0.49854
G92 E0
G1 E-0.8 F3000
; acceleration to travel
M204 S4000
G1 X50.277 Y54.783 F12000
; decel to extrusion
M204 S1500
G1 X49.232 Y54.921
; end travel
G1 E0 F1800
G1 X46.759 Y54.921 E0.094
G1 X46.759 Y55.429 E0.1133
G1 X48.466 Y55.429 E0.17818
G1 X48.409 Y55.522 E0.18233
G1 X48.323 Y55.739 E0.1912
G1 X48.29 Y55.901 E0.19748
G1 X48.283 Y55.937 E0.19886
G1 X46.759 Y55.937 E0.2568
G1 X46.759 Y56.445 E0.2761
G1 X48.252 Y56.445 E0.33285
G1 X48.252 Y56.953 E0.35215
G1 X46.759 Y56.953 E0.4089
G1 X46.759 Y57.461 E0.4282
G1 X48.252 Y57.461 E0.48495
G1 X48.252 Y57.969 E0.50425
G1 X46.759 Y57.969 E0.561
G1 X46.759 Y58.476 E0.5803
G1 X48.252 Y58.476 E0.63705
G1 X48.252 Y58.984 E0.65635
G1 X46.759 Y58.984 E0.7131
G1 X46.759 Y59.492 E0.7324
G1 X48.252 Y59.492 E0.78915
G1 X48.252 Y60 E0.80846
G1 X46.759 Y60 E0.86521
G1 X46.759 Y60.508 E0.88451
G1 X48.252 Y60.508 E0.94126
G1 X48.252 Y61.016 E0.96056
G1 X46.759 Y61.016 E1.01731
G1 X46.759 Y61.524 E1.03661
G1 X48.252 Y61.524 E1.09336
G1 X48.252 Y62.031 E1.11266
G1 X46.759 Y62.031 E1.16941
G1 X46.759 Y62.539 E1.18871
G1 X48.252 Y62.539 E1.24546
G1 X48.252 Y63.047 E1.26476
G1 X46.759 Y63.047 E1.32151
G1 X46.759 Y63.555 E1.34082
G1 X48.252 Y63.555 E1.39756
G1 X48.252 Y63.839 E1.40834
G1 X48.263 Y63.958 E1.41288
G1 X48.282 Y64.063 E1.41695
G1 X46.759 Y64.063 E1.47484
G1 X46.759 Y64.571 E1.49414
G1 X48.463 Y64.571 E1.55891
G1 X48.608 Y64.788 E1.56884
G1 X48.655 Y64.842 E1.57157
G1 X48.723 Y64.92 E1.57549
G1 X48.903 Y65.079 E1.58462
G1 X46.759 Y65.079 E1.66612
G1 X46.759 Y65.587 E1.68542
G1 X51.108 Y65.587 E1.8507
G1 X51.222 Y65.606 E1.8551
G1 X51.312 Y65.622 E1.85856
G1 X51.356 Y65.627 E1.86026
G1 X51.379 Y65.629 E1.86114
G1 X51.726 Y65.647 E1.87436
G1 X52.014 Y65.662 E1.88532
G1 X52.057 Y65.665 E1.88695
G1 X52.087 Y65.665 E1.88808
G1 X52.564 Y65.665 E1.9062
G1 X52.867 Y65.665 E1.91774
G1 X52.867 Y66.094 E1.93404
G1 X46.563 Y66.094 E2.17366
G92 E0
G1 E-0.8 F3000
; acceleration to travel
M204 S4000
G1 X46.563 Y46.823 F12000
; decel to extrusion
M204 S1500
G1 X46.563 Y39.596
; end travel
G1 E0 F1800
G1 X46.448 Y39.596 E0.00434
G1 X46.448 Y32.866 E0.26012
G1 X53.178 Y32.866 E0.51589
G1 X53.178 Y34.427 E0.57522
G1 X51.665 Y34.427 E0.63271
G1 X51.635 Y34.428 E0.63386
G1 X51.27 Y34.455 E0.64776
G1 X50.896 Y34.482 E0.66202
G1 X50.844 Y34.489 E0.66401
G1 X50.526 Y34.554 E0.67634
G1 X50.316 Y34.596 E0.68448
G1 X50.284 Y34.408 E0.69175
G1 X49.893 Y34.475 E0.70683
