; generated by SuperSlicer 2.5.59 on 2023-01-04 at 20:27:29 UTC


;
;

;
;
; 

; external perimeters extrusion width = 0.40mm
; perimeters extrusion width = 0.46mm
; infill extrusion width = 0.64mm
; solid infill extrusion width = 0.56mm
; top infill extrusion width = 0.40mm
; first layer extrusion width = 0.50mm

; external perimeters extrusion width = 0.40mm
; perimeters extrusion width = 0.46mm
; infill extrusion width = 0.64mm
; solid infill extrusion width = 0.56mm
; top infill extrusion width = 0.40mm
; first layer extrusion width = 0.50mm

; object:{"name":"2x2","id":"2x2.stl id:0 copy 0","object_center":[60.000000,33.800000,0.000000],"boundingbox_center":[60.000000,33.800000,7.300000],"boundingbox_size":[68.199997,46.400002,14.600000]}
; object:{"name":"1x2","id":"1x2.stl id:1 copy 0","object_center":[60.000001,86.200000,0.000000],"boundingbox_center":[60.000001,86.200000,7.300000],"boundingbox_size":[34.099998,46.400002,14.600000]}
; plater:{"center":[60.000000,60.000000,0.000000],"boundingbox_center":[60.000000,60.000000,7.300000],"boundingbox_size":[68.199997,98.800002,14.600000]}

M73 P0 R34
;TYPE:Custom
; custom gcode: start_gcode
START_PRINT T_BED=60 T_EXTRUDER=200
; custom gcode end: start_gcode
M107
G21 ; set units to millimeters
G90 ; use absolute coordinates
M83 ; use relative distances for extrusion
; custom gcode: start_filament_gcode
; Filament gcode

    PRESSURE_ADVANCE_SELECT FILAMENT=PLA
; custom gcode end: start_filament_gcode
;_TOOLCHANGE 0
M104 S200 ; set temperature
M109 S200 ; set temperature and wait for it to be reached
M190 S60 ; set bed temperature and wait for it to be reached
;LAYER_CHANGE
;Z:0.2
;HEIGHT:0.2
G1 Z0.2 F12000
G92 E0
M73 P0 R34
G1 E-0.4 F1800
M204 S2000
G1 X23.903 Y11.294 F12000
G1 E0.4 F1800
;TYPE:Skirt
;WIDTH:0.52
G1 X23.561 Y12.185 E0.03674
G1 X23.405 Y12.873 E0.02713
G1 X23.328 Y13.766 E0.03449
G1 X23.328 Y53.833 E1.54177
G1 X23.449 Y54.958 E0.04351
G1 X40.72 Y108.149 E2.15197
G1 X41.353 Y109.405 E0.05411
G1 X42.271 Y110.471 E0.05411
G1 X43.48 Y111.313 E0.05671
G1 X44.713 Y111.787 E0.05083
G1 X46.117 Y111.972 E0.05448
G1 X74.175 Y111.96 E1.07967
G1 X75.123 Y111.827 E0.03683
G1 X76.22 Y111.46 E0.04451
G1 X77.422 Y110.731 E0.05411
G1 X78.121 Y110.079 E0.03675
G1 X78.824 Y109.122 E0.04573
G1 X79.35 Y107.951 E0.04939
G1 X96.439 Y55.415 E2.1258
G1 X96.595 Y54.727 E0.02713
G1 X96.672 Y53.834 E0.0345
G1 X96.671 Y13.731 E1.54313
G1 X96.587 Y12.852 E0.03396
G1 X96.302 Y11.785 E0.04253
G1 X95.818 Y10.791 E0.04253
G1 X95.41 Y10.207 E0.02741
G1 X94.641 Y9.413 E0.04253
G1 X93.386 Y8.598 E0.0576
G1 X92.726 Y8.331 E0.02741
G1 X91.68 Y8.086 E0.04131
G1 X90.932 Y8.028 E0.02887
G1 X75.478 Y8.028 E0.59467
G1 X28.486 Y8.065 E1.80821
G1 X27.663 Y8.213 E0.03218
G1 X26.836 Y8.495 E0.03362
G1 X26.092 Y8.878 E0.03221
G1 X25.489 Y9.3 E0.02833
G1 X24.664 Y10.111 E0.04451
G1 X24.247 Y10.679 E0.0271
G1 X23.903 Y11.294 E0.02711
G1 X24.337 Y11.492 F12000
G1 F1800
G1 X24.016 Y12.329 E0.0345
G1 X23.805 Y13.766 E0.0559
G1 X23.805 Y53.833 E1.54177
G1 X23.913 Y54.85 E0.03935
G1 X41.172 Y107.998 E2.15021
G1 X41.755 Y109.149 E0.04964
G1 X42.599 Y110.125 E0.04964
G1 X43.711 Y110.896 E0.05208
G1 X44.82 Y111.322 E0.04572
G1 X46.117 Y111.495 E0.05033
G1 X74.138 Y111.485 E1.07823
G1 X75.028 Y111.36 E0.03459
G1 X76.015 Y111.03 E0.04003
G1 X77.119 Y110.363 E0.04964
G1 X77.774 Y109.751 E0.03451
G1 X78.407 Y108.89 E0.0411
G1 X78.896 Y107.803 E0.04588
G1 X95.984 Y55.271 E2.12564
G1 X96.195 Y53.834 E0.0559
G1 X96.194 Y13.731 E1.54313
G1 X96.114 Y12.915 E0.03156
G1 X95.85 Y11.936 E0.03901
G1 X95.403 Y11.026 E0.03902
G1 X95.047 Y10.517 E0.02389
G1 X94.344 Y9.786 E0.03901
G1 X93.166 Y9.021 E0.05408
G1 X92.59 Y8.788 E0.02389
G1 X91.63 Y8.561 E0.03795
G1 X90.932 Y8.505 E0.02694
G1 X75.478 Y8.505 E0.59467
G1 X28.85 Y8.515 E1.79423
M73 P1 R33
G1 X28.049 Y8.614 E0.03103
G1 X27.312 Y8.82 E0.02946
G1 X26.579 Y9.147 E0.0309
G1 X25.779 Y9.679 E0.03694
G1 X25.037 Y10.408 E0.04003
G1 X24.654 Y10.928 E0.02486
G1 X24.337 Y11.492 E0.02487
G1 E-0.4
; printing object 2x2.stl id:0 copy 0
; acceleration to travel
M204 S4000
G1 X48.113 Y40.292 F12000
; decel to extrusion
M204 S2000
G1 X60.001 Y54.692
; end travel
G1 E0.4 F1800
;TYPE:Internal perimeter
;WIDTH:0.457079
G1 X29.238 Y54.692 E1.0276
G1 X29.077 Y54.684 E0.00539
G1 X28.685 Y54.58 E0.01354
G1 X28.447 Y54.385 E0.01029
G1 X28.257 Y54.052 E0.0128
G1 X28.208 Y53.743 E0.01047
G1 X28.208 Y13.967 E1.32867
G1 X28.216 Y13.777 E0.00635
G1 X28.32 Y13.385 E0.01354
G1 X28.515 Y13.147 E0.01029
G1 X28.843 Y12.959 E0.01263
G1 X29.189 Y12.908 E0.0117
G1 X90.821 Y12.908 E2.05875
G1 X90.982 Y12.92 E0.00541
G1 X91.307 Y13.017 E0.01135
G1 X91.571 Y13.227 E0.01125
G1 X91.737 Y13.52 E0.01125
G1 X91.791 Y13.871 E0.01185
G1 X91.792 Y53.633 E1.32822
G1 X91.784 Y53.823 E0.00636
G1 X91.68 Y54.215 E0.01354
G1 X91.485 Y54.453 E0.01029
G1 X91.157 Y54.641 E0.01263
G1 X90.811 Y54.692 E0.0117
G1 X60.001 Y54.692 E1.02919
G1 X60.001 Y55.149 F12000
G1 F1800
G1 X29.238 Y55.149 E1.0276
G1 X29.017 Y55.137 E0.00739
G1 X28.63 Y55.049 E0.01325
G1 X28.324 Y54.885 E0.0116
G1 X27.992 Y54.559 E0.01555
G1 X27.816 Y54.189 E0.01368
G1 X27.751 Y53.779 E0.01389
G1 X27.751 Y13.967 E1.32987
G1 X27.763 Y13.718 E0.00835
G1 X27.851 Y13.33 E0.01326
G1 X28.015 Y13.024 E0.0116
G1 X28.341 Y12.692 E0.01555
G1 X28.708 Y12.517 E0.01358
G1 X29.155 Y12.45 E0.01511
G1 X90.821 Y12.451 E2.05988
G1 X91.153 Y12.478 E0.01116
G1 X91.633 Y12.671 E0.01727
G1 X92.002 Y13.028 E0.01716
G1 X92.211 Y13.497 E0.01716
G1 X92.248 Y13.871 E0.01253
G1 X92.249 Y53.633 E1.32822
G1 X92.237 Y53.882 E0.00835
G1 X92.149 Y54.27 E0.01326
G1 X91.985 Y54.576 E0.0116
G1 X91.659 Y54.908 E0.01555
G1 X91.292 Y55.083 E0.01358
G1 X90.845 Y55.15 E0.01511
G1 X60.001 Y55.149 E1.03032
G1 X60.001 Y55.606 F12000
;TYPE:External perimeter
G1 F1800
G1 X29.206 Y55.606 E1.02866
G1 X28.664 Y55.551 E0.0182
G1 X28.253 Y55.393 E0.01473
G1 X27.892 Y55.141 E0.01469
G1 X27.606 Y54.812 E0.01457
G1 X27.375 Y54.326 E0.01798
G1 X27.294 Y53.814 E0.0173
G1 X27.294 Y13.906 E1.33311
G1 X27.349 Y13.364 E0.01819
G1 X27.507 Y12.953 E0.01473
G1 X27.759 Y12.592 E0.0147
G1 X28.088 Y12.306 E0.01457
G1 X28.573 Y12.075 E0.01795
G1 X29.122 Y11.993 E0.01853
G1 X90.821 Y11.994 E2.06101
M73 P2 R33
G1 X91.243 Y12.028 E0.01416
G1 X91.73 Y12.206 E0.01732
G1 X92.154 Y12.502 E0.01726
G1 X92.464 Y12.915 E0.01727
G1 X92.659 Y13.394 E0.01727
G1 X92.705 Y13.871 E0.016
G1 X92.706 Y53.694 E1.33027
G1 X92.651 Y54.236 E0.01819
G1 X92.493 Y54.647 E0.01473
G1 X92.241 Y55.008 E0.0147
G1 X91.912 Y55.294 E0.01457
G1 X91.427 Y55.525 E0.01795
G1 X90.878 Y55.607 E0.01853
G1 X60.001 Y55.606 E1.03145
;WIPE_START
M204 S4000
G1 X59.801 Y55.26 F12000
;WIPE_END
G1 E-0.4 F1800
; acceleration to travel
G1 X80.422 Y27.291 F12000
; decel to extrusion
M204 S2000
G1 X90.921 Y13.051
; end travel
G1 E0.4 F1800
;TYPE:Solid infill
;WIDTH:0.500955
G1 F2400
G1 X91.649 Y13.779 E0.03801
G1 X91.654 Y14.43 F12000
G1 F2400
G1 X90.269 Y13.045 E0.07235
G1 X89.623 Y13.045 F12000
G1 F2400
G1 X91.654 Y15.077 E0.10612
G1 X91.654 Y15.723 F12000
G1 F2400
G1 X88.976 Y13.045 E0.13989
G1 X88.33 Y13.045 F12000
G1 F2400
G1 X91.654 Y16.369 E0.17365
G1 X91.654 Y17.016 F12000
G1 F2400
G1 X87.683 Y13.045 E0.20742
G1 X87.037 Y13.045 F12000
G1 F2400
G1 X91.654 Y17.662 E0.24119
M73 P2 R33
G1 X91.654 Y18.309 F12000
G1 F2400
G1 X86.39 Y13.045 E0.27495
G1 X85.744 Y13.045 F12000
G1 F2400
G1 X91.654 Y18.955 E0.30872
G1 X91.654 Y19.601 F12000
G1 F2400
G1 X85.098 Y13.045 E0.34249
G1 X84.451 Y13.045 F12000
G1 F2400
G1 X91.654 Y20.248 E0.37626
G1 X91.654 Y20.894 F12000
G1 F2400
G1 X83.805 Y13.045 E0.41002
G1 X83.158 Y13.045 F12000
G1 F2400
G1 X91.654 Y21.541 E0.44379
G1 X91.654 Y22.187 F12000
G1 F2400
G1 X82.512 Y13.045 E0.47756
G1 X81.866 Y13.045 F12000
G1 F2400
G1 X91.654 Y22.834 E0.51132
G1 X91.654 Y23.48 F12000
G1 F2400
G1 X81.219 Y13.045 E0.54509
G1 X80.573 Y13.045 F12000
G1 F2400
G1 X91.654 Y24.126 E0.57886
G1 X91.654 Y24.773 F12000
G1 F2400
G1 X79.926 Y13.045 E0.61262
G1 X79.28 Y13.045 F12000
G1 F2400
G1 X91.654 Y25.419 E0.64639
G1 X91.654 Y26.066 F12000
G1 F2400
G1 X78.634 Y13.045 E0.68016
G1 X77.987 Y13.045 F12000
G1 F2400
G1 X91.654 Y26.712 E0.71392
G1 X91.654 Y27.359 F12000
G1 F2400
G1 X77.341 Y13.045 E0.74769
G1 X76.694 Y13.045 F12000
G1 F2400
G1 X91.654 Y28.005 E0.78146
G1 X91.654 Y28.651 F12000
G1 F2400
G1 X76.048 Y13.045 E0.81522
G1 X75.401 Y13.045 F12000
G1 F2400
G1 X91.654 Y29.298 E0.84899
G1 X91.654 Y29.944 F12000
G1 F2400
G1 X74.755 Y13.045 E0.88276
G1 X74.109 Y13.045 F12000
G1 F2400
G1 X91.654 Y30.591 E0.91653
G1 X91.654 Y31.237 F12000
G1 F2400
G1 X73.462 Y13.045 E0.95029
G1 X72.816 Y13.045 F12000
G1 F2400
G1 X91.654 Y31.884 E0.98406
G1 X91.655 Y32.53 F12000
G1 F2400
G1 X72.169 Y13.045 E1.01783
G1 X71.523 Y13.045 F12000
G1 F2400
G1 X91.655 Y33.176 E1.05159
G1 X91.655 Y33.823 F12000
G1 F2400
G1 X70.877 Y13.045 E1.08536
G1 X70.23 Y13.045 F12000
G1 F2400
G1 X91.655 Y34.469 E1.11913
G1 X91.655 Y35.116 F12000
G1 F2400
G1 X69.584 Y13.045 E1.15289
G1 X68.937 Y13.045 F12000
G1 F2400
G1 X91.655 Y35.762 E1.18666
G1 X91.655 Y36.408 F12000
G1 F2400
G1 X68.291 Y13.045 E1.22043
M73 P3 R33
G1 X67.645 Y13.045 F12000
G1 F2400
G1 X91.655 Y37.055 E1.25419
G1 X91.655 Y37.701 F12000
G1 F2400
G1 X66.998 Y13.045 E1.28796
G1 X66.352 Y13.045 F12000
G1 F2400
G1 X91.655 Y38.348 E1.32173
G1 X91.655 Y38.994 F12000
G1 F2400
G1 X65.705 Y13.045 E1.35549
G1 X65.059 Y13.045 F12000
G1 F2400
G1 X91.655 Y39.641 E1.38926
G1 X91.655 Y40.287 F12000
G1 F2400
G1 X64.413 Y13.045 E1.42303
G1 X63.766 Y13.045 F12000
G1 F2400
G1 X91.655 Y40.933 E1.45679
G1 X91.655 Y41.58 F12000
G1 F2400
G1 X63.12 Y13.045 E1.49056
G1 X62.473 Y13.045 F12000
G1 F2400
G1 X91.655 Y42.226 E1.52433
G1 X91.655 Y42.873 F12000
G1 F2400
G1 X61.827 Y13.045 E1.5581
G1 X61.18 Y13.045 F12000
G1 F2400
G1 X91.655 Y43.519 E1.59186
G1 X91.655 Y44.166 F12000
G1 F2400
G1 X60.534 Y13.045 E1.62563
G1 X59.888 Y13.045 F12000
G1 F2400
G1 X91.655 Y44.812 E1.6594
G1 X91.655 Y45.458 F12000
G1 F2400
G1 X59.241 Y13.045 E1.69316
G1 X58.595 Y13.045 F12000
G1 F2400
G1 X91.655 Y46.105 E1.72693
G1 X91.655 Y46.751 F12000
G1 F2400
G1 X57.948 Y13.045 E1.7607
G1 X57.302 Y13.045 F12000
G1 F2400
G1 X91.655 Y47.398 E1.79446
G1 X91.655 Y48.044 F12000
G1 F2400
G1 X56.656 Y13.045 E1.82823
M73 P4 R32
G1 X56.009 Y13.045 F12000
G1 F2400
G1 X91.655 Y48.691 E1.862
G1 X91.655 Y49.337 F12000
G1 F2400
G1 X55.363 Y13.045 E1.89576
G1 X54.716 Y13.045 F12000
G1 F2400
G1 X91.655 Y49.983 E1.92953
G1 X91.655 Y50.63 F12000
G1 F2400
G1 X54.07 Y13.045 E1.9633
G1 X53.424 Y13.045 F12000
G1 F2400
G1 X91.655 Y51.276 E1.99706
G1 X91.655 Y51.923 F12000
G1 F2400
G1 X52.777 Y13.045 E2.03083
G1 X52.131 Y13.045 F12000
G1 F2400
G1 X91.655 Y52.569 E2.0646
G1 X91.655 Y53.215 F12000
G1 F2400
G1 X51.484 Y13.045 E2.09837
G1 X50.838 Y13.045 F12000
G1 F2400
G1 X91.642 Y53.849 E2.13145
G1 X91.45 Y54.303 F12000
G1 F2400
G1 X50.191 Y13.045 E2.15516
G1 X49.545 Y13.045 F12000
G1 F2400
G1 X91.023 Y54.522 E2.16663
G1 X90.409 Y54.555 F12000
G1 F2400
G1 X48.899 Y13.045 E2.16836
G1 X48.252 Y13.045 F12000
G1 F2400
G1 X89.763 Y54.555 E2.16836
G1 X89.116 Y54.555 F12000
G1 F2400
G1 X47.606 Y13.045 E2.16836
M73 P5 R32
G1 X46.959 Y13.045 F12000
G1 F2400
G1 X88.47 Y54.555 E2.16836
G1 X87.824 Y54.555 F12000
G1 F2400
G1 X46.313 Y13.045 E2.16836
G1 X45.667 Y13.045 F12000
G1 F2400
G1 X87.177 Y54.555 E2.16836
G1 X86.531 Y54.555 F12000
G1 F2400
G1 X45.02 Y13.045 E2.16836
M73 P5 R32
G1 X44.374 Y13.045 F12000
G1 F2400
G1 X85.884 Y54.555 E2.16836
G1 X85.238 Y54.555 F12000
G1 F2400
G1 X43.727 Y13.045 E2.16836
G1 X43.081 Y13.045 F12000
G1 F2400
G1 X84.592 Y54.555 E2.16836
G1 X83.945 Y54.555 F12000
G1 F2400
G1 X42.435 Y13.045 E2.16836
G1 X41.788 Y13.045 F12000
G1 F2400
G1 X83.299 Y54.555 E2.16836
G1 X82.652 Y54.555 F12000
G1 F2400
G1 X41.142 Y13.045 E2.16836
G1 X40.495 Y13.045 F12000
G1 F2400
G1 X82.006 Y54.555 E2.16836
G1 X81.359 Y54.555 F12000
G1 F2400
G1 X39.849 Y13.045 E2.16836
G1 X39.202 Y13.045 F12000
G1 F2400
G1 X80.713 Y54.555 E2.16836
M73 P6 R32
G1 X80.067 Y54.555 F12000
G1 F2400
G1 X38.556 Y13.045 E2.16836
G1 X37.91 Y13.045 F12000
G1 F2400
G1 X79.42 Y54.555 E2.16836
G1 X78.774 Y54.555 F12000
G1 F2400
G1 X37.263 Y13.045 E2.16836
G1 X36.617 Y13.045 F12000
G1 F2400
G1 X78.127 Y54.555 E2.16836
G1 X77.481 Y54.555 F12000
G1 F2400
G1 X35.97 Y13.045 E2.16836
G1 X35.324 Y13.045 F12000
G1 F2400
G1 X76.835 Y54.555 E2.16836
G1 X76.188 Y54.555 F12000
G1 F2400
G1 X34.678 Y13.045 E2.16836
G1 X34.031 Y13.045 F12000
G1 F2400
G1 X75.542 Y54.555 E2.16836
G1 X74.895 Y54.555 F12000
G1 F2400
G1 X33.385 Y13.045 E2.16836
G1 X32.738 Y13.045 F12000
G1 F2400
G1 X74.249 Y54.555 E2.16836
G1 X73.603 Y54.555 F12000
G1 F2400
G1 X32.092 Y13.045 E2.16836
G1 X31.446 Y13.045 F12000
G1 F2400
G1 X72.956 Y54.555 E2.16836
G1 X72.31 Y54.555 F12000
G1 F2400
G1 X30.799 Y13.045 E2.16836
M73 P7 R31
G1 X30.153 Y13.045 F12000
G1 F2400
G1 X71.663 Y54.555 E2.16836
G1 X71.017 Y54.555 F12000
G1 F2400
G1 X29.506 Y13.045 E2.16836
G1 X28.904 Y13.089 F12000
G1 F2400
G1 X70.371 Y54.555 E2.16606
G1 X69.724 Y54.555 F12000
G1 F2400
G1 X28.515 Y13.346 E2.15262
G1 X28.348 Y13.826 F12000
G1 F2400
G1 X69.078 Y54.555 E2.12755
G1 X68.431 Y54.555 F12000
G1 F2400
G1 X28.345 Y14.469 E2.09396
G1 X28.345 Y15.115 F12000
G1 F2400
G1 X67.785 Y54.555 E2.06019
G1 X67.138 Y54.555 F12000
G1 F2400
G1 X28.345 Y15.762 E2.02642
G1 X28.345 Y16.408 F12000
G1 F2400
G1 X66.492 Y54.555 E1.99266
G1 X65.846 Y54.555 F12000
G1 F2400
G1 X28.345 Y17.055 E1.95889
G1 X28.345 Y17.701 F12000
G1 F2400
G1 X65.199 Y54.555 E1.92513
G1 X64.553 Y54.555 F12000
G1 F2400
G1 X28.345 Y18.347 E1.89136
G1 X28.345 Y18.994 F12000
G1 F2400
G1 X63.906 Y54.555 E1.85759
G1 X63.26 Y54.555 F12000
G1 F2400
G1 X28.345 Y19.64 E1.82383
G1 X28.345 Y20.287 F12000
G1 F2400
G1 X62.614 Y54.555 E1.79006
M73 P8 R31
G1 X61.967 Y54.555 F12000
G1 F2400
G1 X28.345 Y20.933 E1.7563
G1 X28.345 Y21.579 F12000
G1 F2400
G1 X61.321 Y54.555 E1.72253
G1 X60.674 Y54.555 F12000
G1 F2400
G1 X28.345 Y22.226 E1.68876
G1 X28.345 Y22.872 F12000
G1 F2400
G1 X60.028 Y54.555 E1.655
M73 P8 R31
G1 X59.382 Y54.555 F12000
G1 F2400
G1 X28.345 Y23.519 E1.62123
G1 X28.345 Y24.165 F12000
G1 F2400
G1 X58.735 Y54.555 E1.58747
G1 X58.089 Y54.555 F12000
G1 F2400
G1 X28.345 Y24.811 E1.5537
G1 X28.345 Y25.458 F12000
G1 F2400
G1 X57.442 Y54.555 E1.51993
G1 X56.796 Y54.555 F12000
G1 F2400
G1 X28.345 Y26.104 E1.48617
G1 X28.345 Y26.751 F12000
G1 F2400
G1 X56.149 Y54.555 E1.4524
G1 X55.503 Y54.555 F12000
G1 F2400
G1 X28.345 Y27.397 E1.41864
G1 X28.345 Y28.043 F12000
G1 F2400
G1 X54.857 Y54.555 E1.38487
G1 X54.21 Y54.555 F12000
G1 F2400
G1 X28.345 Y28.69 E1.3511
G1 X28.345 Y29.336 F12000
G1 F2400
G1 X53.564 Y54.555 E1.31734
G1 X52.917 Y54.555 F12000
G1 F2400
G1 X28.345 Y29.983 E1.28357
G1 X28.345 Y30.629 F12000
G1 F2400
G1 X52.271 Y54.555 E1.2498
G1 X51.625 Y54.555 F12000
G1 F2400
G1 X28.345 Y31.276 E1.21604
G1 X28.345 Y31.922 F12000
G1 F2400
G1 X50.978 Y54.555 E1.18227
G1 X50.332 Y54.555 F12000
G1 F2400
G1 X28.345 Y32.568 E1.14851
M73 P9 R31
G1 X28.345 Y33.215 F12000
G1 F2400
G1 X49.685 Y54.555 E1.11474
G1 X49.039 Y54.555 F12000
G1 F2400
G1 X28.345 Y33.861 E1.08097
G1 X28.345 Y34.508 F12000
G1 F2400
G1 X48.393 Y54.555 E1.04721
G1 X47.746 Y54.555 F12000
G1 F2400
G1 X28.345 Y35.154 E1.01344
G1 X28.345 Y35.8 F12000
G1 F2400
G1 X47.1 Y54.555 E0.97968
G1 X46.453 Y54.555 F12000
G1 F2400
G1 X28.345 Y36.447 E0.94591
G1 X28.345 Y37.093 F12000
G1 F2400
G1 X45.807 Y54.555 E0.91214
G1 X45.16 Y54.555 F12000
G1 F2400
G1 X28.345 Y37.74 E0.87838
G1 X28.345 Y38.386 F12000
G1 F2400
G1 X44.514 Y54.555 E0.84461
G1 X43.868 Y54.555 F12000
G1 F2400
G1 X28.345 Y39.032 E0.81085
G1 X28.345 Y39.679 F12000
G1 F2400
G1 X43.221 Y54.555 E0.77708
G1 X42.575 Y54.555 F12000
G1 F2400
G1 X28.345 Y40.325 E0.74331
G1 X28.345 Y40.972 F12000
G1 F2400
G1 X41.928 Y54.555 E0.70955
G1 X41.282 Y54.555 F12000
G1 F2400
G1 X28.345 Y41.618 E0.67578
G1 X28.345 Y42.264 F12000
G1 F2400
G1 X40.636 Y54.555 E0.64202
G1 X39.989 Y54.555 F12000
G1 F2400
G1 X28.345 Y42.911 E0.60825
G1 X28.345 Y43.557 F12000
G1 F2400
