; HEADER_BLOCK_START
; generated by OrcaSlicer 1.6.4-beta2 on 2023-08-16 at 16:06:38
; total layer number: 110
; HEADER_BLOCK_END

; THUMBNAIL_BLOCK_START
; THUMBNAIL_BLOCK_END

; external perimeters extrusion width = 0.40mm
; perimeters extrusion width = 0.46mm
; infill extrusion width = 0.64mm
; solid infill extrusion width = 0.56mm
; top infill extrusion width = 0.40mm
; first layer extrusion width = 0.50mm

; EXECUTABLE_BLOCK_START
EXCLUDE_OBJECT_DEFINE NAME=2x_Wago_221_415_single.stl_id_0_copy_0 CENTER=60,60 POLYGON=[[14,56.9],[18,52.9],[102,52.9],[106,56.9],[106,63.1],[102,67.1],[18,67.1],[14,63.1],[14,56.9]]
M73 P0 R23
;TYPE:Custom
START_PRINT T_BED=105 T_EXTRUDER=260
G90
G21
M83 ; use relative distances for extrusion
; Filament gcode
M106 S0
;LAYER_CHANGE
;Z:0.2
;HEIGHT:0.2
;BEFORE_LAYER_CHANGE
;0.2
G92 E0

;AFTER_LAYER_CHANGE
;0.2
SET_VELOCITY_LIMIT ACCEL=1000 ACCEL_TO_DECEL=500
SET_VELOCITY_LIMIT SQUARE_CORNER_VELOCITY=9
G1 E-.8 F1800
G1 Z.2 F21000
G1 X18 Y49.986
G1 E.8 F1800
;TYPE:Skirt
;WIDTH:0.5
G1 F3000
G1 X102 Y49.986 E2.96905
G1 X104.061 Y50.839 E.07884
G1 X108.061 Y54.839 E.19995
G1 X108.914 Y56.9 E.07884
G1 X108.914 Y63.1 E.21914
G1 X108.061 Y65.161 E.07884
G1 X104.061 Y69.161 E.19995
G1 X102 Y70.014 E.07884
G1 X18 Y70.014 E2.96905
G1 X15.939 Y69.161 E.07884
G1 X11.939 Y65.161 E.19995
G1 X11.086 Y63.1 E.07884
G1 X11.086 Y56.9 E.21914
G1 X11.939 Y54.839 E.07884
G1 X15.939 Y50.839 E.19995
G1 X17.963 Y50.001 E.07742
G1 X18 Y50.443 F21000
G1 F3000
G1 X102 Y50.443 E2.96905
G1 X103.737 Y51.163 E.06647
G1 X107.737 Y55.163 E.19995
G1 X108.457 Y56.9 E.06647
G1 X108.457 Y63.1 E.21914
G1 X107.737 Y64.837 E.06647
G1 X103.737 Y68.837 E.19995
G1 X102 Y69.557 E.06647
G1 X18 Y69.557 E2.96905
G1 X16.263 Y68.837 E.06647
G1 X12.263 Y64.837 E.19995
G1 X11.543 Y63.1 E.06647
G1 X11.543 Y56.9 E.21914
G1 X12.263 Y55.163 E.06647
G1 X16.263 Y51.163 E.19995
G1 X17.963 Y50.458 E.06506
; printing object 2x_Wago_221_415_single.stl id:0 copy 0
EXCLUDE_OBJECT_START NAME=2x_Wago_221_415_single.stl_id_0_copy_0
G1 E-.8 F1800
G1 Z.4 F21000
G1 X98.387 Y64.646
G1 Z.2
G1 E.8 F1800
;TYPE:Inner wall
G1 F3000
G1 X98.351 Y64.879 E.00833
G1 X21.649 Y64.879 E2.71111
G1 X21.613 Y64.646 E.00832
G1 X22.203 Y64.46 E.02186
G1 X22.719 Y64.228 E.02
G1 X23.213 Y63.93 E.02038
G1 X23.667 Y63.574 E.02038
G1 X24.074 Y63.167 E.02038
G1 X24.43 Y62.713 E.02038
G1 X24.728 Y62.219 E.02038
G1 X24.965 Y61.693 E.02038
G1 X25.137 Y61.143 E.02038
G1 X25.24 Y60.576 E.02038
G1 X25.275 Y60 E.02038
G1 X25.24 Y59.424 E.02038
G1 X25.137 Y58.857 E.02038
G1 X24.965 Y58.307 E.02038
G1 X24.728 Y57.781 E.02038
G1 X24.43 Y57.287 E.02038
G1 X24.074 Y56.833 E.02038
G1 X23.664 Y56.423 E.0205
G1 X23.203 Y56.064 E.02065
G1 X22.719 Y55.772 E.02
G1 X22.193 Y55.535 E.02038
G1 X21.613 Y55.354 E.02148
G1 X21.649 Y55.121 E.00833
G1 X98.351 Y55.121 E2.71113
G1 X98.387 Y55.354 E.00833
G1 X97.807 Y55.535 E.02148
G1 X97.278 Y55.773 E.0205
G1 X96.779 Y56.077 E.02065
G1 X96.333 Y56.426 E.02
G1 X95.926 Y56.833 E.02038
G1 X95.57 Y57.287 E.02038
M73 P1 R23
G1 X95.272 Y57.781 E.02038
G1 X95.035 Y58.307 E.02038
G1 X94.863 Y58.857 E.02038
G1 X94.76 Y59.424 E.02038
G1 X94.725 Y60 E.02038
G1 X94.76 Y60.576 E.02038
G1 X94.863 Y61.143 E.02038
G1 X95.035 Y61.693 E.02038
G1 X95.272 Y62.219 E.02038
G1 X95.572 Y62.715 E.0205
G1 X95.933 Y63.174 E.02065
G1 X96.333 Y63.574 E.01999
G1 X96.787 Y63.93 E.02038
G1 X97.281 Y64.228 E.02038
G1 X97.807 Y64.465 E.02038
G1 X98.349 Y64.634 E.02007
G1 E-.8 F1800
G1 Z.4 F21000
G1 X103.706 Y60.957
G1 Z.2
G1 E.8 F1800
G1 F3000
G1 X103.692 Y61.033 E.00274
G1 X103.537 Y61.531 E.01843
G1 X103.323 Y62.006 E.01843
G1 X103.053 Y62.453 E.01843
G1 X102.732 Y62.863 E.01843
G1 X102.363 Y63.232 E.01843
G1 X101.953 Y63.553 E.01843
G1 X101.506 Y63.823 E.01843
G1 X101.04 Y64.033 E.01806
G1 X100.536 Y64.191 E.0187
G1 X100.02 Y64.286 E.01852
G1 X99.5 Y64.317 E.01843
G1 X98.98 Y64.286 E.01843
G1 X98.467 Y64.192 E.01843
G1 X97.969 Y64.037 E.01843
G1 X97.494 Y63.823 E.01843
G1 X97.047 Y63.553 E.01843
G1 X96.637 Y63.232 E.01843
G1 X96.276 Y62.87 E.01806
G1 X95.948 Y62.455 E.0187
G1 X95.677 Y62.006 E.01852
G1 X95.463 Y61.531 E.01843
G1 X95.308 Y61.033 E.01843
G1 X95.214 Y60.52 E.01843
G1 X95.183 Y60 E.01843
G1 X95.214 Y59.48 E.01843
G1 X95.308 Y58.967 E.01843
G1 X95.463 Y58.469 E.01843
G1 X95.677 Y57.994 E.01843
G1 X95.947 Y57.547 E.01843
G1 X96.268 Y57.137 E.01843
G1 X96.637 Y56.768 E.01843
G1 X97.039 Y56.453 E.01807
G1 X97.491 Y56.178 E.0187
G1 X97.969 Y55.963 E.01852
G1 X98.467 Y55.808 E.01843
G1 X98.98 Y55.714 E.01843
G1 X99.49 Y55.683 E.01806
G1 X100.018 Y55.714 E.0187
G1 X100.533 Y55.808 E.01852
G1 X101.031 Y55.963 E.01843
G1 X101.506 Y56.177 E.01843
G1 X101.944 Y56.442 E.01806
G1 X102.361 Y56.767 E.0187
G1 X102.732 Y57.137 E.01852
G1 X103.053 Y57.547 E.01843
G1 X103.323 Y57.994 E.01843
G1 X103.537 Y58.469 E.01843
G1 X103.692 Y58.967 E.01843
G1 X103.786 Y59.48 E.01843
G1 X103.817 Y60 E.01843
G1 X103.786 Y60.52 E.01843
G1 X103.713 Y60.918 E.01427
G1 X103.232 Y60.974 F21000
G1 F3000
G1 X103.109 Y61.369 E.01463
G1 X102.917 Y61.794 E.01647
G1 X102.676 Y62.192 E.01647
G1 X102.389 Y62.559 E.01647
G1 X102.059 Y62.889 E.01647
G1 X101.692 Y63.176 E.01647
G1 X101.294 Y63.417 E.01647
G1 X100.877 Y63.605 E.01613
G1 X100.426 Y63.747 E.01674
G1 X99.965 Y63.831 E.01654
G1 X99.5 Y63.859 E.01647
G1 X99.035 Y63.831 E.01647
G1 X98.576 Y63.747 E.01647
G1 X98.131 Y63.609 E.01647
G1 X97.706 Y63.417 E.01647
G1 X97.308 Y63.176 E.01647
G1 X96.941 Y62.889 E.01647
G1 X96.618 Y62.566 E.01613
G1 X96.325 Y62.194 E.01674
G1 X96.083 Y61.794 E.01654
G1 X95.891 Y61.369 E.01647
G1 X95.753 Y60.924 E.01647
G1 X95.669 Y60.465 E.01647
G1 X95.641 Y60 E.01647
G1 X95.669 Y59.535 E.01647
G1 X95.753 Y59.076 E.01647
G1 X95.891 Y58.631 E.01647
G1 X96.083 Y58.206 E.01647
G1 X96.324 Y57.808 E.01647
G1 X96.611 Y57.441 E.01647
G1 X96.941 Y57.111 E.01647
G1 X97.3 Y56.83 E.01613
G1 X97.705 Y56.583 E.01674
G1 X98.131 Y56.391 E.01654
G1 X98.576 Y56.253 E.01647
G1 X99.035 Y56.169 E.01647
G1 X99.49 Y56.141 E.01613
G1 X99.963 Y56.168 E.01674
G1 X100.424 Y56.253 E.01654
G1 X100.869 Y56.391 E.01647
G1 X101.294 Y56.583 E.01647
G1 X101.684 Y56.819 E.01613
G1 X102.058 Y57.11 E.01674
G1 X102.389 Y57.441 E.01654
G1 X102.676 Y57.808 E.01647
G1 X102.917 Y58.206 E.01647
G1 X103.109 Y58.631 E.01647
G1 X103.247 Y59.076 E.01647
G1 X103.331 Y59.535 E.01647
G1 X103.359 Y60 E.01647
G1 X103.331 Y60.465 E.01647
G1 X103.247 Y60.924 E.01647
G1 X103.244 Y60.935 E.00043
G1 X102.795 Y60.84 F21000
G1 F3000
G1 X102.681 Y61.206 E.01356
G1 X102.512 Y61.581 E.01452
G1 X102.299 Y61.932 E.01452
G1 X102.046 Y62.256 E.01452
G1 X101.756 Y62.546 E.01452
G1 X101.432 Y62.799 E.01452
G1 X101.081 Y63.012 E.01452
G1 X100.714 Y63.177 E.0142
G1 X100.315 Y63.302 E.01479
G1 X99.91 Y63.377 E.01456
G1 X99.5 Y63.402 E.01452
G1 X99.09 Y63.377 E.01452
G1 X98.686 Y63.303 E.01452
G1 X98.294 Y63.181 E.01452
G1 X97.919 Y63.012 E.01452
G1 X97.568 Y62.799 E.01452
G1 X97.244 Y62.546 E.01452
G1 X96.96 Y62.262 E.0142
G1 X96.701 Y61.933 E.01479
G1 X96.488 Y61.581 E.01456
G1 X96.319 Y61.206 E.01452
G1 X96.197 Y60.814 E.01452
G1 X96.123 Y60.41 E.01452
G1 X96.098 Y60 E.01452
G1 X96.123 Y59.59 E.01452
G1 X96.197 Y59.186 E.01452
G1 X96.319 Y58.794 E.01452
G1 X96.488 Y58.419 E.01452
G1 X96.701 Y58.068 E.01452
G1 X96.954 Y57.744 E.01452
G1 X97.244 Y57.454 E.01452
G1 X97.561 Y57.206 E.0142
G1 X97.918 Y56.989 E.01479
G1 X98.294 Y56.819 E.01456
G1 X98.686 Y56.697 E.01452
G1 X99.09 Y56.623 E.01452
G1 X99.491 Y56.599 E.0142
G1 X99.909 Y56.623 E.01479
G1 X100.314 Y56.697 E.01456
G1 X100.706 Y56.819 E.01452
G1 X101.081 Y56.988 E.01452
G1 X101.425 Y57.196 E.0142
G1 X101.755 Y57.453 E.01479
G1 X102.046 Y57.744 E.01456
G1 X102.299 Y58.068 E.01452
G1 X102.512 Y58.419 E.01452
G1 X102.681 Y58.794 E.01452
G1 X102.803 Y59.186 E.01452
G1 X102.877 Y59.59 E.01452
G1 X102.902 Y60 E.01452
G1 X102.877 Y60.41 E.01452
G1 X102.805 Y60.801 E.01406
G1 X102.318 Y60.684 F21000
;TYPE:Outer wall
G1 F3000
G1 X102.316 Y60.694 E.00035
G1 X102.212 Y61.029 E.01238
G1 X102.068 Y61.348 E.01238
G1 X101.887 Y61.648 E.01238
G1 X101.671 Y61.923 E.01238
G1 X101.423 Y62.171 E.01238
G1 X101.148 Y62.387 E.01238
G1 X100.848 Y62.568 E.01238
G1 X100.536 Y62.709 E.01209
G1 X100.195 Y62.816 E.01265
G1 X99.85 Y62.879 E.0124
G1 X99.5 Y62.901 E.01238
G1 X99.15 Y62.879 E.01238
G1 X98.806 Y62.816 E.01238
G1 X98.471 Y62.712 E.01238
G1 X98.152 Y62.568 E.01238
G1 X97.852 Y62.387 E.01238
G1 X97.577 Y62.171 E.01238
G1 X97.335 Y61.929 E.01209
G1 X97.113 Y61.648 E.01265
G1 X96.932 Y61.348 E.0124
G1 X96.788 Y61.029 E.01238
G1 X96.684 Y60.694 E.01238
G1 X96.621 Y60.35 E.01238
G1 X96.599 Y60 E.01238
G1 X96.621 Y59.65 E.01238
G1 X96.684 Y59.306 E.01238
G1 X96.788 Y58.971 E.01238
G1 X96.932 Y58.652 E.01238
G1 X97.113 Y58.352 E.01238
G1 X97.329 Y58.077 E.01238
G1 X97.577 Y57.829 E.01238
G1 X97.846 Y57.618 E.01209
G1 X98.152 Y57.432 E.01265
G1 X98.471 Y57.288 E.0124
G1 X98.806 Y57.184 E.01238
G1 X99.15 Y57.121 E.01238
G1 X99.492 Y57.1 E.01209
G1 X99.849 Y57.12 E.01265
G1 X100.194 Y57.184 E.0124
G1 X100.529 Y57.288 E.01238
G1 X100.848 Y57.432 E.01238
G1 X101.141 Y57.609 E.01209
G1 X101.423 Y57.828 E.01265
G1 X101.671 Y58.077 E.0124
G1 X101.887 Y58.352 E.01238
G1 X102.068 Y58.652 E.01238
G1 X102.212 Y58.971 E.01238
G1 X102.316 Y59.306 E.01238
G1 X102.379 Y59.65 E.01238
G1 X102.401 Y60 E.01238
G1 X102.379 Y60.35 E.01238
G1 X102.325 Y60.645 E.01061
G1 E-.8 F1800
G1 Z.4 F21000
G1 X101.201 Y55.537
G1 Z.2
G1 E.8 F1800
;TYPE:Inner wall
G1 F3000
G1 X100.613 Y55.354 E.02177
G1 X100.649 Y55.121 E.00833
G1 X101.08 Y55.121 E.01525
G1 X101.312 Y55.354 E.01161
G1 X101.222 Y55.503 E.00618
G1 E-.8 F1800
G1 Z.4 F21000
G1 X102.527 Y58.852
G1 X102.643 Y59.225
G1 X102.713 Y59.61
G1 X102.737 Y60
G1 X102.713 Y60.39
G1 X102.643 Y60.775
G1 X102.527 Y61.148
G1 X101.202 Y64.461
G1 Z.2
G1 E.8 F1800
G1 F3000
G1 X101.314 Y64.645 E.00761
G1 X101.08 Y64.879 E.0117
G1 X100.649 Y64.879 E.01522
G1 X100.613 Y64.646 E.00832
G1 X101.164 Y64.473 E.02041
G1 E-.8 F1800
G1 Z.4 F21000
G1 X19.387 Y64.646
G1 Z.2
G1 E.8 F1800
G1 F3000
G1 X19.351 Y64.879 E.00833
G1 X18.92 Y64.879 E.01525
G1 X18.688 Y64.646 E.01161
G1 X18.799 Y64.463 E.00759
G1 X19.349 Y64.634 E.02035
G1 E-.8 F1800
G1 Z.4 F21000
G1 X24.005 Y62.514
G1 Z.2
G1 E.8 F1800
G1 F3000
G1 X23.732 Y62.863 E.01569
G1 X23.363 Y63.232 E.01843
G1 X22.953 Y63.553 E.01843
G1 X22.506 Y63.823 E.01843
G1 X22.04 Y64.033 E.01806
G1 X21.536 Y64.191 E.0187
G1 X21.02 Y64.286 E.01852
G1 X20.5 Y64.317 E.01843
G1 X19.98 Y64.286 E.01843
G1 X19.467 Y64.192 E.01843
G1 X18.969 Y64.037 E.01843
G1 X18.494 Y63.823 E.01843
G1 X18.047 Y63.553 E.01843
G1 X17.637 Y63.232 E.01843
G1 X17.276 Y62.87 E.01806
G1 X16.948 Y62.455 E.0187
G1 X16.677 Y62.006 E.01852
G1 X16.463 Y61.531 E.01843
G1 X16.308 Y61.033 E.01843
G1 X16.214 Y60.52 E.01843
G1 X16.183 Y60 E.01843
G1 X16.214 Y59.48 E.01843
G1 X16.308 Y58.967 E.01843
G1 X16.463 Y58.469 E.01843
G1 X16.677 Y57.994 E.01843
G1 X16.947 Y57.547 E.01843
G1 X17.268 Y57.137 E.01843
G1 X17.637 Y56.768 E.01843
G1 X18.039 Y56.453 E.01806
G1 X18.491 Y56.178 E.0187
G1 X18.969 Y55.963 E.01852
G1 X19.467 Y55.808 E.01843
G1 X19.98 Y55.714 E.01843
G1 X20.49 Y55.683 E.01806
G1 X21.018 Y55.714 E.0187
G1 X21.533 Y55.808 E.01852
G1 X22.031 Y55.963 E.01843
G1 X22.506 Y56.177 E.01843
G1 X22.944 Y56.442 E.01806
G1 X23.361 Y56.767 E.0187
G1 X23.732 Y57.137 E.01852
G1 X24.053 Y57.547 E.01843
G1 X24.323 Y57.994 E.01843
G1 X24.537 Y58.469 E.01843
G1 X24.692 Y58.967 E.01843
G1 X24.786 Y59.48 E.01843
G1 X24.817 Y60 E.01843
G1 X24.786 Y60.52 E.01843
G1 X24.692 Y61.033 E.01843
G1 X24.537 Y61.531 E.01843
G1 X24.323 Y62.006 E.01843
G1 X24.053 Y62.453 E.01843
G1 X24.03 Y62.482 E.00133
G1 X23.644 Y62.234 F21000
G1 F3000
G1 X23.389 Y62.559 E.01463
G1 X23.059 Y62.889 E.01647
G1 X22.692 Y63.176 E.01647
G1 X22.294 Y63.417 E.01647
G1 X21.877 Y63.605 E.01613
G1 X21.426 Y63.747 E.01674
G1 X20.965 Y63.831 E.01654
G1 X20.5 Y63.859 E.01647
G1 X20.035 Y63.831 E.01647
G1 X19.576 Y63.747 E.01647
G1 X19.131 Y63.609 E.01647
G1 X18.706 Y63.417 E.01647
G1 X18.308 Y63.176 E.01647
G1 X17.941 Y62.889 E.01647
G1 X17.618 Y62.566 E.01613
G1 X17.325 Y62.194 E.01674
G1 X17.083 Y61.794 E.01654
G1 X16.891 Y61.369 E.01647
G1 X16.753 Y60.924 E.01647
G1 X16.669 Y60.465 E.01647
G1 X16.641 Y60 E.01647
G1 X16.669 Y59.535 E.01647
G1 X16.753 Y59.076 E.01647
G1 X16.891 Y58.631 E.01647
G1 X17.083 Y58.206 E.01647
G1 X17.324 Y57.808 E.01647
G1 X17.611 Y57.441 E.01647
G1 X17.941 Y57.111 E.01647
G1 X18.3 Y56.83 E.01613
G1 X18.705 Y56.583 E.01674
G1 X19.131 Y56.391 E.01654
G1 X19.576 Y56.253 E.01647
G1 X20.035 Y56.169 E.01647
G1 X20.49 Y56.141 E.01613
G1 X20.963 Y56.168 E.01674
G1 X21.424 Y56.253 E.01654
G1 X21.869 Y56.391 E.01647
G1 X22.294 Y56.583 E.01647
G1 X22.684 Y56.819 E.01613
G1 X23.058 Y57.11 E.01674
G1 X23.389 Y57.441 E.01654
G1 X23.676 Y57.808 E.01647
G1 X23.917 Y58.206 E.01647
G1 X24.109 Y58.631 E.01647
G1 X24.247 Y59.076 E.01647
G1 X24.331 Y59.535 E.01647
G1 X24.359 Y60 E.01647
G1 X24.331 Y60.465 E.01647
G1 X24.247 Y60.924 E.01647
G1 X24.109 Y61.369 E.01647
G1 X23.917 Y61.794 E.01647
G1 X23.676 Y62.192 E.01647
G1 X23.669 Y62.202 E.00043
G1 X23.313 Y61.909 F21000
G1 F3000
G1 X23.299 Y61.932 E.00095
G1 X23.046 Y62.256 E.01452
G1 X22.756 Y62.546 E.01452
G1 X22.432 Y62.799 E.01452
G1 X22.081 Y63.012 E.01452
G1 X21.714 Y63.177 E.0142
G1 X21.315 Y63.302 E.01479
G1 X20.91 Y63.377 E.01456
G1 X20.5 Y63.402 E.01452
G1 X20.09 Y63.377 E.01452
G1 X19.686 Y63.303 E.01452
G1 X19.294 Y63.181 E.01452
G1 X18.919 Y63.012 E.01452
G1 X18.568 Y62.799 E.01452
G1 X18.244 Y62.546 E.01452
G1 X17.96 Y62.262 E.0142
G1 X17.701 Y61.933 E.01479
G1 X17.488 Y61.581 E.01456
G1 X17.319 Y61.206 E.01452
G1 X17.197 Y60.814 E.01452
G1 X17.123 Y60.41 E.01452
G1 X17.098 Y60 E.01452
G1 X17.123 Y59.59 E.01452
G1 X17.197 Y59.186 E.01452
G1 X17.319 Y58.794 E.01452
G1 X17.488 Y58.419 E.01452
G1 X17.701 Y58.068 E.01452
G1 X17.954 Y57.744 E.01452
G1 X18.244 Y57.454 E.01452
G1 X18.561 Y57.206 E.0142
G1 X18.918 Y56.989 E.01479
G1 X19.294 Y56.819 E.01456
G1 X19.686 Y56.697 E.01452
G1 X20.09 Y56.623 E.01452
G1 X20.491 Y56.599 E.0142
G1 X20.909 Y56.623 E.01479
G1 X21.314 Y56.697 E.01456
G1 X21.706 Y56.819 E.01452
G1 X22.081 Y56.988 E.01452
G1 X22.425 Y57.196 E.0142
G1 X22.755 Y57.453 E.01479
G1 X23.046 Y57.744 E.01456
G1 X23.299 Y58.068 E.01452
G1 X23.512 Y58.419 E.01452
G1 X23.681 Y58.794 E.01452
G1 X23.803 Y59.186 E.01452
G1 X23.877 Y59.59 E.01452
G1 X23.902 Y60 E.01452
G1 X23.877 Y60.41 E.01452
G1 X23.803 Y60.814 E.01452
G1 X23.681 Y61.206 E.01452
G1 X23.512 Y61.581 E.01452
G1 X23.334 Y61.875 E.01215
G1 X22.883 Y61.654 F21000
;TYPE:Outer wall
G1 F3000
G1 X22.671 Y61.923 E.01212
G1 X22.423 Y62.171 E.01238
G1 X22.148 Y62.387 E.01238
G1 X21.848 Y62.568 E.01238
G1 X21.536 Y62.709 E.01209
G1 X21.195 Y62.816 E.01265
G1 X20.85 Y62.879 E.0124
G1 X20.5 Y62.901 E.01238
G1 X20.15 Y62.879 E.01238
G1 X19.806 Y62.816 E.01238
G1 X19.471 Y62.712 E.01238
G1 X19.152 Y62.568 E.01238
G1 X18.852 Y62.387 E.01238
G1 X18.577 Y62.171 E.01238
G1 X18.335 Y61.929 E.01209
G1 X18.113 Y61.648 E.01265
G1 X17.932 Y61.348 E.0124
G1 X17.788 Y61.029 E.01238
G1 X17.684 Y60.694 E.01238
G1 X17.621 Y60.35 E.01238
G1 X17.599 Y60 E.01238
G1 X17.621 Y59.65 E.01238
G1 X17.684 Y59.306 E.01238
G1 X17.788 Y58.971 E.01238
G1 X17.932 Y58.652 E.01238
G1 X18.113 Y58.352 E.01238
G1 X18.329 Y58.077 E.01238
G1 X18.577 Y57.829 E.01238
G1 X18.846 Y57.618 E.01209
G1 X19.152 Y57.432 E.01265
G1 X19.471 Y57.288 E.0124
G1 X19.806 Y57.184 E.01238
G1 X20.15 Y57.121 E.01238
G1 X20.492 Y57.1 E.01209
G1 X20.849 Y57.12 E.01265
G1 X21.194 Y57.184 E.0124
G1 X21.529 Y57.288 E.01238
G1 X21.848 Y57.432 E.01238
G1 X22.141 Y57.609 E.01209
G1 X22.423 Y57.828 E.01265
G1 X22.671 Y58.077 E.0124
G1 X22.887 Y58.352 E.01238
G1 X23.068 Y58.652 E.01238
G1 X23.212 Y58.971 E.01238
G1 X23.316 Y59.306 E.01238
G1 X23.379 Y59.65 E.01238
G1 X23.401 Y60 E.01238
G1 X23.379 Y60.35 E.01238
G1 X23.316 Y60.694 E.01238
G1 X23.212 Y61.029 E.01238
G1 X23.068 Y61.348 E.01238
G1 X22.904 Y61.62 E.01123
G1 E-.8 F1800
G1 Z.4 F21000
