; generated by SuperSlicer 2.5.59 on 2023-05-05 at 19:10:04 UTC


;
;

;
;
; 

; external perimeters extrusion width = 0.40mm
; perimeters extrusion width = 0.46mm
; infill extrusion width = 0.64mm
; solid infill extrusion width = 0.56mm
; top infill extrusion width = 0.40mm
; first layer extrusion width = 0.50mm

; object:{"name":"3DBenchy","id":"3DBenchy.stl id:0 copy 0","object_center":[60.000000,60.000000,0.000000],"boundingbox_center":[60.000000,60.000000,24.000000],"boundingbox_size":[60.000999,31.004000,48.000000]}
EXCLUDE_OBJECT_DEFINE NAME=3DBenchy_stl_id_0_copy_0 CENTER=60.000000,60.000000 POLYGON=[[29.999500,50.816004],[30.002498,50.755000],[30.006500,50.699000],[30.011502,50.646000],[30.013500,50.630000],[30.019500,50.583000],[30.028500,50.525000],[30.045502,50.436000],[30.058498,50.378996],[30.073502,50.322000],[30.080502,50.295996],[30.097500,50.239000],[30.126500,50.155000],[30.140500,50.118000],[30.162498,50.064000],[30.169498,50.047000],[30.185502,50.010004],[30.209500,49.958000],[30.230500,49.916000],[30.263500,49.854000],[30.278500,49.827000],[30.290500,49.806000],[30.339500,49.727000],[30.357498,49.700000],[30.371498,49.679000],[30.405498,49.631000],[30.440498,49.584000],[30.483502,49.531000],[30.508500,49.501000],[30.538502,49.466000],[30.578498,49.423000],[30.592498,49.408000],[30.641498,49.359000],[30.661500,49.340000],[30.704498,49.300000],[30.737500,49.271000],[30.782502,49.234000],[30.793500,49.225000],[30.828498,49.197000],[30.886502,49.154000],[30.934502,49.121004],[30.978500,49.092000],[31.044498,49.052004],[31.071498,49.036000],[31.123500,49.008000],[31.148498,48.995000],[31.175500,48.981000],[31.197498,48.970000],[31.253498,48.944000],[31.311500,48.919000],[31.361500,48.899004],[31.416500,48.878996],[31.428502,48.875000],[31.471500,48.861000],[31.484500,48.857004],[31.540500,48.840000],[31.547500,48.838000],[31.584500,48.828000],[31.640500,48.814000],[31.710498,48.799000],[31.739498,48.794000],[31.797500,48.784000],[59.812500,44.886000],[60.055500,44.853000],[60.299500,44.821000],[60.543500,44.791000],[60.882500,44.752000],[61.105500,44.728000],[61.350500,44.702000],[61.596500,44.678000],[61.842500,44.656000],[62.087500,44.635004],[62.253504,44.622000],[62.333500,44.616000],[62.523500,44.602000],[62.579500,44.598000],[62.826500,44.581000],[62.987500,44.571000],[63.071500,44.566004],[63.232500,44.557000],[63.489504,44.544000],[63.597500,44.539000],[63.619500,44.538004],[63.755500,44.531996],[63.906500,44.526000],[64.050500,44.521000],[64.167504,44.517000],[64.233496,44.515000],[64.342500,44.512000],[64.460504,44.509000],[64.548500,44.507000],[64.689500,44.503996],[64.881500,44.501000],[65.062500,44.499000],[65.180496,44.498000],[65.578500,44.498000],[65.934500,44.500000],[66.369500,44.508000],[66.449500,44.510004],[66.805496,44.520000],[66.912500,44.524004],[67.240504,44.537000],[67.676496,44.558000],[68.009496,44.578000],[68.092496,44.583000],[68.202496,44.590000],[68.375504,44.602000],[68.495496,44.611000],[68.641504,44.622000],[68.728504,44.628996],[68.909504,44.644000],[69.039496,44.655000],[69.832496,44.780000],[69.841496,44.781996],[70.269504,44.888000],[70.377504,44.915000],[70.595496,44.970000],[70.737504,45.007000],[70.813496,45.027000],[70.967496,45.068000],[71.248496,45.145000],[71.424496,45.195000],[71.680496,45.270000],[71.896496,45.334000],[72.110504,45.400000],[72.332496,45.470000],[72.558504,45.543000],[72.752504,45.607004],[73.008496,45.694000],[73.178496,45.753000],[73.232496,45.772000],[73.400496,45.832000],[73.601504,45.905000],[73.822504,45.987000],[74.033504,46.067000],[74.233496,46.145000],[74.343496,46.188000],[74.443496,46.228000],[74.453496,46.232004],[74.662496,46.316004],[74.871496,46.402000],[74.926496,46.425000],[75.134496,46.513000],[75.341496,46.603000],[75.547504,46.693000],[75.957496,46.878996],[76.160496,46.974000],[76.363496,47.070000],[76.565496,47.168000],[76.766496,47.267000],[76.967496,47.367000],[77.166504,47.469000],[77.365504,47.572000],[77.563496,47.677004],[77.761504,47.783000],[77.957504,47.890000],[78.153504,47.999000],[78.543504,48.221000],[78.737504,48.334000],[78.930496,48.449000],[79.122496,48.565000],[79.314496,48.683000],[79.505504,48.801000],[79.696504,48.922000],[79.885496,49.043000],[80.074504,49.167000],[80.262496,49.291000],[80.450504,49.417000],[80.637496,49.544000],[80.823504,49.673000],[81.008496,49.803000],[81.192504,49.934000],[81.376496,50.067000],[81.559504,50.201000],[81.742504,50.337000],[81.923504,50.474000],[82.104504,50.612000],[82.284504,50.752000],[82.463504,50.892996],[82.642504,51.036000],[82.820496,51.180000],[82.997496,51.325000],[83.173504,51.472000],[83.523496,51.770000],[83.697496,51.920996],[83.870496,52.074000],[84.042496,52.228000],[84.214504,52.384000],[84.328496,52.489000],[84.497496,52.645000],[84.665496,52.803000],[84.831496,52.962000],[84.996496,53.122000],[85.161496,53.283000],[85.324504,53.445000],[85.486496,53.609000],[85.647496,53.773000],[85.807496,53.939000],[85.966496,54.106000],[86.124496,54.274004],[86.281504,54.443000],[86.437504,54.614000],[86.592496,54.785000],[86.745496,54.958000],[86.898496,55.132000],[87.050496,55.306000],[87.200504,55.483000],[87.349504,55.660000],[87.498504,55.838000],[87.645504,56.017000],[87.791504,56.198000],[87.936504,56.380000],[88.080504,56.563000],[88.223496,56.747000],[88.364504,56.932000],[88.505504,57.118000],[88.645504,57.305000],[88.783504,57.493000],[88.920504,57.683000],[89.056504,57.874000],[89.191496,58.065000],[89.325504,58.258000],[89.458496,58.452000],[89.589504,58.647000],[89.618496,58.692000],[89.651504,58.745000],[89.682496,58.798000],[89.712504,58.852000],[89.741504,58.907000],[89.768504,58.962000],[89.793504,59.019000],[89.818496,59.076000],[89.834504,59.117000],[89.856496,59.175000],[89.876496,59.233000],[89.895504,59.292000],[89.912496,59.351000],[89.928496,59.413000],[89.942504,59.470000],[89.954496,59.530000],[89.966496,59.593000],[89.975496,59.652000],[89.983504,59.713000],[89.990504,59.774000],[89.995496,59.836000],[89.998504,59.905000],[90.000504,59.966000],[90.000504,60.027000],[89.999496,60.088000],[89.996496,60.149000],[89.991504,60.209000],[89.985504,60.270000],[89.977504,60.331000],[89.968496,60.391000],[89.958496,60.449000],[89.945496,60.512000],[89.932496,60.569000],[89.916504,60.632000],[89.901504,60.686000],[89.883496,60.745000],[89.863496,60.803000],[89.842496,60.861000],[89.820496,60.918000],[89.796504,60.974000],[89.771496,61.030000],[89.744496,61.086000],[89.716496,61.140000],[89.686504,61.194000],[89.655504,61.248000],[89.623504,61.301000],[89.589504,61.353000],[89.472504,61.527000],[89.339504,61.721000],[89.205504,61.914000],[89.071504,62.106000],[88.935504,62.297000],[88.797504,62.487000],[88.659504,62.676000],[88.520504,62.864000],[88.379504,63.050000],[88.237504,63.236000],[88.094496,63.420000],[87.950504,63.604000],[87.658504,63.968000],[87.510496,64.148004],[87.361496,64.328004],[87.210496,64.505996],[87.059504,64.683000],[86.906504,64.860000],[86.752504,65.035004],[86.597504,65.209000],[86.482496,65.337000],[86.325504,65.509004],[86.167496,65.680000],[86.008496,65.850000],[85.848496,66.017996],[85.687504,66.185996],[85.525496,66.351996],[85.362504,66.516000],[85.199504,66.680000],[85.034504,66.841004],[84.869496,67.002000],[84.703496,67.161000],[84.535496,67.319000],[84.367504,67.475000],[84.198504,67.630000],[84.028504,67.784000],[83.857496,67.937000],[83.685504,68.089000],[83.512496,68.239000],[83.338504,68.388000],[83.163496,68.536000],[82.987504,68.682000],[82.810504,68.827000],[82.632496,68.971000],[82.454496,69.114000],[82.274504,69.256000],[82.093496,69.396000],[81.911496,69.535000],[81.728504,69.673008],[81.544496,69.810000],[81.359496,69.945000],[81.173504,70.080000],[80.799496,70.344000],[80.610504,70.474000],[80.420504,70.603000],[80.230496,70.731000],[80.038496,70.857000],[79.846496,70.982000],[79.652496,71.106000],[79.458496,71.228000],[79.263504,71.349000],[79.066496,71.469000],[78.869496,71.587000],[78.671504,71.704000],[78.472504,71.819000],[78.272496,71.934000],[78.072496,72.046000],[77.870496,72.158000],[77.594496,72.307000],[77.395504,72.412000],[77.196504,72.516000],[76.996496,72.618000],[76.795504,72.719000],[76.594496,72.818000],[76.392504,72.916000],[76.190496,73.012000],[75.987504,73.107000],[75.783504,73.200000],[75.579496,73.292000],[75.374496,73.383000],[75.169504,73.472000],[74.963504,73.559000],[74.756504,73.645008],[74.666504,73.682000],[74.549496,73.729992],[74.341496,73.813000],[74.122496,73.898000],[74.003504,73.944000],[73.704496,74.057000],[73.493496,74.134000],[73.293504,74.206000],[73.071504,74.284000],[72.884496,74.348000],[72.656504,74.424000],[72.443496,74.494000],[72.206496,74.570000],[72.005504,74.632000],[71.979496,74.640000],[71.751504,74.709000],[71.523496,74.776000],[71.295504,74.841000],[71.142504,74.884000],[71.065496,74.905000],[70.924496,74.943000],[70.706496,75.001000],[70.606496,75.027000],[70.488504,75.057000],[70.269504,75.112000],[69.843496,75.218000],[69.316496,75.319000],[69.306504,75.320000],[69.050496,75.344000],[69.003504,75.348000],[68.810504,75.364000],[68.725504,75.371000],[68.561504,75.384000],[68.481496,75.390000],[68.134496,75.414000],[67.688496,75.441000],[67.649496,75.443000],[67.264496,75.462000],[67.126504,75.468000],[66.778504,75.481000],[66.564500,75.487000],[66.343500,75.493000],[65.907500,75.500000],[65.521500,75.502000],[65.177500,75.502000],[64.877504,75.499000],[64.821504,75.498000],[64.599504,75.494000],[64.456496,75.491000],[64.338500,75.488000],[64.166504,75.483000],[64.076500,75.479992],[63.930500,75.475000],[63.752500,75.468000],[63.728500,75.467000],[63.570500,75.460000],[63.462500,75.455000],[63.332500,75.448000],[63.133500,75.437000],[62.889500,75.423008],[62.644500,75.407000],[62.629500,75.406000],[62.342500,75.385000],[62.096500,75.366000],[61.849500,75.345000],[61.667500,75.328000],[61.603500,75.322000],[61.423500,75.305000],[61.179500,75.280000],[61.111500,75.273000],[60.935500,75.254000],[60.619500,75.218000],[60.373500,75.188000],[60.204500,75.166000],[59.882500,75.124000],[31.827500,71.220000],[31.792500,71.215000],[31.742500,71.207000],[31.685502,71.196000],[31.653500,71.189000],[31.596500,71.175000],[31.584500,71.172000],[31.547500,71.162000],[31.536500,71.159000],[31.480500,71.142000],[31.428502,71.125000],[31.416500,71.121000],[31.361500,71.101000],[31.311500,71.081000],[31.253498,71.056000],[31.197498,71.030000],[31.155498,71.009000],[31.104500,70.982000],[31.086498,70.972000],[31.044498,70.948000],[30.992500,70.917000],[30.978500,70.908000],[30.943500,70.885000],[30.934502,70.879000],[30.886502,70.846000],[30.847500,70.817000],[30.839500,70.811000],[30.793500,70.775000],[30.755500,70.744000],[30.748500,70.738000],[30.704498,70.700000],[30.661500,70.660000],[30.640500,70.640000],[30.592498,70.592000],[30.557500,70.555000],[30.538502,70.534000],[30.518502,70.511000],[30.480500,70.466000],[30.444500,70.420000],[30.430500,70.402000],[30.409500,70.374000],[30.406502,70.370000],[30.372502,70.322000],[30.357498,70.300000],[30.342498,70.278000],[30.308498,70.224000],[30.278500,70.173008],[30.250500,70.122000],[30.230500,70.084000],[30.218498,70.060000],[30.195500,70.012000],[30.169498,69.954000],[30.148498,69.903000],[30.127498,69.849000],[30.108502,69.793000],[30.107498,69.790000],[30.090500,69.738000],[30.074502,69.682000],[30.059502,69.625000],[30.045502,69.564000],[30.034500,69.507000],[30.025502,69.454000],[30.024502,69.448000],[30.016498,69.396000],[30.011502,69.353000],[30.008500,69.325000],[30.002498,69.245000],[30.000500,69.208000],[29.999500,69.179000],[29.999500,50.816004]]
; plater:{"center":[60.000000,60.000000,0.000000],"boundingbox_center":[60.000000,60.000000,24.000000],"boundingbox_size":[60.000999,31.004000,48.000000]}

M73 P0 R39
;TYPE:Custom
; custom gcode: start_gcode
START_PRINT T_BED=60 T_EXTRUDER=200
; custom gcode end: start_gcode
M107
G21 ; set units to millimeters
G90 ; use absolute coordinates
M82 ; use absolute distances for extrusion
G92 E0
; custom gcode: start_filament_gcode
; Filament gcode

    PRESSURE_ADVANCE_SELECT FILAMENT=PLA
; custom gcode end: start_filament_gcode
;_TOOLCHANGE 0
M109 S200 ; set temperature and wait for it to be reached
M190 S60 ; set bed temperature and wait for it to be reached
;LAYER_CHANGE
;Z:0.3
;HEIGHT:0.3
; custom gcode: before_layer_gcode
TIMELAPSE_TAKE_FRAME
; custom gcode end: before_layer_gcode

G1 Z0.3 F12000
M73 P0 R39
G1 E-0.8 F3000
M204 S2000
G1 Z0.5 F12000
G1 X33 Y50.555
G1 Z0.3
G1 E0 F1800
;TYPE:Skirt
;WIDTH:0.52
G1 X32 Y51.371 E0.07335
G1 X31.408 Y52.115 E0.12738
G1 X30.837 Y53.271 E0.20066
G1 X30.567 Y54.449 E0.26931
G1 X30.434 Y59.878 E0.57797
G1 X30.543 Y65.36 E0.88951
G1 X30.837 Y66.729 E0.96911
G1 X31.468 Y67.968 E1.04813
G1 X32.116 Y68.748 E1.10573
G1 X32.857 Y69.353 E1.16012
G1 X33.936 Y69.911 E1.22915
G1 X35.14 Y70.208 E1.29963
G1 X59.677 Y71.714 E2.69661
G1 X62.215 Y71.59 E2.84098
G1 X64.298 Y71.224 E2.96117
G1 X65.478 Y70.905 E3.03064
G1 X67.987 Y69.933 E3.18354
G1 X69.013 Y69.408 E3.24908
G1 X70.467 Y68.517 E3.34596
G1 X72.816 Y66.735 E3.5135
G1 X73.702 Y65.871 E3.58384
G1 X74.522 Y64.887 E3.65663
G1 X76.135 Y62.39 E3.82553
M73 P0 R39
G1 X76.545 Y61.415 E3.88566
G1 X76.748 Y60.291 E3.95059
G1 X76.684 Y59.159 E4.01497
G1 X76.492 Y58.412 E4.05881
G1 X76.101 Y57.551 E4.11258
G1 X74.775 Y55.556 E4.24869
G1 X73.217 Y53.769 E4.3834
G1 X71.551 Y52.28 E4.51042
G1 X69.477 Y50.857 E4.65334
G1 X67.27 Y49.746 E4.79376
G1 X64.917 Y48.933 E4.93522
G1 X62.523 Y48.448 E5.07404
G1 X60.19 Y48.285 E5.20695
G1 X35.538 Y49.746 E6.61028
G1 X34.095 Y50.036 E6.69391
G1 X33 Y50.555 E6.7628
G1 X33.234 Y50.946 F12000
G1 F1800
G1 X32.336 Y51.678 E6.82866
G1 X31.546 Y52.778 E6.90558
G1 X31.197 Y53.634 E6.95817
G1 X30.98 Y54.948 E7.03384
G1 X30.889 Y60.004 E7.32117
G1 X30.998 Y65.33 E7.62392
G1 X31.27 Y66.587 E7.69702
G1 X31.835 Y67.698 E7.76786
G1 X32.428 Y68.416 E7.82079
G1 X33.119 Y68.98 E7.87146
G1 X34.089 Y69.482 E7.9335
G1 X35.218 Y69.759 E7.99954
G1 X59.695 Y71.259 E9.39313
G1 X62.151 Y71.139 E9.53285
G1 X64.205 Y70.778 E9.65138
G1 X65.356 Y70.466 E9.71915
G1 X67.781 Y69.527 E9.86695
G1 X70.088 Y68.222 E10.01753
G1 X72.536 Y66.375 E10.19181
G1 X73.374 Y65.554 E10.2585
G1 X74.143 Y64.633 E10.32667
G1 X75.742 Y62.16 E10.49402
G1 X76.113 Y61.269 E10.54888
G1 X76.294 Y60.25 E10.60767
G1 X76.233 Y59.226 E10.66601
G1 X76.065 Y58.571 E10.70442
G1 X75.712 Y57.787 E10.75328
G1 X74.421 Y55.843 E10.88591
G1 X72.902 Y54.098 E11.01737
G1 X71.258 Y52.629 E11.14265
G1 X69.236 Y51.244 E11.28191
G1 X67.082 Y50.161 E11.41896
G1 X64.787 Y49.37 E11.55686
G1 X62.452 Y48.898 E11.69228
G1 X60.173 Y48.74 E11.82205
G1 X35.566 Y50.2 E13.22289
G1 X34.257 Y50.462 E13.29873
G1 X33.234 Y50.946 E13.36305
G92 E0
G1 E-0.8 F3000
G1 Z0.5 F12000
; printing object 3DBenchy.stl id:0 copy 0
EXCLUDE_OBJECT_START NAME=3DBenchy_stl_id_0_copy_0
G1 X50.346 Y60.062
G1 Z0.3
G1 E0 F1800
;TYPE:Internal perimeter
;WIDTH:0.5
G1 X50.347 Y59.074 E0.05372
G1 X50.087 Y59.005 E0.06833
G1 X49.924 Y59.295 E0.08642
G1 X49.689 Y59.381 E0.1
;TYPE:Unknown
G1 X49.444 Y59.47
;TYPE:Internal perimeter
G1 X49.209 Y59.555 E0.11359
;TYPE:External perimeter
G1 X49.096 Y59.503 E0.12031
G1 X49.278 Y59.396 E0.1318
G1 X49.46 Y59.231 E0.14513
G1 X49.742 Y58.73 E0.17639
G1 X49.814 Y58.195 E0.20571
G1 X49.798 Y57.867 E0.22357
G1 X49.693 Y57.499 E0.24436
G1 X49.528 Y57.229 E0.26155
G1 X49.315 Y57 E0.27853
G1 X49.138 Y56.862 E0.29073
G1 X48.857 Y56.711 E0.30806
G1 X48.633 Y56.632 E0.32095
G1 X48.291 Y56.558 E0.33997
G1 X47.995 Y56.526 E0.35617
G1 X47.564 Y56.525 E0.37958
G1 X47.24 Y56.56 E0.39729
G1 X46.892 Y56.639 E0.41668
G1 X46.576 Y56.765 E0.43518
G1 X46.371 Y56.88 E0.44795
G1 X46.154 Y57.059 E0.46322
G1 X45.965 Y57.273 E0.47872
G1 X45.897 Y57.568 E0.49517
G1 X45.887 Y57.798 E0.50765
G1 X45.963 Y58.076 E0.52331
G1 X46.136 Y58.301 E0.53876
G1 X46.356 Y58.485 E0.55435
G1 X46.613 Y58.572 E0.56903
G1 X46.848 Y58.526 E0.58208
G1 X46.999 Y58.463 E0.59098
G1 X47.509 Y58.173 E0.62284
G1 X47.691 Y58.129 E0.63304
