; HEADER_BLOCK_START
; generated by OrcaSlicer 1.6.3 on 2023-07-14 at 13:31:05
; total layer number: 119
; HEADER_BLOCK_END

; THUMBNAIL_BLOCK_START
; THUMBNAIL_BLOCK_END

; external perimeters extrusion width = 0.40mm
; perimeters extrusion width = 0.45mm
; infill extrusion width = 0.45mm
; solid infill extrusion width = 0.40mm
; top infill extrusion width = 0.40mm
; support material extrusion width = 0.40mm
; first layer extrusion width = 0.50mm

; EXECUTABLE_BLOCK_START
EXCLUDE_OBJECT_DEFINE NAME=4010_NF-Crazy.step_id_0_copy_0 CENTER=67.5,60 POLYGON=[[47.5,41.25],[47.5022,41.1176],[47.5048,41.0537],[47.5088,40.9854],[47.5193,40.8579],[47.5269,40.7866],[47.5433,40.6631],[47.5549,40.5895],[47.5769,40.4696],[47.5925,40.3946],[47.6199,40.2781],[47.6396,40.2025],[47.6722,40.0889],[47.6958,40.0138],[47.7338,39.9024],[47.7609,39.8291],[47.8045,39.7193],[47.8345,39.6488],[47.884,39.5398],[47.9162,39.4735],[47.9723,39.3644],[48.0055,39.3035],[48.0691,39.1936],[48.1022,39.1394],[48.1741,39.0277],[48.2056,38.9813],[48.2872,38.8672],[48.3154,38.8296],[48.408,38.7124],[48.431,38.6846],[48.5362,38.5638],[48.552,38.5465],[48.6716,38.4216],[48.6778,38.4154],[48.808,38.2914],[48.8138,38.2862],[48.9422,38.1747],[48.9624,38.158],[49.0799,38.0652],[49.1172,38.0372],[49.2207,37.963],[49.2777,37.9241],[49.3641,37.868],[49.4436,37.8191],[49.5098,37.7803],[49.6144,37.7223],[49.6575,37.6996],[49.7898,37.6341],[49.8068,37.626],[49.9575,37.5594],[49.9693,37.5545],[50.1093,37.4995],[50.1524,37.4838],[50.262,37.4464],[50.3389,37.4222],[50.4154,37.3998],[50.5281,37.3699],[50.5694,37.3598],[50.7196,37.3269],[50.7239,37.326],[50.8787,37.2986],[50.9131,37.2933],[51.0338,37.2773],[51.1079,37.2693],[51.1891,37.2621],[51.3037,37.2548],[51.3444,37.253],[51.5,37.25],[83.5,37.25],[83.6391,37.2524],[83.6963,37.2548],[83.7781,37.2597],[83.8921,37.2693],[83.9182,37.2719],[84.0584,37.2892],[84.0869,37.2933],[84.1985,37.3115],[84.2804,37.3269],[84.3385,37.3389],[84.4719,37.3699],[84.4783,37.3715],[84.6178,37.4094],[84.6611,37.4222],[84.7569,37.4526],[84.8476,37.4838],[84.8955,37.5013],[85.0307,37.5545],[85.0334,37.5556],[85.1705,37.6155],[85.2102,37.6341],[85.3065,37.6812],[85.3856,37.7223],[85.4413,37.7527],[85.5564,37.8191],[85.5745,37.83],[85.706,37.9133],[85.7223,37.9241],[85.8355,38.0026],[85.8828,38.0372],[85.9626,38.0979],[86.0376,38.158],[86.087,38.1992],[86.1862,38.2862],[86.2084,38.3065],[86.3265,38.4197],[86.3284,38.4216],[86.441,38.5388],[86.4638,38.5638],[86.5514,38.6637],[86.592,38.7124],[86.6573,38.7942],[86.7128,38.8672],[86.7586,38.9302],[86.8259,39.0277],[86.8547,39.0714],[86.9309,39.1936],[86.9453,39.2178],[87.0277,39.3644],[87.0301,39.3689],[87.1087,39.5246],[87.116,39.5398],[87.1809,39.6845],[87.1955,39.7193],[87.2464,39.8483],[87.2662,39.9024],[87.3048,40.0156],[87.3278,40.0889],[87.3559,40.1861],[87.3801,40.2781],[87.3995,40.3592],[87.4231,40.4696],[87.4355,40.5346],[87.4567,40.6631],[87.4636,40.7119],[87.4807,40.8579],[87.4838,40.8905],[87.4952,41.0537],[87.4959,41.0701],[87.5,41.25],[87.5,82.75],[47.5,82.75],[47.5,41.25]]
M73 P0 R24
;TYPE:Custom
START_PRINT T_BED=110 T_EXTRUDER=260
G90
G21
M83 ; use relative distances for extrusion
; Filament gcode

    PRESSURE_ADVANCE_SELECT FILAMENT=ABS
M106 S0
;LAYER_CHANGE
;Z:0.2
;HEIGHT:0.2
;BEFORE_LAYER_CHANGE
;0.2
G92 E0

;AFTER_LAYER_CHANGE
;0.2
M204 S500
; printing object 4010_NF-Crazy.step id:0 copy 0
EXCLUDE_OBJECT_START NAME=4010_NF-Crazy.step_id_0_copy_0
G1 E-.5 F3000
G1 Z.2 F21000
G1 X86.336 Y49.543
G1 E.5 F1800
;TYPE:Inner wall
;WIDTH:0.499999
G1 F3000
G1 X86.079 Y48.894 E.0246
G1 X85.694 Y48.037 E.03304
G1 X85.067 Y46.831 E.04786
G1 X84.593 Y46.034 E.03262
G1 X84.084 Y45.26 E.03259
G1 X83.426 Y44.368 E.03903
G1 X82.967 Y43.793 E.02587
G1 X83.428 Y43.822 E.01627
G1 X83.9 Y43.769 E.01671
G1 X84.534 Y43.544 E.02365
G1 X85.068 Y43.154 E.0233
G1 X85.431 Y42.747 E.01916
G1 X85.723 Y42.22 E.02121
;WIDTH:0.521958
G1 X85.849 Y41.869 E.01377
G1 X85.905 Y41.369 E.01857
;WIDTH:0.483963
G1 X85.886 Y40.946 E.01438
;WIDTH:0.476798
G1 X85.736 Y40.349 E.02054
;WIDTH:0.471639
G1 X85.439 Y39.811 E.0203
G1 X85.028 Y39.389 E.01946
;WIDTH:0.470839
G1 X84.606 Y39.107 E.01673
G1 X84.137 Y38.907 E.0168
;WIDTH:0.455155
G1 X83.651 Y38.807 E.01573
;WIDTH:0.453097
G1 X83.125 Y38.799 E.01663
;WIDTH:0.49122
G1 X82.625 Y38.88 E.01747
;WIDTH:0.499999
G1 X82.096 Y39.114 E.02036
G1 X81.678 Y39.415 E.01812
G1 X81.383 Y39.728 E.01514
G1 X81.093 Y40.182 E.01896
G1 X80.965 Y40.458 E.01071
G1 X80.826 Y41.049 E.02137
G1 X80.803 Y41.583 E.01882
G1 X80.338 Y41.181 E.02165
G1 X79.263 Y40.353 E.04776
G1 X78.494 Y39.827 E.0328
G1 X77.711 Y39.343 E.03237
G1 X76.893 Y38.887 E.03298
G1 X75.929 Y38.415 E.03777
G1 X82.804 Y38.402 E.24197
;WIDTH:0.475875
G1 X83.443 Y38.388 E.02131
;WIDTH:0.45069
G1 X83.949 Y38.439 E.01597
;WIDTH:0.462591
G1 X84.445 Y38.573 E.0166
;WIDTH:0.473853
G1 X84.967 Y38.815 E.01908
G1 X85.425 Y39.159 E.019
;WIDTH:0.472566
G1 X85.797 Y39.575 E.01846
;WIDTH:0.472029
G1 X86.078 Y40.053 E.01834
;WIDTH:0.484081
G1 X86.261 Y40.591 E.01927
G1 X86.347 Y41.284 E.02372
;WIDTH:0.483963
G1 X86.344 Y41.402 E.00402
;WIDTH:0.499999
G1 X86.336 Y49.483 E.28442
G1 E-.5
G1 Z.4 F21000
G1 X73.484 Y37.959
G1 Z.2
G1 E.5 F1800
G1 F3000
G1 X83.475 Y37.957 E.35162
G1 X84.145 Y38.024 E.02371
G1 X84.706 Y38.194 E.02062
G1 X85.186 Y38.424 E.01873
G1 X85.71 Y38.813 E.02297
G1 X86.143 Y39.292 E.02273
G1 X86.474 Y39.843 E.02262
G1 X86.674 Y40.403 E.02091
G1 X86.75 Y40.784 E.01369
G1 X86.793 Y41.284 E.01765
G1 X86.793 Y51.66 E.36517
G1 X86.817 Y52.95 E.04541
G1 X86.55 Y51.687 E.04541
G1 X86.285 Y50.772 E.03354
G1 X85.994 Y49.923 E.0316
G1 X85.662 Y49.08 E.03187
G1 X85.288 Y48.248 E.03213
G1 X84.673 Y47.064 E.04694
G1 X84.211 Y46.285 E.03188
G1 X83.714 Y45.528 E.03186
G1 X83.068 Y44.653 E.0383
G1 X82.622 Y44.093 E.0252
G1 X82.166 Y43.571 E.02438
G1 X81.952 Y43.361 E.01054
;WIDTH:0.472688
G1 X81.738 Y43.151 E.00991
;WIDTH:0.445376
G1 X81.385 Y42.785 E.01577
;WIDTH:0.471428
G1 X81.135 Y42.528 E.01183
;WIDTH:0.499999
G1 X80.885 Y42.27 E.01262
G1 X80.058 Y41.543 E.03877
G1 X79.004 Y40.73 E.04684
G1 X78.253 Y40.215 E.03206
G1 X77.489 Y39.742 E.03163
G1 X76.688 Y39.296 E.03224
G1 X75.884 Y38.896 E.03161
G1 X75.029 Y38.518 E.0329
G1 X73.856 Y38.076 E.04412
G1 X73.541 Y37.977 E.01163
G1 E-.5
G1 Z.4 F21000
G1 X81.826 Y39.912
G1 Z.2
G1 E.5 F1800
G1 F3000
G1 X81.945 Y39.786 E.00611
G1 X82.363 Y39.485 E.01812
G1 X82.781 Y39.305 E.01599
G1 X83.3 Y39.218 E.01855
G1 X83.853 Y39.28 E.01959
G1 X84.416 Y39.507 E.02133
G1 X84.826 Y39.793 E.01763
G1 X85.116 Y40.125 E.01552
G1 X85.344 Y40.576 E.01777
G1 X85.459 Y41.081 E.01822
G1 X85.468 Y41.242 E.00566
G1 X85.386 Y41.799 E.01981
G1 X85.132 Y42.368 E.02194
G1 X84.792 Y42.79 E.01907
G1 X84.315 Y43.143 E.02089
G1 X83.827 Y43.317 E.01822
G1 X83.444 Y43.365 E.01358
G1 X82.96 Y43.322 E.01709
G1 X82.441 Y43.153 E.01921
G1 X82.263 Y43.06 E.00709
;WIDTH:0.491819
G1 X82.088 Y42.913 E.00789
;WIDTH:0.465383
G1 X81.913 Y42.766 E.00743
;WIDTH:0.47504
G1 X81.575 Y42.378 E.01712
;WIDTH:0.499999
G1 X81.326 Y41.829 E.02123
G1 X81.259 Y41.312 E.01834
G1 X81.319 Y40.86 E.01603
G1 X81.478 Y40.427 E.01624
G1 X81.768 Y39.973 E.01896
G1 X81.785 Y39.956 E.00086
G1 X82.089 Y40.32 F21000
;TYPE:Outer wall
G1 F3000
G1 X82.153 Y40.219 E.00421
G1 X82.63 Y39.856 E.0211
G1 X82.98 Y39.723 E.01315
G1 X83.383 Y39.68 E.01427
G1 X83.736 Y39.722 E.01251
G1 X84.219 Y39.919 E.01837
G1 X84.537 Y40.149 E.01377
G1 X84.722 Y40.357 E.00983
G1 X84.899 Y40.678 E.01288
G1 X85.012 Y41.213 E.01923
G1 X84.934 Y41.73 E.01841
G1 X84.705 Y42.192 E.01816
G1 X84.515 Y42.426 E.01059
G1 X84.096 Y42.742 E.01848
G1 X83.689 Y42.876 E.01507
G1 X83.164 Y42.898 E.0185
G1 X82.582 Y42.718 E.02143
G1 X82.225 Y42.475 E.01521
G1 X81.981 Y42.196 E.01304
G1 X81.767 Y41.711 E.01865
G1 X81.714 Y41.358 E.01257
G1 X81.755 Y40.996 E.01284
G1 X81.864 Y40.673 E.01197
G1 X82.057 Y40.371 E.01263
G1 X82.077 Y40.299
G1 E-.5
G1 Z.4 F21000
G1 X58.862 Y38.521
G1 Z.2
G1 E.5 F1800
;TYPE:Inner wall
G1 F3000
G1 X57.662 Y39.129 E.04733
G1 X56.858 Y39.603 E.03287
G1 X56.079 Y40.112 E.03274
G1 X55.334 Y40.65 E.03232
G1 X54.639 Y41.2 E.03121
G1 X53.821 Y41.919 E.03832
G1 X53.913 Y41.37 E.01959
G1 X53.894 Y40.929 E.01555
G1 X53.717 Y40.257 E.02443
G1 X53.51 Y39.894 E.01473
G1 X53.208 Y39.528 E.0167
G1 X52.789 Y39.199 E.01875
G1 X52.302 Y38.947 E.01929
G1 X51.879 Y38.828 E.01545
;WIDTH:0.473122
G1 X51.393 Y38.792 E.01615
;WIDTH:0.444482
G1 X50.884 Y38.849 E.01585
;WIDTH:0.429446
G1 X50.395 Y39.005 E.01527
;WIDTH:0.415047
G1 X50.101 Y39.166 E.00962
;WIDTH:0.41076
G1 X49.582 Y39.576 E.01874
;WIDTH:0.384865
G1 X49.319 Y39.934 E.01168
G1 X49.061 Y40.397 E.01398
;WIDTH:0.360184
G1 X48.916 Y40.956 E.01409
;WIDTH:0.347526
G1 X48.89 Y41.563 E.01427
;WIDTH:0.389361
G1 X48.913 Y41.747 E.00493
;WIDTH:0.431196
G1 X48.935 Y41.931 E.00553
;WIDTH:0.47303
G1 X48.958 Y42.114 E.00613
;WIDTH:0.499999
G1 X49.147 Y42.57 E.01736
G1 X49.354 Y42.882 E.0132
G1 X49.738 Y43.256 E.01886
G1 X50.264 Y43.576 E.02166
G1 X50.752 Y43.734 E.01804
G1 X51.132 Y43.811 E.01368
G1 X51.644 Y43.809 E.018
G1 X52.1 Y43.717 E.01639
G1 X51.154 Y44.923 E.05395
G1 X50.628 Y45.688 E.0327
G1 X50.141 Y46.471 E.03243
G1 X49.69 Y47.275 E.03243
G1 X49.269 Y48.116 E.03313
G1 X48.664 Y49.542 E.05451
G1 X48.651 Y42.18 E.25911
;WIDTH:0.47303
G1 X48.634 Y42.075 E.00352
;WIDTH:0.439087
G1 X48.617 Y41.97 E.00325
;WIDTH:0.405144
G1 X48.6 Y41.865 E.00297
;WIDTH:0.371201
G1 X48.589 Y41.244 E.01569
;WIDTH:0.352349
G1 X48.651 Y40.686 E.01339
;WIDTH:0.360184
G1 X48.77 Y40.271 E.01055
;WIDTH:0.384865
G1 X49.021 Y39.769 E.01477
G1 X49.268 Y39.415 E.01136
;WIDTH:0.409379
G1 X49.689 Y39.015 E.0164
G1 X50.045 Y38.773 E.01215
;WIDTH:0.414238
G1 X50.519 Y38.564 E.01481
;WIDTH:0.428014
G1 X51.083 Y38.428 E.01718
;WIDTH:0.451602
G1 X51.662 Y38.395 E.01828
;WIDTH:0.499999
G1 X52.421 Y38.419 E.02672
G1 X59.067 Y38.418 E.23388
G1 X58.916 Y38.494 E.00596
G1 X59.083 Y38.912 F21000
G1 F3000
G1 X59.06 Y38.922 E.00088
G1 X57.894 Y39.523 E.04618
G1 X57.107 Y39.986 E.03213
G1 X56.346 Y40.483 E.03201
G1 X55.618 Y41.008 E.03159
G1 X54.907 Y41.572 E.03194
G1 X54.177 Y42.211 E.03413
;WIDTH:0.527953
G1 X53.891 Y42.464 E.01426
;WIDTH:0.555907
G1 X53.605 Y42.717 E.01509
G1 X53.254 Y43.085 E.02007
;WIDTH:0.548305
G1 X52.828 Y43.547 E.02448
;WIDTH:0.540275
G1 X52.351 Y44.126 E.02875
;WIDTH:0.499999
G1 X51.531 Y45.183 E.04705
G1 X51.016 Y45.93 E.03196
G1 X50.539 Y46.695 E.0317
G1 X50.099 Y47.48 E.03169
G1 X49.688 Y48.298 E.03221
G1 X49.173 Y49.486 E.04558
G1 X48.846 Y50.375 E.03331
G1 X48.575 Y51.232 E.03165
G1 X48.342 Y52.11 E.03196
G1 X48.262 Y52.536 E.01527
;WIDTH:0.474159
G1 X48.182 Y52.963 E.01441
G1 X48.195 Y52.529 E.01441
;WIDTH:0.499999
G1 X48.207 Y52.095 E.01527
G1 X48.207 Y41.282 E.38055
G1 X48.27 Y40.648 E.02242
G1 X48.4 Y40.148 E.0182
G1 X48.66 Y39.598 E.02139
G1 X48.861 Y39.297 E.01275
G1 X49.206 Y38.915 E.0181
G1 X49.638 Y38.537 E.02022
G1 X50.08 Y38.282 E.01795
G1 X50.703 Y38.058 E.02331
G1 X51.358 Y37.962 E.02329
G1 X61.5 Y37.96 E.35695
G1 X60.751 Y38.215 E.02784
G1 X59.898 Y38.548 E.03223
G1 X59.138 Y38.887 E.0293
G1 E-.5
G1 Z.4 F21000
G1 X50.317 Y39.519
G1 Z.2
G1 E.5 F1800
G1 F3000
G1 X50.363 Y39.485 E.00202
G1 X50.784 Y39.304 E.01614
G1 X51.338 Y39.219 E.01971
G1 X51.766 Y39.257 E.0151
G1 X52.106 Y39.359 E.01251
G1 X52.522 Y39.569 E.0164
G1 X52.872 Y39.838 E.01554
G1 X53.116 Y40.125 E.01326
G1 X53.344 Y40.576 E.01777
G1 X53.457 Y41.07 E.01782
G1 X53.405 Y41.675 E.02136
G1 X53.317 Y42.011 E.01222
;WIDTH:0.532313
G1 X53.205 Y42.25 E.00996
;WIDTH:0.564626
G1 X53.093 Y42.489 E.01062
G1 X52.808 Y42.812 E.01728
;WIDTH:0.554254
G1 X52.413 Y43.103 E.01933
;WIDTH:0.540275
G1 X51.888 Y43.305 E.02155
;WIDTH:0.499999
G1 X51.444 Y43.365 E.01576
G1 X50.96 Y43.322 E.01709
G1 X50.441 Y43.153 E.01921
G1 X50 Y42.882 E.01825
G1 X49.689 Y42.57 E.01548
G1 X49.564 Y42.383 E.00792
G1 X49.313 Y41.771 E.02328
G1 X49.259 Y41.312 E.01627
G1 X49.319 Y40.86 E.01603
G1 X49.478 Y40.427 E.01624
G1 X49.768 Y39.973 E.01896
G1 X49.945 Y39.786 E.00908
G1 X50.268 Y39.554 E.01399
G1 E-.5
G1 Z.4 F21000
G1 X49.793 Y40.884
G1 Z.2
G1 E.5 F1800
;TYPE:Outer wall
G1 F3000
G1 X49.864 Y40.673 E.00783
G1 X50.153 Y40.219 E.01896
G1 X50.609 Y39.871 E.02016
G1 X51.022 Y39.717 E.01553
G1 X51.344 Y39.677 E.01143
G1 X51.648 Y39.699 E.01072
G1 X51.91 Y39.772 E.00956
G1 X52.255 Y39.94 E.0135
G1 X52.537 Y40.149 E.01233
G1 X52.722 Y40.357 E.00983
G1 X52.899 Y40.678 E.01288
G1 X53.009 Y41.233 E.0199
G1 X52.934 Y41.73 E.0177
G1 X52.705 Y42.192 E.01816
G1 X52.515 Y42.426 E.01059
G1 X52.065 Y42.756 E.01963
G1 X51.753 Y42.866 E.01167
G1 X51.46 Y42.908 E.01041
G1 X51.033 Y42.865 E.01509
G1 X50.522 Y42.689 E.01904
G1 X50.225 Y42.475 E.01287
G1 X49.981 Y42.196 E.01304
G1 X49.763 Y41.692 E.01933
G1 X49.714 Y41.358 E.01188
G1 X49.755 Y40.996 E.01284
G1 X49.774 Y40.941 E.00203
G1 X49.762 Y40.852
G1 E-.5
G1 Z.4 F21000
G1 X48.664 Y63.92
G1 Z.2
G1 E.5 F1800
;TYPE:Inner wall
G1 F3000
G1 X48.965 Y64.669 E.0284
G1 X49.349 Y65.512 E.03259
G1 X49.768 Y66.33 E.03237
G1 X50.228 Y67.134 E.03259
G1 X50.731 Y67.927 E.03303
G1 X51.345 Y68.785 E.03715
G1 X51.791 Y69.364 E.02573
G1 X52.107 Y69.754 E.01766
G1 X53 Y70.735 E.04668
;WIDTH:0.499031
G1 X53.435 Y71.162 E.02139
;WIDTH:0.504617
G1 X53.843 Y71.563 E.02037
G1 X54.271 Y71.942 E.0203
;WIDTH:0.499999
G1 X54.749 Y72.35 E.0221
G1 X56.056 Y73.327 E.05743
G1 X56.604 Y73.696 E.02327
G1 X57.392 Y74.177 E.03247
G1 X58.201 Y74.621 E.03248
G1 X59.029 Y75.028 E.03248
G1 X59.875 Y75.397 E.03249
G1 X60.379 Y75.59 E.01897
G1 X55.971 Y75.59 E.15513
G1 X55.129 Y75.614 E.02962
G1 X54.59 Y75.727 E.01939
G1 X54.095 Y75.926 E.01878
G1 X53.684 Y76.173 E.01689
G1 X53.112 Y76.68 E.02689
G1 X52.716 Y77.261 E.02476
G1 X52.485 Y77.802 E.02071
G1 X52.355 Y78.469 E.02391
G1 X48.664 Y78.469 E.12988
G1 X48.664 Y74.481 E.14036
G1 X48.641 Y74.181 E.01058
;WIDTH:0.45454
G1 X48.619 Y73.882 E.00953
;WIDTH:0.409081
G1 X48.601 Y73.592 E.00818
;WIDTH:0.373756
G1 X48.583 Y73.302 E.00739
;WIDTH:0.372343
G1 X48.6 Y72.786 E.01311
;WIDTH:0.414895
G1 X48.622 Y72.62 E.00478
;WIDTH:0.457447
G1 X48.643 Y72.455 E.00532
;WIDTH:0.499999
G1 X48.664 Y72.289 E.00587
G1 X48.664 Y63.98 E.29242
G1 E-.5
G1 Z.4 F21000
G1 X48.207 Y60.726
G1 Z.2
G1 E.5 F1800
G1 F3000
G1 X48.49 Y61.924 E.04332
G1 X48.749 Y62.792 E.03187
G1 X49.044 Y63.64 E.0316
G1 X49.381 Y64.48 E.03187
G1 X49.756 Y65.304 E.03185
G1 X50.165 Y66.104 E.03164
G1 X50.614 Y66.89 E.03185
G1 X51.103 Y67.661 E.03211
G1 X51.881 Y68.747 E.04704
G1 X52.699 Y69.734 E.04509
G1 X53.169 Y70.253 E.02467
G1 X53.676 Y70.775 E.02561
G1 X54.158 Y71.229 E.0233
G1 X55.026 Y71.986 E.04054
G1 X56.312 Y72.948 E.05651
G1 X56.843 Y73.307 E.02254
G1 X57.612 Y73.777 E.03174
G1 X58.403 Y74.211 E.03174
G1 X59.212 Y74.609 E.03174
G1 X60.039 Y74.97 E.03175
G1 X60.896 Y75.297 E.03227
G1 X62.166 Y75.701 E.04694
G1 X63.04 Y75.926 E.03174
G1 X63.469 Y76 E.01532
;WIDTH:0.470445
G1 X63.898 Y76.075 E.01433
G1 X63.463 Y76.061 E.01433
;WIDTH:0.499999
G1 X63.027 Y76.046 E.01532
G1 X55.362 Y76.048 E.26978
G1 X55.019 Y76.104 E.01224
G1 X54.528 Y76.226 E.01778
G1 X53.972 Y76.528 E.02227
G1 X53.512 Y76.913 E.02112
G1 X53.185 Y77.346 E.0191
G1 X52.96 Y77.815 E.01833
G1 X52.831 Y78.312 E.01805
G1 X52.804 Y78.926 E.02164
G1 X48.207 Y78.926 E.16179
G1 X48.207 Y60.786 E.63843
G1 E-.5
G1 Z.4 F21000
G1 X53.806 Y72.579
G1 Z.2
G1 E.5 F1800
G1 F3000
G1 X53.877 Y72.866 E.0104
G1 X53.915 Y73.45 E.02059
G1 X53.799 Y74.03 E.02083
G1 X53.492 Y74.645 E.02417
G1 X53.136 Y75.098 E.02029
G1 X52.627 Y75.493 E.02266
G1 X52.023 Y75.732 E.02286
G1 X51.713 Y75.8 E.01118
G1 X51.171 Y75.813 E.01906
G1 X50.576 Y75.701 E.02132
G1 X49.993 Y75.427 E.02268
G1 X49.681 Y75.205 E.01345
G1 X49.373 Y74.897 E.01534
G1 X49.047 Y74.387 E.02132
G1 X48.964 Y74.184 E.00771
G1 X48.941 Y73.994 E.00672
;WIDTH:0.450023
G1 X48.919 Y73.805 E.00599
;WIDTH:0.400046
G1 X48.896 Y73.615 E.00525
;WIDTH:0.350069
G1 X48.889 Y73.13 E.01146
;WIDTH:0.379803
G1 X48.907 Y72.956 E.00454
;WIDTH:0.413228
G1 X48.925 Y72.782 E.00499
;WIDTH:0.446653
G1 X48.942 Y72.608 E.00544
