; generated by SuperSlicer 2.5.59 on 2023-03-21 at 20:50:17 UTC


;
;

;
;
; 

; external perimeters extrusion width = 0.40mm
; perimeters extrusion width = 0.46mm
; infill extrusion width = 0.64mm
; solid infill extrusion width = 0.56mm
; top infill extrusion width = 0.40mm
; first layer extrusion width = 0.50mm

; external perimeters extrusion width = 0.40mm
; perimeters extrusion width = 0.46mm
; infill extrusion width = 0.64mm
; solid infill extrusion width = 0.56mm
; top infill extrusion width = 0.40mm
; first layer extrusion width = 0.50mm

; external perimeters extrusion width = 0.40mm
; perimeters extrusion width = 0.46mm
; infill extrusion width = 0.64mm
; solid infill extrusion width = 0.56mm
; top infill extrusion width = 0.40mm
; first layer extrusion width = 0.50mm

; external perimeters extrusion width = 0.40mm
; perimeters extrusion width = 0.46mm
; infill extrusion width = 0.64mm
; solid infill extrusion width = 0.56mm
; top infill extrusion width = 0.40mm
; first layer extrusion width = 0.50mm

; object:{"name":"[a]_idler_arm_short_x1_rev5","id":"[a]_idler_arm_short_x1_rev5.STL id:0 copy 0","object_center":[74.851848,82.518162,0.000000],"boundingbox_center":[74.851848,82.518162,4.649999],"boundingbox_size":[21.600002,27.257298,9.299997]}
EXCLUDE_OBJECT_DEFINE NAME=_a__idler_arm_short_x1_rev5_STL_id_0_copy_0 CENTER=74.851848,82.518162 POLYGON=[[64.051848,80.121920],[64.054252,80.072912],[64.061448,80.024384],[64.073380,79.976800],[64.089904,79.930600],[64.851844,77.868112],[68.501848,69.191192],[68.801848,68.891344],[71.280880,68.889512],[78.722808,68.889512],[81.201840,68.891344],[81.501848,69.191192],[84.851848,77.868112],[85.616032,79.936184],[85.632424,79.983992],[85.643896,80.033216],[85.650352,80.083344],[85.651848,80.121984],[85.651848,84.656984],[85.650352,84.695616],[85.643896,84.745752],[85.635312,84.784496],[85.632632,84.794552],[85.631248,84.799384],[85.622616,84.825440],[85.616192,84.841720],[85.612808,84.849544],[85.601952,84.872096],[84.759776,86.599512],[78.857136,95.215016],[78.741152,95.379640],[78.609184,95.531768],[78.462592,95.669848],[78.302856,95.792488],[78.131600,95.898448],[77.950544,95.986640],[77.761552,96.056184],[77.566520,96.106360],[77.367432,96.136672],[77.166304,96.146816],[71.926696,96.146816],[71.732072,96.137320],[71.539288,96.108936],[71.350192,96.061920],[71.166568,95.996736],[70.990144,95.913976],[70.822624,95.814456],[70.665584,95.699096],[70.520504,95.569008],[70.388776,95.425424],[70.271664,95.269688],[70.170240,95.103304],[64.939452,86.471936],[64.092124,84.840872],[64.089792,84.836032],[64.081420,84.817192],[64.071336,84.789928],[64.061272,84.752560],[64.059800,84.745304],[64.054252,84.706120],[64.053956,84.702824],[64.052504,84.680208],[64.051848,84.657120],[64.051848,80.121920]]
; object:{"name":"[a]_housing_front_k_x1_rev5","id":"[a]_housing_front_k_x1_rev5.STL id:1 copy 0","object_center":[72.660179,45.642566,0.000000],"boundingbox_center":[72.660179,45.642566,1.950001],"boundingbox_size":[24.799998,34.498230,3.900002]}
EXCLUDE_OBJECT_DEFINE NAME=_a__housing_front_k_x1_rev5_STL_id_1_copy_0 CENTER=72.660179,45.642566 POLYGON=[[60.260180,49.891680],[60.300852,49.086040],[60.422448,48.288588],[64.399796,31.344104],[64.527588,30.953724],[64.694732,30.578508],[64.899492,30.222414],[65.139680,29.889194],[65.412772,29.582364],[65.715896,29.305158],[66.045852,29.060504],[66.399156,28.850978],[66.772088,28.678788],[67.160712,28.545754],[67.560928,28.453276],[67.968520,28.402330],[68.379192,28.393452],[68.788608,28.426740],[69.192448,28.501838],[69.586448,28.617954],[69.966480,28.773870],[70.328504,28.967936],[83.210184,36.887392],[83.534992,37.098320],[83.835960,37.342044],[84.109816,37.615900],[84.353544,37.916876],[84.564480,38.241684],[84.740296,38.586756],[84.879088,38.948320],[84.979328,39.322412],[85.039912,39.704924],[85.060184,40.091684],[85.039912,40.478436],[84.979328,40.860956],[84.879088,41.235048],[84.740296,41.596608],[84.564480,41.941680],[84.353544,42.266488],[71.665224,60.990656],[71.434192,61.325948],[71.170272,61.636012],[70.876208,61.917640],[70.555024,62.167916],[70.210064,62.384240],[69.844904,62.564372],[69.463320,62.706452],[69.069264,62.809004],[68.666832,62.870956],[68.260176,62.891680],[67.853528,62.870956],[67.451096,62.809004],[67.057044,62.706452],[66.675460,62.564372],[66.310296,62.384240],[65.965340,62.167916],[65.644156,61.917640],[65.350084,61.636012],[65.086168,61.325948],[64.855140,60.990656],[64.659392,60.633616],[61.256392,53.757804],[60.902656,53.032836],[60.623728,52.275924],[60.422448,51.494772],[60.300852,50.697324],[60.260180,49.891680]]
; object:{"name":"[a]_housing_front_x1_rev5","id":"[a]_housing_front_x1_rev5.STL id:2 copy 0","object_center":[46.748152,37.103189,0.000000],"boundingbox_center":[46.748152,37.103189,1.950001],"boundingbox_size":[24.799998,26.500000,3.900002]}
EXCLUDE_OBJECT_DEFINE NAME=_a__housing_front_x1_rev5_STL_id_2_copy_0 CENTER=46.748152,37.103189 POLYGON=[[34.348152,37.353188],[34.357164,36.973560],[34.380292,36.636808],[34.429144,36.217728],[34.476452,35.926180],[34.572448,35.472124],[34.635860,35.227020],[34.785788,34.743456],[34.857240,34.544944],[35.067248,34.038300],[38.708908,25.521240],[38.853508,25.257492],[39.024172,25.009812],[39.219128,24.780764],[39.436364,24.572722],[39.673620,24.387842],[39.928444,24.228040],[40.198192,24.094974],[40.480072,23.990018],[40.771164,23.914264],[41.068448,23.868496],[41.368844,23.853188],[55.448152,23.853188],[55.834908,23.873458],[56.217424,23.934042],[56.591516,24.034278],[56.953080,24.173070],[57.298148,24.348894],[57.622956,24.559826],[57.923936,24.803550],[58.197784,25.077404],[58.441512,25.378384],[58.652444,25.703188],[58.828272,26.048264],[58.967064,26.409824],[59.067300,26.783914],[59.127884,27.166432],[59.148148,27.553188],[59.127884,27.939942],[59.067300,28.322460],[58.967064,28.696552],[58.828272,29.058114],[58.652444,29.403186],[58.441512,29.727994],[45.753188,48.452164],[45.522164,48.787452],[45.258248,49.097520],[44.964172,49.379148],[44.642996,49.629420],[44.298036,49.845744],[43.932872,50.025880],[43.551284,50.167956],[43.157236,50.270508],[42.754800,50.332464],[42.348152,50.353188],[41.941500,50.332464],[41.539068,50.270508],[41.145016,50.167956],[40.763432,50.025880],[40.398268,49.845744],[40.053308,49.629420],[39.732132,49.379148],[39.438056,49.097520],[39.174140,48.787452],[38.943112,48.452164],[38.747368,48.095124],[35.138804,40.820940],[35.067248,40.668076],[34.857240,40.161432],[34.785788,39.962920],[34.635860,39.479356],[34.572448,39.234252],[34.476452,38.780192],[34.429144,38.488648],[34.380292,38.069568],[34.357164,37.732816],[34.348152,37.353188]]
; object:{"name":"[a]_idler_arm_long_x1_rev5","id":"[a]_idler_arm_long_x1_rev5.STL id:3 copy 0","object_center":[49.320172,75.716967,0.000000],"boundingbox_center":[49.320172,75.716967,4.649999],"boundingbox_size":[21.599991,38.757301,9.299997]}
EXCLUDE_OBJECT_DEFINE NAME=_a__idler_arm_long_x1_rev5_STL_id_3_copy_0 CENTER=49.320172,75.716967 POLYGON=[[38.520176,67.496792],[38.522464,67.446424],[38.529332,67.397528],[38.540776,67.350536],[38.548208,67.327744],[38.556780,67.305424],[39.320180,65.402704],[42.970172,56.639992],[43.270176,56.340140],[45.749212,56.338320],[53.191136,56.338320],[55.670168,56.340140],[55.970172,56.639992],[60.083560,67.305424],[60.092136,67.327744],[60.099584,67.350536],[60.111028,67.397528],[60.117892,67.446424],[60.120168,67.495736],[60.120168,72.128944],[60.117892,72.181440],[60.117068,72.189896],[60.111028,72.231968],[60.109564,72.239584],[60.099584,72.280480],[54.482852,91.193792],[54.450992,91.295208],[54.413884,91.405432],[54.354848,91.566704],[54.319784,91.655720],[54.244680,91.832664],[54.243656,91.834952],[54.143084,92.048176],[54.120716,92.092568],[54.040164,92.244712],[53.983312,92.345616],[53.948916,92.404352],[53.832860,92.591136],[53.832584,92.591560],[53.804660,92.634136],[53.752292,92.711696],[53.675524,92.820488],[53.669772,92.828440],[53.540592,92.999136],[53.494480,93.056880],[53.307468,93.275840],[53.244280,93.344824],[53.109456,93.484520],[52.920492,93.664728],[52.900396,93.682912],[52.681704,93.869712],[52.681432,93.869928],[52.570864,93.957128],[52.452992,94.045208],[52.215780,94.208248],[52.194356,94.222096],[51.970172,94.358760],[51.790884,94.457864],[51.717336,94.496040],[51.717120,94.496144],[51.457232,94.620128],[51.368840,94.658544],[51.191244,94.730296],[51.151312,94.745448],[50.929372,94.823296],[50.919772,94.826424],[50.702916,94.891992],[50.643696,94.908208],[50.471820,94.951304],[50.363680,94.975424],[50.080572,95.027904],[50.050372,95.032600],[49.795080,95.065480],[49.508016,95.088080],[49.497852,95.088600],[49.220172,95.095616],[48.942492,95.088600],[48.932332,95.088080],[48.645268,95.065480],[48.389972,95.032600],[48.359792,95.027904],[48.076664,94.975424],[47.968524,94.951304],[47.796664,94.908208],[47.736636,94.891760],[47.520588,94.826424],[47.507892,94.822288],[47.284168,94.743616],[47.249104,94.730296],[47.065756,94.656088],[46.983128,94.620128],[46.722996,94.496040],[46.644292,94.455128],[46.470172,94.358760],[46.242740,94.220008],[46.224584,94.208256],[45.987356,94.045208],[45.864840,93.953560],[45.758916,93.869928],[45.758656,93.869712],[45.539952,93.682912],[45.515936,93.661152],[45.330892,93.484520],[45.194540,93.343176],[45.132876,93.275840],[44.945864,93.056880],[44.899752,92.999136],[44.770588,92.828440],[44.765264,92.821112],[44.712588,92.747080],[44.637396,92.636680],[44.607808,92.591640],[44.607488,92.591136],[44.507984,92.432048],[44.457036,92.345616],[44.402668,92.249216],[44.319736,92.092752],[44.291552,92.036656],[44.197864,91.837560],[44.195684,91.832664],[44.104556,91.615624],[44.085484,91.566640],[44.027456,91.408272],[43.989368,91.295208],[43.959232,91.199544],[38.540836,72.280712],[38.529788,72.234456],[38.522724,72.184384],[38.520176,72.128944],[38.520176,67.496792]]
; plater:{"center":[60.000001,60.000000,0.000000],"boundingbox_center":[60.000001,60.000000,4.649999],"boundingbox_size":[51.303696,72.293622,9.299997]}

M73 P0 R26
;TYPE:Custom
; custom gcode: start_gcode
START_PRINT T_BED=110 T_EXTRUDER=240
; custom gcode end: start_gcode
M107
G21 ; set units to millimeters
G90 ; use absolute coordinates
M82 ; use absolute distances for extrusion
G92 E0
; custom gcode: start_filament_gcode
; Filament gcode

    PRESSURE_ADVANCE_SELECT FILAMENT=ABS
; custom gcode end: start_filament_gcode
;_TOOLCHANGE 0
M104 S240 ; set temperature
M109 S240 ; set temperature and wait for it to be reached
M190 S110 ; set bed temperature and wait for it to be reached
;LAYER_CHANGE
;Z:0.2
;HEIGHT:0.2
G1 Z0.2 F12000
M73 P0 R26
G1 E-0.5 F3000
M204 S2000
G1 X35.541 Y23.779 F12000
G1 E0 F1800
;TYPE:Skirt
;WIDTH:0.52
G1 X31.707 Y32.702 E0.36987
G1 X31.312 Y33.741 E0.4122
G1 X31.015 Y34.822 E0.45489
G1 X30.743 Y36.953 E0.53671
G1 X30.874 Y39.147 E0.6204
G1 X40.654 Y92.053 E2.66934
G1 X40.986 Y93.002 E2.70764
G1 X41.59 Y94.202 E2.7588
G1 X42.442 Y95.38 E2.81415
G1 X43.114 Y96.087 E2.8513
G1 X44.029 Y96.837 E2.89635
G1 X45.419 Y97.657 E2.9578
G1 X46.52 Y98.087 E3.00285
G1 X47.558 Y98.352 E3.04364
G1 X49.026 Y98.506 E3.09983
G1 X71.588 Y99.55 E3.95997
G1 X77.161 Y99.562 E4.17222
G1 X78.612 Y99.359 E4.22802
G1 X79.925 Y98.799 E4.28238
G1 X80.801 Y98.153 E4.32381
G1 X81.529 Y97.345 E4.36525
G1 X82.081 Y96.407 E4.40668
G1 X82.344 Y95.713 E4.43495
G1 X84.13 Y89.067 E4.69702
G1 X84.905 Y85.75 E4.82674
G1 X88.643 Y40.776 E6.54539
G1 X88.651 Y39.521 E6.59318
G1 X88.373 Y38.018 E6.6514
G1 X87.959 Y36.941 E6.69533
G1 X87.389 Y35.952 E6.7388
G1 X86.663 Y35.056 E6.78273
G1 X85.814 Y34.292 E6.8262
G1 X72.032 Y25.779 E7.44312
G1 X70.789 Y25.208 E7.4952
G1 X57.797 Y20.625 E8.01987
G1 X56.778 Y20.362 E8.05994
G1 X55.64 Y20.243 E8.10351
G1 X40.89 Y20.257 E8.66525
G1 X39.856 Y20.416 E8.70509
G1 X39.214 Y20.603 E8.73055
G1 X38.003 Y21.168 E8.78141
G1 X37.218 Y21.718 E8.81792
G1 X36.463 Y22.441 E8.85775
G1 X35.541 Y23.779 E8.91961
G1 X35.959 Y24.008 F12000
G1 F1800
G1 X32.151 Y32.879 E9.28727
G1 X31.484 Y34.912 E9.36874
G1 X31.22 Y36.954 E9.44716
G1 X31.343 Y39.061 E9.52751
G1 X41.115 Y91.932 E11.5751
M73 P1 R26
G1 X41.433 Y92.837 E11.61162
G1 X41.991 Y93.945 E11.65886
G1 X42.816 Y95.084 E11.71243
G1 X43.451 Y95.75 E11.74747
G1 X44.293 Y96.44 E11.78893
G1 X45.635 Y97.232 E11.84826
G1 X46.649 Y97.627 E11.88972
G1 X47.633 Y97.881 E11.9284
G1 X49.051 Y98.03 E11.98269
G1 X71.61 Y99.073 E12.84272
G1 X77.161 Y99.085 E13.05413
G1 X78.47 Y98.904 E13.10446
G1 X79.695 Y98.382 E13.15517
G1 X80.491 Y97.79 E13.19295
G1 X81.153 Y97.051 E13.23073
G1 X81.654 Y96.194 E13.26851
G1 X81.883 Y95.589 E13.29315
G1 X83.669 Y88.943 E13.55523
G1 X84.429 Y85.711 E13.68169
G1 X88.168 Y40.736 E15.40034
G1 X88.174 Y39.546 E15.44567
G1 X87.912 Y38.141 E15.50009
G1 X87.534 Y37.157 E15.54023
G1 X86.989 Y36.212 E15.5818
G1 X86.325 Y35.393 E15.62193
G1 X85.514 Y34.663 E15.6635
G1 X71.807 Y26.199 E16.27699
G1 X70.631 Y25.658 E16.3263
G1 X57.638 Y21.075 E16.85097
G1 X56.703 Y20.833 E16.88774
G1 X55.615 Y20.719 E16.92941
G1 X41.207 Y20.719 E17.47812
G1 X39.695 Y20.951 E17.53638
G1 X38.257 Y21.572 E17.59602
G1 X37.511 Y22.094 E17.63068
G1 X36.826 Y22.75 E17.66682
G1 X35.959 Y24.008 E17.72498
G92 E0
G1 E-0.5 F3000
; printing object [a]_idler_arm_short_x1_rev5.STL id:0 copy 0
EXCLUDE_OBJECT_START NAME=_a__idler_arm_short_x1_rev5_STL_id_0_copy_0
; acceleration to travel
M204 S4000
G1 X63.992 Y68.164 F12000
; decel to extrusion
M204 S2000
G1 X78.008 Y90.242
; end travel
G1 E0 F1800
;TYPE:Internal perimeter
;WIDTH:0.5
G1 X77.936 Y89.976 E0.01005
G1 X77.665 Y89.366 E0.03443
G1 X77.388 Y88.939 E0.05298
G1 X77.905 Y88.77 E0.07283
G1 X78.827 Y88.235 E0.11174
G1 X78.288 Y90.242 E0.18755
G1 X78.008 Y90.242 E0.19778
G92 E0
G1 E-0.5 F3000
; acceleration to travel
M204 S4000
G1 X77.78 Y92.143 F12000
; decel to extrusion
M204 S2000
G1 X77.666 Y93.093
; end travel
G1 E0 F1800
G1 X77.666 Y91.073 E0.07371
G1 X77.607 Y90.513 E0.09425
G1 X77.504 Y90.129 E0.10876
G1 X77.262 Y89.584 E0.13052
G1 X77.045 Y89.251 E0.14503
G1 X76.471 Y88.614 E0.17631
G1 X77.121 Y88.546 E0.20012
G1 X77.717 Y88.351 E0.22302
G1 X78.221 Y88.058 E0.24428
G1 X78.512 Y87.823 E0.25795
G1 X78.912 Y87.379 E0.27972
G1 X79.264 Y86.745 E0.30621
G1 X79.544 Y86.825 E0.31683
G1 X79.524 Y87.182 E0.32986
G1 X79.479 Y87.524 E0.34247
G1 X79.411 Y87.824 E0.35368
G1 X77.984 Y93.135 E0.55434
G1 X77.666 Y93.093 E0.56604
G92 E0
G1 E-0.5 F3000
; acceleration to travel
M204 S4000
G1 X73.343 Y90.845 F12000
; decel to extrusion
M204 S2000
G1 X71.181 Y89.72
; end travel
G1 E0 F1800
G1 X70.917 Y89.692 E0.0097
G1 X70.657 Y88.46 E0.05566
G1 X70.887 Y88.327 E0.06534
G1 X70.995 Y88.424 E0.07062
G1 X71.719 Y88.826 E0.10085
G1 X71.358 Y89.324 E0.12331
G1 X71.181 Y89.72 E0.13913
; acceleration to travel
M204 S4000
G1 X71.919 Y88.917 F12000
; decel to extrusion
M204 S2000
G1 X72.288 Y88.515
; end travel
G1 F1800
G1 X72.596 Y88.613 E0.1509
G1 X72.144 Y89.02 E0.17309
G1 X71.756 Y89.554 E0.19718
G1 X71.5 Y90.129 E0.22015
G1 X71.397 Y90.513 E0.23466
G1 X71.338 Y91.073 E0.2552
G1 X71.338 Y92.319 E0.30064
G1 X71.01 Y92.353 E0.31267
G1 X70.05 Y87.795 E0.48261
G1 X69.98 Y87.312 E0.50042
G1 X69.966 Y86.835 E0.51784
G1 X70.237 Y86.762 E0.52807
G1 X70.583 Y87.359 E0.55326
G1 X70.819 Y87.65 E0.56693
G1 X71.262 Y88.05 E0.58871
G1 X71.849 Y88.376 E0.61321
G1 X72.288 Y88.515 E0.63
G92 E0
G1 E-0.5 F3000
; acceleration to travel
M204 S4000
G1 X71.045 Y81.085 F12000
; decel to extrusion
M204 S2000
G1 X70.423 Y77.37
; end travel
G1 E0 F1800
G1 X70.423 Y74.916 E0.08957
G1 X70.843 Y75.434 E0.11391
G1 X71.221 Y75.812 E0.13342
G1 X71.955 Y76.379 E0.16724
G1 X71.56 Y76.532 E0.18269
G1 X70.983 Y76.866 E0.20701
G1 X70.423 Y77.37 E0.23451
; acceleration to travel
M204 S4000
G1 X70.307 Y78.145 F12000
; decel to extrusion
M204 S2000
G1 X70.25 Y78.532
; end travel
G1 F1800
G1 X69.966 Y78.466 E0.24512
G1 X69.966 Y73.602 E0.42259
G1 X70.265 Y73.547 E0.43369
G1 X70.422 Y73.956 E0.44968
G1 X70.634 Y74.372 E0.46673
G1 X70.889 Y74.764 E0.48379
G1 X71.183 Y75.128 E0.50084
