; HEADER_BLOCK_START
; generated by OrcaSlicer 1.7.0-beta on 2023-10-02 at 20:58:14
; total layer number: 95
; HEADER_BLOCK_END

; THUMBNAIL_BLOCK_START
; THUMBNAIL_BLOCK_END

; external perimeters extrusion width = 0.40mm
; perimeters extrusion width = 0.46mm
; infill extrusion width = 0.64mm
; solid infill extrusion width = 0.56mm
; top infill extrusion width = 0.40mm
; first layer extrusion width = 0.50mm

; EXECUTABLE_BLOCK_START
EXCLUDE_OBJECT_DEFINE NAME=a__Magprobe_Dock_x1_Rev1_Edited.stl_id_0_copy_0 CENTER=60,60 POLYGON=[[48.225,52.6315],[48.2339,52.2112],[48.2603,51.7916],[48.3044,51.3735],[48.7321,48.0013],[49.1994,44.316],[49.256,43.8696],[49.4326,42.4773],[49.433,42.4742],[49.4414,42.4197],[49.4485,42.3848],[49.458,42.3454],[49.4623,42.3295],[49.4864,42.2549],[49.4914,42.2416],[49.4996,42.2209],[49.5286,42.1568],[49.5416,42.1314],[49.5573,42.103],[49.5734,42.0757],[49.6129,42.0164],[49.6256,41.9992],[49.6298,41.9937],[49.6846,41.9279],[49.6991,41.9122],[49.7161,41.8947],[49.7499,41.8622],[49.7986,41.8205],[49.8145,41.808],[49.8211,41.803],[49.8974,41.7505],[49.9095,41.7431],[49.9235,41.7348],[49.9782,41.7053],[50.0299,41.6814],[50.0411,41.6766],[50.0629,41.6679],[50.1507,41.6384],[50.1575,41.6364],[50.1653,41.6343],[50.2408,41.6171],[50.29,41.6091],[50.294,41.6086],[50.3325,41.6043],[50.425,41.6],[69.775,41.6],[69.9401,41.6072],[69.9518,41.6079],[69.9595,41.6085],[69.9635,41.6089],[70.1273,41.6317],[70.1425,41.634],[70.1504,41.6355],[70.3223,41.6763],[70.3334,41.6795],[70.4975,41.7351],[70.5107,41.7402],[70.6664,41.8096],[70.6804,41.8167],[70.8278,41.8995],[70.8409,41.9077],[70.9803,42.004],[70.9906,42.0118],[71.1224,42.122],[71.1283,42.1274],[71.1892,42.1858],[71.253,42.2526],[71.2913,42.2959],[71.3711,42.3948],[71.3943,42.4262],[71.4755,42.5472],[71.4884,42.5684],[71.5654,42.7086],[71.5717,42.7215],[71.6399,42.8775],[71.6426,42.8845],[71.6987,43.0527],[71.6995,43.0557],[71.741,43.2325],[71.7411,43.2335],[71.7665,43.4155],[71.7665,43.4156],[71.775,43.6],[71.775,76.4],[71.775,76.4098],[71.7665,76.5845],[71.7656,76.5936],[71.741,76.7675],[71.7396,76.7746],[71.6987,76.9473],[71.6978,76.9505],[71.6411,77.1195],[71.6399,77.1225],[71.5711,77.2798],[71.5653,77.2914],[71.5653,77.2915],[71.4893,77.4302],[71.4755,77.4528],[71.3974,77.5696],[71.3711,77.6052],[71.2971,77.6974],[71.253,77.7474],[71.1892,77.8142],[71.1224,77.878],[71.1223,77.8782],[71.0611,77.9316],[70.9801,77.9962],[70.922,78.0384],[70.8279,78.1004],[70.8277,78.1005],[70.7715,78.1341],[70.6665,78.1903],[70.6663,78.1904],[70.6106,78.2171],[70.4975,78.2649],[70.4407,78.2859],[70.3222,78.3237],[70.2634,78.3394],[70.1425,78.366],[70.1424,78.366],[70.0805,78.3765],[70.0616,78.3791],[69.9595,78.3915],[69.8937,78.3965],[69.8863,78.3969],[69.8789,78.3971],[69.775,78.4],[50.425,78.4],[50.3325,78.3957],[50.294,78.3914],[50.29,78.3909],[50.2408,78.3829],[50.1653,78.3657],[50.1575,78.3636],[50.1507,78.3616],[50.0629,78.3321],[50.0411,78.3234],[50.0299,78.3186],[49.9782,78.2946],[49.9235,78.2652],[49.9095,78.2569],[49.8974,78.2495],[49.8211,78.197],[49.8145,78.192],[49.7986,78.1795],[49.7499,78.1378],[49.7161,78.1053],[49.6991,78.0878],[49.6846,78.0721],[49.6298,78.0063],[49.6256,78.0008],[49.6129,77.9836],[49.5734,77.9243],[49.5573,77.897],[49.5416,77.8686],[49.5286,77.8432],[49.4996,77.7791],[49.4914,77.7584],[49.4864,77.7451],[49.4623,77.6705],[49.458,77.6546],[49.4485,77.6152],[49.4414,77.5803],[49.433,77.5258],[49.4326,77.5227],[49.4112,77.3546],[48.8661,73.056],[48.3044,68.6265],[48.2603,68.2084],[48.2339,67.7888],[48.225,67.3685],[48.225,52.6315]]
M73 P0 R15
;TYPE:Custom
START_PRINT T_BED=110 T_EXTRUDER=260
G90
G21
M83 ; use relative distances for extrusion
; Filament gcode

    PRESSURE_ADVANCE_SELECT FILAMENT=ABS
M106 S0
;LAYER_CHANGE
;Z:0.2
;HEIGHT:0.2
;BEFORE_LAYER_CHANGE
;0.2
G92 E0

;AFTER_LAYER_CHANGE
;0.2
;_SET_FAN_SPEED_CHANGING_LAYER
SET_VELOCITY_LIMIT ACCEL=1000 ACCEL_TO_DECEL=500
SET_VELOCITY_LIMIT SQUARE_CORNER_VELOCITY=9
G1 E-.5 F3000
G1 Z.2 F21000
G1 X47.672 Y40.26
G1 Z.2
G1 E.5 F1800
;TYPE:Skirt
;WIDTH:0.5
G1 F3000
G1 X48.374 Y39.626 E.0333
G1 X49.217 Y39.195 E.03331
G1 X50.142 Y38.998 E.0333
G1 X69.91 Y38.989 E.69569
G1 X70.755 Y39.092 E.02997
G1 X71.566 Y39.349 E.02996
G1 X72.317 Y39.75 E.02995
G1 X72.782 Y40.102 E.02052
G1 X73.384 Y40.727 E.03054
G1 X73.843 Y41.424 E.02938
G1 X74.173 Y42.209 E.02995
G1 X74.354 Y43.041 E.02997
G1 X74.389 Y76.4 E1.17404
G1 X74.247 Y77.533 E.04018
G1 X73.843 Y78.576 E.03937
G1 X73.273 Y79.407 E.03547
G1 X72.317 Y80.249 E.04485
G1 X71.315 Y80.748 E.03938
G1 X70.066 Y81.004 E.04486
G1 X50.425 Y81.014 E.69125
G1 X49.673 Y80.934 E.02662
G1 X48.781 Y80.617 E.0333
G1 X48.081 Y80.15 E.02963
G1 X47.65 Y79.713 E.02161
G1 X47.159 Y78.944 E.03209
G1 X46.887 Y78.134 E.03009
G1 X45.62 Y67.837 E.36511
G1 X45.625 Y52.04 E.55596
G1 X46.84 Y42.145 E.35085
G1 X47.189 Y40.993 E.04239
G1 X47.65 Y40.294 E.02946
G1 X48.016 Y40.561 F21000
G1 F3000
G1 X48.629 Y40.005 E.02909
G1 X49.364 Y39.628 E.02909
G1 X50.172 Y39.454 E.02909
G1 X69.888 Y39.446 E.6939
G1 X70.65 Y39.537 E.027
G1 X71.382 Y39.767 E.02699
G1 X72.058 Y40.128 E.02698
G1 X72.669 Y40.617 E.02753
G1 X73.159 Y41.187 E.02646
G1 X73.544 Y41.85 E.02698
G1 X73.802 Y42.572 E.02698
G1 X73.922 Y43.33 E.02701
G1 X73.932 Y76.4 E1.16387
G1 X73.802 Y77.428 E.03647
G1 X73.443 Y78.353 E.03492
G1 X72.922 Y79.115 E.0325
G1 X72.059 Y79.872 E.04041
G1 X71.17 Y80.315 E.03494
G1 X70.045 Y80.547 E.04042
G1 X50.425 Y80.557 E.69051
G1 X49.762 Y80.486 E.02346
G1 X48.984 Y80.208 E.02908
G1 X48.382 Y79.805 E.02549
G1 X47.997 Y79.416 E.01927
G1 X47.57 Y78.744 E.02803
G1 X47.336 Y78.047 E.02587
G1 X46.077 Y67.828 E.36236
G1 X46.081 Y52.069 E.55461
G1 X47.293 Y42.203 E.34984
G1 X47.601 Y41.191 E.03721
G1 X47.994 Y40.594 E.02517
; printing object [a]_Magprobe_Dock_x1_Rev1 Edited.stl id:0 copy 0
G1 E-.5
EXCLUDE_OBJECT_START NAME=a__Magprobe_Dock_x1_Rev1_Edited.stl_id_0_copy_0
G1 Z.4 F21000
G1 X50.141 Y77.599 Z.4
G1 Z.2
G1 E.5 F1800
;TYPE:Outer wall
G1 F3000
G1 X50.075 Y77.425 E.00658
G1 X48.95 Y68.551 E.31481
G1 X48.89 Y67.86 E.02439
G1 X48.875 Y67.364 E.01748
G1 X48.884 Y52.239 E.53232
G1 X48.95 Y51.449 E.02789
G1 X50.074 Y42.584 E.3145
G1 X50.126 Y42.425 E.00586
G1 X50.179 Y42.354 E.00313
G1 X50.251 Y42.299 E.00317
G1 X50.335 Y42.264 E.0032
G1 X50.445 Y42.25 E.0039
G1 X55.887 Y42.249 E.19156
G1 X57.865 Y42.173 E.06964
G1 X58.85 Y42.232 E.03474
G1 X59.85 Y42.25 E.03519
G1 X65.807 Y42.249 E.20967
G1 X66.309 Y42.243 E.01767
G1 X67.792 Y42.172 E.05223
G1 X68.273 Y42.19 E.01694
G1 X68.77 Y42.226 E.01755
G1 X69.896 Y42.256 E.03963
G1 X70.144 Y42.303 E.00888
G1 X70.376 Y42.393 E.00877
G1 X70.587 Y42.523 E.00873
G1 X70.784 Y42.705 E.00944
G1 X70.98 Y42.993 E.01227
G1 X71.072 Y43.231 E.00897
G1 X71.119 Y43.479 E.00889
G1 X71.15 Y44.61 E.03981
G1 X71.202 Y45.6 E.03489
G1 X71.15 Y46.59 E.03489
G1 X71.119 Y47.727 E.04002
G1 X71.031 Y48.093 E.01325
G1 X70.851 Y48.413 E.01295
G1 X70.591 Y48.675 E.01297
G1 X70.384 Y48.804 E.00859
G1 X70.267 Y48.856 E.0045
G1 X69.902 Y48.944 E.01323
G1 X68.765 Y48.975 E.04001
G1 X67.774 Y49.027 E.03491
G1 X66.281 Y48.956 E.05261
G1 X63.765 Y48.95 E.08854
G1 X63.168 Y48.989 E.02108
G1 X62.56 Y49.111 E.02182
G1 X61.999 Y49.302 E.02087
G1 X61.696 Y49.44 E.0117
G1 X61.191 Y49.733 E.02054
G1 X60.712 Y50.101 E.02126
G1 X60.487 Y50.312 E.01085
G1 X60.276 Y50.537 E.01084
G1 X59.923 Y50.994 E.02034
G1 X59.604 Y51.543 E.02234
G1 X59.371 Y52.105 E.02142
G1 X59.214 Y52.693 E.02141
G1 X59.135 Y53.293 E.02131
G1 X59.134 Y66.704 E.47199
G1 X59.214 Y67.307 E.02141
G1 X59.371 Y67.895 E.02141
G1 X59.604 Y68.457 E.02142
G1 X59.924 Y69.006 E.02235
G1 X60.3 Y69.49 E.02159
G1 X60.682 Y69.872 E.01898
G1 X60.923 Y70.073 E.01107
G1 X61.449 Y70.427 E.02232
G1 X61.992 Y70.695 E.02128
G1 X62.283 Y70.804 E.01094
G1 X62.742 Y70.934 E.01681
G1 X63.16 Y71.009 E.01495
G1 X63.475 Y71.041 E.01112
G1 X66.281 Y71.044 E.09876
G1 X67.774 Y70.972 E.05262
G1 X68.765 Y71.025 E.03491
G1 X69.896 Y71.056 E.03982
G1 X70.145 Y71.103 E.00891
G1 X70.358 Y71.184 E.00804
G1 X70.496 Y71.26 E.00554
G1 X70.683 Y71.403 E.00829
G1 X70.851 Y71.587 E.00878
G1 X70.982 Y71.799 E.00876
G1 X71.072 Y72.031 E.00877
G1 X71.119 Y72.279 E.00889
G1 X71.15 Y73.41 E.03981
G1 X71.203 Y74.403 E.03498
G1 X71.15 Y75.387 E.03471
G1 X71.119 Y76.521 E.0399
G1 X71.072 Y76.769 E.00889
G1 X70.982 Y77.001 E.00877
G1 X70.851 Y77.213 E.00876
G1 X70.684 Y77.397 E.00876
G1 X70.382 Y77.605 E.01292
G1 X70.144 Y77.697 E.00897
G1 X69.896 Y77.744 E.00888
G1 X68.77 Y77.774 E.03963
G1 X67.792 Y77.827 E.03448
G1 X66.309 Y77.757 E.05224
G1 X65.807 Y77.751 E.01767
G1 X59.85 Y77.75 E.20967
G1 X58.85 Y77.768 E.03519
G1 X57.865 Y77.827 E.03474
G1 X55.888 Y77.751 E.06963
G1 X50.445 Y77.75 E.19156
M73 P1 R15
G1 X50.335 Y77.736 E.0039
G1 X50.259 Y77.704 E.00288
G1 X50.171 Y77.626 E.00414
G1 E-.5
G1 Z.4 F21000
G1 X50.417 Y77.41 Z.4
G1 X57.886 Y77.098
G1 X58.105 Y77.08
G1 X58.332 Y77.042
G1 X58.55 Y76.986
G1 X58.744 Y76.92
G1 X59.582 Y76.573
G1 X59.791 Y76.478
G1 X60.018 Y76.357
G1 X60.248 Y76.213
G1 X60.426 Y76.082
G1 X60.363 Y75.996
G1 Z.2
G1 E.5 F1800
G1 F3000
G1 X60.236 Y76.204 E.00856
G1 X59.9 Y76.589 E.01799
G1 X59.557 Y76.874 E.01569
G1 X59.31 Y77.034 E.01033
G1 X58.853 Y77.238 E.01763
G1 X58.374 Y77.34 E.01722
G1 X57.657 Y77.371 E.02526
G1 X56.993 Y77.312 E.02346
G1 X56.698 Y77.237 E.01072
G1 X56.434 Y77.132 E.01
G1 X56.044 Y76.911 E.01579
G1 X55.655 Y76.593 E.01766
G1 X55.467 Y76.394 E.00964
G1 X55.176 Y75.997 E.01732
G1 X54.948 Y75.546 E.01779
G1 X54.802 Y75.084 E.01706
G1 X54.729 Y74.557 E.01872
G1 X54.738 Y74.112 E.01567
G1 X54.83 Y73.606 E.01808
G1 X54.908 Y73.358 E.00914
G1 X55.112 Y72.911 E.01731
G1 X55.39 Y72.497 E.01753
G1 X55.743 Y72.125 E.01806
G1 X56.096 Y71.854 E.01567
G1 X56.569 Y71.598 E.01893
G1 X57.031 Y71.442 E.01714
G1 X57.284 Y71.389 E.00909
G1 X57.714 Y71.352 E.01521
G1 X58.022 Y71.36 E.01082
G1 X58.276 Y71.391 E.00902
G1 X58.766 Y71.515 E.01777
G1 X59.01 Y71.611 E.00924
G1 X59.403 Y71.82 E.01566
G1 X59.819 Y72.135 E.01836
G1 X60.155 Y72.491 E.01725
G1 X60.438 Y72.91 E.01778
G1 X60.642 Y73.359 E.01735
G1 X60.724 Y73.618 E.00957
G1 X60.806 Y74.056 E.01568
G1 X60.82 Y74.585 E.01863
G1 X60.753 Y75.063 E.01697
G1 X60.604 Y75.541 E.01762
G1 X60.494 Y75.784 E.00938
G1 X60.384 Y75.962 E.00738
G1 E-.5
G1 Z.4 F21000
G1 X67.117 Y77.323 Z.4
G1 Z.2
G1 E.5 F1800
G1 F3000
G1 X66.993 Y77.312 E.00438
G1 X66.698 Y77.237 E.01072
G1 X66.434 Y77.132 E.01
G1 X66.044 Y76.911 E.01579
G1 X65.655 Y76.593 E.01766
G1 X65.467 Y76.394 E.00964
G1 X65.176 Y75.997 E.01732
G1 X64.948 Y75.546 E.01779
G1 X64.802 Y75.084 E.01706
G1 X64.729 Y74.557 E.01872
G1 X64.738 Y74.117 E.01548
G1 X64.773 Y73.857 E.00924
G1 X64.904 Y73.368 E.0178
G1 X65.002 Y73.129 E.00911
G1 X65.211 Y72.75 E.01522
G1 X65.389 Y72.5 E.01082
G1 X65.554 Y72.31 E.00885
G1 X65.747 Y72.121 E.0095
G1 X66.098 Y71.854 E.01553
G1 X66.346 Y71.71 E.01008
G1 X66.578 Y71.607 E.00894
G1 X66.819 Y71.527 E.00892
G1 X67.071 Y71.473 E.00909
G1 X67.721 Y71.429 E.02292
G1 X68.245 Y71.448 E.01844
G1 X68.749 Y71.53 E.01798
G1 X69.203 Y71.708 E.01718
G1 X69.623 Y71.973 E.01745
G1 X69.823 Y72.139 E.00916
G1 X70.156 Y72.492 E.01707
G1 X70.438 Y72.916 E.01792
G1 X70.633 Y73.383 E.01782
G1 X70.722 Y73.873 E.01752
G1 X70.744 Y74.572 E.02462
G1 X70.711 Y75.029 E.01614
G1 X70.663 Y75.293 E.00945
G1 X70.593 Y75.53 E.0087
G1 X70.491 Y75.776 E.00937
G1 X70.236 Y76.202 E.01747
G1 X69.9 Y76.589 E.01804
G1 X69.557 Y76.874 E.0157
G1 X69.31 Y77.034 E.01033
G1 X68.853 Y77.238 E.01763
G1 X68.374 Y77.34 E.01722
G1 X67.657 Y77.371 E.02526
G1 X67.157 Y77.326 E.01767
G1 E-.5
G1 Z.4 F21000
G1 X65.523 Y76.352 Z.4
G1 X65.301 Y76.213
G1 X65.084 Y76.053
G1 X64.872 Y75.872
G1 X64.718 Y75.724
G1 X64.663 Y75.66
G1 X59.821 Y69.437
G1 X59.645 Y69.193
G1 X59.458 Y68.894
G1 X59.303 Y68.605
G1 X59.168 Y68.308
G1 X59.054 Y68.003
G1 X58.959 Y67.69
G1 X58.885 Y67.373
G1 X58.832 Y67.051
G1 X58.8 Y66.726
G1 X58.789 Y66.411
G1 X58.789 Y53.589
G1 X58.8 Y53.271
G1 X58.832 Y52.949
G1 X58.885 Y52.627
G1 X58.962 Y52.298
G1 X59.054 Y51.997
G1 X59.168 Y51.692
G1 X59.303 Y51.395
G1 X59.428 Y51.161
G1 X59.473 Y51.079
G1 X59.645 Y50.807
G1 X59.82 Y50.564
G1 X60.026 Y50.312
G1 X64.391 Y45.636
G1 X64.732 Y45.63
G1 Z.2
G1 E.5 F1800
G1 F3000
G1 X64.738 Y45.317 E.01101
G1 X64.773 Y45.057 E.00924
G1 X64.906 Y44.563 E.01798
G1 X65.11 Y44.115 E.01733
G1 X65.248 Y43.891 E.00925
G1 X65.55 Y43.513 E.01704
G1 X65.747 Y43.321 E.00968
G1 X66.098 Y43.054 E.01553
G1 X66.346 Y42.91 E.01008
G1 X66.578 Y42.807 E.00894
G1 X66.819 Y42.727 E.00892
G1 X67.071 Y42.673 E.00909
G1 X67.721 Y42.629 E.02292
G1 X68.245 Y42.648 E.01844
G1 X68.749 Y42.73 E.01798
G1 X69.203 Y42.908 E.01718
G1 X69.623 Y43.173 E.01745
G1 X69.823 Y43.339 E.00916
G1 X70.156 Y43.692 E.01707
G1 X70.438 Y44.116 E.01792
G1 X70.633 Y44.583 E.01782
G1 X70.722 Y45.073 E.01752
G1 X70.744 Y45.772 E.02462
G1 X70.711 Y46.229 E.01614
G1 X70.663 Y46.493 E.00945
G1 X70.593 Y46.73 E.0087
G1 X70.491 Y46.976 E.00937
G1 X70.236 Y47.402 E.01747
G1 X69.9 Y47.789 E.01804
G1 X69.557 Y48.074 E.0157
G1 X69.31 Y48.234 E.01034
G1 X68.853 Y48.438 E.01763
G1 X68.374 Y48.54 E.01722
G1 X67.657 Y48.571 E.02526
G1 X66.993 Y48.512 E.02346
G1 X66.698 Y48.437 E.01072
G1 X66.434 Y48.332 E.01
G1 X66.044 Y48.111 E.01579
G1 X65.655 Y47.793 E.01766
G1 X65.467 Y47.594 E.00964
G1 X65.176 Y47.197 E.01732
G1 X64.948 Y46.746 E.01779
G1 X64.802 Y46.284 E.01706
G1 X64.729 Y45.757 E.01872
G1 X64.731 Y45.67 E.00306
G1 E-.5
G1 Z.4 F21000
G1 X60.414 Y47.119 Z.4
G1 Z.2
G1 E.5 F1800
G1 F3000
G1 X60.374 Y47.197 E.00311
G1 X60.077 Y47.602 E.01767
G1 X59.896 Y47.792 E.00924
G1 X59.554 Y48.078 E.01567
G1 X59.1 Y48.348 E.01861
G1 X58.654 Y48.521 E.01681
G1 X58.399 Y48.586 E.00926
G1 X57.901 Y48.648 E.01769
G1 X57.397 Y48.627 E.01776
G1 X56.963 Y48.539 E.01558
G1 X56.68 Y48.447 E.01046
G1 X56.426 Y48.335 E.00979
G1 X56.042 Y48.11 E.01567
G1 X55.651 Y47.79 E.01778
G1 X55.318 Y47.408 E.01784
G1 X55.174 Y47.193 E.00908
G1 X54.974 Y46.805 E.01535
G1 X54.867 Y46.521 E.01071
G1 X54.8 Y46.273 E.00902
G1 X54.729 Y45.762 E.01816
G1 X54.738 Y45.317 E.01566
G1 X54.773 Y45.057 E.00924
G1 X54.904 Y44.568 E.0178
G1 X55.002 Y44.329 E.00911
G1 X55.211 Y43.95 E.01522
G1 X55.389 Y43.7 E.01082
G1 X55.554 Y43.51 E.00885
G1 X55.747 Y43.321 E.0095
G1 X56.098 Y43.054 E.01553
G1 X56.346 Y42.91 E.01008
G1 X56.578 Y42.807 E.00894
G1 X56.819 Y42.727 E.00892
G1 X57.071 Y42.673 E.00909
G1 X57.721 Y42.629 E.02292
G1 X58.245 Y42.648 E.01844
G1 X58.749 Y42.73 E.01798
G1 X59.203 Y42.908 E.01718
G1 X59.623 Y43.173 E.01745
G1 X59.823 Y43.339 E.00915
G1 X60.152 Y43.688 E.01687
G1 X60.308 Y43.9 E.00927
G1 X60.55 Y44.333 E.01747
G1 X60.723 Y44.813 E.01797
G1 X60.805 Y45.251 E.01567
G1 X60.825 Y45.536 E.01006
G1 X60.819 Y45.791 E.00898
G1 X60.753 Y46.263 E.01676
G1 X60.603 Y46.746 E.0178
G1 X60.432 Y47.083 E.01329
G1 X60.816 Y47.432 F21000
;TYPE:Inner wall
G1 F3000
G1 X61.068 Y46.934 E.01964
G1 X61.242 Y46.373 E.02069
G1 X61.319 Y45.832 E.01924
G1 X61.325 Y45.524 E.01083
G1 X61.302 Y45.187 E.01188
G1 X61.207 Y44.682 E.01809
G1 X61.007 Y44.125 E.02083
G1 X60.729 Y43.628 E.02003
G1 X60.536 Y43.367 E.01143
G1 X59.954 Y42.75 E.02985
G1 X65.619 Y42.749 E.19935
G1 X65.179 Y43.177 E.02158
G1 X64.838 Y43.603 E.01923
G1 X64.668 Y43.88 E.01142
G1 X64.433 Y44.394 E.01989
G1 X64.282 Y44.958 E.02057
G1 X64.239 Y45.278 E.01137
G1 X64.228 Y45.776 E.01752
G1 X64.26 Y46.103 E.01157
G1 X64.316 Y46.405 E.0108
G1 X64.483 Y46.935 E.01957
G1 X64.748 Y47.46 E.02068
G1 X65.082 Y47.915 E.01988
G1 X65.314 Y48.16 E.01188
G1 X65.674 Y48.455 E.01637
G1 X63.75 Y48.45 E.06774
G1 X63.102 Y48.492 E.02284
G1 X62.43 Y48.627 E.02413
G1 X61.814 Y48.837 E.0229
G1 X61.466 Y48.996 E.01344
G1 X60.912 Y49.317 E.02254
G1 X60.388 Y49.719 E.02326
G1 X59.895 Y50.212 E.02454
G1 X59.508 Y50.715 E.02232
G1 X59.155 Y51.32 E.02466
G1 X58.897 Y51.944 E.02376
G1 X58.722 Y52.595 E.02371
G1 X58.635 Y53.26 E.02362
G1 X58.634 Y66.737 E.4743
G1 X58.722 Y67.405 E.02372
G1 X58.897 Y68.056 E.02372
G1 X59.155 Y68.68 E.02376
G1 X59.508 Y69.287 E.02471
