; generated by SuperSlicer 2.5.59 on 2023-03-22 at 20:00:52 UTC


;
;

;
;
; 

; external perimeters extrusion width = 0.40mm
; perimeters extrusion width = 0.46mm
; infill extrusion width = 0.64mm
; solid infill extrusion width = 0.56mm
; top infill extrusion width = 0.40mm
; first layer extrusion width = 0.50mm

; object:{"name":"ADXL345_nozzle_mount_v3","id":"ADXL345_nozzle_mount_v3.1(1).stl id:0 copy 0","object_center":[60.000001,60.000001,0.000000],"boundingbox_center":[60.000001,60.000001,3.750000],"boundingbox_size":[28.000004,19.403126,7.500000]}
EXCLUDE_OBJECT_DEFINE NAME=ADXL345_nozzle_mount_v3_1_1_stl_id_0_copy_0 CENTER=60.000001,60.000001 POLYGON=[[46.000000,60.071824],[46.008160,59.832976],[46.032600,59.595240],[46.073208,59.359728],[46.129792,59.127532],[46.202088,58.899748],[46.289760,58.677420],[46.392404,58.461596],[46.509532,58.253280],[46.640608,58.053444],[46.785012,57.863016],[46.942076,57.682888],[47.111064,57.513896],[47.291196,57.356836],[47.481620,57.212428],[47.681456,57.081356],[56.610272,51.305688],[56.735104,51.228352],[56.784384,51.198632],[56.893636,51.134796],[57.021444,51.064468],[57.072192,51.037332],[57.185448,50.978772],[57.315840,50.915552],[57.367924,50.891072],[57.484928,50.838028],[57.617520,50.781992],[57.670800,50.760240],[57.791284,50.712948],[57.925680,50.664156],[57.980008,50.645180],[58.103692,50.603860],[58.239496,50.562344],[58.294736,50.546204],[58.421316,50.511056],[58.558144,50.476832],[58.614144,50.463568],[58.743308,50.434788],[58.880772,50.407852],[58.937380,50.397500],[59.068816,50.375252],[59.206528,50.355580],[59.263596,50.348168],[59.396960,50.332616],[59.534544,50.320160],[59.591916,50.315700],[59.726876,50.306988],[59.863944,50.301676],[59.921476,50.300192],[60.057668,50.298440],[60.193864,50.300192],[60.251392,50.301676],[60.388464,50.306988],[60.523420,50.315700],[60.580796,50.320160],[60.718372,50.332616],[60.851740,50.348168],[60.908808,50.355580],[61.046520,50.375252],[61.177956,50.397500],[61.234564,50.407852],[61.372024,50.434788],[61.501196,50.463568],[61.557192,50.476832],[61.694024,50.511056],[61.820604,50.546204],[61.875840,50.562344],[62.011648,50.603860],[62.135328,50.645180],[62.189660,50.664156],[62.324056,50.712948],[62.444540,50.760240],[62.497820,50.781992],[62.630408,50.838028],[62.747412,50.891072],[62.799496,50.915552],[62.929888,50.978772],[63.043144,51.037332],[63.093896,51.064468],[63.221704,51.134796],[63.330952,51.198632],[63.380232,51.228352],[63.505068,51.305688],[72.318544,57.081356],[72.518384,57.212428],[72.708816,57.356836],[72.888928,57.513896],[73.057920,57.682888],[73.215000,57.863016],[73.359392,58.053444],[73.490464,58.253280],[73.607608,58.461596],[73.710232,58.677420],[73.797912,58.899748],[73.870208,59.127532],[73.926800,59.359728],[73.967408,59.595240],[73.991840,59.832976],[74.000000,60.071824],[74.000000,69.701560],[46.000000,69.701560],[46.000000,60.071824]]
; plater:{"center":[60.000001,60.000001,0.000000],"boundingbox_center":[60.000001,60.000001,3.750000],"boundingbox_size":[28.000004,19.403126,7.500000]}

M73 P0 R8
;TYPE:Custom
; custom gcode: start_gcode
START_PRINT T_BED=60 T_EXTRUDER=200
; custom gcode end: start_gcode
M107
G21 ; set units to millimeters
G90 ; use absolute coordinates
M82 ; use absolute distances for extrusion
G92 E0
; custom gcode: start_filament_gcode
; Filament gcode

    PRESSURE_ADVANCE_SELECT FILAMENT=PLA
; custom gcode end: start_filament_gcode
;_TOOLCHANGE 0
M104 S200 ; set temperature
M109 S200 ; set temperature and wait for it to be reached
M190 S60 ; set bed temperature and wait for it to be reached
;LAYER_CHANGE
;Z:0.2
;HEIGHT:0.2
G1 Z0.2 F12000
M73 P0 R8
G1 E-0.8 F3000
M204 S2000
G1 Z0.6 F12000
G1 X45.334 Y54.431
M73 P0 R8
G1 Z0.2
G1 E0 F1800
;TYPE:Skirt
;WIDTH:0.52
G1 X44.406 Y55.259 E0.0493
G1 X43.436 Y56.553 E0.11349
G1 X42.828 Y57.919 E0.17279
G1 X42.529 Y59.324 E0.22979
G1 X42.484 Y69.598 E0.63735
G1 X43.221 Y71.823 E0.7303
G1 X44.534 Y72.923 E0.79823
G1 X46.2 Y73.317 E0.86616
G1 X73.8 Y73.317 E1.96103
G1 X76.023 Y72.578 E2.05397
G1 X77.122 Y71.265 E2.1219
G1 X77.516 Y69.598 E2.18983
G1 X77.507 Y59.839 E2.577
G1 X77.407 Y58.869 E2.61568
G1 X77.172 Y57.919 E2.65449
G1 X76.808 Y57.011 E2.6933
G1 X76.321 Y56.164 E2.73207
G1 X75.594 Y55.259 E2.77812
G1 X74.666 Y54.431 E2.82742
G1 X65.274 Y48.15 E3.27566
G1 X64.086 Y47.532 E3.32879
G1 X63.121 Y47.166 E3.36973
G1 X62.123 Y46.902 E3.41066
G1 X60.539 Y46.697 E3.47403
G1 X59.144 Y46.728 E3.52938
G1 X57.49 Y47.021 E3.59602
G1 X56.152 Y47.479 E3.65211
G1 X55.224 Y47.93 E3.69304
G1 X45.334 Y54.431 E4.16257
G1 X45.608 Y54.822 F12000
G1 F1800
G1 X44.766 Y55.572 E4.20728
M73 P1 R8
G1 X44.084 Y56.417 E4.25037
G1 X43.628 Y57.205 E4.2865
G1 X43.286 Y58.051 E4.32266
G1 X43.001 Y59.391 E4.37702
G1 X42.962 Y69.599 E4.78197
G1 X43.481 Y71.361 E4.85483
G1 X44.652 Y72.446 E4.91819
G1 X46.2 Y72.84 E4.98154
G1 X73.8 Y72.84 E6.07641
M73 P1 R8
G1 X75.561 Y72.319 E6.14927
G1 X76.646 Y71.147 E6.21263
G1 X77.038 Y69.599 E6.27599
G1 X77.03 Y59.839 E6.66315
G1 X76.935 Y58.935 E6.69921
G1 X76.714 Y58.051 E6.73538
G1 X76.372 Y57.205 E6.77154
G1 X75.916 Y56.417 E6.80767
G1 X75.234 Y55.572 E6.85076
G1 X74.392 Y54.822 E6.89547
G1 X65.018 Y48.552 E7.34286
G1 X63.908 Y47.975 E7.39249
G1 X62.99 Y47.625 E7.43147
G1 X62.04 Y47.371 E7.47046
G1 X60.502 Y47.173 E7.53197
G1 X59.203 Y47.202 E7.58353
G1 X57.597 Y47.486 E7.64821
G1 X56.352 Y47.912 E7.70041
G1 X55.468 Y48.34 E7.7394
G1 X45.608 Y54.822 E8.20748
G92 E0
G1 E-0.8 F3000
G1 Z0.6 F12000
; printing object ADXL345_nozzle_mount_v3.1(1).stl id:0 copy 0
EXCLUDE_OBJECT_START NAME=ADXL345_nozzle_mount_v3_1_1_stl_id_0_copy_0
G1 X68.782 Y66.281
G1 Z0.2
G1 E0 F1800
;TYPE:External perimeter
;WIDTH:0.5
G1 X68.975 Y66.43 E0.00926
G1 X69.231 Y66.565 E0.02026
G1 X69.56 Y66.668 E0.03337
G1 X69.676 Y66.681 E0.03778
;TYPE:Internal perimeter
G1 X69.672 Y67.14 E0.05524
G1 X69.467 Y67.118 E0.06309
G1 X69.054 Y66.988 E0.07952
G1 X68.777 Y66.842 E0.09142
G1 X68.51 Y66.988 E0.10297
G1 X68.057 Y67.126 E0.12098
G1 X67.749 Y67.16 E0.13276
G1 X67.404 Y67.148 E0.14589
G1 X66.924 Y67.037 E0.16462
G1 X66.461 Y66.808 E0.18424
G1 X66.059 Y66.476 E0.20407
G1 X65.758 Y66.08 E0.22297
G1 X65.587 Y65.737 E0.23754
G1 X65.465 Y65.342 E0.25324
G1 X65.445 Y64.913 E0.26956
G1 X65.503 Y64.476 E0.28634
G1 X65.633 Y64.073 E0.30241
G1 X65.827 Y63.753 E0.31665
G1 X66.16 Y63.381 E0.33563
G1 X66.3 Y63.277 E0.34226
G1 X66.058 Y62.887 E0.35969
G1 X65.851 Y63.042 E0.36952
G1 X65.458 Y63.479 E0.39187
G1 X65.214 Y63.882 E0.40976
G1 X65.055 Y64.375 E0.42943
G1 X64.986 Y64.894 E0.44935
G1 X65.003 Y65.253 E0.463
G1 X64.756 Y65.348 E0.47305
G1 X64.603 Y65.16 E0.48224
G1 X64.175 Y64.737 E0.50512
G1 X63.626 Y64.298 E0.53182
G1 X63.077 Y63.95 E0.55656
G1 X62.455 Y63.646 E0.58287
G1 X62.087 Y63.504 E0.59784
G1 X61.419 Y63.312 E0.62427
G1 X60.718 Y63.196 E0.65127
G1 X60.068 Y63.16 E0.67601
G1 X59.374 Y63.199 E0.70244
G1 X58.927 Y63.266 E0.71962
G1 X58.308 Y63.413 E0.74379
G1 X57.639 Y63.654 E0.7708
G1 X57.002 Y63.97 E0.79783
G1 X56.455 Y64.323 E0.82256
G1 X55.913 Y64.762 E0.8491
G1 X55.528 Y65.143 E0.8697
G1 X55.004 Y65.783 E0.90114
G1 X54.75 Y65.672 E0.91167
G1 X54.828 Y65.107 E0.93337
G1 X54.8 Y64.61 E0.95229
G1 X54.7 Y64.203 E0.96823
G1 X54.542 Y63.831 E0.98358
G1 X54.338 Y63.505 E0.99821
G1 X54.032 Y63.134 E1.01645
G1 X53.714 Y62.856 E1.03252
G1 X53.36 Y62.635 E1.04839
G1 X52.973 Y62.474 E1.0643
G1 X52.551 Y62.374 E1.08079
G1 X52.029 Y62.346 E1.10067
G1 X51.433 Y62.443 E1.12361
G1 X51.034 Y62.604 E1.13995
G1 X50.954 Y62.56 E1.14343
G1 X50.449 Y62.399 E1.16356
G1 X49.935 Y62.344 E1.18319
G1 X49.418 Y62.389 E1.20293
G1 X48.898 Y62.543 E1.22356
G1 X48.695 Y62.647 E1.2322
G1 X48.937 Y63.036 E1.24963
G1 X49.068 Y62.97 E1.25521
G1 X49.504 Y62.841 E1.27248
G1 X49.931 Y62.803 E1.28878
G1 X50.355 Y62.849 E1.30498
G1 X50.773 Y62.982 E1.32168
G1 X51.005 Y63.108 E1.33169
G1 X51.556 Y62.886 E1.35431
G1 X52.053 Y62.805 E1.37345
G1 X52.485 Y62.828 E1.38988
G1 X52.832 Y62.911 E1.40341
G1 X53.15 Y63.043 E1.41651
G1 X53.441 Y63.224 E1.42954
G1 X53.703 Y63.454 E1.44278
G1 X53.966 Y63.773 E1.4585
G1 X54.136 Y64.043 E1.47061
G1 X54.265 Y64.347 E1.48319
G1 X54.346 Y64.678 E1.49614
G1 X54.369 Y65.088 E1.51174
G1 X54.314 Y65.483 E1.5269
G1 X54.208 Y65.805 E1.53978
G1 X54.056 Y66.099 E1.55236
G1 X53.859 Y66.365 E1.56494
G1 X53.627 Y66.592 E1.57727
G1 X53.285 Y66.841 E1.59335
G1 X52.98 Y67 E1.60645
G1 X52.554 Y67.127 E1.62334
G1 X52.377 Y67.143 E1.63009
G1 X52.381 Y66.684 E1.64754
;TYPE:External perimeter
G1 X52.467 Y66.676 E1.65085
G1 X52.807 Y66.575 E1.66433
G1 X53.044 Y66.451 E1.67447
G1 X53.332 Y66.242 E1.688
G1 X53.514 Y66.064 E1.69769
G1 X53.667 Y65.856 E1.70749
G1 X53.786 Y65.627 E1.71729
G1 X53.867 Y65.379 E1.72722
G1 X53.911 Y65.07 E1.7391
G1 X53.892 Y64.746 E1.7514
G1 X53.829 Y64.492 E1.76136
G1 X53.729 Y64.255 E1.77116
G1 X53.595 Y64.041 E1.78075
G1 X53.374 Y63.773 E1.79395
G1 X53.168 Y63.592 E1.80435
G1 X52.94 Y63.451 E1.81455
G1 X52.69 Y63.347 E1.82485
G1 X52.42 Y63.283 E1.8354
G1 X52.078 Y63.264 E1.8484
G1 X51.68 Y63.329 E1.86373
G1 X51.323 Y63.473 E1.87835
G1 X51.024 Y63.682 E1.89221
G1 X50.854 Y63.547 E1.90048
G1 X50.593 Y63.404 E1.91179
G1 X50.26 Y63.298 E1.92505
G1 X49.926 Y63.263 E1.93781
G1 X49.589 Y63.292 E1.95067
G1 X49.238 Y63.396 E1.96458
G1 X48.976 Y63.53 E1.97578
G1 X48.72 Y63.72 E1.9879
G1 X48.446 Y64.026 E2.00351
G1 X48.302 Y64.264 E2.0141
G1 X48.201 Y64.577 E2.02658
G1 X48.153 Y64.933 E2.04023
G1 X48.169 Y65.263 E2.05277
G1 X48.263 Y65.567 E2.06487
G1 X48.397 Y65.838 E2.07637
G1 X48.641 Y66.157 E2.09162
G1 X48.962 Y66.422 E2.10745
G1 X49.329 Y66.604 E2.12301
G1 X49.714 Y66.693 E2.13803
G1 X49.982 Y66.702 E2.14823
G1 X50.215 Y66.676 E2.15713
G1 X50.583 Y66.564 E2.17175
G1 X50.815 Y66.438 E2.1818
G1 X51.032 Y66.281 E2.19198
G1 X51.225 Y66.43 E2.20124
G1 X51.481 Y66.565 E2.21223
G1 X51.81 Y66.668 E2.22534
G1 X51.926 Y66.681 E2.22976
;TYPE:Internal perimeter
G1 X51.922 Y67.14 E2.24721
G1 X51.717 Y67.118 E2.25506
G1 X51.304 Y66.988 E2.27149
G1 X51.027 Y66.842 E2.2834
G1 X50.76 Y66.988 E2.29495
G1 X50.307 Y67.126 E2.31296
M73 P2 R8
G1 X49.999 Y67.16 E2.32474
G1 X49.654 Y67.148 E2.33787
G1 X49.174 Y67.037 E2.3566
G1 X48.711 Y66.808 E2.37622
G1 X48.309 Y66.476 E2.39605
G1 X48.008 Y66.08 E2.41495
G1 X47.837 Y65.737 E2.42952
G1 X47.715 Y65.342 E2.44522
G1 X47.695 Y64.913 E2.46153
G1 X47.753 Y64.476 E2.47831
G1 X47.883 Y64.073 E2.49439
G1 X48.077 Y63.753 E2.50863
G1 X48.41 Y63.381 E2.52761
G1 X48.55 Y63.277 E2.53424
G1 X48.308 Y62.887 E2.55167
G1 X48.101 Y63.042 E2.5615
G1 X47.708 Y63.479 E2.58385
G1 X47.637 Y63.597 E2.58909
G1 X47.369 Y63.523 E2.59964
G1 X47.372 Y59.924 E2.73643
G1 X47.414 Y59.629 E2.74775
G1 X47.496 Y59.343 E2.75905
G1 X47.617 Y59.071 E2.77036
G1 X47.769 Y58.828 E2.78124
G1 X48.035 Y58.523 E2.79664
G1 X48.353 Y58.273 E2.81202
G1 X48.702 Y58.097 E2.82686
G1 X49.074 Y57.982 E2.84167
G1 X49.308 Y57.949 E2.85066
G1 X49.295 Y57.492 E2.86804
G1 X48.972 Y57.535 E2.88044
G1 X48.53 Y57.671 E2.89801
G1 X48.117 Y57.881 E2.91558
G1 X47.905 Y58.03 E2.92547
G1 X47.711 Y58.198 E2.93523
G1 X47.4 Y58.556 E2.95321
G1 X47.212 Y58.856 E2.96668
G1 X47.065 Y59.186 E2.98041
G1 X46.966 Y59.533 E2.99414
G1 X46.947 Y59.665 E2.9992
G1 X46.49 Y59.633 E3.01662
;TYPE:External perimeter
G1 X46.517 Y59.438 E3.0241
G1 X46.635 Y59.029 E3.04026
G1 X46.808 Y58.641 E3.05643
G1 X47.032 Y58.283 E3.07247
G1 X47.387 Y57.874 E3.09305
G1 X47.623 Y57.67 E3.10492
G1 X47.882 Y57.488 E3.11694
G1 X48.358 Y57.246 E3.13723
G1 X48.869 Y57.089 E3.15757
G1 X49.181 Y57.041 E3.16955
G1 X49.51 Y57.022 E3.18209
G1 X53.987 Y57.022 E3.35223
G1 X54.04 Y56.055 E3.38904
G1 X54.138 Y55.439 E3.41273
G1 X54.3 Y54.837 E3.43643
G1 X54.522 Y54.254 E3.46013
G1 X54.803 Y53.698 E3.48383
G1 X55.14 Y53.173 E3.50753
G1 X55.53 Y52.685 E3.53126
G1 X55.924 Y52.281 E3.55271
G1 X56.199 Y52.039 E3.56665
G1 X56.702 Y51.664 E3.59049
G1 X57.238 Y51.346 E3.61419
G1 X57.804 Y51.084 E3.63789
G1 X58.394 Y50.882 E3.66159
G1 X59.002 Y50.742 E3.68529
G1 X59.621 Y50.665 E3.70898
G1 X60.245 Y50.652 E3.73272
G1 X60.804 Y50.695 E3.75403
G1 X61.419 Y50.804 E3.77776
G1 X62.019 Y50.976 E3.80146
G1 X62.597 Y51.208 E3.82516
G1 X63.152 Y51.5 E3.849
G1 X63.462 Y51.697 E3.86293
G1 X63.913 Y52.036 E3.88438
G1 X64.373 Y52.458 E3.90812
G1 X64.787 Y52.924 E3.93181
G1 X65.15 Y53.431 E3.95552
G1 X65.462 Y53.975 E3.97935
G1 X65.617 Y54.308 E3.99329
G1 X65.815 Y54.836 E4.01474
G1 X65.977 Y55.439 E4.03847
G1 X66.075 Y56.055 E4.06217
G1 X66.129 Y57.022 E4.09897
G1 X70.49 Y57.022 E4.26473
G1 X70.819 Y57.041 E4.27727
G1 X71.131 Y57.089 E4.28925
G1 X71.642 Y57.246 E4.30958
G1 X72.118 Y57.488 E4.32988
G1 X72.377 Y57.67 E4.3419
G1 X72.613 Y57.874 E4.35377
G1 X72.968 Y58.283 E4.37435
G1 X73.192 Y58.641 E4.39039
G1 X73.365 Y59.029 E4.40655
G1 X73.483 Y59.438 E4.42272
G1 X73.542 Y59.859 E4.43889
G1 X73.55 Y69.352 E4.79965
G1 X65.305 Y69.352 E5.11301
G1 X65.266 Y68.661 E5.13932
G1 X65.154 Y68.062 E5.16246
G1 X65.047 Y67.692 E5.17711
G1 X64.809 Y67.093 E5.2016
G1 X64.545 Y66.6 E5.22285
G1 X64.301 Y66.234 E5.23956
G1 X63.926 Y65.776 E5.26205
G1 X63.567 Y65.421 E5.28125
G1 X63.095 Y65.044 E5.30423
G1 X62.63 Y64.749 E5.32514
G1 X62.089 Y64.485 E5.34802
G1 X61.796 Y64.372 E5.35996
G1 X61.217 Y64.205 E5.38286
G1 X60.618 Y64.106 E5.40593
G1 X60.069 Y64.076 E5.42684
G1 X59.467 Y64.109 E5.44974
G1 X59.101 Y64.164 E5.46382
G1 X58.57 Y64.291 E5.48457
G1 X57.998 Y64.496 E5.50764
G1 X57.455 Y64.766 E5.53071
G1 X56.992 Y65.064 E5.55162
G1 X56.523 Y65.444 E5.57456
G1 X56.205 Y65.759 E5.5916
G1 X55.805 Y66.247 E5.61557
G1 X55.567 Y66.606 E5.63193
G1 X55.307 Y67.091 E5.65285
G1 X55.072 Y67.681 E5.677
G1 X54.968 Y68.039 E5.69114
G1 X54.853 Y68.636 E5.71428
G1 X54.811 Y69.352 E5.7415
G1 X46.45 Y69.352 E6.05928
G1 X46.458 Y60.088 E6.41136
;TYPE:Internal perimeter
G1 X46.915 Y60.12 E6.42878
G1 X46.908 Y68.894 E6.76226
G1 X54.38 Y68.894 E7.04625
G1 X54.398 Y68.58 E7.05823
G1 X54.523 Y67.931 E7.08334
G1 X54.639 Y67.532 E7.09912
G1 X54.807 Y67.11 E7.11639
G1 X54.326 Y67.083 E7.1347
G1 X54.206 Y67.384 E7.14701
G1 X54.078 Y67.824 E7.16444
G1 X53.96 Y68.437 E7.18819
G1 X47.365 Y68.437 E7.43883
G1 X47.367 Y66.404 E7.51612
G1 X47.615 Y66.32 E7.52609
G1 X47.977 Y66.794 E7.54877
G1 X48.461 Y67.195 E7.57262
G1 X49.019 Y67.471 E7.59629
G1 X49.594 Y67.604 E7.61873
G1 X50.017 Y67.618 E7.63479
G1 X50.4 Y67.576 E7.64945
G1 X50.938 Y67.411 E7.67084
G1 X51.031 Y67.361 E7.67485
G1 X51.128 Y67.412 E7.67902
G1 X51.623 Y67.568 E7.69876
G1 X52.146 Y67.623 E7.71873
G1 X52.64 Y67.579 E7.7376
G1 X53.152 Y67.426 E7.7579
G1 X53.527 Y67.231 E7.77396
G1 X53.923 Y66.942 E7.7926
G1 X54.164 Y66.706 E7.80541
G1 X54.221 Y66.744 E7.80798
G1 X54.47 Y66.729 E7.81748
;TYPE:Unknown
G1 X54.75 Y66.712
;TYPE:Internal perimeter
G1 X55 Y66.697 E7.82698
G1 X55.174 Y66.371 E7.84102
G1 X55.437 Y65.975 E7.85907
M73 P3 R8
G1 X55.866 Y65.451 E7.88481
G1 X56.218 Y65.103 E7.90363
G1 X56.724 Y64.693 E7.92837
G1 X57.229 Y64.368 E7.95119
G1 X57.819 Y64.075 E7.97624
G1 X58.439 Y63.852 E8.00128
G1 X59.014 Y63.715 E8.02374
G1 X59.42 Y63.654 E8.03937
G1 X60.069 Y63.618 E8.06404
G1 X60.668 Y63.651 E8.08686
G1 X61.318 Y63.758 E8.1119
G1 X61.942 Y63.938 E8.13657
G1 X62.272 Y64.065 E8.15002
G1 X62.853 Y64.349 E8.17461
G1 X63.361 Y64.671 E8.19744
G1 X63.871 Y65.079 E8.22228
G1 X64.265 Y65.468 E8.24331
G1 X64.669 Y65.962 E8.26757
G1 X64.937 Y66.365 E8.28595
G1 X65.224 Y66.9 E8.30903
G1 X65.396 Y67.331 E8.32668
;WIDTH:0.459002
G1 X65.927 Y67.212 E8.34568
;WIDTH:0.5
G1 X66.089 Y67.094 E8.3533
G1 X66.211 Y67.195 E8.35929
G1 X66.769 Y67.471 E8.38296
G1 X67.344 Y67.604 E8.4054
G1 X67.767 Y67.618 E8.42147
G1 X68.15 Y67.576 E8.43612
G1 X68.688 Y67.411 E8.45751
G1 X68.781 Y67.361 E8.46152
G1 X68.878 Y67.412 E8.46569
G1 X69.373 Y67.568 E8.48544
G1 X69.896 Y67.623 E8.50541
G1 X70.39 Y67.579 E8.52427
G1 X70.902 Y67.426 E8.54457
G1 X71.277 Y67.231 E8.56063
G1 X71.673 Y66.942 E8.57927
G1 X71.955 Y66.666 E8.59424
G1 X72.195 Y66.342 E8.6096
G1 X72.354 Y66.036 E8.62269
G1 X72.633 Y66.104 E8.6336
G1 X72.635 Y68.437 E8.7223
G1 X66.154 Y68.437 E8.9686
