; generated by SuperSlicer 2.5.59 on 2022-12-31 at 01:12:23 UTC


;
;

;
;
; 

; external perimeters extrusion width = 0.40mm
; perimeters extrusion width = 0.46mm
; infill extrusion width = 0.64mm
; solid infill extrusion width = 0.56mm
; top infill extrusion width = 0.40mm
; first layer extrusion width = 0.50mm

; external perimeters extrusion width = 0.40mm
; perimeters extrusion width = 0.46mm
; infill extrusion width = 0.64mm
; solid infill extrusion width = 0.56mm
; top infill extrusion width = 0.40mm
; first layer extrusion width = 0.50mm

; external perimeters extrusion width = 0.40mm
; perimeters extrusion width = 0.46mm
; infill extrusion width = 0.64mm
; solid infill extrusion width = 0.56mm
; top infill extrusion width = 0.40mm
; first layer extrusion width = 0.50mm

; object:{"name":"adxl-protection-bed-v2","id":"adxl-protection-bed-v2.stl id:0 copy 0","object_center":[51.912500,51.500000,0.000000],"boundingbox_center":[51.912500,51.500000,1.200000],"boundingbox_size":[28.000000,29.000000,2.400000]}
; object:{"name":"adxl-adapter-bed-v2","id":"adxl-adapter-bed-v2.stl id:1 copy 0","object_center":[83.162500,53.500000,0.000000],"boundingbox_center":[83.162500,53.500000,11.000000],"boundingbox_size":[22.500000,25.000000,22.000000]}
; object:{"name":"Input_Shaper_Module_mount","id":"Input_Shaper_Module_mount.stl id:2 copy 0","object_center":[51.912501,77.500000,0.000000],"boundingbox_center":[51.912501,77.500000,5.500000],"boundingbox_size":[52.650000,16.000000,11.000000]}
; plater:{"center":[60.000001,61.250000,0.000000],"boundingbox_center":[60.000001,61.250000,11.000000],"boundingbox_size":[68.824999,48.500000,22.000000]}

M73 P0 R37
;TYPE:Custom
; custom gcode: start_gcode
START_PRINT T_BED=60 T_EXTRUDER=200
; custom gcode end: start_gcode
M107
G21 ; set units to millimeters
G90 ; use absolute coordinates
M83 ; use relative distances for extrusion
; custom gcode: start_filament_gcode
; Filament gcode

    PRESSURE_ADVANCE_SELECT FILAMENT=PLA
; custom gcode end: start_filament_gcode
;_TOOLCHANGE 0
M104 S200 ; set temperature
M109 S200 ; set temperature and wait for it to be reached
M190 S60 ; set bed temperature and wait for it to be reached
;LAYER_CHANGE
;Z:0.2
;HEIGHT:0.2
G1 Z0.12 F12000
G92 E0
G1 E-0.8 F3000
M204 S2000
G1 X35.356 Y34.502 F12000
G1 E0.8 F1800
;TYPE:Skirt
;WIDTH:0.52
G1 X34.473 Y35.969 E0.06793
G1 X22.762 Y72.632 E1.52675
M73 P0 R37
G1 X22.245 Y74.595 E0.08056
G1 X21.999 Y76.604 E0.08028
G1 X22.014 Y78.639 E0.08074
G1 X22.295 Y80.654 E0.08069
G1 X22.753 Y82.338 E0.06921
G1 X23.527 Y84.155 E0.07837
G1 X24.198 Y85.279 E0.05192
G1 X25.209 Y86.544 E0.06422
G1 X26.253 Y87.491 E0.05592
G1 X27.574 Y88.326 E0.06199
G1 X28.523 Y88.723 E0.04081
G1 X29.519 Y88.986 E0.04086
G1 X30.615 Y89.116 E0.04382
G1 X73.411 Y89.116 E1.69765
G1 X74.925 Y88.844 E0.06103
G1 X75.789 Y88.538 E0.03638
G1 X76.725 Y88.067 E0.04155
G1 X77.572 Y87.491 E0.04065
G1 X78.337 Y86.827 E0.04015
G1 X96.918 Y68.549 E1.03399
G1 X97.633 Y67.566 E0.0482
G1 X98.028 Y65.9 E0.06793
G1 X98.028 Y41.1 E0.9838
G1 X97.571 Y39.315 E0.07311
G1 X96.424 Y38.043 E0.06793
G1 X94.829 Y37.42 E0.06793
G1 X66.329 Y33.42 E1.14166
G1 X38.012 Y33.384 E1.12329
G1 X36.803 Y33.587 E0.04864
G1 X35.356 Y34.502 E0.06793
G1 X35.772 Y34.762 F12000
G1 F1800
G1 X34.928 Y36.115 E0.06326
G1 X23.217 Y72.777 E1.52675
G1 X22.716 Y74.673 E0.07779
G1 X22.489 Y76.407 E0.06939
G1 X22.475 Y78.381 E0.07829
G1 X22.716 Y80.327 E0.07781
G1 X22.991 Y81.493 E0.04752
G1 X23.653 Y83.323 E0.07721
G1 X24.425 Y84.757 E0.0646
G1 X25.566 Y86.228 E0.07383
G1 X26.532 Y87.104 E0.05173
G1 X27.803 Y87.907 E0.05964
G1 X28.692 Y88.277 E0.03822
G1 X29.624 Y88.521 E0.0382
G1 X30.615 Y88.639 E0.03962
G1 X73.411 Y88.639 E1.69765
G1 X74.804 Y88.383 E0.0562
G1 X75.62 Y88.092 E0.03436
G1 X76.496 Y87.648 E0.03896
G1 X77.293 Y87.104 E0.0383
G1 X78.015 Y86.475 E0.03798
G1 X96.584 Y68.209 E1.03327
G1 X97.157 Y67.448 E0.03779
G1 X97.551 Y65.9 E0.06336
G1 X97.551 Y41.1 E0.9838
G1 X97.25 Y39.736 E0.05541
G1 X96.241 Y38.498 E0.06336
G1 X94.763 Y37.893 E0.06336
G1 X66.263 Y33.893 E1.14166
G1 X38.012 Y33.861 E1.12066
G1 X37.164 Y33.975 E0.03395
G1 X35.772 Y34.762 E0.06345
G1 E-0.8 F3000
; printing object adxl-protection-bed-v2.stl id:0 copy 0
; acceleration to travel
M204 S4000
G1 X38.091 Y37.564 F12000
; decel to extrusion
M204 S2000
G1 X39.251 Y38.965
; end travel
G1 E0.8 F1800
;TYPE:Internal perimeter
;WIDTH:0.605746
G1 X40.072 Y39.734 E0.05268
G1 X39.78 Y39.865 E0.01498
G1 X39.737 Y40.027 E0.00784
;WIDTH:0.55753
G1 X39.695 Y40.189 E0.00717
;WIDTH:0.509314
G1 X39.652 Y40.351 E0.0065
;WIDTH:0.461098
G1 X39.61 Y40.514 E0.00582
;WIDTH:0.422937
G1 X39.567 Y40.676 E0.00529
G1 X39.567 Y50.123 E0.29854
G1 X39.579 Y50.318 E0.00616
G1 X39.677 Y50.564 E0.00835
;WIDTH:0.457079
G1 X39.774 Y50.809 E0.0091
G1 X40.249 Y51.178 E0.02071
G1 X40.688 Y51.266 E0.01543
G1 X63.136 Y51.266 E0.77305
G1 X63.575 Y51.178 E0.01543
G1 X64.05 Y50.809 E0.02071
G1 X64.148 Y50.564 E0.0091
;WIDTH:0.413381
G1 X64.245 Y50.318 E0.00814
G1 X64.257 Y50.123 E0.006
G1 X64.257 Y40.676 E0.29103
G1 X64.214 Y40.514 E0.00516
;WIDTH:0.461571
G1 X64.172 Y40.352 E0.00583
;WIDTH:0.50976
G1 X64.129 Y40.19 E0.0065
;WIDTH:0.55795
G1 X64.087 Y40.028 E0.00717
;WIDTH:0.60614
G1 X64.045 Y39.866 E0.00784
G1 X63.752 Y39.735 E0.015
G1 X64.574 Y38.964 E0.05274
G1 X64.574 Y39.664 E0.03277
G1 X64.593 Y39.866 E0.00952
;WIDTH:0.55795
G1 X64.612 Y40.069 E0.0087
;WIDTH:0.50976
G1 X64.632 Y40.271 E0.00789
;WIDTH:0.461571
G1 X64.651 Y40.473 E0.00708
;WIDTH:0.423439
G1 X64.67 Y40.676 E0.00643
G1 X64.67 Y50.123 E0.29893
G1 X64.668 Y50.239 E0.00366
G1 X64.665 Y50.355 E0.00366
G1 X64.657 Y50.682 E0.01035
;WIDTH:0.457079
G1 X64.648 Y51.008 E0.01126
G1 X64.648 Y64.736 E0.47273
G1 X39.177 Y64.736 E0.87718
G1 X39.177 Y51.008 E0.47275
G1 X39.166 Y50.566 E0.01524
;WIDTH:0.412882
G1 X39.155 Y50.123 E0.01361
G1 X39.155 Y40.676 E0.29064
G1 X39.174 Y40.473 E0.00625
;WIDTH:0.461098
G1 X39.193 Y40.271 E0.00707
;WIDTH:0.509314
G1 X39.212 Y40.068 E0.00788
;WIDTH:0.55753
G1 X39.232 Y39.866 E0.0087
;WIDTH:0.605746
G1 X39.251 Y39.664 E0.00951
G1 X39.251 Y38.965 E0.03272
; acceleration to travel
M204 S4000
G1 X38.897 Y38.193 F12000
; decel to extrusion
M204 S2000
G1 X38.72 Y37.807
; end travel
;WIDTH:0.457079
G1 F1800
G1 X38.793 Y37.807 E0.00255
G1 X41.121 Y39.99 E0.1099
G1 X40.688 Y39.99 E0.01493
G1 X40.176 Y40.219 E0.01931
G1 X40.002 Y40.676 E0.01682
G1 X40.002 Y50.123 E0.32536
G1 X40.013 Y50.242 E0.00409
G1 X40.14 Y50.535 E0.01099
G1 X40.424 Y50.756 E0.01242
G1 X40.688 Y50.809 E0.00926
G1 X63.136 Y50.809 E0.77305
G1 X63.4 Y50.756 E0.00926
G1 X63.684 Y50.535 E0.01242
G1 X63.811 Y50.242 E0.01099
G1 X63.822 Y50.123 E0.00409
G1 X63.822 Y40.676 E0.32536
G1 X63.648 Y40.219 E0.01681
G1 X63.136 Y39.99 E0.01931
G1 X62.703 Y39.99 E0.01492
G1 X65.015 Y37.822 E0.10916
G1 X65.105 Y37.807 E0.00315
G1 X65.105 Y65.193 E0.9431
G1 X38.72 Y65.193 E0.90866
M73 P1 R37
G1 X38.72 Y37.807 E0.9431
G1 X38.262 Y37.35 F12000
;TYPE:External perimeter
G1 F1800
G1 X38.974 Y37.35 E0.02451
G1 X42.059 Y40.243 E0.14565
G1 X42.059 Y40.447 E0.00703
G1 X40.688 Y40.447 E0.04723
G1 X40.517 Y40.523 E0.00644
G1 X40.46 Y40.676 E0.00561
G1 X40.46 Y50.123 E0.32536
G1 X40.505 Y50.261 E0.00498
G1 X40.688 Y50.352 E0.00704
G1 X63.136 Y50.352 E0.77305
G1 X63.319 Y50.261 E0.00704
G1 X63.365 Y50.123 E0.00498
G1 X63.365 Y40.676 E0.32536
G1 X63.307 Y40.523 E0.0056
G1 X63.136 Y40.447 E0.00644
G1 X61.765 Y40.447 E0.04723
G1 X61.765 Y40.243 E0.00702
G1 X64.85 Y37.35 E0.14565
G1 X65.563 Y37.35 E0.02455
G1 X65.563 Y37.861 E0.01759
G1 X65.563 Y65.65 E0.95699
G1 X38.262 Y65.65 E0.94014
G1 X38.262 Y37.35 E0.97458
;WIPE_START
M204 S4000
G1 X38.609 Y37.55 F12000
;WIPE_END
G1 E-0.8 F3000
; acceleration to travel
G1 X55.773 Y46.803 F12000
; decel to extrusion
M204 S2000
G1 X64.511 Y51.514
; end travel
G1 E0.8 F1800
;TYPE:Solid infill
;WIDTH:0.503059
G1 F2400
G1 X64.005 Y51.008 E0.02738
G1 X63.641 Y51.291 F12000
G1 F2400
G1 X64.511 Y52.16 E0.04704
G1 X64.511 Y52.807 F12000
G1 F2400
G1 X63.108 Y51.403 E0.0759
G1 X62.461 Y51.403 F12000
G1 F2400
G1 X64.511 Y53.453 E0.11086
G1 X64.511 Y54.1 F12000
G1 F2400
G1 X61.815 Y51.403 E0.14582
G1 X61.168 Y51.403 F12000
G1 F2400
G1 X64.511 Y54.746 E0.18077
G1 X64.511 Y55.392 F12000
G1 F2400
G1 X60.522 Y51.403 E0.21573
G1 X59.876 Y51.403 F12000
G1 F2400
G1 X64.511 Y56.039 E0.25068
G1 X64.511 Y56.685 F12000
G1 F2400
G1 X59.229 Y51.403 E0.28564
G1 X58.583 Y51.403 F12000
G1 F2400
G1 X64.511 Y57.332 E0.3206
G1 X64.511 Y57.978 F12000
G1 F2400
G1 X57.936 Y51.403 E0.35555
G1 X57.29 Y51.403 F12000
G1 F2400
G1 X64.511 Y58.625 E0.39051
G1 X64.511 Y59.271 F12000
G1 F2400
G1 X56.644 Y51.403 E0.42547
G1 X55.997 Y51.403 F12000
G1 F2400
G1 X64.511 Y59.917 E0.46042
G1 X64.511 Y60.564 F12000
G1 F2400
G1 X55.351 Y51.403 E0.49538
G1 X54.704 Y51.403 F12000
G1 F2400
G1 X64.511 Y61.21 E0.53034
M73 P2 R37
G1 X64.511 Y61.857 F12000
G1 F2400
G1 X54.058 Y51.403 E0.56529
G1 X53.412 Y51.403 F12000
G1 F2400
G1 X64.511 Y62.503 E0.60025
G1 X64.511 Y63.149 F12000
G1 F2400
G1 X52.765 Y51.403 E0.6352
G1 X52.119 Y51.403 F12000
G1 F2400
G1 X64.511 Y63.796 E0.67016
G1 X64.511 Y64.442 F12000
G1 F2400
G1 X51.472 Y51.403 E0.70512
G1 X50.826 Y51.403 F12000
G1 F2400
G1 X64.021 Y64.599 E0.71358
G1 X63.375 Y64.599 F12000
G1 F2400
G1 X50.18 Y51.403 E0.71358
G1 X49.533 Y51.403 F12000
G1 F2400
G1 X62.729 Y64.599 E0.71358
G1 X62.082 Y64.599 F12000
G1 F2400
G1 X48.887 Y51.403 E0.71358
G1 X48.24 Y51.403 F12000
G1 F2400
G1 X61.436 Y64.599 E0.71358
G1 X60.789 Y64.599 F12000
G1 F2400
G1 X47.594 Y51.403 E0.71358
G1 X46.947 Y51.403 F12000
G1 F2400
G1 X60.143 Y64.599 E0.71358
G1 X59.497 Y64.599 F12000
G1 F2400
G1 X46.301 Y51.403 E0.71358
G1 X45.655 Y51.403 F12000
G1 F2400
G1 X58.85 Y64.599 E0.71358
G1 X58.204 Y64.599 F12000
G1 F2400
G1 X45.008 Y51.403 E0.71358
G1 X44.362 Y51.403 F12000
G1 F2400
G1 X57.557 Y64.599 E0.71358
G1 X56.911 Y64.599 F12000
G1 F2400
G1 X43.715 Y51.403 E0.71358
G1 X43.069 Y51.403 F12000
G1 F2400
G1 X56.265 Y64.599 E0.71358
G1 X55.618 Y64.599 F12000
G1 F2400
G1 X42.423 Y51.403 E0.71358
G1 X41.776 Y51.403 F12000
G1 F2400
G1 X54.972 Y64.599 E0.71358
G1 X54.325 Y64.599 F12000
G1 F2400
G1 X41.13 Y51.403 E0.71358
G1 X40.43 Y51.35 F12000
G1 F2400
G1 X53.679 Y64.599 E0.71647
G1 X53.032 Y64.599 F12000
G1 F2400
G1 X39.314 Y50.88 E0.74188
G1 X39.314 Y51.526 F12000
G1 F2400
G1 X52.386 Y64.599 E0.70692
M73 P2 R36
G1 X51.74 Y64.599 F12000
G1 F2400
G1 X39.314 Y52.173 E0.67197
G1 X39.314 Y52.819 F12000
G1 F2400
G1 X51.093 Y64.599 E0.63701
G1 X50.447 Y64.599 F12000
G1 F2400
G1 X39.314 Y53.466 E0.60205
G1 X39.314 Y54.112 F12000
G1 F2400
G1 X49.8 Y64.599 E0.5671
G1 X49.154 Y64.599 F12000
G1 F2400
G1 X39.314 Y54.758 E0.53214
G1 X39.314 Y55.405 F12000
G1 F2400
G1 X48.508 Y64.599 E0.49719
G1 X47.861 Y64.599 F12000
G1 F2400
G1 X39.314 Y56.051 E0.46223
G1 X39.314 Y56.698 F12000
G1 F2400
G1 X47.215 Y64.599 E0.42727
G1 X46.568 Y64.599 F12000
G1 F2400
G1 X39.314 Y57.344 E0.39232
G1 X39.314 Y57.991 F12000
G1 F2400
G1 X45.922 Y64.599 E0.35736
G1 X45.276 Y64.599 F12000
G1 F2400
G1 X39.314 Y58.637 E0.3224
G1 X39.314 Y59.283 F12000
G1 F2400
G1 X44.629 Y64.599 E0.28745
G1 X43.983 Y64.599 F12000
G1 F2400
G1 X39.314 Y59.93 E0.25249
G1 X39.314 Y60.576 F12000
G1 F2400
G1 X43.336 Y64.599 E0.21753
G1 X42.69 Y64.599 F12000
G1 F2400
G1 X39.314 Y61.223 E0.18258
G1 X39.314 Y61.869 F12000
G1 F2400
G1 X42.044 Y64.599 E0.14762
G1 X41.397 Y64.599 F12000
G1 F2400
G1 X39.314 Y62.515 E0.11267
G1 X39.314 Y63.162 F12000
G1 F2400
G1 X40.751 Y64.599 E0.07771
G1 X40.104 Y64.599 F12000
G1 F2400
G1 X39.314 Y63.808 E0.04275
G1 E-0.8 F3000
; stop printing object adxl-protection-bed-v2.stl id:0 copy 0
; printing object Input_Shaper_Module_mount.stl id:2 copy 0
; acceleration to travel
M204 S4000
G1 X34.085 Y72.991 F12000
; decel to extrusion
M204 S2000
G1 X31.517 Y77.5
; end travel
G1 E0.8 F1800
;TYPE:Internal perimeter
;WIDTH:0.457079
G1 X31.517 Y77.32 E0.0062
G1 X31.437 Y76.818 E0.01751
G1 X31.327 Y76.48 E0.01223
G1 X31.097 Y76.027 E0.01751
G1 X30.886 Y75.737 E0.01235
G1 X30.526 Y75.376 E0.01755
G1 X30.236 Y75.166 E0.01235
G1 X29.817 Y74.953 E0.01616
G1 X29.444 Y74.826 E0.01357
G1 X28.942 Y74.746 E0.01751
G1 X28.548 Y74.751 E0.0136
G1 X28.014 Y74.838 E0.01863
G1 X27.538 Y75.04 E0.0178
G1 X27.079 Y75.318 E0.01848
G1 X27.208 Y74.771 E0.01936
G1 X27.401 Y74.148 E0.02248
G1 X27.631 Y73.564 E0.02161
G1 X27.893 Y73.026 E0.02061
G1 X28.15 Y72.594 E0.0173
G1 X28.446 Y72.175 E0.01767
G1 X28.822 Y71.736 E0.0199
G1 X29.255 Y71.36 E0.01975
G1 X29.712 Y71.067 E0.0187
G1 X30.179 Y70.867 E0.01748
G1 X30.71 Y70.764 E0.01862
G1 X73.246 Y70.764 E1.46484
G1 X73.632 Y70.862 E0.01369
G1 X74.118 Y71.069 E0.0182
G1 X74.566 Y71.357 E0.01833
G1 X75.003 Y71.736 E0.01993
G1 X75.381 Y72.177 E0.01999
G1 X75.704 Y72.642 E0.01949
G1 X76.002 Y73.17 E0.02089
G1 X76.292 Y73.813 E0.0243
G1 X76.479 Y74.325 E0.01876
G1 X76.693 Y75.093 E0.02747
G1 X76.403 Y74.946 E0.01121
G1 X76.044 Y74.826 E0.01301
G1 X75.542 Y74.746 E0.01751
G1 X75.073 Y74.763 E0.01617
G1 X74.506 Y74.868 E0.01988
G1 X74.058 Y75.08 E0.01705
G1 X73.599 Y75.376 E0.01881
G1 X73.239 Y75.737 E0.01755
G1 X73.028 Y76.027 E0.01235
G1 X72.798 Y76.48 E0.01751
G1 X72.688 Y76.821 E0.01232
G1 X72.609 Y77.322 E0.0175
G1 X72.609 Y77.678 E0.01223
G1 X72.688 Y78.179 E0.0175
G1 X72.798 Y78.52 E0.01232
G1 X73.028 Y78.973 E0.01751
G1 X73.239 Y79.263 E0.01235
G1 X73.599 Y79.624 E0.01755
G1 X73.889 Y79.834 E0.01235
G1 X74.287 Y80.036 E0.01535
G1 X74.683 Y80.175 E0.01446
G1 X75.402 Y80.267 E0.02495
G1 X75.881 Y80.2 E0.01665
G1 X76.382 Y80.065 E0.0179
G1 X76.693 Y79.907 E0.012
G1 X76.609 Y80.256 E0.01236
G1 X76.417 Y80.869 E0.02213
G1 X76.18 Y81.466 E0.02211
G1 X75.907 Y82.016 E0.02117
G1 X75.603 Y82.517 E0.02016
G1 X75.273 Y82.957 E0.01895
G1 X74.754 Y83.49 E0.02562
G1 X74.321 Y83.819 E0.01873
G1 X73.797 Y84.075 E0.02009
G1 X73.189 Y84.236 E0.02165
G1 X30.744 Y84.236 E1.46169
G1 X30.348 Y84.161 E0.0139
G1 X29.844 Y84.005 E0.01817
G1 X29.396 Y83.742 E0.01788
G1 X28.897 Y83.332 E0.02223
G1 X28.495 Y82.893 E0.02051
G1 X28.183 Y82.462 E0.0183
G1 X27.893 Y81.974 E0.01956
G1 X27.631 Y81.436 E0.02061
G1 X27.401 Y80.852 E0.02161
G1 X27.208 Y80.229 E0.02248
G1 X27.079 Y79.682 E0.01936
G1 X27.538 Y79.96 E0.01848
G1 X28.014 Y80.162 E0.0178
G1 X28.547 Y80.248 E0.01859
G1 X28.94 Y80.254 E0.01355
G1 X29.442 Y80.175 E0.0175
G1 X29.777 Y80.067 E0.01213
G1 X30.236 Y79.834 E0.0177
G1 X30.526 Y79.624 E0.01235
G1 X30.886 Y79.263 E0.01755
G1 X31.097 Y78.973 E0.01235
G1 X31.327 Y78.52 E0.01751
G1 X31.437 Y78.182 E0.01223
G1 X31.517 Y77.68 E0.01751
G1 X31.517 Y77.5 E0.0062
G1 X31.066 Y77.5 F12000
G1 F1800
G1 X31.066 Y77.392 E0.00372
G1 X30.985 Y76.89 E0.01751
G1 X30.92 Y76.687 E0.00734
G1 X30.689 Y76.234 E0.01751
G1 X30.563 Y76.06 E0.00741
G1 X30.203 Y75.7 E0.01755
G1 X29.667 Y75.39 E0.0213
G1 X29.372 Y75.277 E0.01087
G1 X28.87 Y75.197 E0.01751
G1 X28.62 Y75.203 E0.00864
G1 X27.95 Y75.343 E0.02357
G1 X27.322 Y75.7 E0.02485
G1 X26.962 Y76.06 E0.01755
G1 X26.836 Y76.234 E0.00741
G1 X26.746 Y76.396 E0.00636
;WIDTH:0.498911
G1 X26.657 Y76.557 E0.007
;WIDTH:0.540744
G1 X26.567 Y76.719 E0.00765
;WIDTH:0.582576
G1 X26.478 Y76.88 E0.00829
G1 X26.467 Y76.76 E0.00543
;WIDTH:0.50746
G1 X26.456 Y76.639 E0.00468
G1 X26.49 Y76.237 E0.01558
;WIDTH:0.457079
G1 X26.524 Y75.835 E0.01389
G1 X26.697 Y74.946 E0.03121
G1 X26.842 Y74.409 E0.01914
G1 X27.02 Y73.868 E0.0196
G1 X27.25 Y73.302 E0.02106
G1 X27.525 Y72.751 E0.02119
G1 X27.851 Y72.217 E0.02156
G1 X28.207 Y71.742 E0.02046
G1 X28.589 Y71.33 E0.01933
G1 X28.988 Y70.989 E0.01807
G1 X29.493 Y70.666 E0.02066
G1 X30.047 Y70.429 E0.02075
G1 X30.681 Y70.307 E0.02222
G1 X73.303 Y70.307 E1.46781
G1 X73.931 Y70.487 E0.02249
G1 X74.419 Y70.713 E0.01852
G1 X74.953 Y71.073 E0.02217
G1 X75.415 Y71.512 E0.02196
G1 X75.751 Y71.909 E0.01791
G1 X76.097 Y72.408 E0.0209
G1 X76.413 Y72.97 E0.02219
G1 X76.718 Y73.646 E0.02554
G1 X76.915 Y74.189 E0.01992
G1 X77.063 Y74.672 E0.01737
G1 X77.242 Y75.474 E0.02831
G1 X77.37 Y76.393 E0.03195
G1 X77.163 Y76.06 E0.0135
G1 X76.734 Y75.639 E0.0207
