; HEADER_BLOCK_START
; generated by OrcaSlicer 1.6.6 on 2023-09-05 at 20:41:51
; total layer number: 50
; HEADER_BLOCK_END

; THUMBNAIL_BLOCK_START
; THUMBNAIL_BLOCK_END

; external perimeters extrusion width = 0.15mm
; perimeters extrusion width = 0.17mm
; infill extrusion width = 0.24mm
; solid infill extrusion width = 0.21mm
; top infill extrusion width = 0.15mm
; first layer extrusion width = 0.19mm

; EXECUTABLE_BLOCK_START
EXCLUDE_OBJECT_DEFINE NAME=ANYA.stl_id_0_copy_0 CENTER=60,60 POLYGON=[[31.985,44.7885],[31.988,44.5385],[31.997,44.2925],[32.013,44.0495],[32.037,43.8145],[32.068,43.5865],[32.105,43.3645],[32.147,43.1495],[32.196,42.9425],[32.248,42.7415],[32.305,42.5475],[32.365,42.3615],[32.428,42.1805],[32.491,42.0075],[32.558,41.8415],[32.624,41.6825],[32.692,41.5295],[32.761,41.3825],[32.831,41.2405],[32.902,41.1025],[32.974,40.9715],[33.047,40.8425],[33.12,40.7185],[33.194,40.5975],[33.269,40.4805],[33.343,40.3675],[33.417,40.2615],[33.488,40.1645],[33.557,40.0765],[33.623,40.0005],[33.683,39.9385],[33.739,39.8915],[37.586,37.5625],[37.79,37.4425],[37.99,37.3355],[38.185,37.2405],[38.377,37.1565],[38.564,37.0825],[38.748,37.0155],[38.927,36.9565],[39.103,36.9035],[39.274,36.8555],[39.443,36.8105],[39.768,36.7275],[39.927,36.6875],[40.082,36.6495],[40.234,36.6125],[53.006,33.7255],[53.04,33.7245],[68.163,33.7545],[68.289,33.7685],[80.823,36.7965],[81.021,36.8465],[81.219,36.9065],[81.417,36.9775],[81.617,37.0585],[81.817,37.1515],[82.017,37.2555],[82.216,37.3715],[82.416,37.4995],[82.615,37.6395],[86.72,40.5575],[86.736,40.5865],[87.606,42.2205],[87.692,42.3955],[87.771,42.5805],[87.839,42.7735],[87.896,42.9775],[87.941,43.1935],[87.975,43.4215],[87.998,43.6645],[88.012,43.9225],[88.015,44.1975],[88.009,44.4905],[87.995,44.8035],[87.973,45.1375],[87.944,45.4935],[87.908,45.8725],[87.864,46.2715],[87.814,46.6895],[87.756,47.1205],[87.693,47.5645],[87.622,48.0155],[87.546,48.4725],[87.462,48.9325],[87.372,49.3915],[87.276,49.8485],[81.18,76.7245],[81.159,76.7895],[81.136,76.8375],[81.109,76.8725],[81.077,76.8985],[81.039,76.9225],[80.996,76.9465],[80.943,76.9725],[80.88,77.0005],[80.805,77.0315],[57.518,86.2365],[57.432,86.2665],[57.358,86.2755],[57.296,86.2625],[46.867,81.4275],[46.601,81.3015],[46.348,81.1495],[40.066,77.2295],[40.008,77.1785],[39.961,77.1185],[39.921,77.0435],[39.886,76.9535],[39.853,76.8455],[39.82,76.7225],[32.803,50.2485],[32.723,49.9455],[32.651,49.6525],[32.586,49.3685],[32.528,49.0975],[32.476,48.8395],[32.428,48.5955],[32.345,48.1505],[32.308,47.9485],[32.273,47.7555],[32.241,47.5715],[32.211,47.3905],[32.182,47.2115],[32.155,47.0305],[32.131,46.8455],[32.106,46.6525],[32.084,46.4515],[32.062,46.2365],[32.042,46.0105],[32.023,45.7765],[32.008,45.5355],[31.995,45.2885],[31.988,45.0395],[31.985,44.7885]]
M73 P0 R37
M73 C27
;TYPE:Custom
START_PRINT T_BED=60 T_EXTRUDER=220
G90
G21
M83 ; use relative distances for extrusion
; filament start gcode

    PRESSURE_ADVANCE_SELECT FILAMENT=PLA
M106 S0
;LAYER_CHANGE
;Z:0.1
;HEIGHT:0.1
;BEFORE_LAYER_CHANGE
;0.1
G92 E0

;AFTER_LAYER_CHANGE
;0.1
SET_VELOCITY_LIMIT ACCEL=500 ACCEL_TO_DECEL=250
SET_VELOCITY_LIMIT SQUARE_CORNER_VELOCITY=9
G1 E-.8 F3000
G1 Z.2 F21000
G1 X32.007 Y38.317
G1 Z.2
G1 Z.1
G1 E.8 F1800
;TYPE:Skirt
;WIDTH:0.1875
G1 F3000
G1 X32.531 Y37.897 E.00455
G1 X36.608 Y35.432 E.03222
G1 X37.442 Y35.02 E.0063
G1 X38.275 Y34.717 E.006
G1 X39.72 Y34.338 E.0101
G1 X52.937 Y31.394 E.09161
G1 X68.168 Y31.422 E.10303
G1 X68.837 Y31.502 E.00456
G1 X82.204 Y34.782 E.09312
G1 X83.673 Y35.535 E.01117
G1 X88.071 Y38.657 E.03649
G1 X88.778 Y39.461 E.00724
G1 X89.699 Y41.192 E.01326
G1 X90.085 Y42.146 E.00696
G1 X90.282 Y43.078 E.00644
G1 X90.347 Y44.245 E.00791
G1 X90.266 Y45.714 E.00995
G1 X90.003 Y47.884 E.01479
G1 X89.66 Y49.84 E.01344
G1 X83.454 Y77.24 E.19006
G1 X83.262 Y77.797 E.00398
G1 X82.955 Y78.297 E.00397
G1 X82.548 Y78.709 E.00392
G1 X81.662 Y79.2 E.00685
G1 X58.375 Y88.405 E.1694
G1 X57.64 Y88.591 E.00513
G1 X56.879 Y88.558 E.00515
G1 X56.315 Y88.378 E.00401
G1 X45.4 Y83.301 E.08144
G1 X38.831 Y79.208 E.05236
G1 X38.172 Y78.617 E.00599
G1 X37.903 Y78.216 E.00327
G1 X37.568 Y77.327 E.00643
G1 X30.313 Y49.889 E.192
G1 X29.852 Y47.397 E.01715
G1 X29.682 Y45.702 E.01152
G1 X29.67 Y44.139 E.01057
G1 X29.858 Y42.702 E.0098
G1 X30.168 Y41.58 E.00788
G1 X30.678 Y40.334 E.00911
G1 X31.375 Y39.117 E.00948
G1 X31.998 Y38.329 E.0068
G1 X32.126 Y38.432 F21000
G1 F3000
G1 X32.617 Y38.039 E.00426
G1 X36.692 Y35.575 E.03221
G1 X38.322 Y34.877 E.012
G1 X39.756 Y34.5 E.01004
G1 X52.942 Y31.56 E.09139
G1 X68.167 Y31.588 E.103
G1 X68.798 Y31.663 E.00429
G1 X82.148 Y34.939 E.093
G1 X83.584 Y35.675 E.01091
G1 X87.975 Y38.792 E.03643
G1 X88.632 Y39.539 E.00673
G1 X89.55 Y41.265 E.01323
G1 X89.925 Y42.191 E.00676
G1 X90.117 Y43.102 E.0063
G1 X90.181 Y44.242 E.00772
G1 X90.1 Y45.698 E.00987
G1 X89.839 Y47.861 E.01474
G1 X89.498 Y49.808 E.01337
G1 X83.292 Y77.204 E.19003
G1 X83.112 Y77.725 E.00373
G1 X82.824 Y78.196 E.00373
G1 X82.181 Y78.762 E.0058
G1 X81.601 Y79.046 E.00437
G1 X58.314 Y88.251 E.1694
G1 X57.62 Y88.426 E.00485
G1 X56.913 Y88.395 E.00478
G1 X56.385 Y88.228 E.00375
G1 X45.485 Y83.158 E.08132
G1 X38.919 Y79.067 E.05234
G1 X38.303 Y78.514 E.0056
G1 X38.05 Y78.138 E.00307
G1 X37.728 Y77.284 E.00617
G1 X30.475 Y49.852 E.19196
G1 X30.016 Y47.371 E.01707
G1 X29.847 Y45.69 E.01142
G1 X29.836 Y44.15 E.01042
G1 X30.021 Y42.734 E.00966
G1 X30.324 Y41.635 E.00771
G1 X30.826 Y40.408 E.00897
G1 X31.515 Y39.206 E.00937
G1 X32.117 Y38.444 E.00657
; printing object ANYA.stl id:0 copy 0
G1 E-.8
EXCLUDE_OBJECT_START NAME=ANYA.stl_id_0_copy_0
G1 Z.3 F21000
G1 X50.172 Y39.244 Z.3
G1 Z.1
G1 E.8 F1800
;TYPE:Outer wall
;WIDTH:0.187499
G1 F3000
G1 X50.264 Y39.274 E.00066
G3 X55.943 Y37.783 I12.214 J34.956 E.03976
G3 X60.536 Y37.391 I4.381 J24.246 E.03123
G3 X64.522 Y37.716 I-3.261 J64.686 E.02706
G3 X66.667 Y38.001 I-2.363 J26.009 E.01464
G1 X69.512 Y38.584 E.01965
G1 X69.918 Y38.617 E.00275
G1 X70.086 Y38.511 E.00134
G1 X70.118 Y38.279 E.00159
G1 X69.995 Y37.769 E.00355
G1 X69.765 Y37.386 E.00302
G1 X69.617 Y37.285 E.00121
G1 X69.546 Y37.284 E.00048
G3 X68.298 Y35.105 I69.513 J-41.262 E.01699
G1 X68.013 Y34.52 E.00441
G1 X67.891 Y34.049 E.00329
G1 X67.949 Y33.921 E.00095
G1 X68.097 Y33.865 E.00107
G1 X68.347 Y33.906 E.00171
G1 X68.772 Y34.362 E.00422
G1 X69.154 Y34.658 E.00327
G2 X70.371 Y35.058 I2.517 J-5.604 E.00868
G1 X71.327 Y35.354 E.00677
G2 X73.726 Y35.958 I5.708 J-17.618 E.01675
G1 X75.394 Y36.22 E.01142
G3 X77.191 Y36.517 I-8.45 J56.644 E.01232
G1 X77.76 Y36.679 E.004
G2 X80.032 Y36.784 I2.826 J-36.499 E.01539
G3 X81.776 Y37.236 I-.335 J4.885 E.01225
G1 X82.364 Y37.577 E.0046
G3 X83.699 Y38.747 I-5.576 J7.713 E.01202
G3 X85.118 Y40.406 I-14.097 J13.499 E.01478
G1 X85.442 Y40.994 E.00454
G1 X85.66 Y41.69 E.00494
G3 X85.85 Y43.117 I-14.245 J2.629 E.00975
G1 X85.951 Y43.683 E.00389
G1 X86.123 Y43.841 E.00158
G1 X86.292 Y43.761 E.00126
G1 X86.507 Y43.354 E.00311
G2 X86.735 Y42.035 I-5.095 J-1.56 E.00908
G1 X86.777 Y40.95 E.00734
G1 X86.906 Y41.228 E.00208
G1 X87.433 Y42.099 E.00688
G1 X87.683 Y42.614 E.00388
G1 X87.833 Y43.155 E.0038
G3 X87.918 Y43.968 I-9.811 J1.435 E.00553
G3 X87.6 Y47.551 I-24.566 J-.374 E.02435
G3 X86.557 Y52.102 I-27.198 J-3.839 E.03163
G3 X84.497 Y56.742 I-33.346 J-12.028 E.03437
G3 X83.617 Y58.385 I-44.204 J-22.62 E.01261
G1 X83.112 Y60.514 E.01481
G3 X81.97 Y63.42 I-12.605 J-3.278 E.02118
G3 X80.807 Y65.571 I-283.682 J-151.926 E.01654
G3 X79.698 Y67.759 I-58.138 J-28.113 E.0166
G1 X79.694 Y67.829 E.00048
G3 X80.142 Y68.091 I-1.283 J2.716 E.00351
G1 X80.434 Y68.526 E.00355
G3 X80.875 Y69.691 I-5.318 J2.676 E.00845
G1 X81.177 Y70.838 E.00802
G3 X81.353 Y72.843 I-8.948 J1.795 E.01364
G3 X81.169 Y76.033 I-64.649 J-2.127 E.02162
G1 X81.052 Y76.785 E.00515
G1 X80.951 Y76.863 E.00087
G3 X79.513 Y77.296 I-3.007 J-7.384 E.01017
G3 X75.416 Y77.54 I-2.776 J-12.098 E.0279
G3 X72.355 Y77.111 I6.136 J-54.942 E.02091
G1 X71.746 Y76.884 E.00439
G1 X71.656 Y76.888 E.00061
G3 X66.598 Y79.345 I-8.934 J-11.954 E.03827
G3 X63.221 Y79.575 I-2.403 J-10.415 E.02299
G1 X62.732 Y79.584 E.00331
G1 X62.59 Y79.741 E.00143
G3 X60.452 Y83.36 I-9.808 J-3.354 E.02864
G3 X57.833 Y85.914 I-22.336 J-20.281 E.02476
G1 X57.504 Y86.134 E.00268
G1 X57.339 Y86.167 E.00114
G1 X57.218 Y85.978 E.00152
G1 X57.095 Y85.281 E.00479
G3 X57.243 Y83.289 I7.246 J-.465 E.01355
G3 X57.803 Y81.384 I17.809 J4.197 E.01344
G1 X58.122 Y80.478 E.0065
G1 X58.224 Y80.017 E.0032
G1 X58.176 Y79.836 E.00126
G1 X57.903 Y79.725 E.002
G3 X53.085 Y79.121 I-.331 J-16.873 E.03296
G3 X50.967 Y78.32 I8.958 J-26.89 E.01532
G1 X50.909 Y78.399 E.00066
G1 X50.898 Y78.985 E.00396
G1 X50.758 Y79.591 E.00421
G1 X50.552 Y80.064 E.00349
G1 X50.229 Y80.531 E.00385
G1 X49.776 Y80.957 E.0042
G1 X49.342 Y81.236 E.0035
G1 X48.813 Y81.445 E.00385
G1 X48.201 Y81.548 E.0042
G1 X47.685 Y81.539 E.00349
G1 X47.129 Y81.419 E.00385
G1 X46.563 Y81.163 E.0042
G1 X46.139 Y80.869 E.00349
G1 X45.743 Y80.46 E.00385
G1 X45.414 Y79.934 E.0042
G1 X45.225 Y79.454 E.00349
G1 X45.123 Y78.894 E.00385
G1 X45.147 Y78.248 E.00437
G1 X45.275 Y77.696 E.00384
G1 X45.255 Y77.608 E.0006
G1 X45.19 Y77.585 E.00047
G3 X43.306 Y77.612 I-1.089 J-10.216 E.01276
G3 X40.556 Y77.279 I4.142 J-45.684 E.01874
G1 X40.182 Y77.186 E.00261
G1 X40.041 Y77.064 E.00126
G1 X39.911 Y76.7 E.00262
G3 X39.761 Y72.986 I13.816 J-2.417 E.02522
G3 X40.645 Y67.857 I39.231 J4.12 E.03524
G1 X40.857 Y67.215 E.00457
G1 X40.999 Y67.024 E.00161
G1 X41.008 Y66.94 E.00058
G2 X39.205 Y63.431 I-170.012 J85.172 E.02669
G3 X37.615 Y59.612 I20.597 J-10.813 E.02803
G3 X36.636 Y58.181 I7.014 J-5.851 E.01175
G3 X33.589 Y52.186 I72.689 J-40.709 E.04551
G3 X32.568 Y48.821 I14.667 J-6.289 E.02383
G3 X32.102 Y45.53 I23.469 J-5.004 E.0225
G3 X32.579 Y42.041 I7.996 J-.684 E.02402
G3 X33.555 Y40.233 I8.396 J3.366 E.01393
G1 X33.817 Y39.968 E.00252
G3 X33.811 Y41.875 I-12.333 J.914 E.01292
G2 X33.995 Y44.148 I13.012 J.089 E.01544
G1 X34.043 Y44.212 E.00054
G1 X34.199 Y44.218 E.00105
G1 X34.263 Y44.146 E.00065
G1 X34.462 Y42.353 E.0122
G3 X34.923 Y40.468 I7.264 J.778 E.01317
G3 X35.917 Y39.017 I4.642 J2.114 E.01196
G3 X37.836 Y37.524 I6.656 J6.576 E.01649
G3 X38.955 Y37.046 I2.838 J5.092 E.00825
G3 X40.855 Y36.583 I6.066 J20.763 E.01323
G3 X42.597 Y36.515 I1.151 J7.079 E.01182
G1 X43.131 Y36.567 E.00363
G3 X44.83 Y36.076 I4.19 J11.301 E.01197
G3 X46.346 Y35.961 I1.851 J14.34 E.01029
G2 X47.935 Y35.697 I-.883 J-10.218 E.0109
G2 X50.532 Y34.891 I-2.01 J-11.067 E.01845
G1 X51.839 Y34.245 E.00986
G3 X52.903 Y33.859 I4.292 J10.152 E.00766
G1 X52.816 Y34.098 E.00172
G3 X52.462 Y35.833 I-14.011 J-1.956 E.01199
G1 X52.249 Y36.348 E.00377
G1 X51.973 Y36.779 E.00346
G2 X50.105 Y39.112 I23.91 J21.046 E.02022
G1 X50.165 Y39.231 E.0009
G1 X50.078 Y39.363 F21000
;TYPE:Inner wall
G1 F3000
G1 X50.133 Y39.421 E.00054
G1 X50.316 Y39.432 E.00124
G3 X55.97 Y37.947 I12.16 J34.788 E.03959
G3 X60.532 Y37.557 I4.353 J24.078 E.03102
G3 X64.505 Y37.881 I-3.262 J64.582 E.02697
G3 X66.636 Y38.164 I-2.346 J25.837 E.01455
G1 X69.479 Y38.747 E.01963
G1 X69.905 Y38.782 E.00289
G1 X70.035 Y38.757 E.0009
G1 X70.258 Y38.552 E.00205
G1 X70.28 Y38.24 E.00212
G1 X70.122 Y37.642 E.00418
G1 X69.831 Y37.222 E.00346
G1 X69.656 Y37.143 E.0013
G3 X68.162 Y34.447 I28.903 J-17.785 E.02086
G1 X68.056 Y34.074 E.00262
G1 X68.133 Y34.027 E.00061
G1 X68.278 Y34.075 E.00103
G1 X68.679 Y34.501 E.00396
G1 X69.093 Y34.813 E.00351
G2 X70.324 Y35.218 I2.576 J-5.755 E.00878
G1 X71.278 Y35.513 E.00675
G2 X73.701 Y36.122 I5.768 J-17.821 E.01692
G1 X75.368 Y36.384 E.01142
G3 X77.156 Y36.679 I-8.489 J56.891 E.01226
G1 X77.699 Y36.833 E.00382
G2 X80.02 Y36.95 I2.464 J-25.961 E.01572
G3 X81.702 Y37.385 I-.32 J4.705 E.01182
G1 X82.271 Y37.716 E.00445
G3 X83.579 Y38.862 I-5.465 J7.556 E.01178
G3 X84.979 Y40.497 I-13.977 J13.384 E.01457
G1 X85.289 Y41.059 E.00434
G1 X85.498 Y41.728 E.00474
G3 X85.685 Y43.136 I-14.05 J2.589 E.00961
G1 X85.805 Y43.763 E.00432
G1 X86.031 Y43.987 E.00215
G1 X86.216 Y43.992 E.00125
G1 X86.418 Y43.872 E.00159
G1 X86.668 Y43.394 E.00365
G2 X86.877 Y42.258 I-4.346 J-1.386 E.00783
G1 X86.919 Y41.57 E.00466
G3 X87.562 Y42.8 I-4.533 J3.154 E.00941
G1 X87.689 Y43.284 E.00339
G1 X87.752 Y43.967 E.00464
G3 X87.436 Y47.526 I-24.4 J-.373 E.02419
G3 X86.399 Y52.05 I-27.031 J-3.814 E.03143
G3 X84.35 Y56.665 I-33.187 J-11.975 E.0342
G3 X83.456 Y58.345 I-65.85 J-33.959 E.01287
G1 X82.951 Y60.473 E.0148
G3 X81.822 Y63.344 I-12.444 J-3.236 E.02092
G3 X80.659 Y65.497 I-291.936 J-156.377 E.01655
G2 X79.525 Y67.758 I1025.658 J515.702 E.01711
G1 X79.566 Y67.94 E.00126
G1 X79.962 Y68.158 E.00306
G1 X80.288 Y68.606 E.00375
G3 X80.715 Y69.738 I-5.164 J2.596 E.0082
G1 X81.015 Y70.874 E.00795
G3 X81.187 Y72.841 I-8.778 J1.759 E.01339
G3 X80.976 Y76.339 I-64.277 J-2.116 E.02371
G1 X80.87 Y76.716 E.00265
G3 X79.476 Y77.134 I-2.909 J-7.161 E.00986
G3 X75.431 Y77.375 I-2.739 J-11.936 E.02754
G3 X72.396 Y76.95 I6.146 J-54.975 E.02074
G1 X71.831 Y76.742 E.00407
G1 X71.663 Y76.71 E.00116
G2 X70.888 Y77.227 I5.128 J8.525 E.0063
G3 X66.558 Y79.184 I-8.269 J-12.527 E.03228
G3 X62.984 Y79.394 I-2.418 J-10.649 E.02433
G1 X62.641 Y79.439 E.00234
G1 X62.45 Y79.649 E.00192
G3 X60.328 Y83.25 I-9.726 J-3.306 E.02847
G3 X57.724 Y85.789 I-22.209 J-20.167 E.02462
G1 X57.413 Y85.995 E.00252
G1 X57.377 Y85.924 E.00054
G1 X57.261 Y85.263 E.00454
G3 X57.406 Y83.323 I7.063 J-.449 E.0132
G3 X57.96 Y81.438 I17.642 J4.162 E.0133
G1 X58.278 Y80.533 E.00649
G1 X58.386 Y80.053 E.00333
G1 X58.343 Y79.805 E.0017
G1 X58.265 Y79.688 E.00095
G1 X57.904 Y79.559 E.0026
G3 X53.133 Y78.962 I-.331 J-16.71 E.03264
G3 X51.027 Y78.153 I6.942 J-21.215 E.01527
G1 X50.834 Y78.207 E.00136
G1 X50.743 Y78.398 E.00144
G1 X50.736 Y78.952 E.00375
G1 X50.625 Y79.478 E.00363
G1 X50.414 Y79.971 E.00363
G1 X50.111 Y80.414 E.00363
G1 X49.728 Y80.789 E.00363
G1 X49.278 Y81.083 E.00364
G1 X48.781 Y81.283 E.00363
G1 X48.254 Y81.382 E.00363
G1 X47.717 Y81.376 E.00363
G1 X47.192 Y81.265 E.00363
G1 X46.7 Y81.055 E.00362
G1 X46.257 Y80.752 E.00363
G1 X45.881 Y80.368 E.00363
G1 X45.588 Y79.92 E.00362
G1 X45.388 Y79.421 E.00363
G1 X45.289 Y78.894 E.00363
G1 X45.31 Y78.28 E.00415
G1 X45.446 Y77.656 E.00432
G1 X45.372 Y77.49 E.00123
G2 X45.175 Y77.42 I-.175 J.178 E.00146
G3 X43.318 Y77.446 I-1.073 J-10.049 E.01258
G3 X40.581 Y77.115 I4.128 J-45.505 E.01865
G1 X40.226 Y77.004 E.00251
G1 X40.073 Y76.659 E.00255
G3 X39.927 Y72.999 I13.637 J-2.377 E.02485
G3 X40.805 Y67.901 I39.056 J4.105 E.03502
G1 X41.007 Y67.293 E.00434
G1 X41.172 Y67.044 E.00202
G1 X41.157 Y66.865 E.00122
G2 X39.353 Y63.357 I-170.341 J85.342 E.02669
G3 X37.747 Y59.511 I21.822 J-11.37 E.02822
G3 X36.779 Y58.096 I6.936 J-5.788 E.01162
G3 X33.742 Y52.12 I72.569 J-40.637 E.04536
G3 X32.731 Y48.789 I14.512 J-6.223 E.0236
G3 X32.267 Y45.521 I23.3 J-4.971 E.02234
G3 X32.734 Y42.1 I7.828 J-.675 E.02355
G3 X33.685 Y40.338 I8.209 J3.291 E.01357
G3 X33.65 Y42.263 I-144.399 J-1.63 E.01302
G2 X33.874 Y44.279 I10.903 J-.188 E.01375
G1 X33.974 Y44.363 E.00088
G1 X34.181 Y44.386 E.00141
G1 X34.338 Y44.33 E.00113
G1 X34.428 Y44.164 E.00128
G3 X34.681 Y42.036 I35.716 J3.165 E.0145
G3 X35.518 Y39.76 I5.307 J.657 E.01655
G3 X38.77 Y37.29 I6.102 J4.66 E.02796
G3 X41.405 Y36.676 I4.732 J14.35 E.01833
G3 X43.182 Y36.725 I.575 J11.353 E.01204
G3 X44.859 Y36.24 I4.14 J11.158 E.01182
G3 X46.363 Y36.126 I1.835 J14.272 E.01021
G2 X47.971 Y35.859 I-.905 J-10.416 E.01104
G2 X50.606 Y35.04 I-2.044 J-11.221 E.01871
G3 X51.924 Y34.391 I174.984 J353.618 E.00994
G1 X52.643 Y34.12 E.0052
G3 X52.303 Y35.781 I-13.417 J-1.878 E.01148
G1 X52.101 Y36.271 E.00358
G1 X51.793 Y36.734 E.00377
G2 X49.988 Y38.976 I27.422 J23.921 E.01947
G1 X49.941 Y39.086 E.00081
G1 X49.975 Y39.254 E.00116
G1 X50.068 Y39.352 E.00091
G1 X49.942 Y39.479 F21000
G1 F3000
G1 X50.134 Y39.597 E.00152
G1 X50.367 Y39.59 E.00158
G3 X55.998 Y38.11 I12.105 J34.619 E.03943
G3 X60.528 Y37.723 I4.325 J23.91 E.0308
G3 X64.489 Y38.046 I-3.265 J64.484 E.02689
G3 X66.606 Y38.327 I-2.328 J25.665 E.01445
