; HEADER_BLOCK_START
; generated by OrcaSlicer 1.7.0-beta on 2023-10-03 at 11:25:37
; total layer number: 128
; HEADER_BLOCK_END

; THUMBNAIL_BLOCK_START
; THUMBNAIL_BLOCK_END

; external perimeters extrusion width = 0.40mm
; perimeters extrusion width = 0.46mm
; infill extrusion width = 0.64mm
; solid infill extrusion width = 0.56mm
; top infill extrusion width = 0.40mm
; first layer extrusion width = 0.50mm

; external perimeters extrusion width = 0.40mm
; perimeters extrusion width = 0.46mm
; infill extrusion width = 0.64mm
; solid infill extrusion width = 0.56mm
; top infill extrusion width = 0.40mm
; first layer extrusion width = 0.50mm

; external perimeters extrusion width = 0.40mm
; perimeters extrusion width = 0.46mm
; infill extrusion width = 0.64mm
; solid infill extrusion width = 0.56mm
; top infill extrusion width = 0.40mm
; first layer extrusion width = 0.50mm

; EXECUTABLE_BLOCK_START
EXCLUDE_OBJECT_DEFINE NAME=arducamrearUSB.stl_id_0_copy_0 CENTER=85.625,70.0006 POLYGON=[[62.5,48.2456],[63.7357,47.0099],[63.871,46.8746],[107.378,46.8746],[107.544,47.0405],[108.75,48.2456],[108.75,91.7536],[107.544,92.9588],[107.378,93.1246],[100.2,93.1266],[94,93.1266],[63.871,93.1246],[62.5,91.7536],[62.5,48.2456]]
EXCLUDE_OBJECT_DEFINE NAME=arducamfrontNOLOGO.stl_id_1_copy_0 CENTER=34.375,70.0016 POLYGON=[[11.25,48.2476],[12.621,46.8766],[56.128,46.8766],[57.5,48.2476],[57.5,91.7556],[56.128,93.1266],[12.621,93.1266],[11.25,91.7556],[11.25,48.2476]]
EXCLUDE_OBJECT_DEFINE NAME=arducamARMmount.stl_id_2_copy_0 CENTER=60.5244,34.374 POLYGON=[[33.724,32.9343],[33.7241,27.5963],[33.7241,26.8741],[36.0325,26.8739],[37.1902,26.8738],[83.859,26.8734],[85.0163,26.8736],[87.3241,26.8741],[87.3247,30.3772],[87.3248,32.6793],[87.3249,35.4344],[87.3248,36.0055],[87.3241,41.8737],[77.8257,41.8746],[33.7241,41.8747],[33.724,33.3924],[33.724,32.9343]]
M73 P0 R51
;TYPE:Custom
START_PRINT T_BED=110 T_EXTRUDER=260
G90
G21
M83 ; use relative distances for extrusion
; Filament gcode

    PRESSURE_ADVANCE_SELECT FILAMENT=ABS
M106 S0
;LAYER_CHANGE
;Z:0.2
;HEIGHT:0.2
;BEFORE_LAYER_CHANGE
;0.2
G92 E0

;AFTER_LAYER_CHANGE
;0.2
;_SET_FAN_SPEED_CHANGING_LAYER
SET_VELOCITY_LIMIT ACCEL=1000 ACCEL_TO_DECEL=500
SET_VELOCITY_LIMIT SQUARE_CORNER_VELOCITY=9
G1 E-.5 F3000
G1 Z.2 F21000
G1 X27.429 Y28.84
G1 Z.2
G1 E.5 F1800
;TYPE:Skirt
;WIDTH:0.5
G1 F3000
G1 X31.719 Y24.759 E.20838
G1 X33.724 Y23.96 E.07595
G1 X87.324 Y23.96 E1.88639
G1 X89.382 Y24.811 E.07837
G1 X109.436 Y44.811 E.99679
G1 X109.704 Y45.079 E.01333
G1 X110.558 Y47.14 E.07853
G1 X110.558 Y92.859 E1.60901
G1 X109.704 Y94.92 E.07853
G1 X109.438 Y95.186 E.01323
G1 X107.378 Y96.039 E.07846
G1 X12.621 Y96.041 E3.33487
G1 X10.56 Y95.187 E.0785
G1 X9.189 Y93.816 E.06824
G1 X8.336 Y91.756 E.0785
G1 X8.336 Y48.248 E1.53121
G1 X9.189 Y46.187 E.0785
G1 X27.4 Y28.867 E.88448
G1 X27.708 Y29.192 F21000
G1 F3000
G1 X32.034 Y25.091 E.20979
G1 X33.724 Y24.417 E.06404
G1 X87.324 Y24.417 E1.88639
G1 X89.059 Y25.134 E.06608
G1 X109.113 Y45.135 E.99679
G1 X109.381 Y45.402 E.01332
G1 X110.101 Y47.14 E.06621
G1 X110.101 Y92.859 E1.60901
G1 X109.381 Y94.597 E.06621
G1 X109.115 Y94.863 E.01323
G1 X107.378 Y95.582 E.06615
G1 X12.621 Y95.584 E3.33487
G1 X10.884 Y94.864 E.06618
G1 X9.513 Y93.493 E.06824
G1 X8.793 Y91.756 E.06618
G1 X8.793 Y48.248 E1.53121
G1 X9.513 Y46.51 E.06618
G1 X10.884 Y45.139 E.06824
G1 X27.679 Y29.219 E.81443
; printing object arducamfrontNOLOGO.stl id:1 copy 0
G1 E-.5
EXCLUDE_OBJECT_START NAME=arducamfrontNOLOGO.stl_id_1_copy_0
G1 Z.4 F21000
G1 X57.15 Y48.393 Z.4
G1 Z.2
G1 E.5 F1800
;TYPE:Outer wall
G1 F3000
G1 X57.15 Y91.611 E1.521
G1 X55.983 Y92.777 E.05806
G1 X12.766 Y92.777 E1.52098
G1 X11.6 Y91.611 E.05803
G1 X11.6 Y48.393 E1.52101
G1 X12.766 Y47.227 E.05803
G1 X55.983 Y47.227 E1.52098
G1 X56.206 Y47.45 E.01111
G1 X57.122 Y48.364 E.04554
G1 X56.65 Y48.6 F21000
;TYPE:Inner wall
G1 F3000
G1 X56.65 Y91.403 E1.50642
G1 X55.776 Y92.277 E.04348
G1 X12.973 Y92.277 E1.5064
G1 X12.1 Y91.404 E.04345
G1 X12.1 Y48.6 E1.50643
G1 X12.973 Y47.727 E.04345
G1 X55.776 Y47.727 E1.5064
G1 X55.853 Y47.804 E.00383
G1 X56.622 Y48.572 E.03824
G1 X56.193 Y48.789 F21000
G1 F3000
G1 X56.193 Y91.214 E1.49309
G1 X55.587 Y91.82 E.03015
G1 X13.162 Y91.82 E1.49308
G1 X12.557 Y91.214 E.03013
G1 X12.557 Y48.789 E1.49311
G1 X13.162 Y48.184 E.03013
G1 X55.587 Y48.184 E1.49308
G1 X56.165 Y48.761 E.02875
G1 X55.736 Y48.979 F21000
G1 F3000
G1 X55.736 Y91.025 E1.47975
G1 X55.398 Y91.362 E.01683
G1 X13.352 Y91.362 E1.47976
G1 X13.014 Y91.025 E.0168
G1 X13.014 Y48.978 E1.47978
G1 X13.352 Y48.641 E.0168
G1 X55.398 Y48.641 E1.47976
G1 X55.708 Y48.95 E.01542
G1 E-.5
G1 Z.4 F21000
G1 X54.166 Y54.092 Z.4
G1 X54.095 Y54.313
G1 X53.705 Y55.151
G1 X53.52 Y55.388
G1 X52.952 Y55.915
G1 X52.764 Y56.07
G1 X40.947 Y62.897
G1 X40.521 Y62.512
G1 X39.757 Y61.946
G1 X38.943 Y61.457
G1 X38.083 Y61.05
G1 X37.188 Y60.73
G1 X36.265 Y60.498
G1 X35.324 Y60.359
G1 X34.375 Y60.312
G1 X33.425 Y60.359
G1 X32.484 Y60.498
G1 X31.562 Y60.73
G1 X30.667 Y61.05
G1 X29.807 Y61.457
G1 X28.992 Y61.946
G1 X28.229 Y62.512
G1 X27.524 Y63.15
G1 X26.885 Y63.855
G1 X26.318 Y64.618
G1 X25.829 Y65.434
G1 X14.945 Y85.02
G1 X14.756 Y85.388
G1 X14.681 Y85.583
G1 X13.661 Y89.139
G1 Z.2
G1 E.5 F1800
G1 F3000
G1 X14.054 Y89.685 E.02366
G1 X14.887 Y90.496 E.04092
G1 X15.248 Y90.701 E.01463
G1 X15.194 Y90.905 E.00744
G1 X13.471 Y90.905 E.06064
G1 X13.471 Y89.2 E.06002
G1 X13.623 Y89.151 E.00563
G1 E-.5
G1 Z.4 F21000
G1 X15.706 Y84.617 Z.4
G1 Z.2
G1 E.5 F1800
;TYPE:Outer wall
G1 F3000
G1 X15.836 Y84.473 E.00684
G1 X16.431 Y84.077 E.02516
G1 X16.582 Y83.995 E.00604
G1 X17.14 Y83.82 E.02058
G1 X17.338 Y83.799 E.00702
G1 X17.72 Y83.76 E.01349
G1 X17.901 Y83.773 E.00638
G1 X18.848 Y83.99 E.03421
G1 X19.049 Y84.081 E.00775
G1 X19.398 Y84.294 E.01439
G1 X19.989 Y84.849 E.02852
G1 X20.304 Y85.354 E.02096
G1 X20.53 Y85.943 E.0222
G1 X20.608 Y86.435 E.01752
G1 X20.6 Y86.965 E.01865
G1 X20.571 Y87.133 E.00601
G1 X20.368 Y87.814 E.02501
G1 X20.082 Y88.328 E.0207
G1 X19.965 Y88.467 E.0064
G1 X19.242 Y89.11 E.03404
G1 X19.089 Y89.204 E.00633
G1 X18.619 Y89.401 E.01796
M73 P1 R51
G1 X17.405 Y89.523 E.04291
G1 X17.162 Y89.484 E.00867
G1 X16.186 Y89.082 E.03717
G1 X16.019 Y88.987 E.00674
G1 X15.477 Y88.459 E.02662
G1 X15.238 Y88.126 E.01447
G1 X15.004 Y87.631 E.01927
G1 X14.85 Y86.975 E.02369
G1 X14.841 Y86.425 E.01937
G1 X15.003 Y85.682 E.02677
G1 X15.064 Y85.523 E.00598
G1 X15.321 Y85.044 E.01915
G1 X15.679 Y84.647 E.01881
G1 X15.479 Y84.122 F21000
;TYPE:Inner wall
G1 F3000
G1 X15.507 Y84.091 E.00147
G1 X16.173 Y83.648 E.02817
G1 X16.386 Y83.532 E.00854
G1 X17.038 Y83.328 E.02403
G1 X17.287 Y83.301 E.00882
G1 X17.712 Y83.258 E.01505
G1 X17.975 Y83.277 E.00926
G1 X19.009 Y83.514 E.03733
G1 X19.283 Y83.638 E.0106
G1 X19.702 Y83.894 E.0173
G1 X20.378 Y84.529 E.03263
G1 X20.754 Y85.13 E.02495
G1 X21.015 Y85.813 E.02573
G1 X21.109 Y86.399 E.02089
G1 X21.099 Y87.011 E.02155
G1 X21.059 Y87.247 E.00842
G1 X20.832 Y88.009 E.028
G1 X20.496 Y88.613 E.02433
G1 X20.324 Y88.817 E.00936
G1 X19.542 Y89.513 E.03685
G1 X19.318 Y89.65 E.00923
G1 X18.743 Y89.891 E.02195
G1 X17.39 Y90.027 E.04784
G1 X17.025 Y89.968 E.01301
G1 X15.966 Y89.532 E.04031
G1 X15.717 Y89.39 E.0101
G1 X15.097 Y88.787 E.03044
G1 X14.805 Y88.38 E.01762
G1 X14.529 Y87.796 E.02273
G1 X14.351 Y87.037 E.02745
G1 X14.34 Y86.375 E.0233
G1 X14.523 Y85.539 E.03012
G1 X14.608 Y85.315 E.00844
G1 X14.909 Y84.754 E.02242
G1 X15.452 Y84.152 E.02852
G1 X15.28 Y83.693 F21000
G1 F3000
G1 X15.937 Y83.256 E.02779
G1 X16.207 Y83.109 E.01082
G1 X16.944 Y82.878 E.02718
G1 X17.24 Y82.847 E.01046
G1 X17.705 Y82.8 E.01648
G1 X18.042 Y82.823 E.01188
G1 X19.155 Y83.079 E.04019
G1 X19.497 Y83.233 E.0132
G1 X19.981 Y83.529 E.01995
G1 X20.735 Y84.236 E.03638
G1 X21.165 Y84.925 E.0286
G1 X21.459 Y85.694 E.02895
G1 X21.566 Y86.366 E.02396
G1 X21.556 Y87.053 E.02419
G1 X21.505 Y87.351 E.01062
G1 X21.256 Y88.188 E.03074
G1 X20.873 Y88.874 E.02766
G1 X20.652 Y89.136 E.01207
G1 X19.815 Y89.881 E.03942
G1 X19.528 Y90.058 E.01189
G1 X18.857 Y90.339 E.0256
G1 X17.377 Y90.488 E.05235
G1 X16.9 Y90.411 E.01698
G1 X15.766 Y89.944 E.04319
G1 X15.44 Y89.759 E.01318
G1 X14.749 Y89.086 E.03393
G1 X14.409 Y88.613 E.0205
G1 X14.095 Y87.948 E.02589
G1 X13.894 Y87.094 E.03088
G1 X13.882 Y86.329 E.0269
G1 X14.083 Y85.408 E.03318
G1 X14.191 Y85.125 E.01068
G1 X14.533 Y84.489 E.02541
G1 X15.206 Y83.743 E.03536
G1 X15.246 Y83.715 E.00173
G1 X14.813 Y83.495 F21000
G1 F3000
G1 X14.904 Y83.394 E.0048
G1 X15.701 Y82.864 E.03367
G1 X16.028 Y82.686 E.01311
G1 X16.85 Y82.428 E.03033
G1 X17.192 Y82.392 E.0121
G1 X17.699 Y82.341 E.0179
G1 X18.11 Y82.37 E.01451
G1 X19.302 Y82.643 E.04304
G1 X19.711 Y82.828 E.0158
G1 X20.259 Y83.163 E.02261
G1 X21.091 Y83.944 E.04013
G1 X21.576 Y84.721 E.03225
G1 X21.903 Y85.575 E.03218
G1 X22.024 Y86.333 E.02704
G1 X22.012 Y87.096 E.02683
G1 X21.951 Y87.455 E.01282
G1 X21.68 Y88.366 E.03347
G1 X21.251 Y89.135 E.03099
G1 X20.98 Y89.456 E.01478
G1 X20.089 Y90.249 E.04199
G1 X19.737 Y90.466 E.01454
G1 X18.971 Y90.787 E.02925
G1 X17.363 Y90.949 E.05686
G1 X16.775 Y90.854 E.02095
G1 X15.565 Y90.355 E.04607
G1 X15.163 Y90.127 E.01626
G1 X14.401 Y89.386 E.03743
G1 X14.014 Y88.846 E.02338
G1 X13.661 Y88.1 E.02905
G1 X13.438 Y87.15 E.03432
G1 X13.424 Y86.284 E.0305
G1 X13.644 Y85.278 E.03625
G1 X13.775 Y84.935 E.01292
G1 X14.156 Y84.224 E.02839
G1 X14.786 Y83.525 E.03312
G1 E-.5
G1 Z.4 F21000
G1 X13.658 Y50.866 Z.4
G1 Z.2
G1 E.5 F1800
G1 F3000
G1 X13.471 Y50.804 E.00694
G1 X13.471 Y49.098 E.06003
G1 X15.183 Y49.098 E.06024
G1 X15.236 Y49.303 E.00746
G1 X14.998 Y49.436 E.00959
G1 X14.283 Y50.039 E.03291
G1 X13.682 Y50.834 E.03508
G1 E-.5
G1 Z.4 F21000
G1 X14.606 Y54.136 Z.4
G1 X14.715 Y54.514
G1 X14.815 Y54.702
G1 X15.186 Y55.316
G1 X15.358 Y55.536
G1 X15.979 Y56.067
G1 X16.198 Y56.191
G1 X16.392 Y56.259
G1 X17.374 Y56.538
G1 X17.516 Y56.561
G1 X17.57 Y56.229
G1 Z.2
G1 E.5 F1800
;TYPE:Outer wall
G1 F3000
G1 X17.446 Y56.209 E.00442
G1 X16.343 Y55.888 E.0404
G1 X16.174 Y55.791 E.00687
G1 X15.599 Y55.299 E.02665
G1 X15.462 Y55.124 E.0078
G1 X15.028 Y54.391 E.02999
G1 X14.862 Y53.771 E.0226
G1 X14.847 Y53.171 E.02109
G1 X14.918 Y52.645 E.0187
G1 X15.238 Y51.88 E.02919
G1 X15.65 Y51.334 E.02405
G1 X16.068 Y50.982 E.01923
G1 X16.58 Y50.695 E.02066
G1 X17.153 Y50.516 E.02112
G1 X17.474 Y50.506 E.01131
G1 X17.859 Y50.467 E.01361
G1 X18.595 Y50.593 E.02629
G1 X19.18 Y50.856 E.02257
G1 X19.784 Y51.329 E.02701
G1 X19.925 Y51.49 E.00753
G1 X20.227 Y51.914 E.01831
G1 X20.334 Y52.109 E.00782
G1 X20.609 Y53.114 E.03668
G1 X20.6 Y53.665 E.01937
G1 X20.571 Y53.833 E.00601
G1 X20.368 Y54.515 E.02505
G1 X20.05 Y55.07 E.02249
G1 X19.754 Y55.392 E.01541
G1 X19.611 Y55.539 E.0072
G1 X18.962 Y55.967 E.02739
G1 X18.403 Y56.159 E.0208
G1 X17.677 Y56.246 E.02571
G1 X17.609 Y56.235 E.00243
G1 X17.361 Y56.702 F21000
;TYPE:Inner wall
G1 F3000
G1 X17.335 Y56.698 E.00091
G1 X16.148 Y56.351 E.04355
G1 X15.885 Y56.202 E.01062
G1 X15.236 Y55.646 E.03009
G1 X15.048 Y55.407 E.0107
G1 X14.563 Y54.586 E.03355
G1 X14.363 Y53.843 E.0271
G1 X14.346 Y53.144 E.0246
G1 X14.431 Y52.513 E.02242
G1 X14.801 Y51.628 E.03373
G1 X15.285 Y50.988 E.02825
G1 X15.782 Y50.569 E.02289
G1 X16.381 Y50.234 E.02416
G1 X17.069 Y50.018 E.02536
G1 X17.441 Y50.007 E.01312
G1 X17.876 Y49.963 E.01538
G1 X18.742 Y50.111 E.03092
G1 X19.44 Y50.425 E.02694
G1 X20.13 Y50.965 E.03082
G1 X20.318 Y51.18 E.01008
G1 X20.65 Y51.648 E.02017
G1 X20.801 Y51.919 E.01092
G1 X21.11 Y53.051 E.0413
G1 X21.099 Y53.711 E.02322
G1 X21.059 Y53.947 E.00842
G1 X20.831 Y54.713 E.02815
G1 X20.456 Y55.367 E.02651
G1 X20.117 Y55.736 E.01763
G1 X19.932 Y55.926 E.00935
G1 X19.184 Y56.42 E.03154
G1 X18.515 Y56.649 E.0249
G1 X17.667 Y56.751 E.03004
G1 X17.401 Y56.708 E.00952
G1 X17.286 Y57.153 F21000
G1 F3000
G1 X17.235 Y57.145 E.00182
G1 X15.968 Y56.775 E.04643
G1 X15.621 Y56.578 E.01404
G1 X14.904 Y55.964 E.03323
G1 X14.67 Y55.666 E.01335
G1 X14.138 Y54.765 E.03681
G1 X13.908 Y53.909 E.03121
G1 X13.888 Y53.119 E.0278
G1 X13.986 Y52.392 E.02583
G1 X14.402 Y51.399 E.03787
G1 X14.951 Y50.672 E.03208
G1 X15.521 Y50.191 E.02623
G1 X16.199 Y49.812 E.02736
G1 X16.992 Y49.563 E.02924
G1 X17.412 Y49.55 E.01477
G1 X17.892 Y49.502 E.017
G1 X18.877 Y49.67 E.03515
G1 X19.679 Y50.031 E.03094
G1 X20.446 Y50.631 E.0343
G1 X20.678 Y50.897 E.0124
G1 X21.038 Y51.404 E.02187
G1 X21.227 Y51.745 E.01376
G1 X21.568 Y52.994 E.04553
G1 X21.556 Y53.753 E.02674
G1 X21.505 Y54.051 E.01062
G1 X21.254 Y54.895 E.03099
G1 X20.828 Y55.639 E.03018
G1 X20.45 Y56.05 E.01965
G1 X20.225 Y56.28 E.01132
G1 X19.387 Y56.833 E.03534
G1 X18.617 Y57.097 E.02864
G1 X17.658 Y57.213 E.034
G1 X17.325 Y57.159 E.01187
G1 X17.211 Y57.604 F21000
G1 F3000
G1 X17.134 Y57.591 E.00274
G1 X15.789 Y57.199 E.0493
G1 X15.357 Y56.954 E.01747
G1 X14.572 Y56.282 E.03638
G1 X14.292 Y55.924 E.016
G1 X13.712 Y54.944 E.04007
G1 X13.452 Y53.974 E.03532
G1 X13.43 Y53.094 E.031
G1 X13.542 Y52.271 E.02923
G1 X14.002 Y51.169 E.04202
G1 X14.617 Y50.355 E.03591
G1 X15.26 Y49.814 E.02957
G1 X16.017 Y49.39 E.03056
G1 X16.915 Y49.108 E.03311
G1 X17.382 Y49.094 E.01643
G1 X17.908 Y49.041 E.01862
G1 X19.011 Y49.23 E.03938
G1 X19.917 Y49.637 E.03494
G1 X20.762 Y50.298 E.03778
G1 X21.037 Y50.614 E.01473
G1 X21.425 Y51.16 E.02357
G1 X21.654 Y51.572 E.0166
G1 X22.026 Y52.936 E.04976
G1 X22.012 Y53.796 E.03026
G1 X21.951 Y54.155 E.01281
G1 X21.677 Y55.076 E.03382
G1 X21.199 Y55.91 E.03386
G1 X20.782 Y56.364 E.02168
G1 X20.519 Y56.635 E.01329
G1 X19.59 Y57.247 E.03913
G1 X18.72 Y57.545 E.03238
G1 X17.649 Y57.674 E.03796
G1 X17.25 Y57.61 E.01422
G1 E-.5
G1 Z.4 F21000
G1 X51.327 Y58.087 Z.4
G1 Z.2
G1 E.5 F1800
G1 F3000
G1 X52.463 Y57.908 E.04048
G1 X53.269 Y57.549 E.03104
G1 X53.64 Y57.339 E.01497
G1 X53.965 Y57.07 E.01487
G1 X54.653 Y56.431 E.03305
G1 X55.022 Y55.961 E.02101
G1 X55.064 Y55.871 E.0035
G1 X55.279 Y55.918 E.00776
G1 X55.279 Y84.138 E.99317
G1 X55.089 Y84.2 E.00701
G1 X54.384 Y83.231 E.04218
G1 X53.008 Y82.298 E.05852
G1 X51.989 Y81.977 E.03758
G1 X51.06 Y81.882 E.03287
G1 X50.573 Y81.916 E.01721
G1 X49.302 Y82.208 E.04586
G1 X48.825 Y82.423 E.01842
G1 X48.212 Y82.797 E.02529
G1 X47.316 Y83.638 E.04324
G1 X46.795 Y84.443 E.03375
G1 X46.437 Y85.333 E.03376
G1 X46.259 Y86.32 E.0353
G1 X46.313 Y87.308 E.03482
G1 X46.383 Y87.718 E.01463
G1 X46.679 Y88.627 E.03364
G1 X47.14 Y89.425 E.03242
G1 X47.688 Y90.053 E.02936
G1 X48.07 Y90.392 E.01797
G1 X48.624 Y90.7 E.02232
G1 X48.571 Y90.905 E.00747
G1 X20.275 Y90.905 E.99583
G1 X20.219 Y90.706 E.0073
G1 X20.363 Y90.617 E.00593
G1 X21.309 Y89.776 E.04456
G1 X21.629 Y89.396 E.01748
G1 X22.103 Y88.545 E.03431
G1 X22.397 Y87.559 E.03621
G1 X22.468 Y87.138 E.01502
G1 X22.482 Y86.301 E.02947
G1 X22.347 Y85.456 E.03011
G1 X21.987 Y84.516 E.0354
G1 X21.447 Y83.651 E.0359
G1 X20.538 Y82.798 E.04388
G1 X19.925 Y82.423 E.02527
G1 X19.449 Y82.208 E.01841
G1 X18.177 Y81.916 E.0459
G1 X17.692 Y81.882 E.01714
G1 X16.757 Y81.979 E.03307
G1 X15.849 Y82.263 E.03347
G1 X15.465 Y82.472 E.01539
G1 X14.603 Y83.045 E.03642
G1 X13.78 Y83.959 E.04329
G1 X13.679 Y84.147 E.00753
G1 X13.471 Y84.095 E.00752
G1 X13.471 Y55.831 E.99472
G1 X13.673 Y55.776 E.00737
G1 X13.914 Y56.183 E.01663
G1 X14.241 Y56.599 E.01865
G1 X15.094 Y57.33 E.03952
G1 X15.61 Y57.623 E.0209
G1 X17.033 Y58.038 E.05218
G1 X17.64 Y58.136 E.02163
G1 X18.823 Y57.993 E.04191
G1 X19.794 Y57.661 E.03612
G1 X20.812 Y56.989 E.04293
G1 X21.57 Y56.182 E.03896
G1 X22.1 Y55.257 E.03753
G1 X22.397 Y54.259 E.03665
G1 X22.468 Y53.838 E.01501
G1 X22.484 Y52.878 E.03378
G1 X22.08 Y51.398 E.05399
G1 X21.812 Y50.915 E.01944
G1 X21.396 Y50.33 E.02527
G1 X21.078 Y49.965 E.01706
G1 X20.206 Y49.283 E.03895
G1 X20.27 Y49.098 E.00688
G1 X48.486 Y49.098 E.99305
M73 P1 R50
G1 X48.549 Y49.285 E.00696
G1 X47.736 Y49.894 E.03574
G1 X47.056 Y50.699 E.03708
G1 X46.621 Y51.525 E.03285
G1 X46.481 Y51.933 E.01519
G1 X46.257 Y52.984 E.03783
G1 X46.313 Y54.008 E.03609
G1 X46.383 Y54.418 E.01463
G1 X46.683 Y55.338 E.03407
G1 X47.195 Y56.202 E.03533
G1 X47.911 Y56.966 E.03687
