; HEADER_BLOCK_START
; generated by OrcaSlicer 1.7.0-beta on 2023-10-03 at 12:59:20
; total layer number: 95
; HEADER_BLOCK_END

; THUMBNAIL_BLOCK_START
; THUMBNAIL_BLOCK_END

; external perimeters extrusion width = 0.40mm
; perimeters extrusion width = 0.46mm
; infill extrusion width = 0.64mm
; solid infill extrusion width = 0.56mm
; top infill extrusion width = 0.40mm
; first layer extrusion width = 0.50mm

; external perimeters extrusion width = 0.40mm
; perimeters extrusion width = 0.46mm
; infill extrusion width = 0.64mm
; solid infill extrusion width = 0.56mm
; top infill extrusion width = 0.40mm
; first layer extrusion width = 0.50mm

; EXECUTABLE_BLOCK_START
EXCLUDE_OBJECT_DEFINE NAME=arducamEXTRUSIONBRACKET.stl_id_0_copy_0 CENTER=49.5505,66.4265 POLYGON=[[19.496,36.828],[29.392,36.828],[79.605,87.039],[79.605,96.025],[58.384,96.025],[19.496,58.0399],[19.496,36.828]]
EXCLUDE_OBJECT_DEFINE NAME=arducamnotophatrecessed.stl_id_1_copy_0 CENTER=70.6531,47.8043 POLYGON=[[40.5986,18.2058],[50.4946,18.2058],[100.708,68.4168],[100.708,77.4028],[79.4946,77.4028],[40.5986,39.4178],[40.5986,18.2058]]
M73 P0 R23
;TYPE:Custom
START_PRINT T_BED=110 T_EXTRUDER=260
G90
G21
M83 ; use relative distances for extrusion
; Filament gcode

    PRESSURE_ADVANCE_SELECT FILAMENT=ABS
M106 S0
;LAYER_CHANGE
;Z:0.2
;HEIGHT:0.2
;BEFORE_LAYER_CHANGE
;0.2
G92 E0

;AFTER_LAYER_CHANGE
;0.2
;_SET_FAN_SPEED_CHANGING_LAYER
SET_VELOCITY_LIMIT ACCEL=1000 ACCEL_TO_DECEL=500
SET_VELOCITY_LIMIT SQUARE_CORNER_VELOCITY=9
G1 E-.5 F3000
G1 Z.2 F21000
G1 X24.878 Y28.192
G1 Z.2
G1 E.5 F1800
;TYPE:Skirt
;WIDTH:0.5
G1 F3000
G1 X38.67 Y16.021 E.64738
G1 X40.599 Y15.292 E.07255
G1 X50.495 Y15.292 E.34828
G1 X52.555 Y16.145 E.07849
G1 X102.768 Y66.356 E2.49913
G1 X103.622 Y68.417 E.0785
G1 X103.622 Y77.403 E.31625
G1 X103.229 Y78.865 E.05327
G1 X102.636 Y79.588 E.03291
G1 X81.533 Y98.21 E.99051
G1 X79.605 Y98.939 E.07255
G1 X58.392 Y98.939 E.74657
G1 X56.356 Y98.11 E.07737
G1 X17.46 Y60.125 E1.91338
G1 X16.689 Y58.822 E.05327
G1 X16.582 Y58.04 E.02779
G1 X16.582 Y36.828 E.74653
G1 X16.975 Y35.366 E.05327
G1 X17.568 Y34.643 E.03291
G1 X24.848 Y28.218 E.34172
G1 X25.151 Y28.561 F21000
G1 F3000
G1 X38.973 Y16.364 E.64878
G1 X40.599 Y15.749 E.06117
G1 X50.495 Y15.749 E.34828
G1 X52.232 Y16.468 E.06618
G1 X102.445 Y66.679 E2.49913
G1 X103.165 Y68.417 E.06619
G1 X103.165 Y77.403 E.31625
G1 X102.333 Y79.245 E.07113
G1 X81.231 Y97.867 E.99051
G1 X79.605 Y98.482 E.06117
G1 X58.392 Y98.482 E.74657
G1 X56.675 Y97.783 E.06524
G1 X17.779 Y59.798 E1.91338
G1 X17.039 Y58.04 E.06713
G1 X17.039 Y36.828 E.74653
G1 X17.87 Y34.986 E.07113
G1 X25.121 Y28.588 E.34032
; printing object arducamEXTRUSIONBRACKET.stl id:0 copy 0
G1 E-.5
EXCLUDE_OBJECT_START NAME=arducamEXTRUSIONBRACKET.stl_id_0_copy_0
G1 Z.4 F21000
G1 X58.727 Y86.879 Z.4
G1 Z.2
G1 E.5 F1800
;TYPE:Outer wall
G1 F3000
G1 X29.537 Y57.69 E1.45279
G1 X19.846 Y57.69 E.34106
G1 X19.846 Y37.178 E.7219
G1 X29.247 Y37.178 E.33086
G1 X29.848 Y37.779 E.02991
G1 X79.255 Y87.184 E2.45902
M73 P1 R23
G1 X79.255 Y95.675 E.29883
G1 X58.742 Y95.675 E.72193
G1 X58.742 Y86.912 E.30839
G1 X59.183 Y86.628 F21000
;TYPE:Inner wall
G1 F3000
G1 X29.744 Y57.19 E1.4652
G1 X20.346 Y57.19 E.33075
G1 X20.346 Y37.678 E.6867
G1 X29.04 Y37.678 E.30597
G1 X29.494 Y38.132 E.02262
G1 X78.755 Y87.391 E2.45173
G1 X78.755 Y95.175 E.27395
G1 X59.242 Y95.175 E.68674
G1 X59.242 Y86.687 E.29873
G1 X59.211 Y86.656 E.00152
G1 X59.579 Y86.377 F21000
G1 F3000
G1 X29.933 Y56.733 E1.47547
G1 X20.803 Y56.733 E.32133
G1 X20.803 Y38.135 E.65453
G1 X28.851 Y38.135 E.28322
G1 X29.171 Y38.456 E.01596
M73 P1 R22
G1 X78.298 Y87.58 E2.44507
G1 X78.298 Y94.718 E.2512
G1 X59.699 Y94.718 E.65456
G1 X59.699 Y86.498 E.28931
G1 X59.607 Y86.405 E.00458
G1 X59.974 Y86.126 F21000
G1 F3000
G1 X30.123 Y56.276 E1.48574
G1 X21.26 Y56.276 E.31191
G1 X21.26 Y38.592 E.62236
G1 X28.661 Y38.592 E.26047
G1 X28.848 Y38.779 E.0093
G1 X77.841 Y87.77 E2.4384
G1 X77.841 Y94.261 E.22845
G1 X60.156 Y94.261 E.62239
G1 X60.156 Y86.308 E.27988
G1 X60.003 Y86.155 E.00764
G1 X60.37 Y85.876 F21000
G1 F3000
G1 X30.312 Y55.819 E1.49601
M73 P2 R22
G1 X21.717 Y55.819 E.30248
G1 X21.717 Y39.049 E.59018
G1 X28.472 Y39.049 E.23772
G1 X28.525 Y39.102 E.00263
G1 X77.384 Y87.959 E2.43174
G1 X77.384 Y93.804 E.2057
G1 X60.613 Y93.804 E.59022
G1 X60.613 Y86.119 E.27046
G1 X60.398 Y85.904 E.0107
G1 E-.5
G1 Z.4 F21000
G1 X49.572 Y68.991 Z.4
G1 Z.2
G1 E.5 F1800
;TYPE:Outer wall
G1 F3000
G1 X49.565 Y68.994 E.0003
G1 X49.258 Y69.064 E.01107
G1 X48.946 Y69.087 E.011
G1 X48.633 Y69.064 E.01104
G1 X48.327 Y68.994 E.01107
G1 X48.033 Y68.879 E.01109
G1 X47.762 Y68.722 E.01103
G1 X47.517 Y68.527 E.01104
G1 X47.302 Y68.297 E.01106
G1 X47.126 Y68.036 E.01109
G1 X46.99 Y67.754 E.01101
G1 X46.898 Y67.454 E.01105
G1 X46.851 Y67.143 E.01106
G1 X46.851 Y66.83 E.01103
G1 X46.898 Y66.519 E.01106
G1 X46.99 Y66.219 E.01105
G1 X47.126 Y65.937 E.01101
G1 X47.302 Y65.676 E.01109
G1 X47.517 Y65.446 E.01106
G1 X47.762 Y65.251 E.01104
G1 X48.033 Y65.094 E.01103
G1 X48.327 Y64.978 E.01112
G1 X48.643 Y64.908 E.01137
G1 X48.946 Y64.886 E.0107
G1 X49.258 Y64.909 E.011
G1 X49.565 Y64.979 E.01107
G1 X49.858 Y65.094 E.01109
G1 X50.129 Y65.251 E.01103
G1 X50.374 Y65.446 E.01104
G1 X50.589 Y65.676 E.01106
G1 X50.765 Y65.937 E.01107
G1 X50.902 Y66.218 E.01102
G1 X50.994 Y66.519 E.01107
G1 X51.041 Y66.83 E.01106
G1 X51.041 Y67.143 E.01103
G1 X50.994 Y67.454 E.01106
G1 X50.902 Y67.755 E.01107
G1 X50.765 Y68.036 E.01102
G1 X50.589 Y68.297 E.01107
G1 X50.374 Y68.527 E.01106
G1 X50.129 Y68.722 E.01104
G1 X49.858 Y68.879 E.01103
G1 X49.61 Y68.977 E.00938
G1 X49.68 Y69.481 F21000
;TYPE:Inner wall
G1 F3000
G1 X49.332 Y69.56 E.01257
G1 X48.946 Y69.588 E.01361
G1 X48.559 Y69.56 E.01365
G1 X48.179 Y69.474 E.01373
G1 X47.815 Y69.33 E.01375
G1 X47.48 Y69.136 E.01364
G1 X47.176 Y68.895 E.01364
G1 X46.91 Y68.609 E.01374
G1 X46.691 Y68.286 E.01375
G1 X46.523 Y67.937 E.01362
G1 X46.409 Y67.565 E.01368
G1 X46.351 Y67.181 E.0137
G1 X46.351 Y66.792 E.01366
G1 X46.409 Y66.408 E.0137
G1 X46.523 Y66.036 E.01368
G1 X46.691 Y65.687 E.01362
G1 X46.91 Y65.364 E.01375
G1 X47.176 Y65.078 E.01374
G1 X47.48 Y64.837 E.01364
G1 X47.815 Y64.642 E.01364
G1 X48.181 Y64.499 E.01382
G1 X48.57 Y64.412 E.01404
G1 X48.946 Y64.385 E.01327
G1 X49.332 Y64.413 E.01361
G1 X49.712 Y64.499 E.01373
G1 X50.076 Y64.642 E.01375
G1 X50.411 Y64.837 E.01364
G1 X50.715 Y65.078 E.01364
G1 X50.981 Y65.364 E.01374
G1 X51.199 Y65.686 E.0137
G1 X51.368 Y66.035 E.01364
G1 X51.483 Y66.408 E.01374
G1 X51.541 Y66.792 E.0137
G1 X51.541 Y67.181 E.01366
G1 X51.483 Y67.565 E.0137
G1 X51.368 Y67.938 E.01374
G1 X51.199 Y68.287 E.01364
G1 X50.981 Y68.609 E.0137
G1 X50.715 Y68.895 E.01374
G1 X50.411 Y69.136 E.01364
G1 X50.076 Y69.33 E.01364
G1 X49.719 Y69.471 E.0135
G1 X49.785 Y69.926 F21000
G1 F3000
G1 X49.4 Y70.013 E.01392
G1 X48.946 Y70.046 E.016
G1 X48.492 Y70.013 E.01604
G1 X48.044 Y69.912 E.01617
G1 X47.616 Y69.743 E.01618
G1 X47.222 Y69.515 E.01604
G1 X46.865 Y69.231 E.01602
G1 X46.552 Y68.895 E.01618
G1 X46.294 Y68.514 E.01618
G1 X46.097 Y68.104 E.01601
G1 X45.962 Y67.667 E.01609
G1 X45.894 Y67.215 E.0161
G1 X45.894 Y66.758 E.01607
G1 X45.962 Y66.306 E.0161
G1 X46.097 Y65.869 E.01609
G1 X46.294 Y65.459 E.01601
G1 X46.552 Y65.078 E.01618
G1 X46.865 Y64.742 E.01619
G1 X47.222 Y64.458 E.01602
G1 X47.616 Y64.23 E.01603
G1 X48.047 Y64.06 E.01629
G1 X48.503 Y63.959 E.01647
G1 X48.946 Y63.926 E.01562
G1 X49.4 Y63.96 E.016
G1 X49.847 Y64.061 E.01616
G1 X50.275 Y64.23 E.01618
G1 X50.669 Y64.458 E.01603
G1 X51.026 Y64.742 E.01602
G1 X51.339 Y65.078 E.01619
G1 X51.596 Y65.457 E.0161
G1 X51.795 Y65.867 E.01603
G1 X51.93 Y66.306 E.01617
G1 X51.998 Y66.758 E.0161
G1 X51.998 Y67.215 E.01607
G1 X51.93 Y67.667 E.0161
G1 X51.795 Y68.106 E.01617
G1 X51.596 Y68.516 E.01603
G1 X51.339 Y68.895 E.0161
G1 X51.026 Y69.231 E.01619
G1 X50.669 Y69.515 E.01602
G1 X50.275 Y69.743 E.01604
G1 X49.847 Y69.912 E.01618
G1 X49.824 Y69.917 E.00084
G1 X49.89 Y70.371 F21000
G1 F3000
G1 X49.467 Y70.467 E.01526
G1 X48.946 Y70.505 E.01839
G1 X48.424 Y70.467 E.01843
G1 X47.909 Y70.35 E.0186
G1 X47.416 Y70.156 E.01861
G1 X46.963 Y69.893 E.01843
G1 X46.554 Y69.568 E.0184
G1 X46.193 Y69.181 E.01863
G1 X45.897 Y68.743 E.01862
G1 X45.67 Y68.271 E.0184
G1 X45.515 Y67.769 E.0185
G1 X45.437 Y67.249 E.01851
G1 X45.437 Y66.724 E.01848
G1 X45.515 Y66.204 E.01851
G1 X45.67 Y65.701 E.0185
G1 X45.897 Y65.23 E.0184
G1 X46.193 Y64.792 E.01862
G1 X46.554 Y64.405 E.01863
G1 X46.963 Y64.08 E.0184
G1 X47.416 Y63.817 E.01843
G1 X47.912 Y63.622 E.01876
G1 X48.437 Y63.505 E.01891
G1 X48.946 Y63.468 E.01798
G1 X49.467 Y63.506 E.01839
G1 X49.983 Y63.623 E.01859
G1 X50.475 Y63.817 E.01861
G1 X50.928 Y64.08 E.01843
G1 X51.337 Y64.405 E.0184
G1 X51.698 Y64.792 E.01863
G1 X51.993 Y65.228 E.01851
G1 X52.221 Y65.699 E.01842
G1 X52.377 Y66.204 E.01861
G1 X52.455 Y66.724 E.01851
G1 X52.455 Y67.249 E.01848
G1 X52.377 Y67.769 E.01851
G1 X52.221 Y68.274 E.01861
G1 X51.993 Y68.745 E.01842
G1 X51.698 Y69.181 E.01851
G1 X51.337 Y69.568 E.01863
G1 X50.928 Y69.893 E.0184
G1 X50.475 Y70.156 E.01843
G1 X49.983 Y70.35 E.01861
G1 X49.929 Y70.362 E.00192
G1 X49.995 Y70.815 F21000
G1 F3000
G1 X49.535 Y70.92 E.01661
G1 X48.946 Y70.963 E.02078
G1 X48.356 Y70.92 E.02082
G1 X47.773 Y70.788 E.02104
G1 X47.217 Y70.569 E.02104
G1 X46.705 Y70.272 E.02082
G1 X46.243 Y69.904 E.02078
G1 X45.835 Y69.466 E.02108
G1 X45.499 Y68.971 E.02105
G1 X45.243 Y68.439 E.02079
G1 X45.068 Y67.871 E.02091
G1 X44.98 Y67.283 E.02092
G1 X44.98 Y66.69 E.02089
G1 X45.068 Y66.102 E.02092
G1 X45.243 Y65.534 E.02091
G1 X45.499 Y65.002 E.02079
G1 X45.835 Y64.507 E.02105
G1 X46.243 Y64.068 E.02108
G1 X46.705 Y63.701 E.02078
G1 X47.217 Y63.404 E.02082
G1 X47.778 Y63.183 E.02123
G1 X48.37 Y63.052 E.02134
G1 X48.946 Y63.01 E.02033
G1 X49.535 Y63.053 E.02078
G1 X50.118 Y63.185 E.02103
G1 X50.674 Y63.404 E.02104
G1 X51.186 Y63.701 E.02082
G1 X51.648 Y64.068 E.02078
G1 X52.056 Y64.507 E.02108
G1 X52.39 Y64.999 E.02091
G1 X52.648 Y65.531 E.02081
G1 X52.824 Y66.102 E.02104
G1 X52.912 Y66.69 E.02092
G1 X52.912 Y67.283 E.02089
G1 X52.824 Y67.871 E.02092
G1 X52.648 Y68.442 E.02104
G1 X52.39 Y68.974 E.02081
G1 X52.056 Y69.466 E.02091
G1 X51.648 Y69.904 E.02108
G1 X51.186 Y70.272 E.02078
G1 X50.674 Y70.569 E.02082
G1 X50.118 Y70.788 E.02104
G1 X50.034 Y70.807 E.00301
G1 E-.5
G1 Z.4 F21000
G1 X77.247 Y88.314 Z.4
G1 Z.2
G1 E.5 F1800
;TYPE:Bottom surface
;WIDTH:0.510339
G1 F6300
G1 X28.325 Y39.392 E2.49001
G1 X27.664 Y39.392 E.02379
G1 X77.041 Y88.769 E2.51319
G1 X77.041 Y89.43 E.02379
G1 X52.923 Y65.313 E1.22754
G1 X52.687 Y64.827 E.01943
G1 X52.325 Y64.292 E.02323
G1 X51.881 Y63.816 E.02343
G1 X51.38 Y63.417 E.02308
G1 X50.824 Y63.095 E.02312
G1 X50.628 Y63.018 E.00755
G1 X27.003 Y39.392 E1.2025
G1 X26.341 Y39.392 E.02379
G1 X49.685 Y62.735 E1.18812
G1 X49.586 Y62.713 E.00365
G1 X48.955 Y62.667 E.02276
G1 X25.68 Y39.392 E1.18463
G1 X25.019 Y39.392 E.02379
G1 X48.338 Y62.71 E1.18685
G1 X47.795 Y62.829 E.02
G1 X24.358 Y39.392 E1.19286
G1 X23.697 Y39.392 E.02379
G1 X47.306 Y63.001 E1.20163
G1 X47.067 Y63.095 E.00923
G1 X46.86 Y63.215 E.00865
G1 X23.036 Y39.392 E1.21254
G1 X22.375 Y39.392 E.02379
G1 X46.45 Y63.466 E1.22532
G1 X46.081 Y63.759 E.01693
G1 X22.06 Y39.738 E1.22262
G1 X22.06 Y40.399 E.02379
G1 X45.753 Y64.092 E1.2059
G1 X45.566 Y64.292 E.00988
G1 X45.455 Y64.455 E.00708
G1 X22.06 Y41.06 E1.19076
G1 X22.06 Y41.721 E.02379
G1 X45.191 Y64.852 E1.1773
G1 X44.976 Y65.298 E.01783
G1 X22.06 Y42.382 E1.16638
M73 P3 R22
G1 X22.06 Y43.043 E.02379
G1 X44.806 Y65.789 E1.15771
G1 X44.733 Y66.026 E.00891
G1 X44.687 Y66.331 E.01112
G1 X22.06 Y43.704 E1.15166
G1 X22.06 Y44.365 E.02379
G1 X44.637 Y66.942 E1.14911
G1 X44.637 Y67.309 E.01321
G1 X44.689 Y67.655 E.0126
G1 X21.854 Y44.82 E1.16223
G1 E-.5 F3000
G1 Z.4 F21000
G1 X52.93 Y65.98 Z.4
G1 Z.2
G1 E.5 F1800
G1 F6300
G1 X77.041 Y90.092 E1.2272
G1 X77.041 Y90.753 E.02379
G1 X53.255 Y66.967 E1.21064
G1 X53.255 Y67.309 E.01232
G1 X53.213 Y67.586 E.01008
G1 X77.041 Y91.414 E1.21277
G1 X77.041 Y92.075 E.02379
G1 X53.101 Y68.135 E1.21848
G1 X52.937 Y68.632 E.01883
G1 X77.041 Y92.736 E1.22683
G1 X77.041 Y93.397 E.02379
G1 X52.721 Y69.077 E1.23782
G1 X52.462 Y69.479 E.01721
G1 X76.444 Y93.461 E1.22063
G1 X75.783 Y93.461 E.02379
G1 X52.17 Y69.848 E1.20186
G1 X51.846 Y70.185 E.01683
G1 X75.122 Y93.461 E1.18469
G1 X74.461 Y93.461 E.02379
G1 X51.478 Y70.478 E1.16979
G1 X51.38 Y70.556 E.00452
G1 X51.073 Y70.734 E.01276
G1 X73.8 Y93.461 E1.15676
G1 X73.139 Y93.461 E.02379
G1 X50.632 Y70.954 E1.14556
G1 X50.149 Y71.132 E.01852
G1 X72.478 Y93.461 E1.13649
G1 X71.817 Y93.461 E.02379
G1 X49.611 Y71.254 E1.13025
G1 X48.998 Y71.303 E.02211
G1 X71.156 Y93.461 E1.12778
G1 X70.495 Y93.461 E.02379
G1 X48.018 Y70.984 E1.14403
G1 E-.5 F3000
G1 Z.4 F21000
G1 X70.04 Y93.667 Z.4
G1 Z.2
G1 E.5 F1800
G1 F6300
G1 X47.37 Y70.997 E1.15381
G1 X47.067 Y70.878 E.01172
G1 X46.511 Y70.556 E.02313
G1 X46.01 Y70.157 E.02308
G1 X45.566 Y69.681 E.02343
G1 X45.201 Y69.142 E.02339
G1 X44.917 Y68.544 E.02385
G1 X22.06 Y45.687 E1.16335
G1 X22.06 Y46.348 E.02379
G1 X69.173 Y93.461 E2.39792
G1 X68.512 Y93.461 E.02379
G1 X22.06 Y47.009 E2.36428
G1 X22.06 Y47.67 E.02379
G1 X29.866 Y55.476 E.39729
G1 X30.454 Y55.476 E.02117
G1 X60.956 Y85.977 E1.55245
G1 X60.956 Y86.566 E.02121
G1 X67.851 Y93.461 E.35093
G1 X67.19 Y93.461 E.02379
G1 X60.956 Y87.227 E.31728
G1 X60.956 Y87.888 E.02379
G1 X66.529 Y93.461 E.28364
G1 X65.868 Y93.461 E.02379
G1 X60.956 Y88.549 E.24999
G1 X60.956 Y89.21 E.02379
M73 P4 R22
G1 X65.207 Y93.461 E.21635
G1 X64.546 Y93.461 E.02379
G1 X60.956 Y89.871 E.1827
G1 X60.956 Y90.532 E.02379
G1 X63.885 Y93.461 E.14906
G1 X63.224 Y93.461 E.02379
G1 X60.956 Y91.193 E.11541
G1 X60.956 Y91.854 E.02379
G1 X62.563 Y93.461 E.08177
G1 X61.902 Y93.461 E.02379
G1 X60.956 Y92.515 E.04812
G1 X60.956 Y93.176 E.02379
G1 X61.446 Y93.667 E.02495
G1 E-.5 F3000
G1 Z.4 F21000
G1 X59.078 Y86.755 Z.4
G1 X29.41 Y55.682
G1 Z.2
G1 E.5 F1800
G1 F6300
G1 X22.06 Y48.331 E.37412
G1 X22.06 Y48.992 E.02379
G1 X28.544 Y55.476 E.33
G1 X27.883 Y55.476 E.02379
G1 X22.06 Y49.653 E.29636
G1 X22.06 Y50.314 E.02379
G1 X27.222 Y55.476 E.26271
G1 X26.561 Y55.476 E.02379
G1 X22.06 Y50.975 E.22907
G1 X22.06 Y51.636 E.02379
G1 X25.9 Y55.476 E.19542
G1 X25.239 Y55.476 E.02379
G1 X22.06 Y52.297 E.16178
G1 X22.06 Y52.958 E.02379
G1 X24.578 Y55.476 E.12813
G1 X23.917 Y55.476 E.02379
G1 X22.06 Y53.619 E.09449
G1 X22.06 Y54.28 E.02379
G1 X23.256 Y55.476 E.06085
G1 X22.594 Y55.476 E.02379
G1 X21.854 Y54.736 E.03767
; stop printing object arducamEXTRUSIONBRACKET.stl id:0 copy 0
; printing object arducamnotophatrecessed.stl id:1 copy 0
G1 E-.5 F3000
EXCLUDE_OBJECT_END NAME=arducamEXTRUSIONBRACKET.stl_id_0_copy_0
EXCLUDE_OBJECT_START NAME=arducamnotophatrecessed.stl_id_1_copy_0
G1 Z.4 F21000
G1 X50.655 Y39.083 Z.4
G1 Z.2
G1 E.5 F1800
;TYPE:Outer wall
;WIDTH:0.5
G1 F3000
G1 X50.64 Y39.068 E.00076
G1 X40.949 Y39.068 E.34106
G1 X40.949 Y18.556 E.7219
G1 X50.35 Y18.556 E.33086
G1 X50.951 Y19.157 E.02995
G1 X100.358 Y68.562 E2.45898
G1 X100.358 Y77.053 E.29883
G1 X79.845 Y77.053 E.72193
G1 X79.845 Y68.272 E.30904
G1 X50.683 Y39.111 E1.45139
G1 X50.906 Y38.627 F21000
;TYPE:Inner wall
G1 F3000
G1 X50.847 Y38.568 E.00293
G1 X41.449 Y38.568 E.33075
G1 X41.449 Y19.056 E.6867
G1 X50.143 Y19.056 E.30597
G1 X50.598 Y19.511 E.02266
G1 X99.858 Y68.769 E2.45169
G1 X99.858 Y76.553 E.27395
G1 X80.345 Y76.553 E.68674
G1 X80.345 Y68.065 E.29873
G1 X50.934 Y38.655 E1.4638
G1 X51.156 Y38.231 F21000
G1 F3000
G1 X51.036 Y38.111 E.00599
G1 X41.906 Y38.111 E.32133
G1 X41.906 Y19.513 E.65453
G1 X49.953 Y19.513 E.28322
G1 X50.275 Y19.834 E.01599
G1 X99.4 Y68.958 E2.44503
M73 P5 R22
G1 X99.4 Y76.096 E.2512
G1 X80.802 Y76.096 E.65456
G1 X80.802 Y67.875 E.28931
G1 X51.185 Y38.259 E1.47406
G1 X51.407 Y37.835 F21000
G1 F3000
G1 X51.225 Y37.654 E.00905
G1 X42.363 Y37.654 E.31191
G1 X42.363 Y19.97 E.62236
G1 X49.764 Y19.97 E.26047
G1 X49.951 Y20.157 E.00933
G1 X98.943 Y69.148 E2.43837
G1 X98.943 Y75.639 E.22845
