; generated by SuperSlicer 2.5.59 on 2023-02-01 at 01:41:03 UTC


;
;

;
;
; 

; external perimeters extrusion width = 0.40mm
; perimeters extrusion width = 0.46mm
; infill extrusion width = 0.64mm
; solid infill extrusion width = 0.56mm
; top infill extrusion width = 0.40mm
; first layer extrusion width = 0.50mm

; external perimeters extrusion width = 0.40mm
; perimeters extrusion width = 0.46mm
; infill extrusion width = 0.64mm
; solid infill extrusion width = 0.56mm
; top infill extrusion width = 0.40mm
; first layer extrusion width = 0.50mm

; external perimeters extrusion width = 0.40mm
; perimeters extrusion width = 0.46mm
; infill extrusion width = 0.64mm
; solid infill extrusion width = 0.56mm
; top infill extrusion width = 0.40mm
; first layer extrusion width = 0.50mm

; object:{"name":"Arm2","id":"Arm2.stl id:0 copy 0","object_center":[76.048360,60.000001,0.000000],"boundingbox_center":[76.048360,60.000001,5.000000],"boundingbox_size":[7.500000,37.496147,10.000000]}
; object:{"name":"Arm1","id":"Arm1.stl id:1 copy 0","object_center":[62.548360,60.000001,0.000000],"boundingbox_center":[62.548360,60.000001,5.000000],"boundingbox_size":[7.500000,37.496155,10.000000]}
; object:{"name":"Probe(1)","id":"Probe(1).stl id:2 copy 0","object_center":[46.500000,60.000000,0.000000],"boundingbox_center":[46.500000,60.000000,6.333030],"boundingbox_size":[12.596720,36.000000,12.666060]}
; plater:{"center":[60.000000,60.000001,0.000000],"boundingbox_center":[60.000000,60.000001,6.333030],"boundingbox_size":[39.596720,37.496155,12.666060]}

M73 P0 R27
;TYPE:Custom
; custom gcode: start_gcode
START_PRINT T_BED=110 T_EXTRUDER=240
; custom gcode end: start_gcode
M107
G21 ; set units to millimeters
G90 ; use absolute coordinates
M82 ; use absolute distances for extrusion
G92 E0
; custom gcode: start_filament_gcode
; Filament gcode

    PRESSURE_ADVANCE_SELECT FILAMENT=ABS
; custom gcode end: start_filament_gcode
;_TOOLCHANGE 0
M104 S240 ; set temperature
M109 S240 ; set temperature and wait for it to be reached
M190 S110 ; set bed temperature and wait for it to be reached
;LAYER_CHANGE
;Z:0.2
;HEIGHT:0.2
G1 Z0.2 F12000
M73 P0 R27
G1 E-0.5 F3000
M204 S2000
G1 X40.493 Y40.493 F12000
G1 E0 F1800
;TYPE:Skirt
;WIDTH:0.52
G1 X38.272 Y42.714 E0.11712
G1 X37.579 Y43.675 E0.16131
G1 X37.184 Y45.341 E0.22517
G1 X37.184 Y74.659 E1.31838
G1 X37.373 Y75.829 E1.36258
G1 X38.272 Y77.286 E1.42643
G1 X41.514 Y80.527 E1.59737
G1 X42.34 Y81.15 E1.63596
G1 X43.989 Y81.613 E1.69982
G1 X62.281 Y82.361 E2.38248
G1 X76.164 Y82.364 E2.90015
G1 X77.915 Y82.121 E2.96608
G1 X79.242 Y81.633 E3.0188
G1 X80.45 Y80.901 E3.07146
G1 X81.168 Y80.29 E3.10664
G1 X81.804 Y79.59 E3.14187
G1 X82.405 Y78.719 E3.18137
G1 X82.999 Y77.435 E3.2341
G1 X83.299 Y76.289 E3.27827
G1 X83.406 Y75.235 E3.31779
G1 X83.414 Y45.003 E4.4451
G1 X83.336 Y43.939 E4.48491
G1 X83.106 Y42.907 E4.5243
G1 X82.574 Y41.593 E4.57718
G1 X81.804 Y40.41 E4.62983
G1 X80.822 Y39.396 E4.68246
G1 X79.762 Y38.641 E4.73098
G1 X78.478 Y38.048 E4.78372
G1 X77.455 Y37.774 E4.82321
G1 X76.049 Y37.638 E4.87589
G1 X62.28 Y37.64 E5.38934
G1 X43.989 Y38.387 E6.07194
G1 X42.971 Y38.573 E6.11053
G1 X41.514 Y39.473 E6.17439
G1 X40.493 Y40.493 E6.22821
G1 X40.831 Y40.831 F12000
G1 F1800
G1 X38.61 Y43.051 E6.34533
G1 X38.055 Y43.794 E6.37988
G1 X37.661 Y45.341 E6.43943
G1 X37.661 Y74.659 E7.53265
G1 X37.794 Y75.576 E7.5672
G1 X38.61 Y76.949 E7.62675
G1 X41.851 Y80.19 E7.79769
G1 X44.009 Y81.136 E7.88554
G1 X62.301 Y81.884 E8.5682
G1 X76.164 Y81.887 E9.08514
G1 X77.809 Y81.656 E9.14709
G1 X79.049 Y81.197 E9.1964
G1 X79.792 Y80.778 E9.22819
G1 X80.501 Y80.251 E9.26115
G1 X81.44 Y79.281 E9.31149
G1 X81.997 Y78.471 E9.34814
G1 X82.551 Y77.27 E9.39746
G1 X82.828 Y76.213 E9.43821
G1 X82.93 Y75.204 E9.47602
G1 X82.937 Y45.003 E10.60219
G1 X82.865 Y44.015 E10.63915
G1 X82.645 Y43.028 E10.67683
G1 X82.159 Y41.827 E10.72516
G1 X81.44 Y40.719 E10.7744
G1 X80.501 Y39.749 E10.82475
G1 X79.528 Y39.056 E10.86929
G1 X78.328 Y38.501 E10.91861
G1 X77.379 Y38.245 E10.95526
G1 X76.034 Y38.115 E11.00566
M73 P1 R26
G1 X62.299 Y38.116 E11.51781
G1 X44.009 Y38.864 E12.2004
G1 X41.851 Y39.81 E12.28825
G1 X40.831 Y40.831 E12.34207
G92 E0
G1 E-0.5 F3000
; printing object Arm2.stl id:0 copy 0
; acceleration to travel
M204 S4000
G1 X64.117 Y46.045 F12000
; decel to extrusion
M204 S2000
G1 X75.76 Y48.652
; end travel
G1 E0 F1800
;TYPE:Internal perimeter
;WIDTH:0.5
G1 X75.83 Y48.661 E0.0025
G1 X76.415 Y48.649 E0.02341
G1 X76.926 Y48.56 E0.04196
G1 X77.55 Y48.347 E0.06551
G1 X78.055 Y48.068 E0.08611
G1 X78.534 Y47.721 E0.10726
G1 X78.534 Y72.302 E0.98545
G1 X78.012 Y71.903 E1.00894
G1 X77.575 Y71.667 E1.02668
G1 X77.25 Y71.536 E1.0392
G1 X76.636 Y71.381 E1.06183
G1 X76.133 Y71.334 E1.07986
G1 X75.521 Y71.371 E1.10177
G1 X75.027 Y71.478 E1.11981
G1 X74.412 Y71.716 E1.14338
G1 X73.92 Y72.015 E1.16397
G1 X73.563 Y72.297 E1.18021
G1 X73.563 Y47.684 E2.05952
G1 X73.961 Y48.016 E2.07805
G1 X74.389 Y48.269 E2.0958
G1 X74.708 Y48.413 E2.1083
G1 X75.315 Y48.592 E2.13093
G1 X75.76 Y48.652 E2.14698
G1 X75.821 Y48.199 F12000
G1 F1800
G1 X75.855 Y48.203 E2.14823
G1 X76.37 Y48.193 E2.16663
G1 X76.813 Y48.116 E2.18267
G1 X77.365 Y47.928 E2.2035
G1 X77.809 Y47.682 E2.22166
G1 X78.041 Y47.514 E2.2319
G1 X78.364 Y47.221 E2.24746
G1 X78.746 Y46.743 E2.26934
G1 X78.991 Y46.829 E2.2786
G1 X78.991 Y73.165 E3.21949
G1 X78.742 Y73.249 E3.22889
G1 X78.521 Y72.957 E3.24197
G1 X78.223 Y72.639 E3.25753
G1 X77.763 Y72.288 E3.2782
G1 X77.38 Y72.081 E3.29375
G1 X77.108 Y71.971 E3.30424
G1 X76.558 Y71.833 E3.32448
G1 X76.126 Y71.793 E3.34
G1 X75.854 Y71.798 E3.34972
G1 X75.584 Y71.826 E3.35943
G1 X75.159 Y71.917 E3.37495
G1 X74.615 Y72.128 E3.39579
G1 X74.181 Y72.392 E3.41394
G1 X73.955 Y72.569 E3.42418
G1 X73.648 Y72.87 E3.43954
G1 X73.355 Y73.258 E3.45694
G1 X73.105 Y73.175 E3.46634
G1 X73.105 Y46.83 E4.40752
G1 X73.362 Y46.75 E4.41712
G1 X73.495 Y46.942 E4.42546
G1 X73.781 Y47.271 E4.44102
G1 X74.225 Y47.641 E4.46169
G1 X74.6 Y47.862 E4.47724
G1 X74.867 Y47.983 E4.48773
G1 X75.411 Y48.144 E4.50797
G1 X75.821 Y48.199 E4.52275
G92 E0
G1 E-0.5 F3000
; acceleration to travel
M204 S4000
G1 X75.861 Y67.897 F12000
; decel to extrusion
M204 S2000
G1 X75.881 Y77.746
; end travel
G1 E0 F1800
;TYPE:External perimeter
G1 X76.326 Y77.737 E0.0159
G1 X76.699 Y77.672 E0.02942
G1 X77.179 Y77.508 E0.04753
G1 X77.564 Y77.295 E0.06324
G1 X77.753 Y77.158 E0.07161
G1 X78.03 Y76.907 E0.08496
G1 X78.345 Y76.513 E0.103
G1 X78.529 Y76.188 E0.11634
G1 X78.622 Y75.969 E0.12482
G1 X78.754 Y75.487 E0.14267
G1 X78.797 Y75.112 E0.15618
G1 X78.779 Y74.667 E0.17208
G1 X78.706 Y74.296 E0.1856
G1 X78.533 Y73.819 E0.20371
G1 X78.313 Y73.439 E0.21942
G1 X78.171 Y73.252 E0.22779
G1 X77.915 Y72.98 E0.24114
G1 X77.514 Y72.673 E0.25918
G1 X77.186 Y72.496 E0.27252
G1 X76.966 Y72.407 E0.281
G1 X76.481 Y72.285 E0.29885
G1 X76.11 Y72.25 E0.31218
G1 X75.882 Y72.255 E0.32032
G1 X75.655 Y72.278 E0.32845
G1 X75.29 Y72.357 E0.34178
G1 X74.818 Y72.539 E0.3599
G1 X74.442 Y72.768 E0.37561
G1 X74.258 Y72.913 E0.38398
G1 X73.993 Y73.173 E0.39724
G1 X73.725 Y73.527 E0.41312
G1 X73.495 Y73.979 E0.43124
G1 X73.38 Y74.334 E0.44457
G1 X73.333 Y74.564 E0.45296
G1 X73.298 Y74.993 E0.46832
G1 X73.307 Y75.228 E0.47671
G1 X73.364 Y75.596 E0.49004
G1 X73.518 Y76.079 E0.50815
G1 X73.723 Y76.469 E0.52387
G1 X73.856 Y76.661 E0.53224
G1 X74.101 Y76.943 E0.54558
G1 X74.49 Y77.266 E0.56363
G1 X74.811 Y77.456 E0.57697
G1 X75.027 Y77.554 E0.58544
G1 X75.506 Y77.696 E0.6033
G1 X75.881 Y77.746 E0.61681
;WIPE_START
M204 S4000
G1 X76.07 Y78.098 F12000
;WIPE_END
G92 E0
G1 E-0.5 F3000
; acceleration to travel
G1 X75.944 Y57.863 F12000
; decel to extrusion
M204 S2000
G1 X75.881 Y47.746
; end travel
G1 E0 F1800
G1 X76.326 Y47.737 E0.0159
G1 X76.699 Y47.672 E0.02942
G1 X77.179 Y47.508 E0.04753
G1 X77.564 Y47.295 E0.06324
G1 X77.753 Y47.158 E0.07161
G1 X78.03 Y46.907 E0.08496
G1 X78.345 Y46.513 E0.103
G1 X78.529 Y46.188 E0.11634
G1 X78.622 Y45.969 E0.12482
G1 X78.754 Y45.487 E0.14267
G1 X78.797 Y45.112 E0.15618
G1 X78.779 Y44.667 E0.17208
G1 X78.706 Y44.296 E0.1856
G1 X78.533 Y43.819 E0.20371
G1 X78.313 Y43.439 E0.21942
G1 X78.171 Y43.252 E0.22779
G1 X77.915 Y42.98 E0.24114
G1 X77.514 Y42.673 E0.25918
G1 X77.186 Y42.496 E0.27252
G1 X76.966 Y42.407 E0.281
G1 X76.481 Y42.285 E0.29885
G1 X76.11 Y42.25 E0.31218
G1 X75.882 Y42.255 E0.32032
G1 X75.655 Y42.278 E0.32845
G1 X75.29 Y42.357 E0.34178
G1 X74.818 Y42.539 E0.3599
G1 X74.442 Y42.768 E0.37561
G1 X74.258 Y42.913 E0.38398
G1 X73.993 Y43.173 E0.39724
G1 X73.725 Y43.527 E0.41312
G1 X73.495 Y43.979 E0.43124
G1 X73.38 Y44.334 E0.44457
G1 X73.333 Y44.564 E0.45296
G1 X73.298 Y44.993 E0.46832
G1 X73.307 Y45.228 E0.47671
G1 X73.364 Y45.596 E0.49004
G1 X73.518 Y46.079 E0.50815
G1 X73.723 Y46.469 E0.52387
G1 X73.856 Y46.661 E0.53224
G1 X74.101 Y46.943 E0.54558
G1 X74.49 Y47.266 E0.56363
G1 X74.811 Y47.456 E0.57697
G1 X75.027 Y47.554 E0.58544
G1 X75.506 Y47.696 E0.60329
G1 X75.881 Y47.746 E0.61681
;WIPE_START
M204 S4000
G1 X76.07 Y48.098 F12000
;WIPE_END
G92 E0
G1 E-0.5 F3000
; acceleration to travel
G1 X76.056 Y68.298 F12000
; decel to extrusion
M204 S2000
G1 X76.048 Y78.398
; end travel
G1 E0 F1800
G1 X75.939 Y78.398 E0.00389
G1 X75.728 Y78.384 E0.01148
G1 X75.292 Y78.314 E0.02724
G1 X74.874 Y78.19 E0.0428
G1 X74.471 Y78.012 E0.05857
G1 X74.291 Y77.91 E0.06595
G1 X73.924 Y77.654 E0.08191
G1 X73.763 Y77.517 E0.0895
G1 X73.61 Y77.369 E0.09708
G1 X73.324 Y77.033 E0.11285
G1 X73.083 Y76.663 E0.12861
G1 X72.988 Y76.48 E0.13599
G1 X72.822 Y76.071 E0.15176
G1 X72.71 Y75.644 E0.16752
G1 X72.677 Y75.44 E0.1749
G1 X72.648 Y74.989 E0.19107
G1 X72.648 Y45.011 E1.26205
G1 X72.677 Y44.56 E1.27821
G1 X72.71 Y44.356 E1.2856
G1 X72.824 Y43.923 E1.30156
G1 X72.895 Y43.729 E1.30894
G1 X73.089 Y43.327 E1.32491
G1 X73.196 Y43.15 E1.33229
G1 X73.46 Y42.796 E1.34805
G1 X73.767 Y42.48 E1.36382
G1 X73.924 Y42.346 E1.3712
G1 X74.286 Y42.093 E1.38696
G1 X74.672 Y41.892 E1.40253
G1 X75.086 Y41.739 E1.41829
G1 X75.286 Y41.687 E1.42567
G1 X75.728 Y41.616 E1.44164
G1 X75.934 Y41.602 E1.44902
G1 X76.375 Y41.616 E1.46478
G1 X76.81 Y41.687 E1.48055
G1 X77.016 Y41.741 E1.48813
G1 X77.217 Y41.808 E1.49572
G1 X77.626 Y41.988 E1.51168
G1 X77.806 Y42.09 E1.51907
G1 X78.168 Y42.342 E1.53483
G1 X78.49 Y42.635 E1.55039
G1 X78.776 Y42.971 E1.56615
G1 X78.894 Y43.141 E1.57354
G1 X79.111 Y43.525 E1.5893
G1 X79.274 Y43.929 E1.60486
G1 X79.386 Y44.356 E1.62063
G1 X79.419 Y44.56 E1.62801
G1 X79.448 Y45.011 E1.64418
G1 X79.448 Y74.989 E2.71515
G1 X79.419 Y75.44 E2.73132
G1 X79.386 Y75.644 E2.7387
G1 X79.273 Y76.077 E2.75466
G1 X79.202 Y76.271 E2.76205
G1 X79.008 Y76.673 E2.77801
G1 X78.898 Y76.855 E2.7856
G1 X78.776 Y77.029 E2.79318
G1 X78.49 Y77.365 E2.80895
G1 X78.168 Y77.658 E2.82451
G1 X77.806 Y77.91 E2.84027
G1 X77.626 Y78.012 E2.84765
G1 X77.217 Y78.192 E2.86362
G1 X77.021 Y78.258 E2.871
G1 X76.591 Y78.356 E2.88677
G1 X76.152 Y78.398 E2.90253
G1 X76.048 Y78.398 E2.90622
;WIPE_START
M204 S4000
G1 X75.848 Y78.052 F12000
;WIPE_END
G92 E0
G1 E-0.5 F3000
; acceleration to travel
G1 X74.078 Y74.968 F12000
; decel to extrusion
M204 S2000
G1 X73.193 Y73.426
; end travel
G1 E0 F1800
;TYPE:Gap fill
;WIDTH:0.616777
G1 X73.156 Y73.552 E0.00585
;WIDTH:0.56461
G1 X73.12 Y73.677 E0.01118
;WIDTH:0.536763
G1 X73.092 Y73.793 E0.01579
;WIDTH:0.496575
G1 X73.069 Y73.929 E0.02069
;WIDTH:0.452304
G1 X73.053 Y74.03 E0.02394
;WIDTH:0.41
G1 X73.037 Y74.13 E0.02686
;WIDTH:0.363342
G1 X73.021 Y74.231 E0.02941
G1 X73.006 Y74.378 E0.03312
;WIDTH:0.308169
G1 X72.993 Y74.508 E0.03582
G1 X72.992 Y74.524 E0.03616
G1 X72.982 Y74.751 E0.04087
;WIDTH:0.263615
G1 X72.973 Y74.978 E0.0448
G1 X72.98 Y75.123 E0.04729
G1 X72.987 Y75.252 E0.04953
G1 X73.003 Y75.404 E0.05215
G1 X73.03 Y75.577 E0.05518
G1 X73.048 Y75.662 E0.05667
G1 X73.094 Y75.823 E0.05956
G1 X73.136 Y75.967 E0.06215
G1 X73.177 Y76.081 E0.06424
G1 X73.218 Y76.194 E0.06632
G1 X73.286 Y76.342 E0.06913
G1 X73.367 Y76.498 E0.07215
G1 X73.445 Y76.63 E0.0748
G1 X73.518 Y76.74 E0.07708
G1 X73.585 Y76.839 E0.07914
G1 X73.597 Y76.855 E0.07949
G1 X73.726 Y77.005 E0.08291
G1 X73.848 Y77.146 E0.08612
G1 X73.984 Y77.273 E0.08933
G1 X74.126 Y77.393 E0.09254
G1 X74.212 Y77.458 E0.09439
G1 X74.297 Y77.523 E0.09625
G1 X74.312 Y77.534 E0.09655
G1 X74.465 Y77.632 E0.0997
G1 X74.617 Y77.72 E0.10273
G1 X74.788 Y77.799 E0.10597
G1 X74.908 Y77.853 E0.10824
G1 X74.987 Y77.883 E0.10971
G1 X75.176 Y77.939 E0.1131
G1 X75.365 Y77.995 E0.1165
G1 X75.43 Y78.01 E0.11766
G1 X75.606 Y78.036 E0.12072
G1 X75.764 Y78.06 E0.12348
G1 X75.95 Y78.071 E0.12669
G1 X76.136 Y78.069 E0.1299
G1 X76.349 Y78.057 E0.13358
G1 X76.539 Y78.032 E0.13688
G1 X76.654 Y78.009 E0.13892
G1 X76.77 Y77.985 E0.14096
G1 X76.932 Y77.94 E0.14386
G1 X77.098 Y77.884 E0.14688
G1 X77.3 Y77.806 E0.15061
G1 X77.478 Y77.718 E0.15405
G1 X77.631 Y77.632 E0.15707
G1 X77.731 Y77.571 E0.15908
G1 X77.847 Y77.488 E0.16154
G1 X77.952 Y77.413 E0.16377
G1 X77.965 Y77.404 E0.16405
G1 X78.257 Y77.139 E0.17085
G1 X78.272 Y77.122 E0.17124
G1 X78.394 Y76.975 E0.17453
G1 X78.515 Y76.828 E0.17783
G1 X78.62 Y76.687 E0.18085
G1 X78.719 Y76.517 E0.18425
G1 X78.814 Y76.335 E0.18778
G1 X78.82 Y76.324 E0.18799
G1 X78.902 Y76.144 E0.19142
G1 X78.96 Y75.978 E0.19444
G1 X79.067 Y75.577 E0.20161
G1 X79.094 Y75.404 E0.20463
G1 X79.106 Y75.268 E0.20698
G1 X79.118 Y75.132 E0.20934
;WIDTH:0.294382
G1 X79.12 Y74.978 E0.21235
G1 X79.117 Y74.808 E0.21571
G1 X79.113 Y74.637 E0.21906
G1 X79.112 Y74.618 E0.21943
G1 X79.092 Y74.413 E0.22349
;WIDTH:0.380298
G1 X79.072 Y74.207 E0.22893
G1 X79.051 Y74.078 E0.23238
;WIDTH:0.426378
G1 X79.032 Y73.975 E0.23552
;WIDTH:0.471788
G1 X79.014 Y73.872 E0.23903
;WIDTH:0.517198
G1 X78.996 Y73.769 E0.24292
;WIDTH:0.542523
G1 X78.978 Y73.666 E0.24701
G1 X78.954 Y73.559 E0.25127
;WIDTH:0.619426
G1 X78.92 Y73.411 E0.25812
G92 E0
G1 E-0.5 F3000
; acceleration to travel
M204 S4000
G1 X78.573 Y57.153 F12000
; decel to extrusion
M204 S2000
G1 X78.397 Y48.876
; end travel
G1 E0 F1800
;TYPE:Solid infill
;WIDTH:0.504418
G1 F2400
G1 X77.844 Y48.323 E0.02819
G1 X77.403 Y48.528 F12000
G1 F2400
G1 X78.397 Y49.523 E0.07886
G1 X78.397 Y50.169 F12000
G1 F2400
G1 X76.892 Y48.664 E0.15555
G1 X76.366 Y48.784 F12000
G1 F2400
G1 X78.397 Y50.815 E0.25908
G1 X78.397 Y51.462 F12000
G1 F2400
G1 X75.684 Y48.749 E0.39736
G1 X74.902 Y48.613 F12000
G1 F2400
G1 X78.397 Y52.108 E0.57549
G1 X78.397 Y52.755 F12000
G1 F2400
G1 X73.7 Y48.057 E0.81492
G1 X73.7 Y48.703 F12000
G1 F2400
G1 X78.397 Y53.401 E1.05436
G1 X78.397 Y54.047 F12000
G1 F2400
G1 X73.7 Y49.35 E1.29379
G1 X73.7 Y49.996 F12000
G1 F2400
G1 X78.397 Y54.694 E1.53322
G1 X78.397 Y55.34 F12000
G1 F2400
G1 X73.7 Y50.643 E1.77266
G1 X73.7 Y51.289 F12000
G1 F2400
G1 X78.397 Y55.987 E2.01209
G1 X78.397 Y56.633 F12000
G1 F2400
G1 X73.7 Y51.936 E2.25152
G1 X73.7 Y52.582 F12000
G1 F2400
G1 X78.397 Y57.279 E2.49095
G1 X78.397 Y57.926 F12000
G1 F2400
G1 X73.7 Y53.228 E2.73039
G1 X73.7 Y53.875 F12000
G1 F2400
G1 X78.397 Y58.572 E2.96982
G1 X78.397 Y59.219 F12000
G1 F2400
G1 X73.7 Y54.521 E3.20925
G1 X73.7 Y55.168 F12000
G1 F2400
G1 X78.397 Y59.865 E3.44869
G1 X78.397 Y60.511 F12000
G1 F2400
G1 X73.7 Y55.814 E3.68812
G1 X73.7 Y56.46 F12000
G1 F2400
G1 X78.397 Y61.158 E3.92755
G1 X78.397 Y61.804 F12000
G1 F2400
G1 X73.7 Y57.107 E4.16699
G1 X73.7 Y57.753 F12000
G1 F2400
G1 X78.397 Y62.451 E4.40642
M73 P2 R26
G1 X78.397 Y63.097 F12000
G1 F2400
G1 X73.7 Y58.4 E4.64585
G1 X73.7 Y59.046 F12000
G1 F2400
G1 X78.397 Y63.743 E4.88528
G1 X78.397 Y64.39 F12000
G1 F2400
G1 X73.7 Y59.692 E5.12472
G1 X73.7 Y60.339 F12000
G1 F2400
G1 X78.397 Y65.036 E5.36415
G1 X78.397 Y65.683 F12000
G1 F2400
G1 X73.7 Y60.985 E5.60358
G1 X73.7 Y61.632 F12000
G1 F2400
G1 X78.397 Y66.329 E5.84302
G1 X78.397 Y66.976 F12000
G1 F2400
G1 X73.7 Y62.278 E6.08245
G1 X73.7 Y62.924 F12000
G1 F2400
G1 X78.397 Y67.622 E6.32188
G1 X78.397 Y68.268 F12000
G1 F2400
G1 X73.7 Y63.571 E6.56131
G1 X73.7 Y64.217 F12000
G1 F2400
G1 X78.397 Y68.915 E6.80075
G1 X78.397 Y69.561 F12000
G1 F2400
G1 X73.7 Y64.864 E7.04018
