; HEADER_BLOCK_START
; generated by OrcaSlicer 1.7.0-beta on 2023-09-16 at 19:25:43
; total layer number: 106
; HEADER_BLOCK_END

; THUMBNAIL_BLOCK_START
; THUMBNAIL_BLOCK_END

; external perimeters extrusion width = 0.40mm
; perimeters extrusion width = 0.46mm
; infill extrusion width = 0.64mm
; solid infill extrusion width = 0.56mm
; top infill extrusion width = 0.40mm
; support material extrusion width = 0.46mm
; first layer extrusion width = 0.50mm

; EXECUTABLE_BLOCK_START
EXCLUDE_OBJECT_DEFINE NAME=arm.stl_id_0_copy_0 CENTER=62.3735,55.0431 POLYGON=[[12.23,77.2737],[12.2359,77.2008],[12.249,77.1185],[12.2567,77.0846],[12.3061,76.9368],[12.327,76.8855],[12.3385,76.8643],[12.3577,76.8353],[12.3954,76.7873],[12.4781,76.6957],[12.9624,76.2003],[18.4365,70.7013],[19.9211,69.2107],[83.9398,5.19212],[84.0913,5.06775],[84.1469,5.0332],[84.2642,4.97534],[84.388,4.93329],[84.4518,4.91843],[84.6469,4.89922],[84.842,4.91844],[84.9057,4.93329],[85.0295,4.97534],[85.1469,5.0332],[85.2024,5.06775],[85.2813,5.12621],[85.354,5.19211],[90.1623,10.0004],[107.923,27.7616],[112.224,32.0622],[112.29,32.1349],[112.348,32.2137],[112.383,32.2693],[112.441,32.3866],[112.483,32.5105],[112.498,32.5742],[112.517,32.7693],[112.498,32.9644],[112.483,33.0281],[112.441,33.152],[112.383,33.2693],[112.348,33.3249],[112.224,33.4764],[40.8062,104.894],[40.7418,104.953],[40.6681,105.009],[40.5991,105.053],[40.4995,105.102],[40.4061,105.136],[40.358,105.153],[40.308,105.162],[40.2068,105.177],[40.0991,105.187],[40.0008,105.177],[39.8403,105.153],[39.7076,105.099],[39.5991,105.053],[39.392,104.894],[36.4929,101.995],[32.7845,98.2867],[12.522,78.0241],[12.3818,77.8481],[12.3709,77.8304],[12.2845,77.6453],[12.2716,77.6056],[12.2551,77.5438],[12.2547,77.5421],[12.251,77.5255],[12.25,77.5207],[12.244,77.489],[12.235,77.4258],[12.2305,77.3702],[12.2302,77.3635],[12.23,77.2737]]
M73 P0 R52
;TYPE:Custom
START_PRINT T_BED=110 T_EXTRUDER=260
G90
G21
M83 ; use relative distances for extrusion
; Filament gcode

    PRESSURE_ADVANCE_SELECT FILAMENT=ABS
M106 S0
;LAYER_CHANGE
;Z:0.1
;HEIGHT:0.1
;BEFORE_LAYER_CHANGE
;0.1
G92 E0

;AFTER_LAYER_CHANGE
;0.1
;_SET_FAN_SPEED_CHANGING_LAYER
SET_VELOCITY_LIMIT ACCEL=500 ACCEL_TO_DECEL=250
G1 E-.5 F3000
G1 Z.2 F21000
G1 X7.885 Y69.232
G1 Z.2
G1 Z.1
G1 E.5 F1800
;TYPE:Skirt
;WIDTH:0.5
G1 F3000
G1 X8.358 Y68.614 E.01433
G1 X20.279 Y56.706 E.31042
G1 X83.184 Y2.773 E1.52656
G1 X84.559 Y2.112 E.0281
G1 X86.502 Y2.41 E.03622
G1 X87.445 Y3.101 E.02154
G1 X114.486 Y30.155 E.70469
G1 X115.007 Y30.914 E.01696
G1 X115.354 Y32.399 E.0281
G1 X114.618 Y34.26 E.03688
G1 X48.932 Y108.921 E1.83205
G1 X47.663 Y109.767 E.0281
G1 X46.711 Y109.925 E.01777
G1 X33.957 Y109.925 E.23497
G1 X32.484 Y109.531 E.0281
G1 X31.866 Y109.058 E.01433
G1 X14.235 Y91.427 E.45937
G1 X13.662 Y90.62 E.01823
G1 X7.785 Y78.428 E.24936
G1 X7.492 Y77.144 E.02426
G1 X7.492 Y70.705 E.11861
G1 X7.875 Y69.27 E.02736
G1 X8.464 Y69.514 F21000
G1 F3000
G1 X8.697 Y68.953 E.0112
G1 X20.59 Y57.069 E.30974
G1 X83.496 Y3.136 E1.52656
G1 X84.766 Y2.563 E.02568
G1 X86.277 Y2.832 E.02826
G1 X87.107 Y3.44 E.01895
G1 X114.13 Y30.475 E.70424
G1 X114.585 Y31.139 E.01482
G1 X114.869 Y32.504 E.02568
G1 X114.259 Y33.944 E.02882
G1 X48.572 Y108.605 E1.83205
G1 X46.711 Y109.446 E.03762
G1 X33.957 Y109.446 E.23497
G1 X32.205 Y108.72 E.03495
G1 X14.574 Y91.089 E.45937
G1 X14.094 Y90.412 E.01528
G1 X8.216 Y78.22 E.24936
G1 X7.971 Y77.144 E.02034
G1 X7.971 Y70.705 E.11861
G1 X8.449 Y69.551 E.02301
; printing object arm.stl id:0 copy 0
G1 E-.5
EXCLUDE_OBJECT_START NAME=arm.stl_id_0_copy_0
G1 Z.3 F21000
G1 X13.651 Y76.674 Z.3
G1 Z.1
G1 E.5 F1800
;TYPE:Support
G1 F3000
G1 X13.741 Y76.774 E.00248
G2 X14.116 Y77.144 I6.434 J-6.148 E.0097
G3 X13.642 Y76.879 I-.105 J-.368 E.01111
G3 X13.574 Y76.5 I.376 J-.263 E.00733
G1 X13.622 Y76.608 E.00218
G1 E-.5
G1 Z.3 F21000
G1 X15.291 Y79.187 Z.3
G1 Z.1
G1 E.5 F1800
;TYPE:Support interface
G1 F3000
G1 X14.508 Y78.412 E.0203
G1 X14.508 Y81.49 E.0567
G1 X13.569 Y81.49 E.01729
G1 X13.569 Y77.471 E.07404
G1 X13.295 Y77.196 E.00717
G3 X13.481 Y75.613 I1.026 J-.682 E.03193
G1 X12.631 Y75.613 E.01566
G1 X12.631 Y81.49 E.10827
G1 E-.5
G1 Z.3 F21000
G1 X15.447 Y84.429 Z.3
G1 Z.1
G1 E.5 F1800
G1 F3000
G1 X15.447 Y79.342 E.09371
G1 X16.385 Y80.281 E.02445
G1 X16.385 Y84.429 E.07642
G1 X17.324 Y84.429 E.01729
G1 X17.324 Y81.219 E.05913
G1 X18.262 Y82.158 E.02445
G1 X18.295 Y87.367 E.09598
G1 X19.201 Y87.367 E.01668
G1 X19.201 Y83.096 E.07868
G3 X20.139 Y84.044 I-468.763 J464.871 E.02458
G1 X20.139 Y87.367 E.06121
G1 X21.078 Y87.367 E.01729
G1 X21.078 Y84.978 E.04401
G1 E-.5
G1 Z.3 F21000
G1 X20.386 Y83.399 Z.3
G1 Z.1
G1 E.5 F1800
;TYPE:Support
G1 F3000
G1 X21.358 Y84.391 E.02559
G1 X21.256 Y84.493 E.00267
G3 X20.195 Y83.433 I59.83 J-60.935 E.02763
G1 X20.336 Y83.347 E.00304
G1 E-.5
G1 Z.3 F21000
G1 X24.613 Y90.306 Z.3
G1 Z.1
G1 E.5 F1800
;TYPE:Support interface
G1 F3000
G1 X24.172 Y90.306 E.00811
G1 X24.172 Y93.244 E.05414
G1 X24.832 Y93.244 E.01215
G1 X24.832 Y90.306 E.05414
G1 X25.77 Y90.306 E.01729
G1 X25.77 Y93.244 E.05414
G1 X26.709 Y93.244 E.01729
G1 X26.709 Y90.306 E.05414
G1 X26.942 Y90.306 E.00429
G2 X26.847 Y90.728 I.164 J.259 E.00887
G1 X27.043 Y90.945 F21000
G1 F3000
G1 X27.648 Y91.55 E.01575
G1 X27.648 Y96.183 E.08536
G1 X28.586 Y96.183 E.01729
G1 X28.586 Y92.489 E.06804
G1 X29.525 Y93.429 E.02447
G1 X29.525 Y96.183 E.05073
G1 X30.05 Y96.183 E.00967
G1 X30.05 Y99.121 E.05414
G1 X30.463 Y99.121 E.00762
G1 X30.463 Y94.367 E.08758
G1 X31.402 Y95.303 E.02441
G1 X31.402 Y99.121 E.07035
G1 X32.34 Y99.121 E.01729
G1 X32.34 Y96.238 E.05312
G2 X33.123 Y97.02 I23.727 J-22.955 E.02039
G1 E-.5
G1 Z.3 F21000
G1 X35.939 Y99.834 Z.3
G1 Z.1
G1 E.5 F1800
G1 F3000
G1 X35.156 Y99.051 E.02041
G1 X35.156 Y102.06 E.05544
G1 X34.217 Y102.06 E.01729
G1 X34.217 Y98.112 E.07273
G2 X33.279 Y97.175 I-257.738 J257.109 E.02444
G1 X33.279 Y102.06 E.09
G1 X32.988 Y102.06 E.00536
G1 X32.988 Y101.511 E.01012
G1 E-.5
G1 Z.3 F21000
G1 X36.094 Y104.998 Z.3
G1 Z.1
G1 E.5 F1800
G1 F3000
G1 X36.094 Y99.989 E.09228
G3 X37.033 Y100.932 I-44.111 J44.848 E.02451
G1 X37.033 Y104.998 E.07491
G1 X37.971 Y104.998 E.01729
G1 X37.971 Y101.874 E.05757
G2 X38.91 Y102.815 I102.961 J-101.757 E.02448
G1 X38.91 Y104.998 E.04023
G1 X39.849 Y104.998 E.01729
G1 X39.849 Y103.751 E.02299
G2 X40.787 Y104.309 I.994 J-.602 E.02095
G1 X40.787 Y104.998 E.0127
G1 X41.726 Y104.998 E.01729
G1 X41.726 Y103.992 E.01854
G1 E-.5
G1 Z.3 F21000
G1 X40.672 Y103.706 Z.3
G1 Z.1
G1 E.5 F1800
;TYPE:Support
G1 F3000
G2 X40.96 Y103.836 I.543 J-.816 E.00585
G3 X40.229 Y103.468 I-.114 J-.681 E.01613
G1 X40.273 Y103.302 E.00316
G1 X40.621 Y103.655 E.00913
G1 E-.5
G1 Z.3 F21000
G1 X46.711 Y106.968 Z.3
G1 Z.1
G1 E.5 F1800
G1 F3000
G1 X33.957 Y106.968 E.23497
G1 X33.957 Y103.468 E.06448
G1 X35.457 Y103.468 E.02763
G1 X35.457 Y105.468 E.03685
G1 X42.273 Y105.468 E.12557
G1 X42.273 Y103.282 E.04027
G1 X46.711 Y98.844 E.11564
G1 X46.711 Y106.896 E.14835
G1 X46.281 Y99.883 F21000
G1 F3000
G1 X46.281 Y106.537 E.12258
G1 X34.388 Y106.537 E.2191
G1 X34.388 Y103.898 E.04861
G1 X35.027 Y103.898 E.01176
G1 X35.027 Y105.898 E.03685
G1 X42.704 Y105.898 E.14144
G1 X42.704 Y103.46 E.04492
G1 X46.281 Y99.883 E.0932
G1 X45.749 Y101.167 F21000
G1 F3000
G1 X45.749 Y106.005 E.08913
M73 P0 R51
G1 X43.235 Y106.005 E.04631
G1 X43.235 Y103.681 E.04283
G1 X45.749 Y101.167 E.06549
G1 X45.217 Y102.451 F21000
G1 F3000
G1 X45.217 Y105.473 E.05569
G1 X43.767 Y105.473 E.02672
G1 X43.767 Y103.901 E.02897
G1 X45.217 Y102.451 E.03778
G1 E-.5
G1 Z.3 F21000
G1 X42.913 Y100.945 Z.3
G1 X33.474 Y94.778
G1 X28.502 Y91.53
G1 Z.1
G1 E.5 F1800
G1 F3000
G1 X28.397 Y91.636 E.00275
G1 X27.337 Y90.574 E.02763
G1 X27.439 Y90.472 E.00266
G1 X28.451 Y91.479 E.02631
G1 E-.5
G1 Z.3 F21000
G1 X29.08 Y85.398 Z.3
G1 Z.1
G1 E.5 F1800
G1 F3000
G1 X31.594 Y85.398 E.04631
G1 X27.227 Y89.764 E.11377
G1 X27.228 Y89.836 E.00132
G1 X25.142 Y89.836 E.03843
G1 X25.142 Y89.336 E.00921
G1 X16.326 Y89.336 E.16241
G1 X16.326 Y85.836 E.06448
G1 X17.826 Y85.836 E.02763
G1 X17.826 Y87.836 E.03685
G1 X21.703 Y87.836 E.07143
G1 X21.703 Y84.602 E.05959
G1 X22.065 Y84.603 E.00666
G1 X27.147 Y79.521 E.13242
G1 X29.08 Y79.521 E.03561
G1 X29.08 Y85.326 E.10695
G1 X28.649 Y79.952 F21000
G1 F3000
G1 X28.649 Y85.829 E.10827
G1 X30.554 Y85.829 E.03509
G1 X26.977 Y89.406 E.09319
G1 X25.573 Y89.406 E.02588
G1 X25.573 Y88.906 E.00921
G1 X16.757 Y88.906 E.16241
G1 X16.757 Y86.267 E.04861
G1 X17.395 Y86.267 E.01176
G1 X17.395 Y88.267 E.03685
G1 X22.134 Y88.267 E.0873
G1 X22.134 Y85.034 E.05956
G1 X22.242 Y85.035 E.00199
G1 X27.326 Y79.952 E.13245
G1 X28.649 Y79.952 E.02439
G1 X28.118 Y80.483 F21000
G1 F3000
G1 X28.118 Y86.36 E.10827
G1 X29.271 Y86.36 E.02124
G1 X26.757 Y88.874 E.06549
G1 X26.104 Y88.874 E.01203
G1 X26.104 Y88.374 E.00921
G1 X22.666 Y88.374 E.06335
G1 X22.666 Y85.363 E.05546
G1 X27.546 Y80.483 E.12715
G1 X28.118 Y80.483 E.01054
G1 X27.586 Y81.195 F21000
G1 F3000
G1 X27.586 Y86.892 E.10496
M73 P1 R51
G1 X27.987 Y86.892 E.00738
G1 X26.636 Y88.243 E.0352
G1 X26.636 Y87.842 E.00738
G1 X23.197 Y87.842 E.06335
G1 X23.197 Y85.584 E.04161
G1 X27.586 Y81.195 E.11434
G1 X27.054 Y82.479 F21000
G1 F3000
G1 X27.054 Y87.073 E.08463
G1 X26.817 Y87.31 E.0062
G1 X23.729 Y87.31 E.05688
G1 X23.729 Y85.804 E.02775
G1 X27.054 Y82.479 E.08664
G1 X26.523 Y83.762 F21000
G1 F3000
G1 X26.523 Y86.779 E.05557
G1 X24.261 Y86.779 E.04167
G1 X24.261 Y86.024 E.0139
G1 X26.523 Y83.762 E.05893
G1 X25.991 Y85.046 F21000
G1 F3000
G1 X25.991 Y86.247 E.02213
G1 X24.79 Y86.247 E.02213
G1 X25.991 Y85.046 E.03129
G1 E-.5
G1 Z.3 F21000
G1 X23.71 Y81.261 Z.3
G1 X18.447 Y72.526
G1 X17.809 Y71.468
G1 Z.1
G1 E.5 F1800
G1 F3000
G2 X14.138 Y75.144 I296.972 J300.327 E.09571
G1 X11.949 Y75.144 E.04032
G1 X11.949 Y77.144 E.03685
G1 X10.449 Y77.144 E.02763
G1 X10.449 Y70.705 E.11861
G1 X13.388 Y70.705 E.05414
G1 X13.388 Y67.767 E.05414
G1 X16.326 Y67.767 E.05414
G1 X16.326 Y64.828 E.05414
G1 X19.265 Y64.828 E.05414
G1 X19.265 Y61.89 E.05414
G1 X22.203 Y61.89 E.05414
G1 X22.203 Y58.951 E.05414
G1 X30.326 Y58.951 E.14965
G1 X17.86 Y71.417 E.3248
G1 X29.286 Y59.382 F21000
G1 F3000
G1 X17.505 Y71.163 E.30695
G2 X13.959 Y74.713 I286.874 J290.151 E.09245
G1 X11.518 Y74.713 E.04496
G1 X11.518 Y76.713 E.03685
G1 X10.88 Y76.713 E.01176
G1 X10.88 Y71.136 E.10274
G1 X13.818 Y71.136 E.05414
G1 X13.818 Y68.197 E.05414
G1 X16.757 Y68.197 E.05414
G1 X16.757 Y65.259 E.05414
G1 X19.695 Y65.259 E.05414
G1 X19.695 Y62.32 E.05414
G1 X22.634 Y62.32 E.05414
G1 X22.634 Y59.382 E.05414
G1 X29.286 Y59.382 E.12256
G1 X28.003 Y59.913 F21000
G1 F3000
G1 X17.13 Y70.786 E.28328
G2 X13.738 Y74.181 I274.31 J277.492 E.08842
G1 X11.412 Y74.181 E.04286
G1 X11.412 Y71.668 E.04631
G1 X14.35 Y71.668 E.05414
G1 X14.35 Y68.729 E.05414
G1 X17.289 Y68.729 E.05414
G1 X17.289 Y65.791 E.05414
G1 X20.227 Y65.791 E.05414
G1 X20.227 Y62.852 E.05414
G1 X23.166 Y62.852 E.05414
G1 X23.166 Y59.913 E.05414
G1 X28.003 Y59.913 E.08911
G1 X26.719 Y60.445 F21000
G1 F3000
G1 X17.82 Y69.344 E.23185
G2 X14.882 Y72.278 I1284.02 J1288.909 E.0765
G1 X13.517 Y73.649 E.03565
G1 X11.943 Y73.649 E.02899
G1 X11.943 Y72.199 E.02672
G1 X14.882 Y72.199 E.05414
G1 X14.882 Y69.261 E.05414
G1 X17.82 Y69.261 E.05414
G1 X17.82 Y66.322 E.05414
G1 X20.759 Y66.322 E.05414
G1 X20.759 Y63.384 E.05414
G1 X23.697 Y63.384 E.05414
G1 X23.697 Y60.445 E.05414
G1 X26.719 Y60.445 E.05567
G1 X16.622 Y69.792 F21000
G1 F3000
G1 X15.413 Y70.992 E.03136
G1 X15.413 Y69.792 E.02209
G1 X16.622 Y69.792 E.02226
G1 X18.352 Y68.06 F21000
G1 F3000
G1 X18.352 Y66.854 E.02223
G1 X19.558 Y66.854 E.02223
G1 X18.352 Y68.06 E.03143
G1 X21.291 Y65.122 F21000
G1 F3000
G1 X21.291 Y63.915 E.02223
G1 X22.497 Y63.915 E.02223
G1 X21.291 Y65.122 E.03143
G1 X24.229 Y62.183 F21000
G1 F3000
G1 X24.229 Y60.977 E.02223
G1 X25.435 Y60.977 E.02223
G1 X24.229 Y62.183 E.03143
G1 E-.5
G1 Z.3 F21000
G1 X32.371 Y58.603 Z.3
G1 X88.983 Y33.712
G1 X91.93 Y32.416
G1 Z.1
G1 E.5 F1800
G1 F3000
G1 X90.657 Y33.689 E.03316
G1 X83.728 Y26.759 E.18055
G1 X85 Y25.486 E.03316
G1 X91.879 Y32.365 E.17922
G1 X90.657 Y33.079 F21000
G1 F3000
G1 X84.337 Y26.759 E.16468
G1 X85 Y26.095 E.01729
G1 X91.321 Y32.416 E.16468
G1 X90.657 Y33.079 E.01729
G1 E-.5
G1 Z.3 F21000
G1 X91.483 Y30.554 Z.3
G1 X91.901 Y29.276
G1 X93.728 Y23.689
G1 Z.1
G1 E.5 F1800
G1 F3000
G1 X96.667 Y23.689 E.05414
G1 X96.667 Y32.627 E.16467
G1 X84.79 Y20.75 E.30944
G1 X93.728 Y20.75 E.16467
G1 X93.728 Y23.617 E.05281
G1 X85.83 Y21.181 F21000
G1 F3000
G1 X93.297 Y21.181 E.13758
G1 X93.297 Y24.119 E.05414
G1 X96.236 Y24.119 E.05414
G1 X96.236 Y31.587 E.13758
G1 X85.83 Y21.181 E.27113
G1 X87.113 Y21.712 F21000
G1 F3000
G1 X92.766 Y21.712 E.10413
G1 X92.766 Y24.651 E.05414
G1 X95.704 Y24.651 E.05414
G1 X95.704 Y30.303 E.10413
G1 X87.113 Y21.712 E.22383
G1 X88.397 Y22.244 F21000
G1 F3000
G1 X92.234 Y22.244 E.07069
G1 X92.234 Y25.183 E.05414
G1 X95.172 Y25.183 E.05414
G1 X95.172 Y29.02 E.07069
G1 X88.397 Y22.244 E.17653
G1 X92.619 Y25.714 F21000
G1 F3000
G1 X94.641 Y25.714 E.03724
G1 X94.641 Y27.736 E.03724
G1 X92.619 Y25.714 E.05267
G1 X91.702 Y24.797 F21000
G1 F3000
G1 X89.681 Y22.776 E.05267
G1 X91.702 Y22.776 E.03724
G1 X91.702 Y24.797 E.03724
G1 E-.5
G1 Z.3 F21000
G1 X89.347 Y26.721 Z.3
G1 X73.76 Y17.214
G1 X31.225 Y73.746
G1 X31.472 Y73.994
G1 Z.1
G1 E.5 F1800
;TYPE:Outer wall
G1 F3000
G1 X21.819 Y83.647 E.25151
G2 X14.393 Y76.223 I-370.658 J363.38 E.19346
G3 X14.479 Y76.03 I.248 J-.006 E.00403
G1 X14.619 Y75.864 E.004
G3 X18.409 Y72.07 I310.35 J306.194 E.0988
G1 X81.818 Y8.661 E1.65207
G3 X85.144 Y5.336 I221.129 J217.813 E.08665
G1 X86.206 Y6.399 E.02769
G3 X85.652 Y7.405 I-4.942 J-2.064 E.02119
G3 X83.672 Y9.914 I-26.046 J-18.512 E.05891
G2 X81.63 Y12.276 I45.115 J41.072 E.05752
G2 X79.684 Y15.119 I14.827 J12.241 E.06356
G2 X79.328 Y16.165 I2.749 J1.518 E.02047
G2 X79.469 Y16.632 I.613 J.069 E.00922
G1 X100.785 Y37.947 E.55536
G2 X101.383 Y38.073 I.434 J-.575 E.01164
G2 X102.297 Y37.732 I-.761 J-3.438 E.01802
G2 X105.151 Y35.777 I-9.364 J-16.726 E.06382
G2 X108.085 Y33.251 I-388.366 J-454.051 E.07132
G3 X110.349 Y31.544 I15.608 J18.34 E.05227
G3 X111.017 Y31.211 I1.716 J2.608 E.01379
G1 X112.081 Y32.272 E.02769
G3 X108.755 Y35.598 I-221.155 J-217.818 E.08665
G1 X41.541 Y102.812 E1.7512
G3 X41.213 Y103.044 I-.795 J-.773 E.00744
G2 X35.913 Y97.74 I-198.229 J192.777 E.13815
G1 X34.165 Y95.992 E.04555
G1 X34.143 Y95.935 E.00112
G1 X28.182 Y90.012 E.15482
G1 X37.836 Y80.358 E.25154
G1 X31.501 Y74.022 E.16507
G1 X31.472 Y73.317 F21000
;TYPE:Inner wall
G1 F3000
G1 X21.822 Y82.967 E.25142
G2 X15.005 Y76.155 I-366.518 J359.991 E.17755
G3 X18.747 Y72.409 I306.386 J302.297 E.09754
G1 X82.157 Y8.999 E1.65211
G3 X85.143 Y6.012 I198.612 J195.503 E.07781
G1 X85.641 Y6.511 E.01301
G3 X84.266 Y8.453 I-14.315 J-8.683 E.04388
G3 X81.776 Y11.353 I-57.586 J-46.925 E.07041
G2 X79.256 Y14.905 I15.254 J13.495 E.0804
G2 X78.849 Y16.142 I3.135 J1.715 E.02413
G2 X79.112 Y16.951 I1.1 J.09 E.01608
G1 X100.465 Y38.304 E.55635
G2 X101.467 Y38.545 I.748 J-.907 E.01964
G2 X102.512 Y38.161 I-.861 J-3.949 E.02057
G2 X105.452 Y36.149 I-9.588 J-17.17 E.06573
G2 X108.391 Y33.619 I-372.874 J-436.088 E.07143
G3 X110.599 Y31.951 I15.329 J18.006 E.05102
G1 X110.905 Y31.775 E.0065
G1 X111.405 Y32.274 E.01301
G3 X108.417 Y35.259 I-198.505 J-195.641 E.07781
G1 X41.263 Y102.413 E1.74966
M73 P2 R51
G2 X36.25 Y97.4 I-187.949 J182.925 E.13061
G1 X34.576 Y95.727 E.04361
G1 X34.555 Y95.669 E.00114
G1 X28.859 Y90.011 E.14789
G1 X38.513 Y80.358 E.25152
G1 X31.501 Y73.345 E.1827
G1 X31.472 Y72.64 F21000
G1 F3000
G1 X21.826 Y82.287 E.25133
G2 X15.684 Y76.152 I-367.585 J361.851 E.15993
G3 X19.084 Y72.748 I278.374 J274.754 E.08863
G1 X82.838 Y8.991 E1.6611
G1 X83.042 Y9.178 E.00508
G2 X80.887 Y11.674 I144.045 J126.565 E.06076
G2 X78.827 Y14.69 I15.065 J12.495 E.06738
G2 X78.37 Y16.118 I3.536 J1.919 E.02779
G2 X78.754 Y17.27 I1.588 J.11 E.02295
G1 X84.708 Y23.223 E.15511
G1 X81.172 Y26.759 E.09212
G1 X90.657 Y36.244 E.24713
G1 X94.193 Y32.709 E.09212
