; HEADER_BLOCK_START
; generated by OrcaSlicer 1.7.0-beta on 2023-09-18 at 14:17:45
; total layer number: 72
; HEADER_BLOCK_END

; THUMBNAIL_BLOCK_START
; THUMBNAIL_BLOCK_END

; external perimeters extrusion width = 0.40mm
; perimeters extrusion width = 0.46mm
; infill extrusion width = 0.64mm
; solid infill extrusion width = 0.56mm
; top infill extrusion width = 0.40mm
; support material extrusion width = 0.46mm
; first layer extrusion width = 0.50mm

; EXECUTABLE_BLOCK_START
EXCLUDE_OBJECT_DEFINE NAME=ArmV3.stl_id_0_copy_0 CENTER=58.7609,61.9003 POLYGON=[[38.7609,32.4302],[38.7611,32.4276],[38.7619,32.4197],[38.779,32.2462],[38.7817,32.2284],[38.795,32.1714],[38.8329,32.0595],[38.8422,32.037],[38.8949,31.9302],[38.9266,31.8792],[38.9389,31.8631],[39.0538,31.7231],[39.1967,31.6058],[39.2083,31.5969],[39.2609,31.5642],[39.3731,31.5089],[39.3834,31.5046],[39.5021,31.4643],[39.5638,31.4499],[39.664,31.435],[39.7609,31.4302],[77.7609,31.4302],[77.8577,31.435],[77.9579,31.4499],[78.0197,31.4643],[78.1384,31.5046],[78.1487,31.5089],[78.2609,31.5642],[78.3134,31.5969],[78.3251,31.6058],[78.468,31.7231],[78.5829,31.8631],[78.5952,31.8792],[78.6269,31.9302],[78.6795,32.037],[78.6888,32.0595],[78.7268,32.1714],[78.7401,32.2284],[78.7428,32.2462],[78.7507,32.3266],[78.7606,32.4276],[78.7609,32.4302],[78.7609,57.4943],[78.7229,57.9284],[78.6101,58.3494],[67.2391,88.0172],[66.9602,88.6907],[66.6076,89.3286],[66.1858,89.9231],[65.7001,90.4666],[65.1566,90.9523],[64.5621,91.3741],[63.9241,91.7267],[63.2507,92.0057],[62.5503,92.2075],[61.8317,92.3296],[61.1039,92.3705],[58.1039,92.3705],[57.3761,92.3296],[56.6575,92.2075],[55.9571,92.0057],[55.2837,91.7267],[54.6457,91.3741],[54.0512,90.9523],[53.5077,90.4666],[53.022,89.9231],[52.6002,89.3286],[52.2476,88.6907],[38.9117,58.3494],[38.7989,57.9284],[38.7609,57.4943],[38.7609,32.4302]]
M73 P0 R17
;TYPE:Custom
START_PRINT T_BED=110 T_EXTRUDER=260
G90
G21
M83 ; use relative distances for extrusion
; Filament gcode

    PRESSURE_ADVANCE_SELECT FILAMENT=ABS
M106 S0
;LAYER_CHANGE
;Z:0.2
;HEIGHT:0.2
;BEFORE_LAYER_CHANGE
;0.2
G92 E0

;AFTER_LAYER_CHANGE
;0.2
;_SET_FAN_SPEED_CHANGING_LAYER
SET_VELOCITY_LIMIT ACCEL=1000 ACCEL_TO_DECEL=500
SET_VELOCITY_LIMIT SQUARE_CORNER_VELOCITY=9
G1 E-.5 F3000
G1 Z.2 F21000
G1 X36.808 Y31.435
G1 Z.2
G1 E.5 F1800
;TYPE:Skirt
;WIDTH:0.5
G1 F3000
G1 X37.2 Y29.973 E.05327
G1 X38.272 Y28.904 E.05327
G1 X39.722 Y28.518 E.05279
G1 X76.216 Y28.516 E1.28439
G1 X77.804 Y28.518 E.05587
G1 X79.265 Y28.914 E.05327
G1 X80.331 Y29.989 E.05327
G1 X80.714 Y31.435 E.05268
G1 X80.687 Y57.497 E.91721
G1 X80.459 Y58.894 E.04981
G1 X69.331 Y93.912 E1.29316
G1 X68.513 Y95.186 E.05327
G1 X66.553 Y95.944 E.07395
G1 X63.266 Y95.944 E.1157
G1 X62.655 Y95.879 E.02163
G1 X55.343 Y94.257 E.26361
G1 X54.421 Y93.895 E.03485
G1 X53.546 Y93.432 E.03484
G1 X52.472 Y92.67 E.04632
G1 X51.746 Y91.997 E.03484
G1 X51.1 Y91.247 E.03485
G1 X50.221 Y89.848 E.05814
G1 X37.025 Y58.766 E1.18841
G1 X36.835 Y57.497 E.04514
G1 X36.808 Y31.475 E.91582
G1 X37.265 Y31.475 F21000
G1 F3000
G1 X37.265 Y31.435 E.00141
G1 X37.656 Y30.103 E.04884
G1 X38.706 Y29.195 E.04884
G1 X39.722 Y28.975 E.03659
G1 X76.215 Y28.973 E1.28436
G1 X77.803 Y28.975 E.05587
G1 X79.134 Y29.369 E.04884
G1 X80.039 Y30.421 E.04884
G1 X80.256 Y31.435 E.0365
G1 X80.198 Y57.971 E.93391
G1 X80.023 Y58.756 E.02829
G1 X68.895 Y93.774 E1.29316
G1 X68.119 Y94.924 E.04884
G1 X66.553 Y95.487 E.05853
G1 X62.751 Y95.432 E.13384
G1 X55.469 Y93.817 E.26249
G1 X54.596 Y93.472 E.03305
G1 X53.767 Y93.032 E.03304
G1 X52.777 Y92.329 E.04272
G1 X52.087 Y91.692 E.03304
G1 X51.473 Y90.982 E.03304
G1 X50.622 Y89.627 E.05634
G1 X37.467 Y58.647 E1.18451
G1 X37.292 Y57.497 E.04096
G1 X37.266 Y31.515 E.91441
; printing object ArmV3.stl id:0 copy 0
G1 E-.5
EXCLUDE_OBJECT_START NAME=ArmV3.stl_id_0_copy_0
G1 Z.4 F21000
G1 X63.661 Y49.83 Z.4
G1 Z.2
G1 E.5 F1800
;TYPE:Support
G1 F3000
G1 X53.861 Y49.83 E.3449
G1 X53.861 Y48.03 E.06335
G1 X63.661 Y48.03 E.3449
G1 X63.661 Y49.762 E.06094
G1 X54.272 Y49.419 F21000
G1 F3000
G1 X54.272 Y48.442 E.03439
G1 X63.25 Y48.442 E.31594
G1 X63.25 Y49.419 E.03439
G1 X54.272 Y49.419 E.31594
G1 E-.5
G1 Z.4 F21000
G1 X54.754 Y51.03 Z.4
M73 P1 R17
G1 X59.531 Y67.014
G1 X59.896 Y68.234
G1 Z.2
G1 E.5 F1800
G1 F3000
G1 X60.215 Y68.3 E.01147
G1 X60.521 Y68.412 E.01147
G1 X60.808 Y68.568 E.01147
G1 X61.069 Y68.763 E.01147
G1 X61.298 Y68.995 E.01147
G1 X61.492 Y69.257 E.01147
G1 X61.637 Y69.531 E.01092
G1 X61.827 Y70.124 E.02191
G1 X61.866 Y70.379 E.00907
G1 X63.356 Y86.303 E.56289
G1 X63.371 Y86.78 E.0168
G1 X63.329 Y87.237 E.01615
G1 X63.297 Y87.385 E.00531
G1 X63.232 Y87.686 E.01084
G1 X63.08 Y88.119 E.01615
G1 X62.876 Y88.53 E.01615
G1 X62.623 Y88.913 E.01615
G1 X62.325 Y89.262 E.01615
G1 X61.986 Y89.572 E.01615
G1 X61.612 Y89.837 E.01615
G1 X61.208 Y90.055 E.01615
G1 X60.781 Y90.222 E.01615
G1 X60.336 Y90.335 E.01615
G1 X59.88 Y90.392 E.01615
G1 X59.421 Y90.394 E.01615
G1 X58.966 Y90.338 E.01615
G1 X58.52 Y90.227 E.01615
G1 X58.092 Y90.063 E.01615
G1 X57.687 Y89.847 E.01615
G1 X57.312 Y89.583 E.01615
G1 X56.972 Y89.275 E.01615
G1 X56.672 Y88.927 E.01615
G1 X56.417 Y88.545 E.01615
G1 X56.217 Y88.146 E.01572
G1 X55.955 Y87.32 E.03051
G1 X55.896 Y86.959 E.01288
G1 X55.873 Y86.578 E.01341
G1 X55.89 Y86.182 E.01395
G1 X57.38 Y70.259 E.56285
G1 X57.437 Y69.916 E.01225
G1 X57.537 Y69.606 E.01147
G1 X57.682 Y69.314 E.01147
G1 X57.867 Y69.046 E.01147
G1 X58.09 Y68.807 E.01147
G1 X58.345 Y68.604 E.01147
G1 X58.626 Y68.44 E.01147
G1 X58.929 Y68.319 E.01147
G1 X59.246 Y68.244 E.01147
G1 X59.571 Y68.215 E.01147
G1 X59.828 Y68.23 E.00906
G1 X59.387 Y68.644 F21000
G1 F3000
G1 X59.577 Y68.628 E.00673
G1 X59.842 Y68.643 E.00935
G1 X60.102 Y68.697 E.00935
G1 X60.352 Y68.788 E.00935
G1 X60.585 Y68.915 E.00935
G1 X60.798 Y69.074 E.00935
G1 X60.985 Y69.263 E.00935
G1 X61.142 Y69.477 E.00935
G1 X61.255 Y69.688 E.00842
G1 X61.426 Y70.223 E.01978
G1 X62.945 Y86.329 E.56933
G1 X62.959 Y86.768 E.01547
G1 X62.895 Y87.297 E.01876
G1 X62.835 Y87.573 E.00995
G1 X62.7 Y87.959 E.01437
G1 X62.518 Y88.324 E.01437
G1 X62.293 Y88.665 E.01437
G1 X62.028 Y88.975 E.01437
G1 X61.727 Y89.251 E.01437
G1 X61.394 Y89.487 E.01437
G1 X61.035 Y89.681 E.01437
G1 X60.655 Y89.83 E.01437
G1 X60.259 Y89.93 E.01437
G1 X59.854 Y89.981 E.01437
G1 X59.446 Y89.982 E.01437
G1 X59.04 Y89.933 E.01437
G1 X58.644 Y89.834 E.01437
G1 X58.263 Y89.688 E.01437
G1 X57.903 Y89.496 E.01437
G1 X57.569 Y89.261 E.01437
G1 X57.267 Y88.987 E.01437
G1 X57 Y88.678 E.01437
G1 X56.773 Y88.338 E.01437
G1 X56.6 Y87.992 E.01364
G1 X56.356 Y87.223 E.0284
G1 X56.305 Y86.913 E.01104
G1 X56.285 Y86.575 E.01193
G1 X56.3 Y86.21 E.01284
G1 X57.788 Y70.312 E.56195
G1 X57.838 Y70.014 E.01066
G1 X57.92 Y69.761 E.00935
G1 X58.037 Y69.523 E.00935
G1 X58.188 Y69.304 E.00935
G1 X58.37 Y69.11 E.00935
G1 X58.578 Y68.945 E.00935
G1 X58.807 Y68.811 E.00935
G1 X59.054 Y68.713 E.00935
G1 X59.387 Y68.644 E.01195
G1 X59.431 Y69.15 F21000
G1 F3000
G1 X59.584 Y69.137 E.00542
G1 X59.775 Y69.148 E.00673
G1 X59.963 Y69.187 E.00673
G1 X60.142 Y69.252 E.00673
G1 X60.31 Y69.344 E.00673
G1 X60.463 Y69.458 E.00673
G1 X60.598 Y69.594 E.00673
G1 X60.711 Y69.748 E.00673
G1 X60.783 Y69.882 E.00533
G1 X60.931 Y70.346 E.01716
G1 X62.438 Y86.361 E.56609
G1 X62.451 Y86.753 E.01381
G1 X62.399 Y87.189 E.01546
G1 X62.346 Y87.435 E.00885
G1 X62.231 Y87.761 E.01217
G1 X62.077 Y88.071 E.01216
G1 X61.887 Y88.359 E.01216
G1 X61.663 Y88.622 E.01216
G1 X61.407 Y88.855 E.01217
G1 X61.126 Y89.055 E.01217
G1 X60.822 Y89.219 E.01216
G1 X60.499 Y89.345 E.01217
G1 X60.164 Y89.43 E.01217
G1 X59.821 Y89.473 E.01216
G1 X59.476 Y89.474 E.01216
G1 X59.133 Y89.433 E.01217
G1 X58.797 Y89.349 E.01216
G1 X58.475 Y89.225 E.01217
G1 X58.17 Y89.062 E.01216
G1 X57.887 Y88.864 E.01216
G1 X57.631 Y88.632 E.01216
G1 X57.405 Y88.37 E.01217
G1 X57.213 Y88.082 E.01217
G1 X57.072 Y87.801 E.01107
G1 X56.851 Y87.102 E.0258
G1 X56.81 Y86.857 E.00877
G1 X56.793 Y86.57 E.0101
G1 X56.807 Y86.245 E.01147
G1 X58.292 Y70.378 E.56083
G1 X58.333 Y70.135 E.00869
G1 X58.391 Y69.953 E.00673
G1 X58.476 Y69.781 E.00673
G1 X58.585 Y69.624 E.00673
G1 X58.716 Y69.484 E.00673
G1 X58.865 Y69.365 E.00673
G1 X59.03 Y69.269 E.00673
G1 X59.208 Y69.198 E.00673
G1 X59.431 Y69.15 E.00803
G1 X59.476 Y69.656 F21000
G1 F3000
G1 X59.592 Y69.646 E.00411
G1 X59.823 Y69.676 E.0082
G1 X60.035 Y69.772 E.0082
G1 X60.129 Y69.842 E.00411
G1 X60.211 Y69.925 E.00411
G1 X60.31 Y70.076 E.00634
G1 X60.449 Y70.553 E.0175
G1 X61.931 Y86.392 E.55988
G1 X61.942 Y86.738 E.01216
G1 X61.903 Y87.081 E.01216
G1 X61.856 Y87.296 E.00775
G1 X61.762 Y87.563 E.00996
G1 X61.636 Y87.817 E.00996
G1 X61.48 Y88.053 E.00996
G1 X61.297 Y88.268 E.00996
G1 X61.088 Y88.459 E.00996
G1 X60.857 Y88.623 E.00996
G1 X60.608 Y88.758 E.00996
G1 X60.344 Y88.86 E.00996
G1 X60.07 Y88.93 E.00996
G1 X59.789 Y88.966 E.00996
G1 X59.506 Y88.966 E.00996
G1 X59.225 Y88.932 E.00996
G1 X58.95 Y88.864 E.00996
G1 X58.686 Y88.762 E.00996
G1 X58.436 Y88.629 E.00996
G1 X58.205 Y88.466 E.00996
G1 X57.995 Y88.276 E.00996
G1 X57.81 Y88.062 E.00996
G1 X57.653 Y87.826 E.00996
G1 X57.545 Y87.611 E.0085
G1 X57.346 Y86.982 E.02319
G1 X57.302 Y86.566 E.01475
G1 X57.314 Y86.279 E.0101
G1 X58.796 Y70.444 E.55972
G1 X58.863 Y70.144 E.01081
G1 X58.981 Y69.944 E.0082
G1 X59.153 Y69.785 E.0082
G1 X59.362 Y69.683 E.0082
G1 X59.476 Y69.656 E.00411
G1 X59.557 Y70.159 F21000
G1 F3000
G1 X59.683 Y70.166 E.00445
G1 X59.824 Y70.235 E.00551
G1 X59.943 Y70.598 E.01342
G1 X61.424 Y86.424 E.55943
G1 X61.433 Y86.723 E.01051
G1 X61.407 Y86.973 E.00886
G1 X61.366 Y87.157 E.00665
G1 X61.293 Y87.366 E.00776
G1 X61.195 Y87.563 E.00776
G1 X61.074 Y87.747 E.00776
G1 X60.931 Y87.915 E.00776
G1 X60.768 Y88.063 E.00776
G1 X60.588 Y88.191 E.00776
G1 X60.394 Y88.296 E.00776
G1 X60.189 Y88.376 E.00776
G1 X59.975 Y88.43 E.00776
G1 X59.756 Y88.458 E.00776
G1 X59.536 Y88.458 E.00776
G1 X59.317 Y88.432 E.00776
G1 X59.103 Y88.378 E.00776
G1 X58.897 Y88.299 E.00776
G1 X58.703 Y88.196 E.00776
G1 X58.523 Y88.069 E.00776
G1 X58.359 Y87.921 E.00776
G1 X58.215 Y87.754 E.00776
G1 X58.017 Y87.42 E.01366
G1 X57.841 Y86.862 E.02059
G1 X57.81 Y86.561 E.01065
G1 X57.821 Y86.313 E.00873
G1 X59.299 Y70.51 E.55861
G1 X59.322 Y70.376 E.00477
G1 X59.378 Y70.263 E.00445
G1 X59.44 Y70.206 E.00298
G1 X59.557 Y70.159 E.00445
G1 X59.409 Y74.791 F21000
G1 F3000
G1 X59.825 Y74.791 E.01465
G1 X60.917 Y86.456 E.41232
G1 X60.925 Y86.707 E.00886
G1 X60.91 Y86.865 E.00556
G1 X60.825 Y87.168 E.01109
G1 X60.754 Y87.309 E.00556
G1 X60.565 Y87.561 E.01109
G1 X60.448 Y87.668 E.00556
G1 X60.181 Y87.834 E.01109
G1 X59.881 Y87.93 E.01109
G1 X59.724 Y87.95 E.00555
G1 X59.566 Y87.95 E.00555
G1 X59.256 Y87.893 E.01109
G1 X58.969 Y87.762 E.01109
G1 X58.723 Y87.565 E.01109
G1 X58.62 Y87.446 E.00556
G1 X58.49 Y87.229 E.0089
G1 X58.336 Y86.742 E.01799
G1 X58.319 Y86.557 E.00656
G1 X59.409 Y74.791 E.41585
G1 X59.409 Y80.242 F21000
G1 F3000
G1 X59.825 Y80.242 E.01465
G1 X60.41 Y86.488 E.22076
G1 X60.416 Y86.692 E.00721
G1 X60.387 Y86.88 E.00669
G1 X60.261 Y87.135 E.01001
G1 X60.129 Y87.272 E.00669
G1 X59.967 Y87.372 E.00669
G1 X59.691 Y87.442 E.01001
G1 X59.409 Y87.408 E.01001
G1 X59.236 Y87.329 E.00669
G1 X59.088 Y87.21 E.00669
G1 X58.965 Y87.048 E.00715
G1 X58.832 Y86.626 E.01559
G1 X58.827 Y86.552 E.00259
G1 X59.409 Y80.242 E.22302
G1 X59.409 Y85.693 F21000
G1 F3000
G1 X59.825 Y85.693 E.01465
G1 X59.903 Y86.519 E.0292
G1 X59.905 Y86.71 E.0067
G1 X59.833 Y86.854 E.00567
G1 X59.754 Y86.91 E.00343
G1 X59.691 Y86.93 E.0023
G1 X59.594 Y86.931 E.00343
G1 X59.447 Y86.879 E.00547
G1 X59.336 Y86.535 E.01271
G1 X59.409 Y85.693 E.02973
G1 E-.5
G1 Z.4 F21000
G1 X63.248 Y89.635 Z.4
G1 X64.115 Y90.525
G1 X66.553 Y93.03
G1 Z.2
G1 E.5 F1800
G1 F3000
G1 X63.266 Y93.03 E.1157
G1 X62.972 Y92.106 E.03412
G1 X63.273 Y92.017 E.01104
G1 X63.947 Y91.736 E.02572
G1 X64.557 Y91.398 E.02454
G1 X65.155 Y90.977 E.02572
G1 X65.725 Y90.467 E.02691
G1 X66.189 Y89.948 E.02454
G1 X66.553 Y89.438 E.02205
G1 X66.553 Y92.961 E.124
G1 X66.142 Y90.618 F21000
G1 F3000
G1 X66.142 Y92.618 E.07041
G1 X63.567 Y92.618 E.09064
G1 X63.489 Y92.373 E.00906
G1 X64.136 Y92.101 E.02471
G1 X64.815 Y91.723 E.02735
G1 X65.446 Y91.27 E.02735
G1 X65.984 Y90.79 E.02536
G1 X66.142 Y90.618 E.00825
G1 E-.5
G1 Z.4 F21000
G1 X66.197 Y87.369 Z.4
G1 X66.43 Y58.422
G1 X66.68 Y58.422
G1 X66.68 Y58.672
G1 Z.2
G1 E.5 F1800
;TYPE:Outer wall
G1 F3000
G1 X66.672 Y85.861 E.95687
G1 X66.636 Y86.494 E.02232
G1 X66.532 Y87.109 E.02197
G1 X66.359 Y87.709 E.02197
G1 X66.12 Y88.286 E.02197
G1 X65.818 Y88.832 E.02197
G1 X65.457 Y89.342 E.02197
G1 X65.041 Y89.807 E.02197
G1 X64.575 Y90.223 E.02197
G1 X64.066 Y90.585 E.02197
G1 X63.519 Y90.887 E.02197
G1 X62.943 Y91.126 E.02198
G1 X62.339 Y91.3 E.0221
G1 X61.71 Y91.422 E.02257
G1 X61.079 Y91.519 E.02247
G1 X60.599 Y91.538 E.0169
G1 X58.611 Y91.538 E.06995
G1 X58.131 Y91.51 E.01694
G1 X57.497 Y91.419 E.02254
G1 X56.868 Y91.3 E.02254
G1 X56.265 Y91.126 E.02207
G1 X55.688 Y90.887 E.02198
G1 X55.142 Y90.585 E.02197
G1 X54.633 Y90.223 E.02197
G1 X54.167 Y89.807 E.02197
G1 X53.751 Y89.342 E.02197
G1 X53.39 Y88.832 E.02197
G1 X53.088 Y88.286 E.02197
G1 X52.849 Y87.709 E.02197
G1 X52.676 Y87.109 E.02197
G1 X52.571 Y86.494 E.02197
G1 X52.536 Y85.861 E.02232
G1 X52.527 Y58.672 E.95687
G1 X41.276 Y58.656 E.39597
G1 X41.059 Y58.637 E.00767
G1 X40.864 Y58.585 E.00712
G1 X40.681 Y58.5 E.00712
G1 X40.515 Y58.383 E.00712
G1 X40.372 Y58.24 E.00712
G1 X40.256 Y58.075 E.00712
G1 X40.17 Y57.891 E.00712
G1 X40.118 Y57.696 E.00712
G1 X40.099 Y57.479 E.00766
G1 X40.098 Y37.946 E.68745
M73 P2 R17
G1 X40.074 Y31.782 E.21692
G1 X41.201 Y31.782 E.03966
G1 X41.318 Y32.076 E.01116
G1 X41.491 Y32.807 E.02643
G1 X41.681 Y34.078 E.04524
G1 X41.863 Y35.962 E.06661
G1 X42.03 Y38.451 E.08778
M73 P2 R16
G1 X42.122 Y39.371 E.03256
G1 X42.331 Y40.823 E.05163
G1 X42.505 Y41.678 E.03071
G1 X42.693 Y42.381 E.02558
G1 X42.915 Y42.984 E.02263
G1 X43.074 Y43.295 E.0123
G1 X43.278 Y43.564 E.01186
G1 X43.459 Y43.703 E.00806
G1 X43.615 Y43.768 E.00593
G1 X73.792 Y43.78 E1.06205
G1 X73.936 Y43.759 E.0051
G1 X74.145 Y43.648 E.00836
G1 X74.249 Y43.557 E.00486
G1 X74.447 Y43.295 E.01156
G1 X74.607 Y42.985 E.01228
G1 X74.715 Y42.716 E.0102
G1 X74.829 Y42.381 E.01243
G1 X75.017 Y41.678 E.0256
G1 X75.191 Y40.824 E.03071
G1 X75.394 Y39.427 E.04967
G1 X75.492 Y38.451 E.03453
G1 X75.659 Y35.962 E.0878
G1 X75.795 Y34.473 E.05259
G1 X75.894 Y33.661 E.02881
G1 X76.031 Y32.808 E.0304
G1 X76.205 Y32.071 E.02665
G1 X76.316 Y31.79 E.01064
G1 X76.608 Y31.781 E.01029
G1 X77.448 Y31.782 E.02955
G1 X77.423 Y37.946 E.21692
G1 X77.423 Y57.479 E.68745
G1 X77.404 Y57.696 E.00766
G1 X77.352 Y57.891 E.00712
G1 X77.266 Y58.075 E.00712
G1 X77.15 Y58.24 E.00712
G1 X77.007 Y58.383 E.00712
G1 X76.841 Y58.5 E.00712
G1 X76.658 Y58.585 E.00712
G1 X76.462 Y58.637 E.00712
G1 X76.245 Y58.656 E.00767
G1 X66.72 Y58.672 E.33523
G1 X66.18 Y58.173 F21000
;TYPE:Inner wall
G1 F3000
G1 X66.172 Y85.846 E.97394
G1 X66.139 Y86.438 E.02084
G1 X66.044 Y86.998 E.02
G1 X65.886 Y87.544 E.02
G1 X65.669 Y88.069 E.02
G1 X65.394 Y88.566 E.02
G1 X65.065 Y89.029 E.02
G1 X64.687 Y89.453 E.02
G1 X64.263 Y89.832 E.02
G1 X63.751 Y90.195 E.0221
G1 X63.587 Y90.016 E.00853
G1 X63.783 Y89.787 E.01063
G1 X64.135 Y89.254 E.02244
G1 X64.418 Y88.683 E.02244
G1 X64.629 Y88.082 E.02244
G1 X64.765 Y87.459 E.02244
G1 X64.823 Y86.824 E.02244
G1 X64.804 Y86.212 E.02152
G1 X63.306 Y70.201 E.56595
G1 X63.242 Y69.782 E.01492
G1 X62.982 Y68.971 E.02997
G1 X62.722 Y68.483 E.01947
G1 X62.403 Y68.049 E.01895
G1 X62.024 Y67.667 E.01895
G1 X61.593 Y67.344 E.01895
G1 X61.12 Y67.087 E.01895
G1 X60.614 Y66.902 E.01895
G1 X60.087 Y66.793 E.01895
G1 X59.549 Y66.761 E.01895
G1 X59.013 Y66.809 E.01895
G1 X58.489 Y66.934 E.01895
G1 X57.989 Y67.134 E.01895
G1 X57.524 Y67.404 E.01895
G1 X57.103 Y67.74 E.01895
G1 X56.735 Y68.133 E.01895
G1 X56.429 Y68.576 E.01895
G1 X56.19 Y69.059 E.01895
G1 X56.025 Y69.571 E.01895
G1 X55.941 Y70.071 E.01785
G1 X54.442 Y86.084 E.56602
G1 X54.421 Y86.591 E.01786
