; HEADER_BLOCK_START
; generated by OrcaSlicer 1.6.6 on 2023-08-31 at 18:33:14
; total layer number: 24
; HEADER_BLOCK_END

; THUMBNAIL_BLOCK_START
; THUMBNAIL_BLOCK_END

; external perimeters extrusion width = 0.15mm
; perimeters extrusion width = 0.17mm
; infill extrusion width = 0.24mm
; solid infill extrusion width = 0.21mm
; top infill extrusion width = 0.15mm
; first layer extrusion width = 0.19mm

; EXECUTABLE_BLOCK_START
EXCLUDE_OBJECT_DEFINE NAME=asdf.stl_id_0_copy_0 CENTER=68.3299,60 POLYGON=[[46.1919,66.6579],[46.1979,66.4959],[48.6239,47.31],[48.7279,46.686],[48.9959,46.06],[55.8079,33.082],[56.5479,32.15],[57.4539,31.382],[58.5039,30.8],[58.9539,30.616],[59.4199,30.474],[59.8959,30.372],[60.5719,30.29],[60.7459,30.27],[61.2359,30.232],[61.6599,30.208],[61.8839,30.2],[74.4519,30],[75.4699,30.012],[76.4459,30.082],[77.3659,30.202],[77.9079,30.294],[78.4439,30.428],[78.9699,30.596],[79.6219,30.866],[80.4199,31.354],[81.1039,31.97],[81.6699,32.71],[88.3099,45.374],[88.6759,46.68],[90.4679,66.6499],[90.4599,66.7839],[90.4039,66.9959],[84.2639,83.944],[84.0659,84.374],[83.8339,84.732],[83.5599,85.032],[83.2379,85.286],[82.8599,85.504],[82.5039,85.664],[82.1459,85.774],[65.4119,88.876],[65.0479,88.938],[57.2859,89.68],[56.0559,89.78],[54.7739,89.874],[54.2359,89.912],[53.7019,89.944],[53.1639,89.968],[52.5259,89.992],[52.2099,90],[51.8919,89.998],[51.5739,89.99],[51.2359,89.966],[50.9759,89.926],[50.4519,89.768],[49.8819,89.516],[49.5539,89.348],[49.2519,89.142],[48.9579,88.918],[48.6599,88.542],[48.5759,88.144],[46.2179,66.9239],[46.1919,66.6579]]
M73 P0 R42
M73 C21
;TYPE:Custom
START_PRINT T_BED=60 T_EXTRUDER=220
G90
G21
M83 ; use relative distances for extrusion
; filament start gcode

    PRESSURE_ADVANCE_SELECT FILAMENT=PLA
M106 S0
;LAYER_CHANGE
;Z:0.1
;HEIGHT:0.1
;BEFORE_LAYER_CHANGE
;0.1
G92 E0

;AFTER_LAYER_CHANGE
;0.1
SET_VELOCITY_LIMIT ACCEL=500 ACCEL_TO_DECEL=250
SET_VELOCITY_LIMIT SQUARE_CORNER_VELOCITY=9
G1 E-.8 F3000
G1 Z.2 F21000
G1 X53.743 Y31.998
G1 Z.2
G1 Z.1
G1 E.8 F1800
;TYPE:Skirt
;WIDTH:0.1875
G1 F3000
G1 X55.04 Y30.371 E.01408
G1 X56.323 Y29.342 E.01113
G1 X57.373 Y28.76 E.00812
G1 X58.274 Y28.385 E.0066
G1 X59.407 Y28.092 E.00792
G1 X60.989 Y27.912 E.01077
G1 X75.412 Y27.679 E.09759
G1 X76.748 Y27.769 E.00905
G1 X78.298 Y27.995 E.0106
G1 X79.862 Y28.441 E.011
G1 X80.839 Y28.876 E.00723
G1 X81.637 Y29.364 E.00633
G1 X82.956 Y30.553 E.01202
G1 X83.735 Y31.627 E.00898
G1 X90.375 Y44.291 E.09673
G1 X90.921 Y46.051 E.01246
G1 X92.788 Y66.923 E.14177
G1 X92.597 Y67.79 E.00601
G1 X86.457 Y84.738 E.12195
G1 X85.791 Y86 E.00965
G1 X85.004 Y86.863 E.0079
G1 X83.816 Y87.631 E.00957
G1 X82.571 Y88.067 E.00892
G1 X65.27 Y91.259 E.11902
G1 X57.475 Y92.004 E.05297
G1 X53.252 Y92.298 E.02864
G1 X51.071 Y92.292 E.01475
G1 X50.303 Y92.159 E.00527
G1 X49.509 Y91.901 E.00565
G1 X48.491 Y91.424 E.00761
G1 X47.545 Y90.773 E.00777
G1 X46.832 Y89.991 E.00716
G1 X46.378 Y89.024 E.00723
G1 X43.871 Y66.885 E.15073
G1 X43.884 Y66.203 E.00461
G1 X46.31 Y47.017 E.13083
G1 X46.584 Y45.768 E.00865
G1 X46.931 Y44.976 E.00585
G1 X53.736 Y32.011 E.09906
G1 X53.883 Y32.089 F21000
G1 F3000
G1 X53.89 Y32.075 E.0001
G1 X55.147 Y30.498 E.01365
G1 X56.404 Y29.488 E.01091
G1 X57.454 Y28.906 E.00812
G1 X58.323 Y28.544 E.00637
G1 X59.442 Y28.254 E.00782
G1 X61.003 Y28.078 E.01063
G1 X75.41 Y27.845 E.09748
G1 X76.726 Y27.934 E.00892
G1 X78.27 Y28.158 E.01056
G1 X79.799 Y28.595 E.01075
G1 X80.752 Y29.018 E.00706
G1 X81.55 Y29.506 E.00633
G1 X82.824 Y30.654 E.0116
G1 X83.588 Y31.704 E.00878
G1 X90.228 Y44.368 E.09673
G1 X90.762 Y46.095 E.01223
G1 X92.622 Y66.913 E.14139
G1 X92.44 Y67.734 E.00569
G1 X86.3 Y84.682 E.12195
G1 X85.652 Y85.91 E.0094
G1 X84.901 Y86.733 E.00753
G1 X83.748 Y87.48 E.0093
G1 X82.541 Y87.904 E.00866
G1 X65.254 Y91.094 E.11892
G1 X57.461 Y91.839 E.05296
G1 X53.26 Y92.132 E.02849
G1 X51.082 Y92.127 E.01473
G1 X50.351 Y92 E.00502
G1 X49.576 Y91.749 E.00551
G1 X48.566 Y91.276 E.00754
G1 X47.645 Y90.641 E.00757
G1 X46.962 Y89.887 E.00688
G1 X46.541 Y88.989 E.00671
G1 X44.036 Y66.869 E.1506
G1 X44.049 Y66.224 E.00436
G1 X46.475 Y47.038 E.13083
G1 X46.737 Y45.833 E.00834
G1 X47.078 Y45.053 E.00576
G1 X53.876 Y32.102 E.09895
; printing object asdf.stl id:0 copy 0
G1 E-.8
EXCLUDE_OBJECT_START NAME=asdf.stl_id_0_copy_0
G1 Z.3 F21000
G1 X62.604 Y83.885 Z.3
G1 Z.1
G1 E.8 F1800
;TYPE:Outer wall
;WIDTH:0.187499
G1 F3000
G1 X62.526 Y83.819 E.00069
G1 X61.753 Y83.792 E.00524
G1 X61.232 Y83.833 E.00353
G2 X60.139 Y84.169 I2.45 J9.912 E.00773
G3 X56.872 Y85.321 I-28.464 J-75.559 E.02344
G1 X56.254 Y85.481 E.00432
G1 X55.466 Y85.51 E.00533
G1 X55.392 Y85.64 E.00101
G1 X55.415 Y85.729 E.00062
G1 X55.877 Y86.146 E.00421
G3 X56.459 Y87.094 I-4.029 J3.127 E.00754
G3 X58.357 Y88.995 I-14.065 J15.937 E.01819
G1 X58.588 Y89.358 E.00291
G1 X58.518 Y89.411 E.0006
G3 X57.278 Y89.587 I-1.919 J-9.111 E.00848
G3 X52.209 Y89.906 I-9.221 J-105.887 E.03436
G3 X50.995 Y89.834 I-.209 J-6.701 E.00824
G1 X50.366 Y89.627 E.00448
G3 X49.127 Y88.929 I2.396 J-5.697 E.00964
G1 X48.747 Y88.501 E.00387
G1 X48.672 Y88.147 E.00245
G3 X49.22 Y86.943 I3.905 J1.05 E.00899
G2 X49.709 Y86.052 I-5.384 J-3.533 E.00688
G1 X49.854 Y85.538 E.00361
G1 X49.944 Y84.733 E.00548
G2 X50.022 Y78.239 I-163.855 J-5.213 E.04393
G2 X49.905 Y76.928 I-9.148 J.155 E.00891
G2 X49.393 Y75.339 I-8.252 J1.777 E.01131
G3 X49.101 Y73.465 I4.828 J-1.715 E.0129
G1 X49.156 Y72.245 E.00826
G3 X49.218 Y68.036 I136.615 J-.091 E.02848
G1 X49.157 Y67.954 E.00069
G2 X47.42 Y67.609 I-2.809 J9.583 E.012
G1 X46.939 Y67.482 E.00337
G1 X46.541 Y67.295 E.00298
G1 X46.369 Y67.097 E.00177
G3 X46.303 Y66.441 I1.708 J-.502 E.00448
G1 X46.624 Y66.049 E.00343
G2 X50.046 Y66.107 I4.227 J-146.252 E.02316
G1 X50.621 Y66.065 E.0039
G1 X50.736 Y65.947 E.00111
G1 X50.764 Y65.744 E.00139
G2 X50.763 Y63.962 I-11.324 J-.886 E.01207
G1 X50.702 Y63.774 E.00134
G1 X50.412 Y63.48 E.0028
G1 X49.577 Y63.024 E.00643
G1 X49.166 Y62.738 E.00339
G1 X48.896 Y62.445 E.0027
G1 X48.869 Y62.309 E.00093
G1 X49.096 Y62.141 E.00191
G1 X49.35 Y62.07 E.00179
G3 X50.42 Y62.161 I-.652 J13.983 E.00726
G1 X50.625 Y62.065 E.00153
G1 X50.729 Y61.848 E.00163
G2 X50.931 Y59.151 I-63.872 J-6.13 E.0183
G1 X51.021 Y58.528 E.00426
G1 X51.154 Y58.353 E.00149
G1 X52.013 Y57.911 E.00654
G2 X53.445 Y57.313 I-168.755 J-406.129 E.01049
G1 X54.162 Y56.94 E.00547
G2 X54.365 Y56.681 I-.24 J-.397 E.00228
G1 X54.238 Y56.348 E.00241
G1 X53.664 Y55.675 E.00598
G3 X50.54 Y52.354 I72.1 J-70.941 E.03084
G1 X49.894 Y51.49 E.0073
G3 X49.075 Y49.841 I7.745 J-4.874 E.01248
G1 X48.854 Y48.994 E.00592
G1 X48.73 Y48.115 E.006
G1 X48.718 Y47.317 E.0054
G1 X48.819 Y46.713 E.00415
G3 X49.899 Y44.681 I11.084 J4.594 E.01559
G1 X50.271 Y44.189 E.00417
G1 X50.909 Y43.706 E.00541
G3 X52.493 Y43.103 I4.872 J10.421 E.01147
G2 X53.495 Y42.722 I-4.435 J-13.173 E.00726
G1 X54.055 Y42.407 E.00435
G1 X54.407 Y42.085 E.00323
G1 X54.561 Y41.678 E.00294
G2 X54.709 Y39.812 I-23.063 J-2.772 E.01267
G3 X54.911 Y36.035 I134.786 J5.31 E.02559
G3 X55.346 Y34.185 I6.668 J.592 E.0129
G1 X55.887 Y33.133 E.008
G1 X56.616 Y32.216 E.00793
G1 X57.507 Y31.459 E.00791
G1 X58.543 Y30.886 E.00801
G3 X59.911 Y30.465 I3.238 J8.09 E.0097
G3 X63.21 Y30.288 I2.778 J20.967 E.02237
G3 X65.978 Y30.401 I-.737 J51.693 E.01874
G1 X66.754 Y30.49 E.00528
G3 X67.747 Y30.954 I-1.298 J4.071 E.00744
G1 X68.355 Y31.285 E.00468
G1 X68.822 Y31.347 E.00319
G2 X69.648 Y31.158 I-.167 J-2.623 E.00576
G3 X71.06 Y30.538 I10.443 J21.863 E.01043
G1 X71.798 Y30.32 E.0052
G3 X77.889 Y30.386 I2.855 J17.672 E.04141
G3 X79.579 Y30.95 I-1.89 J8.48 E.01208
G1 X80.364 Y31.429 E.00622
G1 X81.035 Y32.034 E.00611
G1 X81.59 Y32.76 E.00619
G1 X81.958 Y33.474 E.00543
G1 X82.18 Y34.073 E.00432
G3 X82.352 Y36.008 I-14.585 J2.27 E.01315
G2 X82.514 Y40.611 I162.659 J-3.423 E.03116
G2 X82.738 Y41.374 I2.594 J-.345 E.0054
G1 X83.098 Y41.927 E.00446
G2 X84.123 Y42.545 I1.584 J-1.466 E.00821
G3 X85.702 Y42.945 I-2.099 J11.607 E.01103
G1 X86.463 Y43.364 E.00588
G1 X87.184 Y43.961 E.00633
G1 X87.795 Y44.669 E.00632
G1 X88.223 Y45.411 E.00579
G1 X88.583 Y46.695 E.00902
G1 X88.642 Y48.098 E.0095
G1 X88.448 Y49.256 E.00794
G1 X88.218 Y50.071 E.00573
G1 X87.82 Y50.814 E.0057
G3 X86.548 Y52.276 I-12.585 J-9.665 E.01312
G3 X83.324 Y55.581 I-319.501 J-308.336 E.03124
G1 X82.877 Y56.096 E.00461
G1 X82.914 Y56.19 E.00069
G1 X83.459 Y56.519 E.00431
G1 X84.603 Y57.106 E.0087
G1 X85.259 Y57.534 E.0053
G1 X85.481 Y57.794 E.00231
G1 X85.577 Y58.183 E.00271
G3 X85.809 Y60.94 I-357.947 J31.445 E.01871
G1 X85.944 Y62.035 E.00747
G1 X86.056 Y62.215 E.00144
G1 X86.248 Y62.305 E.00144
G1 X86.623 Y62.308 E.00254
G1 X87.637 Y62.129 E.00696
G1 X88.388 Y62.103 E.00509
G1 X88.684 Y62.196 E.0021
G1 X88.782 Y62.285 E.0009
G1 X88.788 Y62.673 E.00263
G1 X88.706 Y62.861 E.00139
G3 X87.726 Y63.234 I-2.015 J-3.825 E.00711
G1 X86.886 Y63.466 E.00589
G2 X86.243 Y63.801 I.45 J1.648 E.00495
G1 X86.101 Y64.034 E.00184
G1 X86.068 Y64.68 E.00438
G1 X86.141 Y65.298 E.00421
G1 X86.274 Y65.685 E.00277
G1 X86.47 Y65.874 E.00184
G1 X87.003 Y65.944 E.00364
G3 X89.642 Y66.038 I-4.205 J155.375 E.01787
G1 X90.06 Y66.136 E.0029
G1 X90.225 Y66.281 E.00148
G1 X90.359 Y66.54 E.00197
G1 X90.363 Y66.67 E.00088
G1 X90.346 Y66.849 E.00121
G1 X90.232 Y67.091 E.00181
G1 X90.023 Y67.225 E.00168
G1 X89.692 Y67.287 E.00228
G3 X86.938 Y67.458 I-5.737 J-69.999 E.01867
G1 X86.269 Y67.522 E.00455
G1 X86.196 Y67.592 E.00068
G1 X85.715 Y70.817 E.02206
G2 X85.52 Y73.976 I16.743 J2.618 E.02144
G3 X86.224 Y75.679 I-17.937 J8.407 E.01247
G3 X86.312 Y76.988 I-9.201 J1.274 E.00889
G2 X85.335 Y79.183 I29.31 J14.348 E.01626
G2 X84.862 Y80.812 I14.172 J5.004 E.01148
G1 X84.508 Y82.704 E.01302
G3 X83.984 Y84.329 I-6.849 J-1.315 E.01158
G1 X83.617 Y84.83 E.0042
G1 X83.187 Y85.207 E.00387
G1 X82.471 Y85.575 E.00545
G1 X81.756 Y85.746 E.00498
G1 X80.859 Y85.732 E.00607
G3 X79.596 Y85.528 I1.423 J-12.802 E.00866
G2 X76.673 Y84.954 I-8.939 J37.818 E.02016
G1 X76.15 Y84.944 E.00353
G1 X75.758 Y85.059 E.00276
G1 X75.309 Y85.406 E.00384
G1 X74.616 Y86.159 E.00692
G1 X74.143 Y86.584 E.0043
G1 X73.496 Y86.951 E.00503
G3 X71.423 Y87.241 I-1.621 J-4.039 E.0143
G1 X70.938 Y87.14 E.00335
G1 X70.347 Y86.895 E.00433
G1 X69.835 Y86.569 E.00411
G1 X69.379 Y86.152 E.00418
G3 X68.615 Y85.167 I20.492 J-16.669 E.00843
G1 X68.154 Y84.695 E.00447
G1 X67.712 Y84.494 E.00328
G1 X67.277 Y84.405 E.003
G1 X67.21 Y84.485 E.00071
G3 X67.155 Y86.826 I-40.305 J.219 E.01584
G1 X66.99 Y87.418 E.00416
G1 X66.776 Y87.813 E.00304
G1 X66.366 Y88.275 E.00418
G1 X66 Y88.536 E.00304
G1 X65.434 Y88.77 E.00414
G1 X64.954 Y88.845 E.00329
G1 X64.449 Y88.816 E.00342
G1 X63.945 Y88.679 E.00353
G1 X63.505 Y88.44 E.00339
G1 X63.081 Y88.074 E.00379
G1 X62.774 Y87.641 E.00359
G1 X62.561 Y87.129 E.00375
G1 X62.482 Y86.633 E.0034
G3 X62.604 Y83.9 I433.072 J17.951 E.01851
G1 X62.743 Y83.824 F21000
;TYPE:Inner wall
G1 F3000
G1 X62.696 Y83.722 E.00076
G1 X62.532 Y83.653 E.0012
G1 X61.74 Y83.627 E.00536
G1 X61.187 Y83.674 E.00376
G2 X60.082 Y84.013 I2.499 J10.089 E.00782
G3 X56.819 Y85.163 I-28.419 J-75.438 E.02341
G1 X56.232 Y85.315 E.0041
G1 X55.449 Y85.343 E.0053
G1 X55.3 Y85.437 E.00119
G1 X55.222 Y85.683 E.00175
G1 X55.304 Y85.853 E.00127
G1 X55.752 Y86.257 E.00408
G3 X56.35 Y87.219 I-4.821 J3.666 E.00768
G3 X57.953 Y88.797 I-12.546 J14.352 E.01522
G1 X58.354 Y89.271 E.0042
G3 X56.044 Y89.52 I-3.778 J-24.16 E.01573
G3 X52.208 Y89.74 I-5.9 J-69.375 E.026
G3 X51.028 Y89.67 I-.207 J-6.51 E.00801
G1 X50.433 Y89.475 E.00424
G3 X49.244 Y88.809 I2.348 J-5.585 E.00924
G1 X48.901 Y88.429 E.00346
G1 X48.843 Y88.152 E.00191
G3 X49.067 Y87.55 I2.063 J.424 E.00436
G2 X49.866 Y86.104 I-19.083 J-11.491 E.01118
G1 X50.019 Y85.556 E.00384
G1 X50.11 Y84.737 E.00558
G2 X50.187 Y78.23 I-163.708 J-5.209 E.04402
G2 X49.844 Y76.064 I-7.378 J.058 E.01489
G3 X49.395 Y74.79 I11.121 J-4.639 E.00914
G1 X49.289 Y74.208 E.004
G3 X49.322 Y72.244 I18.083 J-.678 E.0133
G3 X49.384 Y68.04 I136.352 J-.093 E.02845
G1 X49.333 Y67.884 E.00111
G1 X49.202 Y67.794 E.00107
G2 X47.446 Y67.445 I-2.861 J9.786 E.01213
G1 X46.983 Y67.322 E.00324
G1 X46.713 Y67.197 E.00201
G1 X46.524 Y67.022 E.00174
G3 X46.465 Y66.498 I2.381 J-.532 E.00357
G1 X46.69 Y66.216 E.00244
G2 X50.059 Y66.273 I4.022 J-138.604 E.02279
G1 X50.633 Y66.23 E.0039
G1 X50.77 Y66.176 E.001
G1 X50.875 Y66.037 E.00117
G1 X50.929 Y65.759 E.00192
G2 X50.929 Y63.95 I-11.539 J-.901 E.01225
G1 X50.85 Y63.697 E.00179
G1 X50.491 Y63.334 E.00345
G1 X49.68 Y62.891 E.00625
G1 X49.26 Y62.602 E.00345
G1 X49.047 Y62.368 E.00214
G3 X49.361 Y62.237 I.358 J.419 E.00234
G3 X50.401 Y62.326 I-.633 J13.524 E.00706
G1 X50.531 Y62.306 E.00089
G1 X50.767 Y62.162 E.00187
G1 X50.894 Y61.864 E.00219
G2 X51.091 Y59.209 I-33.855 J-3.84 E.01802
G1 X51.164 Y58.617 E.00404
G1 X51.251 Y58.49 E.00104
G1 X52.083 Y58.062 E.00633
G2 X53.521 Y57.461 I-60.991 J-147.921 E.01054
G1 X54.239 Y57.088 E.00547
G1 X54.454 Y56.884 E.00201
G1 X54.536 Y56.636 E.00176
G1 X54.364 Y56.24 E.00292
G1 X53.784 Y55.561 E.00605
G3 X50.669 Y52.249 I72.05 J-70.893 E.03076
G1 X50.033 Y51.398 E.00719
G3 X49.233 Y49.789 I7.575 J-4.766 E.01218
G1 X49.017 Y48.961 E.00579
G1 X48.895 Y48.102 E.00587
G1 X48.884 Y47.33 E.00522
G1 X48.979 Y46.76 E.00391
G3 X50.036 Y44.775 I10.889 J4.528 E.01523
G1 X50.389 Y44.307 E.00396
G1 X50.992 Y43.851 E.00511
G3 X52.545 Y43.261 I4.773 J10.217 E.01125
G2 X53.576 Y42.867 I-4.3 J-12.805 E.00747
G1 X54.183 Y42.518 E.00474
G1 X54.554 Y42.168 E.00345
G1 X54.726 Y41.695 E.0034
G2 X54.875 Y39.822 I-23.257 J-2.791 E.01271
G3 X55.077 Y36.051 I134.609 J5.301 E.02555
G3 X55.499 Y34.251 I6.483 J.572 E.01255
G1 X56.027 Y33.223 E.00781
G1 X56.735 Y32.332 E.0077
G1 X57.602 Y31.597 E.00769
G1 X58.611 Y31.037 E.0078
G3 X59.939 Y30.628 I3.144 J7.846 E.00941
G3 X63.208 Y30.454 I2.75 J20.79 E.02217
G3 X65.963 Y30.567 I-.733 J51.494 E.01866
G1 X66.714 Y30.652 E.00512
G1 X67.116 Y30.805 E.00291
G3 X68.299 Y31.442 I-63.199 J118.708 E.00909
G1 X68.802 Y31.512 E.00344
G1 X69.22 Y31.46 E.00285
G1 X69.717 Y31.309 E.00351
G3 X71.119 Y30.693 I10.372 J21.707 E.01036
G1 X71.83 Y30.483 E.00502
G3 X77.855 Y30.548 I2.822 J17.505 E.04096
G3 X79.504 Y31.098 I-1.844 J8.279 E.01178
G1 X80.264 Y31.563 E.00603
G1 X80.912 Y32.147 E.0059
G1 X81.45 Y32.849 E.00598
G1 X81.806 Y33.541 E.00526
G1 X82.019 Y34.114 E.00413
G3 X82.186 Y36.015 I-14.376 J2.227 E.01292
G2 X82.348 Y40.619 I162.941 J-3.433 E.03117
G2 X82.6 Y41.467 I2.702 J-.34 E.00601
G1 X82.959 Y42.017 E.00445
G2 X84.087 Y42.708 I1.731 J-1.563 E.00907
G3 X85.637 Y43.099 I-2.055 J11.398 E.01083
G1 X86.369 Y43.502 E.00565
G1 X87.067 Y44.08 E.00613
G1 X87.659 Y44.765 E.00612
G1 X88.069 Y45.475 E.00555
G1 X88.418 Y46.721 E.00875
G1 X88.475 Y48.088 E.00925
G1 X88.286 Y49.219 E.00776
G1 X88.064 Y50.008 E.00554
G1 X87.681 Y50.721 E.00548
G3 X86.427 Y52.162 I-12.403 J-9.53 E.01293
G3 X83.2 Y55.471 I-325.175 J-313.845 E.03127
G1 X82.737 Y56.002 E.00476
G1 X82.718 Y56.19 E.00128
G1 X82.828 Y56.333 E.00122
G1 X83.384 Y56.667 E.00439
G1 X84.519 Y57.249 E.00863
G1 X85.157 Y57.665 E.00515
G1 X85.328 Y57.865 E.00178
G1 X85.422 Y58.305 E.00304
G3 X85.644 Y60.957 I-395.383 J34.363 E.018
G1 X85.78 Y62.061 E.00753
G1 X85.946 Y62.342 E.00221
G1 X86.213 Y62.469 E.002
G1 X86.652 Y62.472 E.00297
G1 X87.651 Y62.294 E.00686
G1 X88.379 Y62.269 E.00493
G1 X88.621 Y62.352 E.00173
G3 X88.608 Y62.698 I-.613 J.151 E.00237
G3 X87.679 Y63.075 I-1.608 J-2.637 E.00681
G1 X86.842 Y63.306 E.00587
G1 X86.41 Y63.472 E.00313
G1 X86.084 Y63.732 E.00282
G1 X85.935 Y64.025 E.00223
G1 X85.903 Y64.699 E.00456
G1 X85.976 Y65.317 E.00421
G1 X86.118 Y65.74 E.00302
G1 X86.3 Y65.964 E.00195
G1 X86.448 Y66.039 E.00112
G1 X86.997 Y66.11 E.00375
G3 X89.634 Y66.203 I-4.2 J155.215 E.01785
G1 X89.979 Y66.286 E.0024
G1 X90.137 Y66.473 E.00165
G1 X90.197 Y66.675 E.00143
G1 X90.163 Y66.89 E.00147
G1 X90.026 Y67.026 E.00131
G1 X89.671 Y67.122 E.00249
G3 X86.928 Y67.292 I-5.708 J-69.69 E.01859
G1 X86.249 Y67.357 E.00462
G1 X86.112 Y67.419 E.00102
G1 X86.032 Y67.568 E.00114
G1 X85.647 Y70.145 E.01763
