; HEADER_BLOCK_START
; generated by OrcaSlicer 1.6.6 on 2023-08-31 at 16:22:22
; total layer number: 24
; HEADER_BLOCK_END

; THUMBNAIL_BLOCK_START
; THUMBNAIL_BLOCK_END

; external perimeters extrusion width = 0.15mm
; perimeters extrusion width = 0.17mm
; infill extrusion width = 0.24mm
; solid infill extrusion width = 0.21mm
; top infill extrusion width = 0.15mm
; first layer extrusion width = 0.19mm

; EXECUTABLE_BLOCK_START
EXCLUDE_OBJECT_DEFINE NAME=asf.stl_id_0_copy_0 CENTER=60.0002,60 POLYGON=[[37.8622,66.6579],[37.8682,66.4959],[40.2942,47.31],[40.3982,46.686],[40.6662,46.06],[47.4782,33.082],[48.2182,32.15],[49.1242,31.382],[50.1742,30.8],[50.6242,30.616],[51.0902,30.474],[51.5662,30.372],[52.2422,30.29],[52.4162,30.27],[52.9062,30.232],[53.3302,30.208],[53.5542,30.2],[66.1222,30],[67.1402,30.012],[68.1162,30.082],[69.0362,30.202],[69.5782,30.294],[70.1142,30.428],[70.6402,30.596],[71.2922,30.866],[72.0902,31.354],[72.7742,31.97],[73.3402,32.71],[79.9802,45.374],[80.3462,46.68],[82.1382,66.6499],[82.1302,66.7839],[82.0742,66.9959],[75.9342,83.944],[75.7362,84.374],[75.5042,84.732],[75.2302,85.032],[74.9082,85.286],[74.5302,85.504],[74.1742,85.664],[73.8162,85.774],[57.0822,88.876],[56.7182,88.938],[48.9562,89.68],[47.7262,89.78],[46.4442,89.874],[45.9062,89.912],[45.3722,89.944],[44.8342,89.968],[44.1962,89.992],[43.8802,90],[43.5622,89.998],[43.2442,89.99],[42.9062,89.966],[42.6462,89.926],[42.1222,89.768],[41.5522,89.516],[41.2242,89.348],[40.9222,89.142],[40.6282,88.918],[40.3302,88.542],[40.2462,88.144],[37.8882,66.9239],[37.8622,66.6579]]
M73 P0 R42
M73 C27
;TYPE:Custom
START_PRINT T_BED=60 T_EXTRUDER=220
G90
G21
M83 ; use relative distances for extrusion
; filament start gcode

    PRESSURE_ADVANCE_SELECT FILAMENT=PLA
M106 S0
;LAYER_CHANGE
;Z:0.1
;HEIGHT:0.1
;BEFORE_LAYER_CHANGE
;0.1
G92 E0

;AFTER_LAYER_CHANGE
;0.1
SET_VELOCITY_LIMIT ACCEL=500 ACCEL_TO_DECEL=250
SET_VELOCITY_LIMIT SQUARE_CORNER_VELOCITY=9
G1 E-.8 F3000
G1 Z.2 F21000
G1 X45.413 Y31.998
G1 Z.2
G1 Z.1
G1 E.8 F1800
;TYPE:Skirt
;WIDTH:0.1875
G1 F3000
G1 X46.71 Y30.371 E.01408
G1 X47.994 Y29.342 E.01113
G1 X49.044 Y28.76 E.00812
G1 X49.944 Y28.385 E.0066
G1 X51.078 Y28.092 E.00792
G1 X52.659 Y27.912 E.01077
G1 X67.083 Y27.679 E.09759
G1 X68.418 Y27.769 E.00905
G1 X69.968 Y27.995 E.0106
G1 X71.532 Y28.441 E.011
G1 X72.509 Y28.876 E.00723
G1 X73.307 Y29.364 E.00633
G1 X74.627 Y30.553 E.01202
G1 X75.406 Y31.627 E.00898
G1 X82.046 Y44.291 E.09673
G1 X82.592 Y46.051 E.01246
G1 X84.458 Y66.923 E.14177
G1 X84.267 Y67.79 E.00601
G1 X78.127 Y84.738 E.12195
G1 X77.461 Y86 E.00965
G1 X76.675 Y86.863 E.0079
G1 X75.486 Y87.631 E.00957
G1 X74.241 Y88.067 E.00892
G1 X56.94 Y91.259 E.11902
G1 X49.145 Y92.004 E.05297
G1 X44.922 Y92.298 E.02864
G1 X42.741 Y92.292 E.01475
G1 X41.973 Y92.159 E.00527
G1 X41.179 Y91.901 E.00565
G1 X40.161 Y91.424 E.00761
G1 X39.215 Y90.773 E.00777
G1 X38.503 Y89.991 E.00716
G1 X38.048 Y89.024 E.00723
G1 X35.541 Y66.885 E.15073
G1 X35.555 Y66.203 E.00461
G1 X37.981 Y47.017 E.13083
G1 X38.254 Y45.768 E.00865
G1 X38.601 Y44.976 E.00585
G1 X45.406 Y32.011 E.09906
G1 X45.553 Y32.089 F21000
G1 F3000
G1 X45.56 Y32.075 E.0001
G1 X46.818 Y30.498 E.01365
G1 X48.074 Y29.488 E.01091
G1 X49.124 Y28.906 E.00812
G1 X49.993 Y28.544 E.00637
G1 X51.112 Y28.254 E.00782
G1 X52.673 Y28.078 E.01063
G1 X67.081 Y27.845 E.09748
G1 X68.396 Y27.934 E.00892
G1 X69.941 Y28.158 E.01056
G1 X71.469 Y28.595 E.01075
G1 X72.422 Y29.018 E.00706
G1 X73.22 Y29.506 E.00633
G1 X74.495 Y30.654 E.0116
G1 X75.259 Y31.704 E.00878
G1 X81.899 Y44.368 E.09673
G1 X82.432 Y46.095 E.01223
G1 X84.292 Y66.913 E.14139
G1 X84.111 Y67.734 E.00569
G1 X77.971 Y84.682 E.12195
G1 X77.322 Y85.91 E.0094
G1 X76.572 Y86.733 E.00753
G1 X75.418 Y87.48 E.0093
G1 X74.211 Y87.904 E.00866
G1 X56.924 Y91.094 E.11892
G1 X49.132 Y91.839 E.05296
G1 X44.931 Y92.132 E.02849
G1 X42.753 Y92.127 E.01473
G1 X42.021 Y92 E.00502
G1 X41.246 Y91.749 E.00551
G1 X40.237 Y91.276 E.00754
G1 X39.316 Y90.641 E.00757
G1 X38.633 Y89.887 E.00688
G1 X38.211 Y88.989 E.00671
G1 X35.706 Y66.869 E.1506
G1 X35.719 Y66.224 E.00436
G1 X38.145 Y47.038 E.13083
G1 X38.407 Y45.834 E.00834
G1 X38.748 Y45.053 E.00576
G1 X45.546 Y32.102 E.09895
; printing object asf.stl id:0 copy 0
G1 E-.8
EXCLUDE_OBJECT_START NAME=asf.stl_id_0_copy_0
G1 Z.3 F21000
G1 X74.548 Y56.096 Z.3
G1 Z.1
G1 E.8 F1800
;TYPE:Outer wall
;WIDTH:0.187499
G1 F3000
G1 X74.584 Y56.19 E.00069
G1 X75.13 Y56.519 E.00431
G1 X76.273 Y57.106 E.0087
G1 X76.93 Y57.534 E.0053
G1 X77.152 Y57.794 E.00231
G1 X77.248 Y58.183 E.00271
G3 X77.479 Y60.94 I-357.947 J31.445 E.01871
G1 X77.614 Y62.035 E.00747
G1 X77.726 Y62.215 E.00144
G1 X77.919 Y62.305 E.00144
G1 X78.294 Y62.308 E.00254
G1 X79.307 Y62.129 E.00696
G1 X80.058 Y62.103 E.00509
G1 X80.354 Y62.196 E.0021
G1 X80.453 Y62.285 E.0009
G1 X80.459 Y62.673 E.00263
G1 X80.376 Y62.861 E.00139
G3 X79.396 Y63.234 I-2.015 J-3.825 E.00711
G1 X78.556 Y63.466 E.00589
G2 X77.913 Y63.801 I.45 J1.648 E.00495
G1 X77.771 Y64.034 E.00184
G1 X77.739 Y64.68 E.00438
G1 X77.811 Y65.298 E.00421
G1 X77.945 Y65.685 E.00277
G1 X78.14 Y65.874 E.00184
G1 X78.673 Y65.944 E.00364
G3 X81.312 Y66.038 I-4.205 J155.375 E.01787
G1 X81.73 Y66.136 E.0029
G1 X81.895 Y66.281 E.00148
G1 X82.029 Y66.54 E.00197
G1 X82.033 Y66.67 E.00088
G1 X82.016 Y66.849 E.00121
G1 X81.902 Y67.091 E.00181
G1 X81.693 Y67.225 E.00168
G1 X81.362 Y67.287 E.00228
G3 X78.608 Y67.458 I-5.737 J-69.999 E.01867
G1 X77.939 Y67.522 E.00455
G1 X77.867 Y67.592 E.00068
G1 X77.385 Y70.817 E.02206
G2 X77.191 Y73.976 I16.743 J2.618 E.02144
G3 X77.894 Y75.679 I-17.937 J8.407 E.01247
G3 X77.982 Y76.988 I-9.201 J1.274 E.00889
G2 X77.006 Y79.183 I29.31 J14.348 E.01626
G2 X76.532 Y80.812 I14.172 J5.004 E.01148
G1 X76.179 Y82.704 E.01302
G3 X75.654 Y84.329 I-6.849 J-1.315 E.01158
G1 X75.288 Y84.83 E.0042
G1 X74.857 Y85.207 E.00387
G1 X74.141 Y85.576 E.00545
G1 X73.426 Y85.746 E.00498
G1 X72.529 Y85.732 E.00607
G3 X71.267 Y85.528 I1.423 J-12.802 E.00866
G2 X68.343 Y84.954 I-8.939 J37.818 E.02016
G1 X67.821 Y84.944 E.00353
G1 X67.429 Y85.059 E.00276
G1 X66.979 Y85.406 E.00384
G1 X66.286 Y86.159 E.00692
G1 X65.813 Y86.584 E.0043
G1 X65.166 Y86.951 E.00503
G3 X63.094 Y87.241 I-1.621 J-4.039 E.0143
G1 X62.608 Y87.14 E.00335
G1 X62.018 Y86.895 E.00433
G1 X61.505 Y86.569 E.00411
G1 X61.049 Y86.152 E.00418
G3 X60.286 Y85.167 I20.492 J-16.669 E.00843
G1 X59.824 Y84.695 E.00447
G1 X59.383 Y84.494 E.00328
G1 X58.948 Y84.405 E.003
G1 X58.881 Y84.485 E.00071
G3 X58.845 Y86.542 I-234.265 J-3.025 E.01392
G1 X58.759 Y87.145 E.00412
G1 X58.517 Y87.697 E.00408
G1 X58.26 Y88.06 E.00301
G1 X57.881 Y88.394 E.00342
G1 X57.38 Y88.679 E.0039
G1 X56.759 Y88.836 E.00434
G1 X56.237 Y88.832 E.00353
G1 X55.642 Y88.692 E.00414
G1 X55.117 Y88.4 E.00406
G1 X54.781 Y88.11 E.00301
G1 X54.48 Y87.703 E.00342
G1 X54.242 Y87.175 E.00392
G1 X54.146 Y86.549 E.00428
G2 X54.273 Y83.878 I-225.054 J-12.036 E.01809
G1 X54.196 Y83.819 E.00066
G1 X53.423 Y83.792 E.00524
G1 X52.902 Y83.833 E.00353
G2 X51.81 Y84.169 I2.45 J9.912 E.00773
G3 X48.542 Y85.321 I-28.464 J-75.559 E.02344
G1 X47.924 Y85.481 E.00432
G1 X47.137 Y85.51 E.00533
G1 X47.062 Y85.64 E.00101
G1 X47.085 Y85.729 E.00062
G1 X47.547 Y86.146 E.00421
G3 X48.129 Y87.094 I-4.029 J3.127 E.00754
G3 X50.028 Y88.995 I-14.065 J15.937 E.01819
G1 X50.259 Y89.358 E.00291
G1 X50.188 Y89.411 E.0006
G3 X48.948 Y89.587 I-1.919 J-9.111 E.00848
G3 X43.879 Y89.906 I-9.221 J-105.887 E.03436
G3 X42.665 Y89.834 I-.209 J-6.701 E.00824
G1 X42.036 Y89.627 E.00448
G3 X40.797 Y88.929 I2.396 J-5.697 E.00964
G1 X40.417 Y88.501 E.00387
G1 X40.343 Y88.147 E.00245
G3 X40.89 Y86.943 I3.905 J1.05 E.00899
G2 X41.379 Y86.052 I-5.384 J-3.533 E.00688
G1 X41.524 Y85.538 E.00361
G1 X41.614 Y84.733 E.00548
G2 X41.692 Y78.239 I-163.855 J-5.213 E.04393
G2 X41.575 Y76.928 I-9.148 J.155 E.00891
G2 X41.064 Y75.339 I-8.252 J1.777 E.01131
G3 X40.771 Y73.465 I4.828 J-1.715 E.0129
G1 X40.826 Y72.245 E.00826
G3 X40.888 Y68.036 I136.615 J-.091 E.02848
G1 X40.828 Y67.954 E.00069
G2 X39.09 Y67.609 I-2.809 J9.583 E.012
G1 X38.609 Y67.482 E.00337
G1 X38.211 Y67.295 E.00298
G1 X38.039 Y67.097 E.00177
G3 X37.974 Y66.441 I1.708 J-.502 E.00448
G1 X38.294 Y66.049 E.00343
G2 X41.717 Y66.107 I4.227 J-146.252 E.02316
G1 X42.291 Y66.065 E.0039
G1 X42.406 Y65.947 E.00111
G1 X42.434 Y65.744 E.00139
G2 X42.434 Y63.962 I-11.324 J-.886 E.01207
G1 X42.372 Y63.774 E.00134
G1 X42.082 Y63.48 E.0028
G1 X41.247 Y63.024 E.00643
G1 X40.836 Y62.738 E.00339
G1 X40.566 Y62.445 E.0027
G1 X40.539 Y62.309 E.00093
G1 X40.766 Y62.141 E.00191
G1 X41.021 Y62.07 E.00179
G3 X42.09 Y62.161 I-.652 J13.983 E.00726
G1 X42.295 Y62.065 E.00153
G1 X42.399 Y61.848 E.00163
G2 X42.601 Y59.151 I-63.872 J-6.13 E.0183
G1 X42.691 Y58.528 E.00426
G1 X42.825 Y58.353 E.00149
G1 X43.684 Y57.911 E.00654
G2 X45.115 Y57.313 I-168.755 J-406.129 E.01049
G1 X45.833 Y56.94 E.00547
G2 X46.036 Y56.681 I-.24 J-.397 E.00228
G1 X45.908 Y56.348 E.00241
G1 X45.334 Y55.675 E.00598
G3 X42.211 Y52.354 I72.1 J-70.941 E.03084
G1 X41.565 Y51.49 E.0073
G3 X40.745 Y49.841 I7.745 J-4.874 E.01248
G1 X40.524 Y48.994 E.00592
G1 X40.4 Y48.115 E.006
G1 X40.388 Y47.317 E.0054
G1 X40.489 Y46.713 E.00415
G3 X41.57 Y44.681 I11.084 J4.594 E.01559
G1 X41.941 Y44.189 E.00417
G1 X42.579 Y43.706 E.00541
G3 X44.163 Y43.103 I4.872 J10.421 E.01147
G2 X45.165 Y42.722 I-4.435 J-13.173 E.00726
G1 X45.725 Y42.407 E.00435
G1 X46.077 Y42.085 E.00323
G1 X46.231 Y41.678 E.00294
G2 X46.38 Y39.812 I-23.063 J-2.772 E.01267
G3 X46.582 Y36.035 I134.786 J5.31 E.02559
G3 X47.017 Y34.185 I6.668 J.592 E.0129
G1 X47.557 Y33.133 E.008
G1 X48.286 Y32.216 E.00793
G1 X49.178 Y31.459 E.00791
G1 X50.213 Y30.886 E.00801
G3 X51.582 Y30.465 I3.238 J8.09 E.0097
G3 X54.881 Y30.288 I2.778 J20.967 E.02237
G3 X57.648 Y30.401 I-.737 J51.693 E.01874
G1 X58.424 Y30.49 E.00528
G3 X59.417 Y30.954 I-1.298 J4.071 E.00744
G1 X60.025 Y31.285 E.00468
G1 X60.492 Y31.347 E.00319
G2 X61.319 Y31.158 I-.167 J-2.623 E.00576
G3 X62.73 Y30.538 I10.443 J21.863 E.01043
G1 X63.468 Y30.32 E.0052
G3 X69.559 Y30.386 I2.855 J17.672 E.04141
G3 X71.25 Y30.95 I-1.89 J8.48 E.01208
G1 X72.034 Y31.429 E.00622
G1 X72.705 Y32.034 E.00611
G1 X73.261 Y32.76 E.00619
G1 X73.628 Y33.474 E.00543
G1 X73.851 Y34.073 E.00432
G3 X74.023 Y36.008 I-14.585 J2.27 E.01315
G2 X74.185 Y40.611 I162.659 J-3.423 E.03116
G2 X74.408 Y41.374 I2.594 J-.345 E.0054
G1 X74.769 Y41.927 E.00446
G2 X75.793 Y42.545 I1.584 J-1.466 E.00821
G3 X77.372 Y42.945 I-2.099 J11.607 E.01103
G1 X78.133 Y43.364 E.00588
G1 X78.854 Y43.961 E.00633
G1 X79.465 Y44.669 E.00632
G1 X79.893 Y45.411 E.00579
G1 X80.253 Y46.695 E.00902
G1 X80.312 Y48.098 E.0095
G1 X80.119 Y49.256 E.00794
G1 X79.889 Y50.071 E.00573
G1 X79.49 Y50.814 E.0057
G3 X78.218 Y52.276 I-12.585 J-9.665 E.01312
G3 X74.994 Y55.581 I-319.501 J-308.336 E.03124
G1 X74.558 Y56.084 E.00451
G1 X74.401 Y56.069 F21000
;TYPE:Inner wall
G1 F3000
G1 X74.388 Y56.19 E.00082
G1 X74.499 Y56.333 E.00122
G1 X75.054 Y56.667 E.00439
G1 X76.189 Y57.249 E.00863
G1 X76.827 Y57.665 E.00515
G1 X76.998 Y57.865 E.00178
G1 X77.092 Y58.305 E.00304
G3 X77.314 Y60.957 I-395.383 J34.363 E.018
G1 X77.45 Y62.061 E.00753
G1 X77.616 Y62.342 E.00221
G1 X77.883 Y62.469 E.002
G1 X78.323 Y62.472 E.00297
G1 X79.322 Y62.294 E.00686
G1 X80.05 Y62.269 E.00493
G1 X80.291 Y62.352 E.00173
G3 X80.279 Y62.698 I-.613 J.151 E.00237
G3 X79.349 Y63.075 I-1.608 J-2.637 E.00681
G1 X78.512 Y63.306 E.00587
G1 X78.08 Y63.473 E.00313
G1 X77.755 Y63.732 E.00282
G1 X77.605 Y64.025 E.00223
G1 X77.574 Y64.699 E.00456
G1 X77.646 Y65.317 E.00421
G1 X77.788 Y65.74 E.00302
G1 X77.971 Y65.964 E.00195
G1 X78.118 Y66.039 E.00112
G1 X78.667 Y66.11 E.00375
G3 X81.304 Y66.203 I-4.2 J155.215 E.01785
G1 X81.65 Y66.286 E.0024
G1 X81.808 Y66.473 E.00165
G1 X81.867 Y66.675 E.00143
G1 X81.834 Y66.89 E.00147
G1 X81.696 Y67.026 E.00131
G1 X81.341 Y67.122 E.00249
G3 X78.599 Y67.292 I-5.708 J-69.69 E.01859
G1 X77.919 Y67.357 E.00462
G1 X77.782 Y67.419 E.00102
G1 X77.702 Y67.568 E.00114
G1 X77.318 Y70.145 E.01763
G2 X77.026 Y72.729 I27.298 J4.386 E.0176
G2 X77.039 Y74.042 I22.163 J.451 E.00889
G3 X77.731 Y75.714 I-17.932 J8.404 E.01225
G3 X77.815 Y76.954 I-8.705 J1.211 E.00841
G2 X76.949 Y78.845 I46.448 J22.393 E.01407
G1 X76.629 Y79.75 E.00649
G2 X76.122 Y82.102 I22.518 J6.085 E.01629
G1 X75.916 Y83.105 E.00693
G3 X75.508 Y84.248 I-5.047 J-1.155 E.00823
G1 X75.165 Y84.718 E.00393
G1 X74.767 Y85.067 E.00358
G1 X74.083 Y85.419 E.0052
G1 X73.408 Y85.58 E.0047
G1 X72.542 Y85.566 E.00586
G3 X71.299 Y85.365 I1.403 J-12.599 E.00852
G2 X68.346 Y84.788 I-8.644 J36.398 E.02036
G1 X67.811 Y84.778 E.00362
G1 X67.327 Y84.927 E.00342
G1 X66.857 Y85.294 E.00403
G1 X66.17 Y86.041 E.00687
G1 X65.715 Y86.448 E.00413
G1 X65.098 Y86.798 E.0048
G1 X64.438 Y87.002 E.00467
G3 X62.657 Y86.981 I-.838 J-4.446 E.01213
G1 X62.095 Y86.747 E.00412
G1 X61.607 Y86.437 E.00391
G1 X61.171 Y86.038 E.004
G3 X60.404 Y85.051 I23.045 J-18.678 E.00846
G1 X59.892 Y84.539 E.0049
G1 X59.43 Y84.334 E.00342
G1 X58.939 Y84.239 E.00338
G1 X58.772 Y84.327 E.00127
G1 X58.715 Y84.482 E.00112
G1 X58.695 Y85.753 E.0086
;WIDTH:0.191833
G1 X58.677 Y86.535 E.00543
;WIDTH:0.197246
G1 X58.598 Y87.087 E.00399
G1 X58.37 Y87.617 E.00413
;WIDTH:0.193954
G1 X58.138 Y87.941 E.0028
G1 X57.783 Y88.258 E.00334
;WIDTH:0.196396
G1 X57.327 Y88.517 E.00374
G1 X56.736 Y88.669 E.00435
;WIDTH:0.192806
G1 X56.259 Y88.666 E.00333
;WIDTH:0.1973
G1 X55.714 Y88.537 E.00401
G1 X55.211 Y88.261 E.00411
;WIDTH:0.191676
G1 X54.86 Y87.941 E.0033
;WIDTH:0.197058
G1 X54.529 Y87.444 E.00427
G1 X54.359 Y86.932 E.00386
;WIDTH:0.193006
G1 X54.314 Y86.462 E.0033
G1 X54.354 Y85.752 E.00497
;WIDTH:0.187499
G2 X54.442 Y83.897 I-982.784 J-47.72 E.01257
G1 X54.363 Y83.72 E.00131
G1 X54.202 Y83.653 E.00118
G1 X53.41 Y83.627 E.00536
G1 X52.857 Y83.674 E.00376
G2 X51.752 Y84.014 I2.499 J10.089 E.00782
G3 X48.49 Y85.163 I-28.419 J-75.438 E.02341
G1 X47.903 Y85.315 E.0041
G1 X47.119 Y85.343 E.0053
G1 X46.971 Y85.437 E.00119
G1 X46.892 Y85.683 E.00175
G1 X46.974 Y85.853 E.00127
G1 X47.422 Y86.257 E.00408
G3 X48.021 Y87.219 I-4.821 J3.666 E.00768
G3 X49.624 Y88.797 I-12.546 J14.352 E.01522
G1 X50.024 Y89.271 E.0042
G3 X47.714 Y89.52 I-3.778 J-24.16 E.01573
G3 X43.878 Y89.74 I-5.9 J-69.375 E.026
G3 X42.698 Y89.67 I-.207 J-6.51 E.00801
G1 X42.103 Y89.476 E.00424
G3 X40.914 Y88.809 I2.348 J-5.585 E.00924
G1 X40.572 Y88.429 E.00346
G1 X40.513 Y88.152 E.00191
G3 X40.737 Y87.55 I2.063 J.424 E.00436
G2 X41.537 Y86.104 I-19.083 J-11.491 E.01118
G1 X41.689 Y85.556 E.00384
G1 X41.78 Y84.737 E.00558
G2 X41.858 Y78.23 I-163.708 J-5.209 E.04402
G2 X41.515 Y76.064 I-7.378 J.058 E.01489
G3 X41.065 Y74.79 I11.121 J-4.639 E.00914
G1 X40.959 Y74.208 E.004
G3 X40.992 Y72.244 I18.083 J-.678 E.0133
G3 X41.054 Y68.04 I136.352 J-.093 E.02845
G1 X41.003 Y67.884 E.00111
G1 X40.873 Y67.795 E.00107
G2 X39.116 Y67.445 I-2.861 J9.786 E.01213
G1 X38.653 Y67.322 E.00324
G1 X38.384 Y67.197 E.00201
G1 X38.194 Y67.022 E.00174
G3 X38.136 Y66.498 I2.381 J-.532 E.00357
G1 X38.361 Y66.216 E.00244
G2 X41.729 Y66.273 I4.022 J-138.604 E.02279
G1 X42.303 Y66.23 E.0039
G1 X42.441 Y66.176 E.001
G1 X42.545 Y66.037 E.00117
G1 X42.6 Y65.759 E.00192
G2 X42.599 Y63.95 I-11.539 J-.901 E.01225
G1 X42.52 Y63.697 E.00179
G1 X42.162 Y63.334 E.00345
G1 X41.35 Y62.891 E.00625
G1 X40.931 Y62.602 E.00345
G1 X40.717 Y62.368 E.00214
G3 X41.031 Y62.237 I.358 J.419 E.00234
G3 X42.071 Y62.326 I-.633 J13.524 E.00706
G1 X42.201 Y62.306 E.00089
G1 X42.437 Y62.162 E.00187
G1 X42.565 Y61.864 E.00219
G2 X42.761 Y59.209 I-33.855 J-3.84 E.01802
G1 X42.834 Y58.617 E.00404
G1 X42.921 Y58.49 E.00104
G1 X43.754 Y58.062 E.00633
G2 X45.191 Y57.461 I-60.991 J-147.921 E.01054
G1 X45.909 Y57.088 E.00547
G1 X46.125 Y56.884 E.00201
G1 X46.206 Y56.636 E.00176
G1 X46.035 Y56.24 E.00292
G1 X45.454 Y55.561 E.00605
G3 X42.339 Y52.249 I72.05 J-70.893 E.03076
G1 X41.703 Y51.398 E.00719
G3 X40.904 Y49.789 I7.575 J-4.766 E.01218
G1 X40.687 Y48.961 E.00579
G1 X40.566 Y48.102 E.00587
G1 X40.554 Y47.33 E.00522
