; generated by SuperSlicer 2.5.59 on 2023-02-17 at 02:22:26 UTC


;
;

;
;
; 

; external perimeters extrusion width = 0.40mm
; perimeters extrusion width = 0.46mm
; infill extrusion width = 0.64mm
; solid infill extrusion width = 0.56mm
; top infill extrusion width = 0.40mm
; first layer extrusion width = 0.50mm

; object:{"name":"Baby Yoda Bookmark","id":"Baby Yoda Bookmark.stl id:0 copy 0","object_center":[59.999897,60.001929,0.000000],"boundingbox_center":[59.999897,60.001929,2.249500],"boundingbox_size":[62.305000,62.743004,4.499000]}
; plater:{"center":[59.999897,60.001929,0.000000],"boundingbox_center":[59.999897,60.001929,2.249500],"boundingbox_size":[62.305000,62.743004,4.499000]}

M73 P0 R28
;TYPE:Custom
; custom gcode: start_gcode
START_PRINT T_BED=60 T_EXTRUDER=200
; custom gcode end: start_gcode
M107
G21 ; set units to millimeters
G90 ; use absolute coordinates
M82 ; use absolute distances for extrusion
G92 E0
; custom gcode: start_filament_gcode
; Filament gcode

    PRESSURE_ADVANCE_SELECT FILAMENT=PLA
; custom gcode end: start_filament_gcode
;_TOOLCHANGE 0
M104 S200 ; set temperature
M109 S200 ; set temperature and wait for it to be reached
M190 S60 ; set bed temperature and wait for it to be reached
;LAYER_CHANGE
;Z:0.1
;HEIGHT:0.1
G1 Z0.1 F12000
M73 P0 R28
G1 E-0.8 F3000
M204 S2000
G1 X53.399 Y31.862 F12000
G1 E0 F1800
;TYPE:Skirt
;WIDTH:0.52
G1 X50.114 Y37.366 E0.12754
G1 X25.831 Y85.123 E1.19358
G1 X25.38 Y86.204 E1.21689
G1 X25.213 Y87.11 E1.23521
G1 X25.345 Y88.46 E1.2622
G1 X25.91 Y89.712 E1.28954
G1 X26.657 Y90.533 E1.31162
G1 X27.607 Y91.134 E1.33399
G1 X28.953 Y91.494 E1.36173
G1 X58.562 Y94.948 E1.95487
G1 X61.864 Y95.056 E2.0206
G1 X62.586 Y95.005 E2.03502
G1 X91.677 Y90.084 E2.62208
G1 X93.409 Y89.181 E2.66094
G1 X94.314 Y88.032 E2.69003
G1 X94.631 Y87.224 E2.7073
G1 X94.791 Y86.076 E2.73038
G1 X94.368 Y84.17 E2.76921
G1 X70.152 Y37.839 E3.80944
G1 X63.781 Y27.132 E4.05735
G1 X63.271 Y26.463 E4.07409
G1 X61.907 Y25.433 E4.1081
G1 X60.278 Y25.008 E4.14159
G1 X59.98 Y25 E4.14753
G1 X58.361 Y25.31 E4.18032
G1 X57.112 Y26.096 E4.20969
G1 X56.855 Y26.34 E4.21674
G1 X56.218 Y27.137 E4.23704
G1 X53.399 Y31.862 E4.34652
G1 X53.827 Y32.117 F12000
G1 F1800
G1 X50.542 Y37.622 E4.47406
G1 X26.307 Y85.284 E5.53799
M73 P1 R28
G1 X25.861 Y86.334 E5.56069
G1 X25.71 Y87.142 E5.57704
G1 X25.829 Y88.341 E5.60102
G1 X26.324 Y89.434 E5.62489
G1 X26.984 Y90.156 E5.64436
G1 X27.807 Y90.678 E5.66376
G1 X29.011 Y90.999 E5.68854
G1 X58.62 Y94.452 E6.28169
M73 P1 R28
G1 X61.877 Y94.557 E6.34653
G1 X62.504 Y94.513 E6.35903
G1 X91.291 Y89.657 E6.93994
G1 X91.676 Y89.57 E6.94778
G1 X93.071 Y88.814 E6.97936
G1 X93.873 Y87.798 E7.00511
G1 X94.153 Y87.084 E7.02037
G1 X94.293 Y86.053 E7.04107
G1 X93.927 Y84.401 E7.07474
G1 X69.71 Y38.07 E8.11496
G1 X63.353 Y27.388 E8.3623
G1 X62.729 Y26.618 E8.38201
G1 X61.889 Y25.987 E8.40294
G1 X60.264 Y25.507 E8.43665
G1 X59.965 Y25.498 E8.44259
G1 X58.538 Y25.776 E8.47152
G1 X57.455 Y26.458 E8.49699
G1 X57.198 Y26.702 E8.50403
G1 X56.646 Y27.393 E8.52163
G1 X53.827 Y32.117 E8.63111
G92 E0
G1 E-0.8 F3000
; printing object Baby Yoda Bookmark.stl id:0 copy 0
; acceleration to travel
M204 S4000
G1 X53.697 Y57.326 F12000
; decel to extrusion
M204 S2000
G1 X53.632 Y69.93
; end travel
G1 E0 F1800
;TYPE:Internal perimeter
;WIDTH:0.5
G1 X55.642 Y69.775 E0.0385
G1 X58.254 Y69.732 E0.0884
G1 X58.265 Y43.618 E0.58718
G1 X59.98 Y40.705 E0.65174
G1 X61.696 Y43.617 E0.71629
G1 X61.696 Y70.402 E1.22787
G1 X66.272 Y70.267 E1.31531
G1 X67.709 Y71.022 E1.34631
G1 X68.301 Y71.387 E1.3596
G1 X68.859 Y71.784 E1.37268
G1 X69.065 Y71.953 E1.37777
G1 X69.527 Y72.401 E1.39007
G1 X70.933 Y74.065 E1.43167
G1 X71.963 Y74.266 E1.45172
G1 X72.655 Y74.179 E1.46503
G1 X72.837 Y74.13 E1.46864
G1 X74.4 Y73.864 E1.49892
G1 X75.12 Y73.788 E1.51274
G1 X75.754 Y73.797 E1.52485
G1 X76.409 Y73.873 E1.53745
G1 X77.064 Y73.987 E1.55014
G1 X77.697 Y74.136 E1.56255
G1 X78.312 Y74.322 E1.57484
G1 X78.912 Y74.545 E1.58706
G1 X79.494 Y74.807 E1.59925
G1 X80.063 Y75.108 E1.61154
G1 X80.622 Y75.453 E1.62409
G1 X81.171 Y75.839 E1.63692
G1 X81.517 Y76.107 E1.64527
G1 X82.854 Y77.398 E1.68077
G1 X84.244 Y79.092 E1.72261
G1 X84.896 Y79.826 E1.74137
G1 X87.518 Y83.7 E1.83072
G1 X86.182 Y83.369 E1.85702
G1 X85.166 Y83.154 E1.87684
G1 X84.14 Y82.978 E1.89673
G1 X83.104 Y82.841 E1.9167
G1 X82.057 Y82.744 E1.93678
G1 X80.987 Y82.69 E1.95723
G1 X80.055 Y82.694 E1.97505
G1 X79.124 Y82.765 E1.99288
G1 X78.212 Y82.897 E2.01047
G1 X77.32 Y83.086 E2.0279
G1 X76.447 Y83.33 E2.0452
G1 X75.597 Y83.622 E2.06238
G1 X74.771 Y83.955 E2.07938
G1 X73.678 Y84.443 E2.10224
G1 X73.382 Y84.512 E2.10804
G1 X73.17 Y84.524 E2.11209
G1 X72.918 Y84.495 E2.11695
G1 X72.835 Y84.385 E2.11958
G1 X72.601 Y83.985 E2.12842
G1 X72.038 Y83.463 E2.14308
G1 X71.136 Y83.183 E2.16111
G1 X70.258 Y83.359 E2.17823
G1 X69.647 Y83.769 E2.19227
G1 X69.126 Y84.418 E2.20818
G1 X68.579 Y84.954 E2.2228
G1 X67.976 Y85.465 E2.2379
G1 X67.339 Y85.926 E2.25292
G1 X66.668 Y86.344 E2.26801
G1 X65.964 Y86.722 E2.28327
G1 X65.236 Y87.056 E2.29857
G1 X63.48 Y87.723 E2.33446
G1 X63.11 Y87.911 E2.34238
G1 X61.564 Y88.212 E2.37246
G1 X61.117 Y88.416 E2.38184
G1 X59.978 Y88.433 E2.4036
G1 X59.407 Y88.582 E2.41487
G1 X58.52 Y88.305 E2.43262
G1 X56.241 Y87.941 E2.4767
G1 X55.305 Y87.725 E2.49503
G1 X54.412 Y87.453 E2.51287
G1 X53.569 Y87.122 E2.53017
G1 X52.759 Y86.722 E2.54743
G1 X52.416 Y86.522 E2.55502
G1 X51.669 Y86.01 E2.57231
G1 X51.351 Y85.756 E2.58008
G1 X50.69 Y85.139 E2.59734
G1 X49.628 Y83.927 E2.62813
G1 X48.682 Y83.388 E2.64892
G1 X47.427 Y83.609 E2.67325
G1 X46.761 Y84.228 E2.69062
G1 X46.456 Y84.628 E2.70023
G1 X46.368 Y84.782 E2.70362
G1 X46.119 Y84.759 E2.7084
G1 X44.494 Y84.261 E2.74084
G1 X43.624 Y84.09 E2.75779
G1 X42.778 Y83.985 E2.77407
G1 X41.959 Y83.93 E2.78974
G1 X40.772 Y83.893 E2.81243
G1 X40.313 Y83.919 E2.8212
G1 X38.768 Y84.078 E2.85087
G1 X37.913 Y84.198 E2.86738
G1 X36.292 Y84.482 E2.89879
G1 X33.118 Y85.086 E2.96051
G1 X32.239 Y85.271 E2.97766
G1 X36.975 Y78.25 E3.13943
G1 X38.306 Y76.72 E3.17815
G1 X38.741 Y76.428 E3.18815
G1 X39.681 Y75.577 E3.21237
G1 X40.352 Y75.22 E3.22689
G1 X40.428 Y75.207 E3.22837
G1 X40.928 Y75.022 E3.23855
G1 X41.374 Y74.757 E3.24846
G1 X41.429 Y74.71 E3.24983
G1 X41.798 Y74.564 E3.25742
G1 X42.219 Y74.424 E3.2659
G1 X42.642 Y74.313 E3.27425
G1 X43.062 Y74.229 E3.28242
G1 X44.023 Y74.109 E3.30092
G1 X45.036 Y74.052 E3.3203
G1 X47.934 Y73.97 E3.37567
G1 X49.728 Y72.75 E3.4171
G1 X50.673 Y71.673 E3.44447
G1 X50.957 Y71.388 E3.45216
G1 X51.252 Y71.137 E3.45956
G1 X51.454 Y70.992 E3.4643
G1 X51.951 Y70.712 E3.4752
G1 X53.632 Y70.018 E3.50993
G1 X53.632 Y69.93 E3.51162
G1 X53.153 Y69.698 F12000
G1 F1800
G1 X53.154 Y44.636 E3.99028
G1 X53.225 Y43.44 E4.01316
G1 X53.325 Y42.887 E4.02389
G1 X53.673 Y42.919 E4.03058
G1 X53.673 Y69.447 E4.53725
G1 X55.619 Y69.297 E4.57453
G1 X57.776 Y69.262 E4.61572
G1 X57.786 Y43.487 E5.108
G1 X59.98 Y39.762 E5.19057
G1 X62.174 Y43.487 E5.27313
G1 X62.174 Y69.909 E5.77778
G1 X66.287 Y69.788 E5.85637
G1 X66.287 Y42.695 E6.37384
M73 P2 R28
G1 X66.636 Y42.663 E6.38053
G1 X66.778 Y43.452 E6.39584
G1 X66.848 Y44.637 E6.41851
G1 X66.848 Y70.029 E6.90349
G1 X67.946 Y70.606 E6.92717
G1 X68.566 Y70.988 E6.94108
G1 X69.15 Y71.403 E6.95477
G1 X69.384 Y71.595 E6.96056
G1 X69.878 Y72.074 E6.97369
G1 X71.19 Y73.627 E7.01252
G1 X71.98 Y73.781 E7.02789
G1 X72.563 Y73.708 E7.03911
G1 X72.735 Y73.662 E7.04253
G1 X74.335 Y73.39 E7.07352
G1 X75.098 Y73.309 E7.08818
G1 X75.433 Y73.301 E7.09457
G1 X75.785 Y73.319 E7.10131
G1 X76.478 Y73.4 E7.11463
G1 X77.16 Y73.518 E7.12785
G1 X77.821 Y73.673 E7.14082
G1 X78.465 Y73.869 E7.15368
G1 X79.093 Y74.102 E7.16648
G1 X79.704 Y74.377 E7.17927
G1 X80.301 Y74.692 E7.19216
G1 X80.886 Y75.053 E7.20528
G1 X81.456 Y75.454 E7.2186
G1 X81.831 Y75.745 E7.22766
G1 X83.207 Y77.073 E7.26419
G1 X84.608 Y78.781 E7.30638
G1 X85.275 Y79.532 E7.32556
G1 X88.445 Y84.216 E7.43359
G1 X88.283 Y84.434 E7.43879
G1 X88.045 Y84.359 E7.44355
G1 X87.065 Y84.081 E7.463
G1 X86.075 Y83.835 E7.48249
G1 X85.076 Y83.624 E7.50198
G1 X84.068 Y83.451 E7.52152
G1 X83.05 Y83.316 E7.54113
G1 X82.023 Y83.221 E7.56084
G1 X80.976 Y83.168 E7.58085
G1 X80.074 Y83.173 E7.59809
G1 X79.176 Y83.24 E7.61528
G1 X78.296 Y83.368 E7.63226
G1 X77.434 Y83.551 E7.6491
G1 X76.589 Y83.787 E7.66585
G1 X75.764 Y84.071 E7.68252
G1 X74.958 Y84.396 E7.69912
G1 X73.977 Y84.846 E7.71974
G1 X73.831 Y84.899 E7.7227
G1 X73.451 Y84.987 E7.73016
G1 X73.157 Y85.004 E7.73578
G1 X72.822 Y84.965 E7.74221
G1 X72.656 Y84.901 E7.74561
G1 X72.568 Y84.825 E7.74782
G1 X72.436 Y84.651 E7.752
G1 X72.224 Y84.288 E7.76004
G1 X71.792 Y83.888 E7.77127
G1 X71.111 Y83.676 E7.7849
G1 X70.445 Y83.81 E7.79787
G1 X69.974 Y84.125 E7.8087
G1 X69.481 Y84.74 E7.82374
G1 X68.902 Y85.308 E7.83925
G1 X68.271 Y85.842 E7.85503
G1 X67.606 Y86.323 E7.8707
G1 X66.908 Y86.759 E7.88642
G1 X66.177 Y87.15 E7.90225
G1 X65.421 Y87.497 E7.91814
G1 X63.673 Y88.162 E7.95386
G1 X63.032 Y88.486 E7.96759
G1 X62.954 Y88.429 E7.96943
G1 X61.711 Y88.671 E7.99363
G1 X61.053 Y88.97 E8.00743
G1 X60.927 Y88.897 E8.01023
G1 X60.043 Y88.911 E8.02711
G1 X59.317 Y89.101 E8.04144
G1 X59.267 Y89.04 E8.04294
G1 X58.41 Y88.772 E8.06009
G1 X56.149 Y88.411 E8.10382
G1 X55.182 Y88.188 E8.12278
G1 X54.255 Y87.905 E8.14129
G1 X53.375 Y87.56 E8.15933
G1 X52.532 Y87.144 E8.1773
G1 X52.159 Y86.926 E8.18554
G1 X51.384 Y86.395 E8.20349
G1 X51.038 Y86.119 E8.21194
G1 X50.346 Y85.473 E8.23002
G1 X50.021 Y85.12 E8.23919
G1 X49.321 Y84.303 E8.25974
G1 X48.595 Y83.889 E8.27569
G1 X47.65 Y84.056 E8.29403
G1 X47.117 Y84.551 E8.30792
G1 X46.855 Y84.893 E8.31614
G1 X46.632 Y85.286 E8.32478
G1 X46.133 Y85.253 E8.33433
G1 X46.026 Y85.232 E8.33641
G1 X44.378 Y84.726 E8.36934
G1 X43.548 Y84.563 E8.38549
G1 X42.732 Y84.462 E8.40119
G1 X41.936 Y84.408 E8.41644
G1 X40.778 Y84.372 E8.43856
G1 X40.351 Y84.396 E8.44673
G1 X38.826 Y84.553 E8.47601
G1 X37.987 Y84.671 E8.49219
G1 X36.378 Y84.953 E8.52338
G1 X33.212 Y85.556 E8.58495
G1 X32.216 Y85.765 E8.60438
G1 X31.138 Y86.048 E8.62567
G1 X36.595 Y77.958 E8.81205
G1 X37.986 Y76.358 E8.85254
G1 X38.445 Y76.05 E8.8631
G1 X39.404 Y75.183 E8.88778
G1 X40.196 Y74.761 E8.90493
G1 X40.305 Y74.742 E8.90704
G1 X40.721 Y74.589 E8.91552
G1 X41.095 Y74.366 E8.92382
G1 X41.179 Y74.294 E8.92594
G1 X41.635 Y74.114 E8.93529
G1 X42.083 Y73.965 E8.94432
G1 X42.535 Y73.847 E8.95324
G1 X42.985 Y73.756 E8.96201
G1 X43.98 Y73.632 E8.98115
G1 X45.016 Y73.573 E9.00097
G1 X47.78 Y73.495 E9.0538
G1 X49.408 Y72.389 E9.09139
G1 X50.323 Y71.345 E9.1179
G1 X50.633 Y71.037 E9.12625
G1 X50.957 Y70.76 E9.13439
G1 X51.196 Y70.588 E9.14002
G1 X51.742 Y70.281 E9.15197
G1 X53.153 Y69.698 E9.18115
G92 E0
G1 E-0.8 F3000
; acceleration to travel
M204 S4000
G1 X56.928 Y45.492 F12000
; decel to extrusion
M204 S2000
G1 X58.815 Y33.389
; end travel
G1 E0 F1800
G1 X60.002 Y31.399 E0.04425
G1 X61.046 Y33.146 E0.08312
G1 X60.866 Y33.356 E0.0884
G1 X60.549 Y33.225 E0.09495
G1 X59.878 Y33.156 E0.10783
G1 X58.815 Y33.389 E0.12862
G92 E0
G1 E-0.8 F3000
; acceleration to travel
M204 S4000
G1 X55.516 Y39.155 F12000
; decel to extrusion
M204 S2000
G1 X53.866 Y42.038
; end travel
G1 E0 F1800
G1 X53.554 Y41.9 E0.00651
G1 X53.779 Y41.172 E0.02106
G1 X53.987 Y40.668 E0.03148
G1 X54.391 Y39.869 E0.04856
G1 X60.001 Y30.466 E0.2577
G1 X65.151 Y39.079 E0.44938
G1 X65.762 Y40.138 E0.47273
G1 X66.006 Y40.647 E0.48351
G1 X66.318 Y41.454 E0.50003
G1 X66.532 Y42.17 E0.5143
G1 X66.193 Y42.294 E0.52118
G1 X66.044 Y41.951 E0.52833
G1 X61.672 Y34.528 E0.69287
G1 X61.141 Y33.987 E0.70735
G1 X60.431 Y33.694 E0.72202
G1 X59.906 Y33.64 E0.7321
G1 X59.063 Y33.824 E0.74857
G1 X58.313 Y34.486 E0.76768
G1 X53.866 Y42.038 E0.93506
G92 E0
G1 E-0.8 F3000
; acceleration to travel
M204 S4000
G1 X54.057 Y59.966 F12000
; decel to extrusion
M204 S2000
G1 X54.152 Y68.93
; end travel
G1 E0 F1800
G1 X55.597 Y68.818 E0.02768
G1 X57.297 Y68.791 E0.06017
G1 X57.308 Y43.356 E0.54595
G1 X59.98 Y38.82 E0.64652
G1 X62.653 Y43.356 E0.74709
G1 X62.653 Y69.416 E1.24482
G1 X65.809 Y69.323 E1.30513
G1 X65.809 Y42.863 E1.81049
G1 X65.749 Y42.472 E1.81805
G1 X65.617 Y42.169 E1.82437
G1 X61.29 Y34.821 E1.98724
G1 X60.868 Y34.392 E1.99873
G1 X60.312 Y34.163 E2.01021
G1 X59.933 Y34.124 E2.01749
G1 X59.287 Y34.265 E2.03013
G1 X58.687 Y34.795 E2.04541
G1 X54.335 Y42.185 E2.20922
G1 X54.195 Y42.548 E2.21665
G1 X54.152 Y42.872 E2.22289
G1 X54.152 Y68.93 E2.72059
G1 X54.63 Y68.413 F12000
;TYPE:External perimeter
G1 F1800
G1 X55.575 Y68.34 E2.73868
G1 X56.819 Y68.32 E2.76245
G1 X56.829 Y43.226 E3.24173
G1 X59.623 Y38.483 E3.34688
G1 X59.682 Y38.408 E3.34869
G1 X59.862 Y38.3 E3.3527
G1 X60.103 Y38.299 E3.35731
G1 X60.228 Y38.369 E3.36005
G1 X60.345 Y38.495 E3.36333
G1 X63.131 Y43.226 E3.46819
G1 X63.131 Y68.923 E3.959
M73 P2 R27
G1 X65.33 Y68.858 E4.00102
G1 X65.33 Y42.9 E4.49682
G1 X65.286 Y42.607 E4.50249
G1 X65.19 Y42.387 E4.50706
G1 X60.907 Y35.115 E4.66825
G1 X60.595 Y34.797 E4.67676
G1 X60.194 Y34.631 E4.68504
G1 X59.961 Y34.608 E4.68953
G1 X59.51 Y34.706 E4.69833
G1 X59.061 Y35.103 E4.70979
G1 X54.767 Y42.394 E4.87139
G1 X54.662 Y42.667 E4.87698
G1 X54.63 Y42.903 E4.88153
G1 X54.63 Y68.413 E5.36876
;WIPE_START
M204 S4000
G1 X54.651 Y68.812 F12000
;WIPE_END
G92 E0
G1 E-0.8 F3000
; acceleration to travel
G1 X53.334 Y69.189 F12000
; decel to extrusion
M204 S2000
G1 X52.675 Y69.378
; end travel
G1 E0 F1800
;TYPE:Internal perimeter
G1 X52.675 Y44.622 E0.47282
G1 X52.749 Y43.383 E0.49652
G1 X52.966 Y42.185 E0.51978
G1 X53.328 Y41.01 E0.54327
G1 X53.551 Y40.468 E0.55446
G1 X53.971 Y39.638 E0.57222
G1 X60.001 Y29.533 E0.79698
G1 X65.564 Y38.837 E1.00403
G1 X66.186 Y39.915 E1.0278
G1 X66.446 Y40.457 E1.03929
G1 X66.771 Y41.299 E1.05652
G1 X67.038 Y42.193 E1.07434
G1 X67.254 Y43.395 E1.09767
G1 X67.327 Y44.623 E1.12116
G1 X67.327 Y69.74 E1.60089
G1 X68.183 Y70.19 E1.61936
G1 X68.83 Y70.588 E1.63388
G1 X69.441 Y71.023 E1.64819
G1 X69.703 Y71.238 E1.65467
G1 X70.228 Y71.747 E1.66864
G1 X71.447 Y73.19 E1.70471
G1 X71.996 Y73.297 E1.71539
G1 X72.471 Y73.237 E1.72453
G1 X72.633 Y73.194 E1.72774
G1 X74.27 Y72.916 E1.75945
G1 X75.068 Y72.831 E1.77477
G1 X75.439 Y72.822 E1.78187
G1 X75.825 Y72.842 E1.78925
G1 X76.547 Y72.926 E1.80312
G1 X77.256 Y73.049 E1.81687
G1 X77.945 Y73.211 E1.8304
G1 X78.618 Y73.415 E1.84384
G1 X79.275 Y73.659 E1.85722
G1 X79.915 Y73.946 E1.87061
G1 X80.539 Y74.277 E1.88409
G1 X81.149 Y74.653 E1.89779
G1 X81.74 Y75.069 E1.91159
G1 X82.144 Y75.382 E1.92136
G1 X83.559 Y76.748 E1.95892
G1 X84.972 Y78.47 E2.00147
G1 X85.653 Y79.238 E2.02107
G1 X89.612 Y85.086 E2.15594
G1 X89.449 Y85.304 E2.16114
G1 X87.907 Y84.818 E2.19202
G1 X86.942 Y84.544 E2.21118
G1 X85.968 Y84.302 E2.23036
G1 X84.986 Y84.095 E2.24952
G1 X83.996 Y83.924 E2.26871
G1 X82.997 Y83.792 E2.28796
G1 X81.989 Y83.699 E2.3073
G1 X80.965 Y83.647 E2.32686
G1 X80.093 Y83.651 E2.34352
G1 X79.229 Y83.716 E2.36008
G1 X78.381 Y83.839 E2.37645
G1 X77.548 Y84.016 E2.39271
G1 X76.731 Y84.244 E2.4089
G1 X75.931 Y84.519 E2.42505
G1 X75.147 Y84.835 E2.4412
G1 X74.158 Y85.29 E2.462
G1 X73.967 Y85.358 E2.46588
G1 X73.519 Y85.462 E2.47466
G1 X73.332 Y85.481 E2.47826
G1 X73.143 Y85.484 E2.48187
G1 X72.706 Y85.433 E2.49026
G1 X72.467 Y85.352 E2.49509
G1 X72.407 Y85.317 E2.49641
G1 X72.218 Y85.155 E2.50116
G1 X72.038 Y84.917 E2.50687
G1 X71.846 Y84.591 E2.51409
G1 X71.547 Y84.313 E2.5219
G1 X71.085 Y84.17 E2.53113
G1 X70.632 Y84.26 E2.53995
G1 X70.302 Y84.482 E2.54756
G1 X69.837 Y85.062 E2.56174
G1 X69.224 Y85.662 E2.57814
G1 X68.566 Y86.219 E2.59459
G1 X67.874 Y86.721 E2.61093
G1 X67.148 Y87.173 E2.62726
G1 X66.39 Y87.579 E2.64368
G1 X65.606 Y87.939 E2.66015
G1 X63.867 Y88.6 E2.6957
G1 X63.381 Y88.846 E2.70609
G1 X63.202 Y89.209 E2.71382
G1 X62.838 Y88.939 E2.72247
G1 X61.858 Y89.13 E2.74155
G1 X61.346 Y89.363 E2.75228
G1 X61.199 Y89.608 E2.75775
G1 X60.801 Y89.378 E2.76654
G1 X60.108 Y89.388 E2.77978
G1 X59.5 Y89.547 E2.79179
G1 X59.214 Y89.729 E2.79824
G1 X58.988 Y89.454 E2.80503
G1 X58.3 Y89.239 E2.81881
G1 X56.058 Y88.88 E2.86218
