; HEADER_BLOCK_START
; generated by OrcaSlicer 1.6.3 on 2023-06-07 at 19:03:51
; total layer number: 70
; HEADER_BLOCK_END

; THUMBNAIL_BLOCK_START
; THUMBNAIL_BLOCK_END

; external perimeters extrusion width = 0.40mm
; perimeters extrusion width = 0.45mm
; infill extrusion width = 0.45mm
; solid infill extrusion width = 0.40mm
; top infill extrusion width = 0.40mm
; first layer extrusion width = 0.50mm

; external perimeters extrusion width = 0.40mm
; perimeters extrusion width = 0.45mm
; infill extrusion width = 0.45mm
; solid infill extrusion width = 0.40mm
; top infill extrusion width = 0.40mm
; first layer extrusion width = 0.50mm

; EXECUTABLE_BLOCK_START
EXCLUDE_OBJECT_DEFINE NAME=Back_Plate_(1).stl_id_0_copy_0 CENTER=74.7602,60 POLYGON=[[52.2518,28.729],[52.2519,20.229],[52.2563,18.75],[52.3517,18.75],[54.2422,18.75],[95.6219,18.75],[97.2406,18.75],[97.2686,18.75],[97.2687,38.2294],[97.2683,52.25],[89.76,100.75],[76.3457,101.25],[73.1742,101.25],[73.1731,101.25],[72.9814,101.231],[72.9154,101.216],[72.7915,101.174],[72.6742,101.116],[72.6169,101.08],[72.4679,100.958],[72.4671,100.957],[69.3458,97.8358],[69.3451,97.8351],[69.097,97.5327],[68.9122,97.1869],[68.912,97.1865],[52.2563,52.25],[52.2518,28.729]]
EXCLUDE_OBJECT_DEFINE NAME=Front.stl_id_1_copy_0 CENTER=34.9918,60.0058 POLYGON=[[22.7313,33.5076],[23.7313,32.5092],[27.5821,32.5052],[47.2523,32.5052],[47.2523,87.5065],[33.2313,87.5065],[32.2313,86.5076],[22.7313,41.5076],[22.7313,33.5076]]
M73 P0 R36
;TYPE:Custom
START_PRINT T_BED=110 T_EXTRUDER=260
G90
G21
M83 ; use relative distances for extrusion
; Filament gcode

    PRESSURE_ADVANCE_SELECT FILAMENT=ABS
M106 S0
;LAYER_CHANGE
;Z:0.2
;HEIGHT:0.2
;BEFORE_LAYER_CHANGE
;0.2
G92 E0

;AFTER_LAYER_CHANGE
;0.2
SET_VELOCITY_LIMIT ACCEL_TO_DECEL=500
M204 S1000
G1 E-.5 F3000
G1 Z.2 F21000
G1 X22.445 Y32.452
G1 E.5 F1800
;TYPE:Skirt
;WIDTH:0.5
G1 F3000
G1 X55.486 Y16.137 E1.29689
G1 X56.776 Y15.836 E.04663
G1 X92.792 Y15.836 E1.26754
G1 X94.254 Y16.229 E.05327
G1 X95.322 Y17.302 E.05327
G1 X95.707 Y18.749 E.05268
G1 X95.658 Y52.257 E1.17929
G1 X92.669 Y100.929 E1.71617
G1 X92.186 Y102.364 E.05327
G1 X91.05 Y103.363 E.05327
G1 X89.868 Y103.662 E.04288
G1 X76.459 Y104.162 E.47226
G1 X72.538 Y104.106 E.138
G1 X71.815 Y103.914 E.02635
G1 X32.129 Y87.697 E1.50881
G1 X30.618 Y86.288 E.0727
G1 X30.153 Y85.221 E.04099
G1 X29.881 Y84.344 E.0323
G1 X20.366 Y39.138 E1.62585
G1 X20.193 Y37.873 E.04494
G1 X20.25 Y36.525 E.04747
G1 X20.526 Y35.267 E.04532
G1 X21.103 Y33.814 E.05501
G1 X22.403 Y32.495 E.06519
G1 X22.647 Y32.862 F21000
G1 F3000
G1 X55.688 Y16.547 E1.29689
G1 X56.776 Y16.293 E.03932
G1 X92.792 Y16.293 E1.26754
G1 X94.124 Y16.685 E.04884
G1 X95.03 Y17.735 E.04884
G1 X95.249 Y18.749 E.0365
G1 X95.201 Y52.256 E1.17925
G1 X92.212 Y100.901 E1.71523
G1 X91.74 Y102.206 E.04884
G1 X90.635 Y103.046 E.04884
G1 X89.851 Y103.206 E.02815
G1 X76.442 Y103.705 E.47226
G1 X72.598 Y103.653 E.13531
G1 X71.988 Y103.491 E.02222
G1 X32.302 Y87.274 E1.50881
G1 X31.028 Y86.086 E.0613
G1 X30.579 Y85.057 E.03951
G1 X30.29 Y84.087 E.03562
G1 X20.756 Y38.763 E1.63004
G1 X20.641 Y37.582 E.04175
G1 X20.734 Y36.375 E.04263
G1 X21.056 Y35.116 E.0457
G1 X21.516 Y34.011 E.04215
G1 X22.605 Y32.905 E.05464
; printing object Back Plate (1).stl id:0 copy 0
EXCLUDE_OBJECT_START NAME=Back_Plate_(1).stl_id_0_copy_0
G1 E-.5
G1 Z.4 F21000
G1 X78.975 Y94.118
G1 Z.2
G1 E.5 F1800
;TYPE:Inner wall
;WIDTH:0.494537
G1 F3000
G1 X79.026 Y94.185 E.00292
;WIDTH:0.499999
G1 X79.418 Y94.559 E.01909
G1 X79.621 Y94.691 E.0085
G1 X80.257 Y94.929 E.0239
G1 X80.681 Y94.971 E.01502
G1 X81.382 Y94.971 E.02466
G1 X81.211 Y95.635 E.02413
G1 X81.151 Y96.19 E.01963
G1 X81.151 Y96.653 E.01631
G1 X81.211 Y97.208 E.01963
G1 X81.311 Y97.66 E.01631
G1 X81.646 Y98.529 E.03278
G1 X79.071 Y98.529 E.09064
G1 X79.397 Y97.706 E.03116
G1 X79.516 Y97.161 E.01963
G1 X79.567 Y96.7 E.01631
G1 X79.567 Y96.143 E.01963
G1 X79.516 Y95.682 E.01631
G1 X79.397 Y95.137 E.01963
G1 X79.249 Y94.698 E.01631
G1 X79 Y94.173 E.02047
G1 E-.5
G1 Z.4 F21000
G1 X83.321 Y98.352
G1 X83.899 Y98.73
G1 X84.513 Y98.963
G1 X85.117 Y99.096
G1 X85.712 Y99.149
G1 X86.304 Y99.132
G1 X88.528 Y99.023
G1 Z.2
G1 E.5 F1800
;WIDTH:0.349924
G1 F3000
G1 X88.528 Y99.518 E.01171
G1 X87.932 Y99.518 E.01409
G1 X88.054 Y99.435 E.00349
G1 X88.483 Y99.062 E.01343
G1 E-.5
G1 Z.4 F21000
G1 X88.762 Y94.659
G1 Z.2
G1 E.5 F1800
;WIDTH:0.605328
G1 F3000
G1 X88.726 Y94.593 E.00326
G1 X88.266 Y94.02 E.03183
G1 X87.843 Y93.656 E.02415
G1 X88.857 Y93.653 E.04392
G1 X88.857 Y94.831 E.05104
G1 X88.791 Y94.712 E.00592
G1 E-.5
G1 Z.4 F21000
G1 X83.548 Y92.99
G1 X82.081 Y93.436
G1 X80.074 Y93.436
G1 X77.968 Y46.649
G1 Z.2
G1 E.5 F1800
;WIDTH:0.499999
G1 F3000
G1 X78.064 Y46.825 E.00704
G1 X78.311 Y47.473 E.02442
G1 X78.413 Y48.124 E.0232
G1 X78.431 Y48.902 E.02736
G1 X78.431 Y54.445 E.19508
G1 X78.411 Y54.658 E.00755
;WIDTH:0.460472
G1 X78.392 Y54.872 E.00689
;WIDTH:0.420945
G1 X78.372 Y55.085 E.00624
;WIDTH:0.381418
G1 X78.359 Y55.58 E.01289
;WIDTH:0.355019
G1 X78.346 Y56.074 E.01189
;WIDTH:0.328619
G1 X78.344 Y56.247 E.0038
;WIDTH:0.325224
G1 X78.344 Y82.755 E.5762
;WIDTH:0.360483
G1 X78.292 Y83.416 E.01622
;WIDTH:0.406989
G1 X78.267 Y83.599 E.00518
;WIDTH:0.453494
G1 X78.242 Y83.783 E.00584
;WIDTH:0.499999
G1 X78.217 Y83.966 E.00651
G1 X78.064 Y84.335 E.01405
G1 X77.784 Y84.819 E.01969
G1 X77.541 Y85.136 E.01405
G1 X77.146 Y85.531 E.01968
G1 X76.829 Y85.774 E.01405
G1 X76.345 Y86.054 E.01969
G1 X75.976 Y86.207 E.01405
G1 X75.448 Y86.35 E.01924
G1 X74.83 Y86.421 E.02189
G1 X74.267 Y86.375 E.0199
G1 X73.544 Y86.207 E.0261
G1 X73.175 Y86.054 E.01405
G1 X72.691 Y85.774 E.01969
G1 X72.374 Y85.531 E.01405
G1 X71.979 Y85.136 E.01969
G1 X71.736 Y84.819 E.01405
G1 X71.456 Y84.335 E.01969
G1 X71.303 Y83.966 E.01405
G1 X71.278 Y83.783 E.00651
;WIDTH:0.453494
G1 X71.253 Y83.6 E.00584
;WIDTH:0.406989
G1 X71.228 Y83.416 E.00518
;WIDTH:0.360484
G1 X71.176 Y82.755 E.01622
;WIDTH:0.325222
G1 X71.176 Y56.247 E.5762
;WIDTH:0.353684
G1 X71.162 Y55.437 E.01939
;WIDTH:0.402456
G1 X71.138 Y55.106 E.00918
;WIDTH:0.451228
G1 X71.113 Y54.775 E.01043
;WIDTH:0.499999
G1 X71.089 Y54.445 E.01167
G1 X71.089 Y48.404 E.21259
G1 X71.159 Y47.734 E.02372
G1 X71.288 Y47.231 E.01825
G1 X71.499 Y46.728 E.0192
G1 X71.736 Y46.34 E.01601
G1 X72.05 Y45.936 E.01801
G1 X72.502 Y45.53 E.02141
G1 X72.858 Y45.269 E.01551
G1 X73.544 Y44.952 E.02661
G1 X74.085 Y44.808 E.01969
G1 X74.585 Y44.746 E.01774
G1 X75.4 Y44.803 E.02874
G1 X75.976 Y44.953 E.02095
G1 X76.601 Y45.232 E.02409
G1 X77.146 Y45.628 E.02371
G1 X77.541 Y46.023 E.01969
G1 X77.847 Y46.427 E.01782
G1 X77.94 Y46.596 E.00679
G1 E-.5
G1 Z.4 F21000
G1 X79.321 Y39.047
G1 Z.2
G1 E.5 F1800
G1 F3000
G1 X78.859 Y39.274 E.01813
G1 X78.318 Y39.381 E.01941
G1 X75.766 Y39.384 E.08981
G1 X75.18 Y39.322 E.02072
G1 X74.697 Y39.184 E.01771
G1 X74.229 Y39.32 E.01715
G1 X73.045 Y39.383 E.04174
G1 X71.174 Y39.38 E.06583
G1 X70.614 Y39.349 E.01973
G1 X70.193 Y39.28 E.01503
G1 X70.054 Y39.236 E.00514
G1 X69.625 Y39.318 E.01537
G1 X68.949 Y39.374 E.02386
G1 X66.839 Y39.385 E.07425
G1 X66.334 Y39.326 E.01791
G1 X65.969 Y39.202 E.01355
G1 X65.541 Y38.95 E.0175
G1 X65.142 Y38.555 E.01975
G1 X64.839 Y38.019 E.02167
G1 X64.687 Y37.516 E.0185
G1 X64.654 Y37.146 E.01308
G1 X64.686 Y36.775 E.01308
G1 X64.87 Y36.205 E.02108
G1 X65.146 Y35.777 E.01793
G1 X65.914 Y35.045 E.03734
G1 X71.06 Y30.33 E.24564
G1 X71.473 Y30.033 E.0179
G1 X71.682 Y29.936 E.0081
G1 X71.946 Y29.539 E.0168
G1 X72.789 Y28.745 E.04075
G1 X73.259 Y28.356 E.02146
G1 X73.717 Y28.108 E.01835
G1 X74.203 Y27.967 E.0178
G1 X74.727 Y27.902 E.01858
G1 X75.372 Y27.983 E.02288
G1 X75.857 Y28.171 E.0183
G1 X76.291 Y28.423 E.01768
G1 X76.495 Y28.588 E.00923
G1 X83.312 Y34.834 E.32539
G1 X83.649 Y35.228 E.01824
G1 X83.796 Y35.512 E.01124
;WIDTH:0.47228
G1 X83.943 Y35.795 E.01055
;WIDTH:0.444561
G1 X83.994 Y36.085 E.0091
;WIDTH:0.398648
G1 X84.044 Y36.375 E.00806
;WIDTH:0.384006
G1 X84.078 Y36.619 E.00647
;WIDTH:0.415277
G1 X84.112 Y36.863 E.00706
;WIDTH:0.457638
G1 X84.106 Y37.088 E.00719
;WIDTH:0.499999
G1 X84.099 Y37.313 E.00792
G1 X83.927 Y37.815 E.0187
G1 X83.669 Y38.29 E.01902
G1 X83.322 Y38.667 E.01804
G1 X82.928 Y38.984 E.01778
G1 X82.428 Y39.224 E.01953
G1 X81.776 Y39.372 E.02352
G1 X80.463 Y39.385 E.04622
G1 X79.893 Y39.308 E.02026
G1 X79.388 Y39.096 E.01927
G1 X79.369 Y39.082 E.0008
G1 E-.5
G1 Z.4 F21000
G1 X78.773 Y93.797
G1 Z.2
G1 E.5 F1800
G1 F3000
G1 X78.438 Y93.351 E.01963
G1 X78.125 Y93.019 E.01606
G1 X77.694 Y92.654 E.01987
G1 X77.311 Y92.394 E.01631
G1 X76.818 Y92.133 E.01963
G1 X76.388 Y91.961 E.01631
G1 X75.851 Y91.812 E.01962
G1 X75.375 Y91.736 E.01694
G1 X74.796 Y91.71 E.02041
G1 X74.162 Y91.767 E.0224
G1 X73.377 Y91.946 E.02834
G1 X72.859 Y92.152 E.01963
G1 X72.449 Y92.37 E.01631
G1 X71.988 Y92.682 E.01963
G1 X71.635 Y92.982 E.01631
G1 X71.251 Y93.387 E.01963
G1 X70.981 Y93.743 E.0157
G1 X70.981 Y84.03 E.34183
G1 X70.958 Y83.832 E.007
;WIDTH:0.453494
G1 X70.935 Y83.635 E.00629
;WIDTH:0.406989
G1 X70.911 Y83.437 E.00558
;WIDTH:0.360484
G1 X70.894 Y82.755 E.01668
;WIDTH:0.325222
G1 X70.894 Y56.247 E.5762
;WIDTH:0.328618
G1 X70.889 Y56.085 E.00355
;WIDTH:0.355018
G1 X70.852 Y55.605 E.01158
;WIDTH:0.381418
G1 X70.814 Y55.125 E.01256
;WIDTH:0.420945
G1 X70.784 Y54.912 E.00624
;WIDTH:0.460472
G1 X70.753 Y54.7 E.00689
;WIDTH:0.499999
G1 X70.722 Y54.488 E.00755
G1 X70.618 Y54.168 E.01184
G1 X70.22 Y53.277 E.03433
G1 X69.699 Y52.476 E.03365
G1 X69.033 Y51.734 E.0351
G1 X68.273 Y51.121 E.03437
G1 X67.518 Y50.674 E.03087
G1 X67.039 Y50.474 E.01826
G1 X66.522 Y50.288 E.01933
G1 X65.573 Y50.086 E.03415
M73 P0 R35
G1 X64.763 Y50.029 E.02858
G1 X58.994 Y50.029 E.20303
G1 X58.965 Y30.85 E.67496
G1 X60.674 Y30.85 E.06014
G1 X61.363 Y30.793 E.02434
G1 X61.775 Y30.711 E.01477
G1 X62.333 Y30.539 E.02054
G1 X63.058 Y30.179 E.02849
G1 X63.407 Y29.946 E.01477
G1 X63.87 Y29.562 E.0212
G1 X64.387 Y28.966 E.02775
G1 X64.85 Y28.188 E.03185
G1 X65.152 Y27.334 E.03189
G1 X65.234 Y26.922 E.01477
G1 X65.291 Y26.233 E.02435
G1 X65.281 Y22.515 E.13085
G1 X65.152 Y21.624 E.03168
G1 X64.933 Y20.971 E.02423
G1 X90.571 Y20.971 E.9023
G1 X90.571 Y24.379 E.11993
G1 X90.571 Y27.608 E.11363
G1 X88.846 Y27.608 E.06073
G1 X88.157 Y27.665 E.02434
G1 X87.745 Y27.747 E.01477
G1 X86.891 Y28.049 E.03189
G1 X86.279 Y28.388 E.02462
G1 X85.738 Y28.82 E.02437
G1 X85.272 Y29.322 E.02412
G1 X84.9 Y29.841 E.02247
G1 X84.509 Y30.659 E.03189
M73 P1 R35
G1 X84.286 Y31.536 E.03185
G1 X84.229 Y32.225 E.02434
G1 X84.229 Y35.276 E.10738
G1 X84.253 Y35.496 E.0078
;WIDTH:0.457922
G1 X84.277 Y35.717 E.00708
;WIDTH:0.415844
G1 X84.302 Y35.937 E.00636
;WIDTH:0.373766
G1 X84.398 Y36.676 E.019
;WIDTH:0.407823
G1 X84.435 Y36.884 E.00593
;WIDTH:0.453911
G1 X84.472 Y37.092 E.00668
;WIDTH:0.499999
G1 X84.509 Y37.299 E.00742
G1 X84.713 Y37.768 E.01799
G1 X85.016 Y38.309 E.02182
G1 X85.424 Y38.82 E.02302
G1 X85.738 Y39.138 E.01573
G1 X86.222 Y39.53 E.02192
G1 X86.728 Y39.822 E.02057
G1 X87.28 Y40.07 E.02128
G1 X88.157 Y40.293 E.03185
G1 X88.846 Y40.35 E.02434
G1 X90.553 Y40.35 E.06007
G1 X90.528 Y50.029 E.34062
G1 X85.384 Y50.029 E.18104
G1 X84.304 Y50.058 E.03804
G1 X83.627 Y50.137 E.02396
G1 X83 Y50.287 E.0227
G1 X82.481 Y50.474 E.01942
G1 X81.793 Y50.786 E.02657
G1 X80.975 Y51.318 E.03436
G1 X80.249 Y51.972 E.03436
G1 X79.635 Y52.731 E.03436
G1 X79.147 Y53.576 E.03436
G1 X78.798 Y54.488 E.03436
G1 X78.755 Y54.808 E.01137
;WIDTH:0.451227
G1 X78.711 Y55.129 E.01016
;WIDTH:0.402455
G1 X78.668 Y55.449 E.00895
;WIDTH:0.353683
G1 X78.626 Y56.247 E.01912
;WIDTH:0.325224
G1 X78.626 Y82.755 E.5762
;WIDTH:0.367774
G1 X78.605 Y83.533 E.01946
;WIDTH:0.411849
G1 X78.583 Y83.698 E.00475
;WIDTH:0.455924
G1 X78.561 Y83.864 E.00532
;WIDTH:0.499999
G1 X78.539 Y84.03 E.00588
G1 X78.539 Y92.821 E.30939
G1 X78.587 Y93.283 E.01633
G1 X78.753 Y93.741 E.01714
G1 E-.5
G1 Z.4 F21000
G1 X80.516 Y94.498
G1 Z.2
G1 E.5 F1800
G1 F3000
G1 X80.681 Y94.514 E.00585
G1 X82.054 Y94.514 E.04832
G1 X81.922 Y94.8 E.0111
G1 X81.744 Y95.329 E.01963
G1 X81.64 Y95.917 E.021
G1 X81.605 Y96.604 E.02422
G1 X81.666 Y97.158 E.01963
G1 X81.744 Y97.514 E.01283
G1 X82.075 Y98.374 E.03241
G1 X82.465 Y98.986 E.02555
G1 X78.249 Y98.986 E.14839
G1 X78.6 Y98.459 E.02229
G1 X78.95 Y97.607 E.03241
G1 X79.075 Y97.038 E.02053
G1 X79.109 Y96.422 E.02171
G1 X79.07 Y95.78 E.02261
G1 X78.95 Y95.236 E.01963
G1 X78.834 Y94.89 E.01283
G1 X78.6 Y94.384 E.01963
G1 X78.415 Y94.076 E.01266
G1 X78.074 Y93.628 E.0198
G1 X77.824 Y93.363 E.01283
G1 X77.097 Y92.798 E.03241
G1 X76.266 Y92.402 E.03241
G1 X75.728 Y92.252 E.01962
G1 X75.354 Y92.193 E.01332
G1 X74.775 Y92.166 E.02041
G1 X74.236 Y92.218 E.01906
G1 X73.546 Y92.371 E.02487
G1 X72.706 Y92.748 E.03241
G1 X71.967 Y93.297 E.03241
G1 X71.363 Y93.992 E.03241
G1 X70.922 Y94.8 E.03241
G1 X70.746 Y95.33 E.01963
;WIDTH:0.494719
G1 X70.746 Y95.421 E.00316
;WIDTH:0.456631
G1 X70.745 Y95.512 E.0029
;WIDTH:0.418542
G1 X70.745 Y95.603 E.00263
;WIDTH:0.380454
G1 X70.744 Y95.693 E.00236
;WIDTH:0.342365
G1 X70.693 Y96.34 E.01495
;WIDTH:0.308206
G1 X70.734 Y96.87 E.01086
;WIDTH:0.30105
G1 X70.463 Y96.558 E.00822
;WIDTH:0.312128
G1 X70.43 Y96.235 E.00672
;WIDTH:0.342365
G1 X70.445 Y95.677 E.01286
;WIDTH:0.380454
G1 X70.464 Y95.581 E.00255
;WIDTH:0.418542
G1 X70.483 Y95.485 E.00283
;WIDTH:0.456631
G1 X70.502 Y95.389 E.00312
;WIDTH:0.494719
G1 X70.521 Y95.293 E.00341
;WIDTH:0.499999
G1 X70.524 Y56.247 E1.37418
G1 X70.427 Y55.218 E.03638
G1 X70.196 Y54.343 E.03184
G1 X69.831 Y53.516 E.03181
G1 X69.351 Y52.772 E.03117
G1 X68.736 Y52.082 E.03253
G1 X68.034 Y51.51 E.03184
G1 X67.253 Y51.057 E.0318
G1 X66.415 Y50.732 E.03162
G1 X65.537 Y50.542 E.03163
G1 X64.763 Y50.486 E.02731
G1 X58.538 Y50.486 E.21909
G1 X58.507 Y30.393 E.70714
G1 X60.839 Y30.385 E.08207
G1 X61.642 Y30.273 E.02854
G1 X62.414 Y30.006 E.02873
G1 X63.117 Y29.593 E.0287
G1 X63.726 Y29.051 E.02868
G1 X64.217 Y28.401 E.02867
G1 X64.573 Y27.667 E.02873
G1 X64.779 Y26.878 E.0287
G1 X64.834 Y26.233 E.02277
G1 X64.834 Y22.725 E.12346
G1 X64.826 Y22.56 E.00582
G1 X64.714 Y21.757 E.02854
G1 X64.447 Y20.985 E.02873
G1 X64.189 Y20.514 E.0189
G1 X91.028 Y20.514 E.94458
G1 X91.028 Y24.379 E.13602
G1 X91.029 Y28.065 E.12971
G1 X88.846 Y28.065 E.07681
G1 X88.681 Y28.073 E.00582
G1 X87.878 Y28.185 E.02854
G1 X87.106 Y28.452 E.02873
G1 X86.534 Y28.768 E.02302
G1 X86.028 Y29.173 E.02281
G1 X85.625 Y29.612 E.02097
G1 X85.303 Y30.057 E.01932
G1 X84.947 Y30.791 E.02873
G1 X84.741 Y31.581 E.0287
G1 X84.686 Y32.225 E.02277
G1 X84.694 Y35.898 E.12927
G1 X84.776 Y36.59 E.0245
G1 X84.947 Y37.167 E.02118
G1 X85.116 Y37.552 E.01483
G1 X85.486 Y38.176 E.02552
G1 X86.028 Y38.785 E.02868
G1 X86.489 Y39.159 E.02089
G1 X86.944 Y39.419 E.01845
G1 X87.412 Y39.632 E.01812
G1 X88.202 Y39.838 E.0287
G1 X88.846 Y39.893 E.02277
G1 X91.011 Y39.893 E.07619
G1 X90.984 Y50.486 E.3728
G1 X85.384 Y50.486 E.19709
G1 X84.339 Y50.513 E.03678
G1 X83.734 Y50.582 E.02145
G1 X83.106 Y50.732 E.0227
G1 X82.655 Y50.896 E.01689
G1 X82.032 Y51.176 E.02406
G1 X81.271 Y51.666 E.03184
G1 X80.597 Y52.269 E.03184
G1 X80.025 Y52.97 E.03184
G1 X79.569 Y53.751 E.03184
G1 X79.242 Y54.595 E.03184
G1 X79.051 Y55.479 E.03184
G1 X78.996 Y56.247 E.02709
G1 X79.005 Y93.002 E1.29354
G1 X79.178 Y93.591 E.02164
G1 X79.377 Y93.897 E.01283
G1 X79.847 Y94.293 E.02164
G1 X80.347 Y94.481 E.0188
G1 X80.456 Y94.492 E.00385
G1 X80.569 Y94.046 F21000
G1 F3000
G1 X80.681 Y94.057 E.00396
G1 X82.884 Y94.057 E.0775
G1 X82.754 Y94.227 E.00752
G1 X82.355 Y94.946 E.02894
G1 X82.12 Y95.734 E.02894
G1 X82.06 Y96.289 E.01963
G1 X82.076 Y96.707 E.01473
G1 X82.177 Y97.368 E.02354
G1 X82.467 Y98.138 E.02894
G1 X82.915 Y98.827 E.02894
G1 X83.298 Y99.232 E.01963
G1 X83.558 Y99.443 E.01179
G1 X77.156 Y99.447 E.22533
G1 X77.71 Y98.939 E.02648
G1 X78.185 Y98.267 E.02894
G1 X78.504 Y97.509 E.02894
G1 X78.628 Y96.946 E.02029
G1 X78.652 Y96.422 E.01848
G1 X78.624 Y95.879 E.01913
G1 X78.419 Y95.082 E.02894
G1 X78.048 Y94.348 E.02894
G1 X77.528 Y93.712 E.02894
G1 X76.883 Y93.202 E.02894
G1 X76.143 Y92.842 E.02894
