; generated by SuperSlicer 2.5.59 on 2023-05-23 at 05:06:31 UTC


;
;

;
;
; 

; external perimeters extrusion width = 0.40mm
; perimeters extrusion width = 0.46mm
; infill extrusion width = 0.64mm
; solid infill extrusion width = 0.56mm
; top infill extrusion width = 0.40mm
; first layer extrusion width = 0.50mm

; object:{"name":"Back plate without tensioner EVA 2","id":"Back plate without tensioner EVA 2.4.stl id:0 copy 0","object_center":[60.000001,60.000000,0.000000],"boundingbox_center":[60.000001,60.000000,11.500000],"boundingbox_size":[94.296396,94.296395,23.000000]}
EXCLUDE_OBJECT_DEFINE NAME=Back_plate_without_tensioner_EVA_2_4_stl_id_0_copy_0 CENTER=60.000001,60.000000 POLYGON=[[12.851799,77.670112],[12.901039,77.201664],[12.998974,76.740936],[13.144524,76.292968],[13.336109,75.862672],[13.571617,75.454752],[13.848480,75.073688],[14.163658,74.723648],[24.381352,64.435240],[60.443796,28.372798],[100.077136,12.851803],[102.905560,12.851803],[107.148192,17.094440],[107.148192,19.922870],[90.262016,70.731448],[90.070432,71.161744],[89.834920,71.569664],[89.558056,71.950728],[89.242888,72.300768],[88.892848,72.615944],[44.926316,106.151520],[44.545252,106.428384],[44.137332,106.663896],[43.707032,106.855480],[43.259064,107.001032],[42.798332,107.098960],[42.329884,107.148192],[41.858864,107.148192],[41.390420,107.098960],[40.929692,107.001024],[40.481720,106.855480],[40.051420,106.663896],[39.643496,106.428376],[39.262436,106.151520],[38.912392,105.836344],[14.163658,81.087608],[13.848480,80.737568],[13.571617,80.356496],[13.336109,79.948576],[13.144524,79.518280],[12.998974,79.070312],[12.901039,78.609584],[12.851807,78.141136],[12.851799,77.670112]]
; plater:{"center":[60.000001,60.000000,0.000000],"boundingbox_center":[60.000001,60.000000,11.500000],"boundingbox_size":[94.296396,94.296395,23.000000]}

M73 P0 R72
;TYPE:Custom
; custom gcode: start_gcode
START_PRINT T_BED=110 T_EXTRUDER=260
; custom gcode end: start_gcode
M107
G21 ; set units to millimeters
G90 ; use absolute coordinates
M82 ; use absolute distances for extrusion
G92 E0
; custom gcode: start_filament_gcode
; Filament gcode

    PRESSURE_ADVANCE_SELECT FILAMENT=ABS
; custom gcode end: start_filament_gcode
;_TOOLCHANGE 0
M104 S260 ; set temperature
M109 S260 ; set temperature and wait for it to be reached
M190 S110 ; set bed temperature and wait for it to be reached
;LAYER_CHANGE
;Z:0.2
;HEIGHT:0.2
G1 Z0.2 F12000
M73 P0 R72
G1 E-0.5 F3000
M204 S2000
G1 X41.852 Y41.852 F12000
G1 E0 F1800
;TYPE:Skirt
;WIDTH:0.52
G1 X21.845 Y61.858 E1.05505
G1 X11.598 Y72.176 E1.59729
G1 X10.65 Y73.325 E1.65285
G1 X10.031 Y74.397 E1.69899
G1 X9.562 Y75.619 E1.74779
G1 X9.305 Y76.829 E1.79393
G1 X9.236 Y78.136 E1.84273
G1 X9.366 Y79.366 E1.88887
G1 X9.704 Y80.631 E1.93768
G1 X10.208 Y81.761 E1.98381
G1 X10.92 Y82.859 E2.03261
G1 X11.609 Y83.646 E2.07162
G1 X36.354 Y108.391 E3.37655
G1 X37.514 Y109.35 E3.43268
G1 X38.586 Y109.969 E3.47882
G1 X39.369 Y110.296 E3.51049
G1 X40.634 Y110.634 E3.55929
G1 X41.864 Y110.764 E3.60543
G1 X43.171 Y110.695 E3.65423
G1 X44.006 Y110.539 E3.68589
G1 X45.182 Y110.156 E3.73203
G1 X46.349 Y109.562 E3.78084
G1 X91.083 Y75.492 E5.87765
G1 X91.933 Y74.716 E5.92058
G1 X92.757 Y73.699 E5.96938
G1 X93.376 Y72.628 E6.01551
G1 X93.702 Y71.844 E6.04718
G1 X110.583 Y19.754 E8.08901
G1 X110.764 Y18.609 E8.13225
G1 X110.764 Y17.136 E8.18717
G1 X110.575 Y15.966 E8.23136
G1 X109.676 Y14.509 E8.29522
G1 X105.491 Y10.324 E8.51587
G1 X104.53 Y9.631 E8.56006
G1 X102.864 Y9.236 E8.62392
G1 X101.391 Y9.236 E8.67884
G1 X100.073 Y9.478 E8.72881
G1 X59.167 Y24.999 E10.36027
G1 X57.858 Y25.845 E10.41841
G1 X41.852 Y41.852 E11.26249
G1 X42.189 Y42.189 F12000
G1 F1800
G1 X22.183 Y62.195 E12.31748
G1 X11.937 Y72.512 E12.85973
G1 X11.036 Y73.606 E12.91256
G1 X10.467 Y74.591 E12.95497
G1 X10.016 Y75.766 E13.00192
G1 X9.779 Y76.879 E13.04433
G1 X9.713 Y78.136 E13.09127
G1 X9.832 Y79.267 E13.13369
G1 X10.158 Y80.483 E13.18063
G1 X10.621 Y81.522 E13.22305
G1 X11.306 Y82.578 E13.26999
G1 X11.946 Y83.309 E13.30621
G1 X36.691 Y108.054 E14.61114
G1 X37.794 Y108.964 E14.66448
G1 X38.78 Y109.533 E14.7069
G1 X39.955 Y109.984 E14.75384
G1 X41.068 Y110.221 E14.79626
G1 X42.325 Y110.287 E14.8432
G1 X43.121 Y110.221 E14.873
G1 X44.234 Y109.984 E14.91542
G1 X45.409 Y109.533 E14.96236
G1 X46.394 Y108.964 E15.00478
G1 X90.794 Y75.113 E17.08672
G1 X91.579 Y74.397 E17.12634
G1 X92.371 Y73.419 E17.17328
G1 X92.94 Y72.434 E17.2157
G1 X93.249 Y71.696 E17.2455
G1 X110.129 Y19.607 E19.28731
G1 X110.287 Y18.609 E19.325
G1 X110.287 Y17.136 E19.37992
G1 X110.154 Y16.219 E19.41447
G1 X109.338 Y14.846 E19.47403
G1 X105.154 Y10.662 E19.69468
G1 X104.412 Y10.107 E19.72923
G1 X102.864 Y9.713 E19.78878
G1 X101.391 Y9.713 E19.8437
G1 X100.242 Y9.924 E19.88726
G1 X59.336 Y25.445 E21.51872
M73 P0 R71
G1 X58.195 Y26.183 E21.5694
G1 X42.189 Y42.189 E22.41348
G92 E0
G1 E-0.5 F3000
; printing object Back plate without tensioner EVA 2.4.stl id:0 copy 0
EXCLUDE_OBJECT_START NAME=Back_plate_without_tensioner_EVA_2_4_stl_id_0_copy_0
G1 X62.963 Y31.904 F12000
G1 E0 F1800
;TYPE:Internal perimeter
;WIDTH:0.499999
G1 X62.466 Y31.636 E0.02017
G1 X61.923 Y31.458 E0.04058
G1 X61.358 Y31.374 E0.06099
G1 X60.787 Y31.388 E0.08141
G1 X60.226 Y31.498 E0.10182
G1 X59.692 Y31.7 E0.12223
G1 X59.452 Y31.855 E0.13243
;WIDTH:0.456854
G1 X59.211 Y32.009 E0.14167
G1 X59.423 Y31.812 E0.15101
;WIDTH:0.488234
G1 X61.151 Y30.1 E0.23568
G1 X62.963 Y31.904 E0.32468
G92 E0
G1 E-0.5 F3000
G1 X61.15 Y51.42 F12000
G1 E0 F1800
;TYPE:External perimeter
;WIDTH:0.57071
G1 X61.087 Y51.403 E0.00272
;WIDTH:0.499998
G1 X58.979 Y50.838 E0.08066
;WIDTH:0.57071
G1 X58.916 Y50.821 E0.08338
G1 X58.869 Y50.868 E0.0861
;WIDTH:0.500003
G1 X57.327 Y52.411 E0.16404
;WIDTH:0.570711
G1 X57.28 Y52.457 E0.16676
G1 X57.297 Y52.521 E0.16948
;WIDTH:0.499999
G1 X57.862 Y54.628 E0.24742
;WIDTH:0.57071
G1 X57.879 Y54.692 E0.25014
G1 X57.942 Y54.709 E0.25286
;WIDTH:0.499998
G1 X60.05 Y55.274 E0.3308
;WIDTH:0.57071
G1 X60.113 Y55.291 E0.33352
G1 X60.16 Y55.244 E0.33624
;WIDTH:0.5
G1 X61.702 Y53.701 E0.41418
;WIDTH:0.57071
G1 X61.749 Y53.655 E0.4169
G1 X61.732 Y53.591 E0.41962
;WIDTH:0.499999
G1 X61.184 Y51.548 E0.4952
G1 X61.167 Y51.484 E0.49756
;WIDTH:0.57071
G1 X61.15 Y51.42 E0.50028
;WIPE_START
M204 S4000
G1 X61.185 Y51.022 F12000
;WIPE_END
G92 E0
G1 E-0.5 F3000
M204 S2000
G1 X63.316 Y58.401 F12000
G1 E0 F1800
;WIDTH:0.5
G1 X64.859 Y56.858 E0.07794
;WIDTH:0.57071
G1 X64.906 Y56.811 E0.08066
G1 X64.889 Y56.748 E0.08338
;WIDTH:0.499998
G1 X64.341 Y54.704 E0.15896
G1 X64.324 Y54.641 E0.16132
;WIDTH:0.57071
G1 X64.307 Y54.577 E0.16404
G1 X64.243 Y54.56 E0.16676
;WIDTH:0.499998
G1 X62.136 Y53.995 E0.2447
;WIDTH:0.57071
G1 X62.072 Y53.978 E0.24742
G1 X62.026 Y54.025 E0.25014
;WIDTH:0.500001
G1 X60.483 Y55.567 E0.32808
;WIDTH:0.57071
G1 X60.436 Y55.614 E0.3308
G1 X60.454 Y55.678 E0.33352
;WIDTH:0.499999
G1 X61.018 Y57.785 E0.41145
;WIDTH:0.57071
G1 X61.035 Y57.848 E0.41418
G1 X61.099 Y57.866 E0.4169
;WIDTH:0.5
G1 X63.206 Y58.43 E0.49483
;WIDTH:0.57071
G1 X63.27 Y58.447 E0.49756
G1 X63.316 Y58.401 E0.50028
;WIPE_START
M204 S4000
G1 X63.703 Y58.504 F12000
;WIPE_END
M204 S2000
G1 X65.229 Y57.135
G1 F1800
G1 X65.182 Y57.181 E0.503
;WIDTH:0.5
G1 X63.64 Y58.724 E0.58094
;WIDTH:0.57071
G1 X63.593 Y58.77 E0.58366
G1 X63.61 Y58.834 E0.58638
;WIDTH:0.499999
G1 X64.175 Y60.941 E0.66432
;WIDTH:0.57071
G1 X64.192 Y61.005 E0.66704
G1 X64.256 Y61.022 E0.66976
;WIDTH:0.499999
G1 X66.363 Y61.587 E0.74769
;WIDTH:0.57071
G1 X66.426 Y61.604 E0.75042
G1 X66.473 Y61.557 E0.75314
;WIDTH:0.5
G1 X68.016 Y60.015 E0.83107
;WIDTH:0.57071
G1 X68.062 Y59.968 E0.8338
G1 X68.045 Y59.904 E0.83652
;WIDTH:0.499997
G1 X67.481 Y57.797 E0.91445
;WIDTH:0.57071
G1 X67.464 Y57.733 E0.91718
G1 X67.4 Y57.716 E0.9199
;WIDTH:0.499999
G1 X65.356 Y57.169 E0.99548
G1 X65.293 Y57.152 E0.99783
;WIDTH:0.57071
G1 X65.229 Y57.135 E1.00055
;WIPE_START
M204 S4000
G1 X64.901 Y56.905 F12000
;WIPE_END
M204 S2000
G1 X63.152 Y58.889
G1 F1800
G1 X63.088 Y58.872 E1.00328
;WIDTH:0.499999
G1 X60.981 Y58.307 E1.08121
;WIDTH:0.57071
G1 X60.917 Y58.29 E1.08393
G1 X60.87 Y58.337 E1.08666
;WIDTH:0.500001
G1 X59.328 Y59.879 E1.16459
;WIDTH:0.57071
G1 X59.281 Y59.926 E1.16731
G1 X59.298 Y59.99 E1.17004
;WIDTH:0.499999
G1 X59.863 Y62.097 E1.24797
;WIDTH:0.57071
G1 X59.88 Y62.16 E1.25069
G1 X59.944 Y62.178 E1.25341
;WIDTH:0.5
G1 X62.051 Y62.742 E1.33135
;WIDTH:0.57071
G1 X62.114 Y62.759 E1.33407
G1 X62.161 Y62.713 E1.33679
;WIDTH:0.500002
G1 X63.704 Y61.17 E1.41473
;WIDTH:0.57071
G1 X63.75 Y61.123 E1.41745
G1 X63.733 Y61.06 E1.42017
;WIDTH:0.499998
G1 X63.169 Y58.952 E1.49811
;WIDTH:0.57071
G1 X63.152 Y58.889 E1.50083
;WIPE_START
M204 S4000
G1 X63.186 Y58.49 F12000
;WIPE_END
G92 E0
G1 E-0.5 F3000
M204 S2000
G1 X56.124 Y56.769 F12000
G1 E0 F1800
G1 X56.142 Y56.833 E0.00272
;WIDTH:0.499999
G1 X56.706 Y58.94 E0.08066
;WIDTH:0.57071
G1 X56.723 Y59.004 E0.08338
G1 X56.787 Y59.021 E0.0861
;WIDTH:0.5
G1 X58.894 Y59.586 E0.16404
;WIDTH:0.57071
G1 X58.958 Y59.603 E0.16676
G1 X59.005 Y59.556 E0.16948
;WIDTH:0.500002
G1 X60.547 Y58.013 E0.24742
;WIDTH:0.57071
G1 X60.594 Y57.967 E0.25014
G1 X60.577 Y57.903 E0.25286
;WIDTH:0.499997
G1 X60.012 Y55.796 E0.3308
;WIDTH:0.57071
G1 X59.995 Y55.732 E0.33352
G1 X59.931 Y55.715 E0.33624
;WIDTH:0.499999
G1 X57.824 Y55.15 E0.41418
;WIDTH:0.57071
G1 X57.76 Y55.133 E0.4169
G1 X57.714 Y55.18 E0.41962
;WIDTH:0.5
G1 X56.171 Y56.723 E0.49756
;WIDTH:0.57071
G1 X56.124 Y56.769 E0.50028
;WIPE_START
M204 S4000
G1 X55.762 Y56.938 F12000
;WIPE_END
G92 E0
G1 E-0.5 F3000
M204 S2000
G1 X58.84 Y60.044 F12000
G1 E0 F1800
G1 X58.776 Y60.027 E0.00272
;WIDTH:0.499998
G1 X56.669 Y59.462 E0.08066
;WIDTH:0.57071
G1 X56.605 Y59.445 E0.08338
G1 X56.558 Y59.492 E0.0861
;WIDTH:0.499999
G1 X55.062 Y60.988 E0.16168
G1 X55.016 Y61.035 E0.16404
;WIDTH:0.570709
G1 X54.969 Y61.081 E0.16676
G1 X54.986 Y61.145 E0.16948
;WIDTH:0.499998
G1 X55.551 Y63.252 E0.24742
;WIDTH:0.570711
G1 X55.568 Y63.316 E0.25014
G1 X55.632 Y63.333 E0.25286
;WIDTH:0.499999
G1 X57.739 Y63.898 E0.3308
;WIDTH:0.570711
G1 X57.802 Y63.915 E0.33352
G1 X57.849 Y63.868 E0.33624
;WIDTH:0.5
G1 X59.392 Y62.325 E0.41418
;WIDTH:0.57071
G1 X59.438 Y62.279 E0.4169
G1 X59.421 Y62.215 E0.41962
;WIDTH:0.499999
G1 X58.857 Y60.108 E0.49756
;WIDTH:0.57071
G1 X58.84 Y60.044 E0.50028
;WIPE_START
M204 S4000
G1 X58.874 Y59.646 F12000
;WIPE_END
G92 E0
G1 E-0.5 F3000
M204 S2000
G1 X62.595 Y65.435 F12000
G1 E0 F1800
G1 X62.578 Y65.372 E0.00272
;WIDTH:0.499998
G1 X62.013 Y63.264 E0.08066
;WIDTH:0.57071
G1 X61.996 Y63.201 E0.08338
G1 X61.932 Y63.184 E0.0861
;WIDTH:0.499999
G1 X59.825 Y62.619 E0.16404
;WIDTH:0.57071
G1 X59.762 Y62.602 E0.16676
G1 X59.715 Y62.649 E0.16948
;WIDTH:0.500001
G1 X58.172 Y64.191 E0.24742
;WIDTH:0.570711
G1 X58.126 Y64.238 E0.25014
G1 X58.143 Y64.302 E0.25286
;WIDTH:0.499999
G1 X58.707 Y66.409 E0.3308
;WIDTH:0.570711
G1 X58.724 Y66.472 E0.33352
G1 X58.788 Y66.49 E0.33624
;WIDTH:0.499999
G1 X60.895 Y67.054 E0.41418
;WIDTH:0.57071
G1 X60.959 Y67.071 E0.4169
G1 X61.006 Y67.025 E0.41962
;WIDTH:0.5
G1 X62.548 Y65.482 E0.49756
;WIDTH:0.57071
G1 X62.595 Y65.435 E0.50028
;WIPE_START
M204 S4000
G1 X62.957 Y65.266 F12000
;WIPE_END
G92 E0
G1 E-0.5 F3000
M204 S2000
G1 X56.647 Y68.227 F12000
G1 E0 F1800
G1 X56.694 Y68.18 E0.00272
;WIDTH:0.500001
G1 X58.236 Y66.637 E0.08066
;WIDTH:0.570711
G1 X58.283 Y66.591 E0.08338
G1 X58.266 Y66.527 E0.0861
;WIDTH:0.5
G1 X57.701 Y64.42 E0.16404
;WIDTH:0.570711
G1 X57.684 Y64.356 E0.16676
G1 X57.62 Y64.339 E0.16948
;WIDTH:0.5
G1 X55.513 Y63.774 E0.24742
;WIDTH:0.570711
G1 X55.45 Y63.757 E0.25014
G1 X55.403 Y63.804 E0.25286
;WIDTH:0.5
G1 X53.86 Y65.347 E0.3308
;WIDTH:0.57071
G1 X53.814 Y65.393 E0.33352
G1 X53.831 Y65.457 E0.33624
;WIDTH:0.499999
G1 X54.395 Y67.564 E0.41418
;WIDTH:0.570711
G1 X54.412 Y67.628 E0.4169
G1 X54.476 Y67.645 E0.41962
;WIDTH:0.5
G1 X56.583 Y68.21 E0.49756
;WIDTH:0.57071
G1 X56.647 Y68.227 E0.50028
;WIPE_START
M204 S4000
G1 X56.975 Y68.456 F12000
;WIPE_END
G92 E0
G1 E-0.5 F3000
M204 S2000
G1 X50.1 Y68.783 F12000
G1 E0 F1800
;WIDTH:0.570711
G1 X50.164 Y68.8 E0.00272
;WIDTH:0.499999
G1 X52.271 Y69.365 E0.08066
;WIDTH:0.57071
G1 X52.335 Y69.382 E0.08338
G1 X52.382 Y69.335 E0.0861
;WIDTH:0.500002
G1 X53.924 Y67.793 E0.16404
;WIDTH:0.570711
G1 X53.971 Y67.746 E0.16676
G1 X53.954 Y67.682 E0.16948
;WIDTH:0.499999
G1 X53.389 Y65.575 E0.24742
;WIDTH:0.57071
G1 X53.372 Y65.512 E0.25014
G1 X53.308 Y65.494 E0.25286
;WIDTH:0.499999
G1 X51.201 Y64.93 E0.3308
;WIDTH:0.570711
G1 X51.138 Y64.913 E0.33352
G1 X51.091 Y64.959 E0.33624
;WIDTH:0.5
G1 X49.548 Y66.502 E0.41418
;WIDTH:0.57071
G1 X49.502 Y66.549 E0.4169
G1 X49.519 Y66.612 E0.41962
;WIDTH:0.499998
G1 X50.083 Y68.72 E0.49756
;WIDTH:0.570711
G1 X50.1 Y68.783 E0.50028
;WIPE_START
M204 S4000
G1 X50.066 Y69.182 F12000
;WIPE_END
G92 E0
G1 E-0.5 F3000
M204 S2000
G1 X56.529 Y68.668 F12000
G1 E0 F1800
;WIDTH:0.57071
G1 X56.465 Y68.651 E0.00272
;WIDTH:0.5
G1 X54.358 Y68.086 E0.08066
;WIDTH:0.570711
G1 X54.294 Y68.069 E0.08338
G1 X54.247 Y68.116 E0.0861
;WIDTH:0.5
G1 X52.705 Y69.659 E0.16404
;WIDTH:0.57071
G1 X52.658 Y69.705 E0.16676
G1 X52.675 Y69.769 E0.16948
;WIDTH:0.499999
G1 X53.24 Y71.876 E0.24742
;WIDTH:0.57071
G1 X53.257 Y71.94 E0.25014
G1 X53.321 Y71.957 E0.25286
;WIDTH:0.499999
G1 X55.428 Y72.522 E0.3308
;WIDTH:0.57071
G1 X55.492 Y72.539 E0.33352
G1 X55.538 Y72.492 E0.33624
;WIDTH:0.500002
G1 X57.081 Y70.949 E0.41418
;WIDTH:0.570711
G1 X57.128 Y70.903 E0.4169
G1 X57.11 Y70.839 E0.41962
;WIDTH:0.5
G1 X56.546 Y68.732 E0.49756
;WIDTH:0.57071
G1 X56.529 Y68.668 E0.50028
;WIPE_START
M204 S4000
G1 X56.564 Y68.27 F12000
;WIPE_END
G92 E0
G1 E-0.5 F3000
M204 S2000
G1 X48.023 Y70.537 F12000
G1 E0 F1800
;WIDTH:0.570711
G1 X48.07 Y70.491 E0.00272
;WIDTH:0.500002
G1 X49.612 Y68.948 E0.08066
;WIDTH:0.570711
G1 X49.659 Y68.902 E0.08338
;WIDTH:0.536228
G1 X49.63 Y68.793 E0.0877
;WIDTH:0.5
G1 X49.077 Y66.731 E0.16399
;WIDTH:0.57071
G1 X49.06 Y66.667 E0.16671
G1 X48.996 Y66.65 E0.16943
;WIDTH:0.5
G1 X46.889 Y66.085 E0.24737
;WIDTH:0.57071
G1 X46.826 Y66.068 E0.25009
G1 X46.779 Y66.115 E0.25281
;WIDTH:0.5
G1 X45.236 Y67.657 E0.33075
;WIDTH:0.57071
G1 X45.19 Y67.704 E0.33347
G1 X45.207 Y67.768 E0.33619
;WIDTH:0.499999
G1 X45.771 Y69.875 E0.41413
;WIDTH:0.57071
G1 X45.788 Y69.939 E0.41685
G1 X45.852 Y69.956 E0.41957
;WIDTH:0.5
G1 X47.959 Y70.52 E0.49751
;WIDTH:0.570711
G1 X48.023 Y70.537 E0.50023
;WIPE_START
M204 S4000
G1 X48.351 Y70.767 F12000
;WIPE_END
G92 E0
G1 E-0.5 F3000
M204 S2000
G1 X50.216 Y62.355 F12000
G1 E0 F1800
;WIDTH:0.57071
G1 X50.152 Y62.338 E0.00272
;WIDTH:0.5
G1 X48.045 Y61.773 E0.08066
;WIDTH:0.57071
G1 X47.981 Y61.756 E0.08338
G1 X47.934 Y61.803 E0.0861
;WIDTH:0.5
G1 X46.392 Y63.345 E0.16404
;WIDTH:0.57071
G1 X46.345 Y63.392 E0.16676
G1 X46.362 Y63.456 E0.16948
;WIDTH:0.500872
G1 X46.915 Y65.519 E0.24592
;WIDTH:0.536228
G1 X46.944 Y65.627 E0.25024
;WIDTH:0.57071
G1 X47.008 Y65.644 E0.25296
;WIDTH:0.499999
G1 X49.115 Y66.208 E0.33089
;WIDTH:0.57071
G1 X49.178 Y66.225 E0.33362
G1 X49.225 Y66.179 E0.33634
;WIDTH:0.500002
G1 X50.768 Y64.636 E0.41428
;WIDTH:0.570711
G1 X50.814 Y64.59 E0.417
G1 X50.797 Y64.526 E0.41972
;WIDTH:0.5
G1 X50.233 Y62.419 E0.49765
;WIDTH:0.57071
G1 X50.216 Y62.355 E0.50038
;WIPE_START
M204 S4000
G1 X50.25 Y61.956 F12000
;WIPE_END
M204 S2000
G1 X52.293 Y60.601
G1 F1800
G1 X52.246 Y60.647 E0.5031
;WIDTH:0.5
G1 X50.704 Y62.19 E0.58103
;WIDTH:0.57071
G1 X50.657 Y62.237 E0.58376
G1 X50.674 Y62.3 E0.58648
;WIDTH:0.499999
G1 X51.239 Y64.408 E0.66441
;WIDTH:0.570711
G1 X51.256 Y64.471 E0.66714
G1 X51.32 Y64.488 E0.66986
;WIDTH:0.5
G1 X53.427 Y65.053 E0.74779
;WIDTH:0.57071
G1 X53.49 Y65.07 E0.75052
G1 X53.537 Y65.023 E0.75324
;WIDTH:0.500002
G1 X55.08 Y63.481 E0.83117
;WIDTH:0.570711
G1 X55.126 Y63.434 E0.8339
G1 X55.109 Y63.37 E0.83662
;WIDTH:0.5
G1 X54.545 Y61.263 E0.91455
;WIDTH:0.570709
G1 X54.528 Y61.2 E0.91728
G1 X54.464 Y61.182 E0.92
;WIDTH:0.499998
G1 X52.357 Y60.618 E0.99793
;WIDTH:0.57071
G1 X52.293 Y60.601 E1.00065
;WIPE_START
M204 S4000
