; HEADER_BLOCK_START
; generated by OrcaSlicer 1.6.3 on 2023-06-08 at 13:26:58
; total layer number: 97
; HEADER_BLOCK_END

; THUMBNAIL_BLOCK_START
; THUMBNAIL_BLOCK_END

; external perimeters extrusion width = 0.40mm
; perimeters extrusion width = 0.45mm
; infill extrusion width = 0.45mm
; solid infill extrusion width = 0.40mm
; top infill extrusion width = 0.40mm
; first layer extrusion width = 0.50mm

; external perimeters extrusion width = 0.40mm
; perimeters extrusion width = 0.45mm
; infill extrusion width = 0.45mm
; solid infill extrusion width = 0.40mm
; top infill extrusion width = 0.40mm
; first layer extrusion width = 0.50mm

; EXECUTABLE_BLOCK_START
EXCLUDE_OBJECT_DEFINE NAME=Back_Plate.stl_id_0_copy_0 CENTER=71.3949,60 POLYGON=[[48.8877,18.75],[93.902,18.75],[93.902,52.25],[77.2426,97.1869],[77.1269,97.4216],[76.9816,97.6391],[76.8091,97.8358],[73.6877,100.957],[73.5684,101.059],[73.4346,101.141],[73.2897,101.201],[73.1371,101.238],[72.9806,101.25],[69.8091,101.25],[69.6526,101.238],[69.5,101.201],[69.3551,101.141],[69.2213,101.059],[69.102,100.957],[65.9806,97.8358],[65.8081,97.6391],[65.6628,97.4216],[65.5471,97.1869],[48.8877,52.25],[48.8877,18.75]]
EXCLUDE_OBJECT_DEFINE NAME=cable_holder.stl_id_1_copy_0 CENTER=37.0825,72.7214 POLYGON=[[26.098,78.2216],[26.0982,78.2185],[26.0983,78.2168],[26.0988,78.206],[26.0999,78.1836],[26.1005,78.1723],[26.1008,78.1653],[26.1015,78.152],[26.1019,78.1437],[26.1027,78.1288],[26.1033,78.1193],[26.1042,78.1031],[26.1047,78.0926],[26.1057,78.0754],[26.1062,78.0668],[26.1091,78.0184],[26.1133,77.9528],[26.1136,77.9478],[26.1139,77.9427],[26.1146,77.9326],[26.1243,77.7968],[26.1308,77.7153],[26.1355,77.659],[26.1613,77.3858],[26.1627,77.3729],[26.1636,77.3645],[26.1922,77.1131],[26.2046,77.0145],[26.213,76.9503],[26.2281,76.8409],[26.2538,76.6656],[26.2565,76.6481],[26.2613,76.6175],[26.2667,76.5829],[26.2729,76.5443],[26.2754,76.5293],[26.2798,76.5021],[26.2876,76.4553],[26.2958,76.4065],[26.3002,76.3813],[26.3037,76.361],[26.3054,76.3511],[26.3078,76.3372],[26.311,76.3193],[26.3149,76.2975],[26.3195,76.2716],[26.325,76.2417],[26.3312,76.2079],[26.3382,76.1704],[26.3459,76.1295],[26.3544,76.0855],[26.3635,76.0387],[26.3654,76.0291],[26.3733,75.9895],[26.3837,75.938],[26.3947,75.8846],[26.4069,75.8265],[26.4138,75.794],[26.42,75.765],[26.421,75.7605],[26.4305,75.7168],[26.4341,75.7006],[26.4411,75.6692],[26.4491,75.6334],[26.4521,75.6201],[26.4634,75.5706],[26.4749,75.5212],[26.4818,75.4918],[26.487,75.4697],[26.4994,75.4179],[26.51,75.3742],[26.5178,75.3425],[26.524,75.3174],[26.537,75.2657],[26.5491,75.218],[26.5568,75.188],[26.5733,75.1248],[26.5773,75.1096],[26.5983,75.031],[26.6183,74.9572],[26.6414,74.8745],[26.6633,74.7973],[26.6853,74.7213],[26.7081,74.6443],[26.7316,74.5665],[26.7385,74.5436],[26.7435,74.5274],[26.7556,74.4884],[26.7802,74.4101],[26.8051,74.3321],[26.8303,74.2547],[26.8556,74.1782],[26.8706,74.1336],[26.8708,74.1329],[26.881,74.103],[26.9078,74.0248],[26.9345,73.9486],[26.9607,73.8747],[26.9865,73.8034],[27.009,73.7421],[27.0144,73.7275],[27.0406,73.6571],[27.1564,73.3589],[27.1579,73.3552],[27.1697,73.3258],[27.2786,73.063],[27.3174,72.9726],[27.3365,72.9286],[27.4071,72.7698],[27.4874,72.5946],[27.5147,72.5364],[27.5418,72.4793],[27.6679,72.2214],[27.6828,72.1918],[27.7041,72.1495],[27.7245,72.1094],[27.783,71.9962],[27.8297,71.9073],[27.8427,71.8829],[27.9032,71.7705],[27.9045,71.7682],[27.9426,71.6986],[27.9821,71.6274],[27.9827,71.6262],[28.0207,71.5584],[28.059,71.4911],[28.0968,71.4253],[28.1157,71.3928],[28.134,71.3614],[28.1415,71.3486],[28.171,71.2985],[28.2053,71.2409],[28.2083,71.2359],[28.2456,71.1739],[28.2654,71.1411],[28.2859,71.1075],[28.3063,71.0744],[28.3123,71.0647],[28.3377,71.0236],[28.3415,71.0175],[28.3567,70.993],[28.3698,70.9721],[28.3967,70.9294],[28.4031,70.9192],[28.422,70.8894],[28.4449,70.8534],[28.4456,70.8523],[28.4673,70.8185],[28.4817,70.7963],[28.4871,70.7879],[28.5015,70.7657],[28.5054,70.7596],[28.5189,70.739],[28.5216,70.7348],[28.5337,70.7162],[28.5356,70.7134],[28.5461,70.6974],[28.5473,70.6956],[28.5565,70.6816],[28.5633,70.6713],[28.5674,70.6651],[28.5701,70.661],[28.59,70.6309],[28.8129,70.3052],[28.8307,70.2799],[29.0658,69.9564],[29.0812,69.9358],[29.2199,69.7557],[29.3286,69.6151],[29.3414,69.599],[29.6011,69.2815],[29.611,69.2697],[29.7511,69.1065],[29.883,68.9559],[29.8899,68.9482],[29.9363,68.8967],[30.1255,68.6903],[30.1742,68.6384],[30.1778,68.6347],[30.3187,68.4875],[30.3703,68.4346],[30.4222,68.3819],[30.4744,68.3295],[31.8704,66.9335],[32.3825,66.7214],[41.7825,66.7214],[42.2947,66.9335],[42.3423,66.9812],[43.6907,68.3295],[43.7428,68.3819],[43.7947,68.4346],[43.8464,68.4875],[43.9873,68.6347],[43.9909,68.6384],[44.0396,68.6903],[44.2288,68.8967],[44.2752,68.9482],[44.2821,68.9559],[44.414,69.1065],[44.5541,69.2697],[44.564,69.2815],[44.8237,69.599],[44.8365,69.6151],[44.9452,69.7557],[45.0839,69.9358],[45.0993,69.9564],[45.3344,70.2799],[45.3522,70.3052],[45.575,70.6309],[45.595,70.661],[45.5977,70.6651],[45.6018,70.6713],[45.6086,70.6816],[45.6178,70.6956],[45.6291,70.7128],[45.643,70.7341],[45.6435,70.7348],[45.6596,70.7596],[45.678,70.7879],[45.6977,70.8185],[45.7154,70.8459],[45.7195,70.8523],[45.7362,70.8786],[45.7431,70.8894],[45.7584,70.9135],[45.7684,70.9294],[45.7953,70.9721],[45.8064,70.9898],[45.8236,71.0175],[45.8274,71.0236],[45.8528,71.0647],[45.8588,71.0744],[45.8706,71.0936],[45.8824,71.113],[45.9159,71.1679],[45.9506,71.2256],[45.9568,71.2359],[45.9866,71.2859],[45.994,71.2985],[46.0235,71.3486],[46.031,71.3614],[46.0494,71.3928],[46.0682,71.4253],[46.106,71.4911],[46.1443,71.5584],[46.183,71.6274],[46.2225,71.6986],[46.2606,71.7682],[46.2619,71.7705],[46.3224,71.8829],[46.3353,71.9073],[46.3821,71.9962],[46.4406,72.1094],[46.461,72.1495],[46.4823,72.1918],[46.4972,72.2214],[46.6232,72.4793],[46.6504,72.5364],[46.6776,72.5946],[46.758,72.7698],[46.8285,72.9286],[46.8477,72.9726],[46.8865,73.063],[46.9954,73.3258],[47.0072,73.3552],[47.0087,73.3589],[47.1244,73.6571],[47.1507,73.7275],[47.1561,73.7421],[47.1786,73.8034],[47.2043,73.8747],[47.2306,73.9486],[47.2573,74.0248],[47.2841,74.103],[47.2943,74.1329],[47.2945,74.1336],[47.3095,74.1782],[47.3348,74.2547],[47.36,74.3321],[47.3849,74.4101],[47.4094,74.4884],[47.4215,74.5274],[47.4265,74.5436],[47.4335,74.5665],[47.457,74.6443],[47.4798,74.7213],[47.5018,74.7973],[47.5237,74.8745],[47.5467,74.9572],[47.5668,75.031],[47.5878,75.1096],[47.5918,75.1248],[47.6082,75.188],[47.616,75.218],[47.6281,75.2657],[47.6414,75.3191],[47.6473,75.3425],[47.655,75.3742],[47.6657,75.4179],[47.6782,75.4702],[47.6833,75.4918],[47.6902,75.5212],[47.7016,75.5706],[47.713,75.6201],[47.724,75.6692],[47.731,75.7006],[47.7345,75.7168],[47.7441,75.7605],[47.7451,75.765],[47.7513,75.794],[47.7582,75.8265],[47.7704,75.8846],[47.7814,75.938],[47.7918,75.9895],[47.7997,76.0291],[47.8016,76.0387],[47.8107,76.0855],[47.8192,76.1295],[47.8269,76.1704],[47.8339,76.2079],[47.8401,76.2417],[47.8455,76.2716],[47.8502,76.2975],[47.8541,76.3193],[47.8573,76.3372],[47.8597,76.3511],[47.8614,76.361],[47.8693,76.4067],[47.8776,76.4556],[47.8854,76.5026],[47.8897,76.5293],[47.8922,76.5447],[47.8984,76.5832],[47.9038,76.6177],[47.9085,76.6481],[47.9112,76.6656],[47.937,76.8409],[47.952,76.9503],[47.9605,77.0145],[47.9729,77.1131],[48.0015,77.3645],[48.0024,77.3729],[48.0037,77.3858],[48.0296,77.659],[48.0343,77.7153],[48.0407,77.7968],[48.0505,77.9326],[48.0508,77.9377],[48.0515,77.9478],[48.0518,77.9528],[48.056,78.0184],[48.0589,78.0668],[48.0594,78.0754],[48.0604,78.0934],[48.0609,78.1033],[48.0619,78.1199],[48.0624,78.1292],[48.0631,78.144],[48.0636,78.1525],[48.0643,78.1654],[48.0646,78.1728],[48.0652,78.1836],[48.0661,78.2022],[48.0663,78.206],[48.0668,78.2168],[48.067,78.2216],[47.8248,78.4715],[47.5825,78.7214],[26.5825,78.7214],[26.3403,78.4715],[26.098,78.2216]]
M73 P0 R31
;TYPE:Custom
START_PRINT T_BED=110 T_EXTRUDER=260
G90
G21
M83 ; use relative distances for extrusion
; Filament gcode

    PRESSURE_ADVANCE_SELECT FILAMENT=ABS
M106 S0
;LAYER_CHANGE
;Z:0.2
;HEIGHT:0.2
;BEFORE_LAYER_CHANGE
;0.2
G92 E0

;AFTER_LAYER_CHANGE
;0.2
SET_VELOCITY_LIMIT ACCEL_TO_DECEL=500
M204 S1000
G1 E-.5 F3000
G1 Z.2 F21000
G1 X48.241 Y22.787
G1 E.5 F1800
;TYPE:Skirt
;WIDTH:0.5
G1 F3000
G1 X50.736 Y17.505 E.2056
G1 X51.716 Y16.351 E.05327
G1 X53.371 Y15.836 E.061
G1 X89.419 Y15.836 E1.26865
G1 X90.88 Y16.229 E.05327
G1 X91.948 Y17.302 E.05327
G1 X92.333 Y18.75 E.05272
G1 X92.333 Y52.25 E1.17899
M73 P0 R30
G1 X92.232 Y53.011 E.02702
G1 X80.086 Y97.876 E1.6358
G1 X79.741 Y98.71 E.03179
G1 X79.173 Y99.561 E.03598
G1 X75.748 Y103.018 E.17125
G1 X75.091 Y103.544 E.02962
G1 X74.55 Y103.833 E.02161
G1 X73.366 Y104.143 E.04307
G1 X69.58 Y104.155 E.13322
G1 X68.972 Y104.071 E.02161
G1 X68.24 Y103.833 E.02709
G1 X25.299 Y79.271 E1.74103
G1 X24.226 Y78.203 E.05327
G1 X23.876 Y77.255 E.03558
G1 X23.795 Y76.605 E.02305
G1 X23.826 Y75.957 E.02283
G1 X24.323 Y73.847 E.07628
G1 X25.05 Y71.883 E.07371
G1 X48.215 Y22.842 E1.90884
G1 X48.629 Y23.037 F21000
G1 F3000
G1 X51.15 Y17.7 E.20771
G1 X52.073 Y16.664 E.04884
G1 X53.371 Y16.293 E.04753
G1 X89.419 Y16.293 E1.26865
G1 X90.75 Y16.685 E.04884
G1 X91.656 Y17.735 E.04884
G1 X91.876 Y18.75 E.03653
G1 X91.876 Y52.25 E1.17899
G1 X91.79 Y52.892 E.02278
G1 X79.653 Y97.729 E1.63479
G1 X79.331 Y98.508 E.02969
G1 X78.829 Y99.259 E.03178
G1 X75.425 Y102.695 E.1702
G1 X74.852 Y103.154 E.02584
G1 X74.375 Y103.411 E.01909
G1 X73.33 Y103.687 E.03804
G1 X69.616 Y103.7 E.1307
G1 X69.079 Y103.627 E.01908
G1 X68.415 Y103.411 E.02457
G1 X25.526 Y78.874 E1.73899
G1 X24.35 Y77.281 E.0697
G1 X24.25 Y76.517 E.02711
G1 X24.313 Y75.809 E.02503
G1 X24.626 Y74.446 E.04922
G1 X25.438 Y72.137 E.08612
G1 X48.603 Y23.091 E1.90897
; printing object Back Plate.stl id:0 copy 0
EXCLUDE_OBJECT_START NAME=Back_Plate.stl_id_0_copy_0
G1 E-.5
G1 Z.4 F21000
G1 X87.197 Y50.029
G1 Z.2
G1 E.5 F1800
;TYPE:Inner wall
;WIDTH:0.499999
G1 F3000
G1 X81.195 Y50.038 E.21123
G1 X80.45 Y50.107 E.02635
G1 X80.06 Y50.18 E.01397
G1 X79.329 Y50.388 E.02675
G1 X78.705 Y50.659 E.02393
G1 X77.959 Y51.07 E.02997
G1 X77.064 Y51.792 E.04049
G1 X76.314 Y52.67 E.04064
G1 X75.746 Y53.657 E.04004
G1 X75.366 Y54.739 E.04039
G1 X75.344 Y54.99 E.00888
;WIDTH:0.450949
G1 X75.322 Y55.242 E.00792
;WIDTH:0.401899
G1 X75.3 Y55.493 E.00697
;WIDTH:0.352848
G1 X75.261 Y56.248 E.01805
;WIDTH:0.325222
G1 X75.261 Y82.753 E.57612
;WIDTH:0.338916
G1 X75.254 Y83.1 E.00791
;WIDTH:0.379438
G1 X75.234 Y83.611 E.01326
;WIDTH:0.419625
G1 X75.214 Y83.838 E.0066
;WIDTH:0.459812
G1 X75.194 Y84.065 E.0073
;WIDTH:0.499999
G1 X75.174 Y84.291 E.00801
G1 X75.174 Y89.413 E.18026
G1 X75.194 Y89.65 E.00838
;WIDTH:0.459296
G1 X75.214 Y89.888 E.00763
;WIDTH:0.418593
G1 X75.229 Y90.487 E.01735
;WIDTH:0.389133
G1 X75.244 Y91.087 E.01599
;WIDTH:0.40019
G1 X75.224 Y91.329 E.00667
;WIDTH:0.440707
G1 X75.203 Y91.571 E.00743
;WIDTH:0.481224
G1 X75.183 Y91.812 E.00818
;WIDTH:0.499999
G1 X75.174 Y96.269 E.15687
G1 X75.138 Y96.366 E.00363
G1 X74.698 Y96.805 E.02186
G1 X74.492 Y96.381 E.01661
G1 X74.132 Y95.896 E.02124
G1 X73.584 Y95.384 E.02639
G1 X72.975 Y94.992 E.0255
G1 X72.169 Y94.724 E.0299
G1 X71.938 Y94.717 E.00812
;WIDTH:0.453077
G1 X71.708 Y94.711 E.00728
;WIDTH:0.406155
G1 X71.477 Y94.705 E.00645
;WIDTH:0.391952
G1 X71.192 Y94.708 E.00766
;WIDTH:0.424672
G1 X70.907 Y94.711 E.00838
;WIDTH:0.462336
G1 X70.611 Y94.754 E.00967
;WIDTH:0.499999
G1 X70.315 Y94.798 E.01054
G1 X69.799 Y95.012 E.01964
G1 X69.239 Y95.343 E.0229
G1 X68.856 Y95.684 E.01805
G1 X68.303 Y96.366 E.0309
G1 X68.094 Y96.808 E.01721
G1 X67.661 Y96.375 E.02152
G1 X67.616 Y96.279 E.00374
G1 X67.616 Y92.751 E.12417
G1 X67.596 Y92.13 E.02186
;WIDTH:0.459775
G1 X67.576 Y91.509 E.01994
;WIDTH:0.41955
G1 X67.559 Y91.239 E.00785
;WIDTH:0.386022
G1 X67.542 Y90.969 E.00715
;WIDTH:0.375224
G1 X67.554 Y90.315 E.01673
;WIDTH:0.416816
G1 X67.574 Y90.07 E.00708
;WIDTH:0.458408
G1 X67.595 Y89.825 E.00787
;WIDTH:0.499999
G1 X67.616 Y89.58 E.00865
G1 X67.616 Y84.295 E.18601
G1 X67.595 Y84.055 E.00848
;WIDTH:0.458812
G1 X67.575 Y83.815 E.00771
;WIDTH:0.417625
G1 X67.554 Y83.575 E.00695
;WIDTH:0.376438
G1 X67.542 Y83.164 E.01056
;WIDTH:0.350831
G1 X67.529 Y82.753 E.00975
;WIDTH:0.325223
G1 X67.529 Y56.248 E.57612
;WIDTH:0.329876
G1 X67.522 Y56.059 E.00418
;WIDTH:0.372407
G1 X67.508 Y55.776 E.0072
;WIDTH:0.414938
G1 X67.495 Y55.492 E.00813
;WIDTH:0.457469
G1 X67.481 Y55.209 E.00906
;WIDTH:0.499999
G1 X67.467 Y54.925 E.00999
G1 X67.116 Y53.82 E.0408
G1 X66.571 Y52.81 E.04039
G1 X65.851 Y51.917 E.04039
G1 X64.978 Y51.171 E.04039
G1 X64.136 Y50.665 E.03457
G1 X63.608 Y50.455 E.02001
G1 X62.9 Y50.22 E.02627
G1 X62.017 Y50.06 E.03156
G1 X61.397 Y50.029 E.02186
G1 X55.592 Y50.029 E.20428
G1 X55.592 Y30.85 E.67497
G1 X57.307 Y30.85 E.06036
G1 X57.572 Y30.834 E.00934
G1 X58.174 Y30.759 E.02133
G1 X58.671 Y30.635 E.01804
G1 X59.217 Y30.427 E.02058
G1 X59.676 Y30.186 E.01823
G1 X60.176 Y29.839 E.02142
G1 X60.56 Y29.498 E.01809
G1 X60.947 Y29.06 E.02058
G1 X61.241 Y28.634 E.0182
G1 X61.523 Y28.095 E.02142
G1 X61.705 Y27.613 E.01812
G1 X61.883 Y26.853 E.0275
G1 X61.926 Y26.231 E.02192
G1 X61.926 Y22.727 E.12335
G1 X61.91 Y22.462 E.00934
G1 X61.835 Y21.86 E.02134
G1 X61.711 Y21.362 E.01804
G1 X61.562 Y20.971 E.01473
G1 X87.197 Y20.971 E.90221
G1 X87.197 Y27.608 E.23356
G1 X85.482 Y27.608 E.06036
G1 X85.218 Y27.624 E.00934
G1 X84.616 Y27.699 E.02133
G1 X84.119 Y27.823 E.01804
G1 X83.572 Y28.031 E.02058
G1 X83.114 Y28.272 E.01823
G1 X82.614 Y28.619 E.02142
G1 X82.23 Y28.96 E.01809
G1 X81.842 Y29.398 E.02058
G1 X81.549 Y29.824 E.0182
G1 X81.267 Y30.363 E.02142
G1 X81.084 Y30.845 E.01812
G1 X80.944 Y31.412 E.02057
G1 X80.864 Y32.227 E.0288
G1 X80.864 Y35.042 E.09908
G1 X80.882 Y35.731 E.02428
;WIDTH:0.463075
G1 X80.914 Y35.873 E.00469
;WIDTH:0.418101
G1 X80.946 Y36.014 E.00419
;WIDTH:0.373126
G1 X81.026 Y36.589 E.01475
;WIDTH:0.403905
G1 X81.044 Y36.758 E.00472
;WIDTH:0.451952
G1 X81.061 Y36.926 E.00534
;WIDTH:0.499999
G1 X81.079 Y37.095 E.00597
G1 X81.287 Y37.641 E.02058
G1 X81.528 Y38.1 E.01823
G1 X81.875 Y38.6 E.02142
G1 X82.216 Y38.984 E.01809
G1 X82.654 Y39.372 E.02058
G1 X83.08 Y39.665 E.0182
G1 X83.619 Y39.947 E.02142
G1 X84.1 Y40.13 E.01812
G1 X84.668 Y40.269 E.02057
G1 X85.482 Y40.35 E.0288
G1 X87.197 Y40.35 E.06036
G1 X87.197 Y49.969 E.33851
G1 E-.5
G1 Z.4 F21000
G1 X75.956 Y39.047
G1 Z.2
G1 E.5 F1800
G1 F3000
G1 X75.494 Y39.274 E.01811
G1 X75.037 Y39.373 E.01646
G1 X72.404 Y39.384 E.09269
G1 X71.804 Y39.314 E.02125
G1 X71.336 Y39.177 E.01715
G1 X70.874 Y39.319 E.01703
G1 X70.179 Y39.376 E.02454
G1 X68.268 Y39.385 E.06726
G1 X67.294 Y39.351 E.03429
G1 X66.772 Y39.267 E.01859
G1 X66.659 Y39.222 E.00429
G1 X66.172 Y39.343 E.01764
G1 X65.489 Y39.38 E.02407
G1 X63.474 Y39.385 E.07092
G1 X62.985 Y39.329 E.01733
G1 X62.598 Y39.2 E.01436
G1 X62.172 Y38.947 E.01744
G1 X61.775 Y38.553 E.01968
G1 X61.474 Y38.019 E.02159
G1 X61.321 Y37.512 E.01861
G1 X61.289 Y37.142 E.01308
G1 X61.321 Y36.772 E.01308
G1 X61.504 Y36.207 E.02088
G1 X61.783 Y35.774 E.01814
G1 X62.24 Y35.328 E.0225
G1 X67.695 Y30.33 E.26036
G1 X68.108 Y30.033 E.01792
G1 X68.316 Y29.936 E.00808
G1 X68.621 Y29.494 E.0189
G1 X69.424 Y28.745 E.03865
G1 X69.876 Y28.371 E.02065
G1 X70.309 Y28.124 E.01756
G1 X70.799 Y27.97 E.01806
G1 X71.323 Y27.904 E.0186
G1 X71.953 Y27.97 E.02227
G1 X72.496 Y28.173 E.02042
G1 X72.929 Y28.426 E.01766
G1 X73.132 Y28.59 E.00916
G1 X79.945 Y34.833 E.32522
G1 X80.295 Y35.235 E.01876
G1 X80.582 Y35.787 E.02188
;WIDTH:0.463075
G1 X80.611 Y35.961 E.00572
;WIDTH:0.428902
G1 X80.641 Y36.135 E.00526
;WIDTH:0.394729
G1 X80.67 Y36.31 E.00479
;WIDTH:0.408847
G1 X80.745 Y36.874 E.01603
;WIDTH:0.454423
G1 X80.748 Y37.038 E.0052
;WIDTH:0.499999
G1 X80.751 Y37.202 E.00578
G1 X80.639 Y37.65 E.01624
G1 X80.398 Y38.136 E.01911
G1 X80.01 Y38.63 E.02211
G1 X79.469 Y39.042 E.02394
G1 X78.974 Y39.253 E.01894
G1 X78.464 Y39.368 E.0184
G1 X77.111 Y39.385 E.04763
G1 X76.607 Y39.328 E.01783
G1 X76.26 Y39.215 E.01284
