; generated by SuperSlicer 2.5.59 on 2023-05-24 at 05:11:36 UTC


;
;

;
;
; 

; external perimeters extrusion width = 0.40mm
; perimeters extrusion width = 0.46mm
; infill extrusion width = 0.64mm
; solid infill extrusion width = 0.56mm
; top infill extrusion width = 0.40mm
; support material extrusion width = 0.46mm
; first layer extrusion width = 0.50mm

; external perimeters extrusion width = 0.40mm
; perimeters extrusion width = 0.46mm
; infill extrusion width = 0.64mm
; solid infill extrusion width = 0.56mm
; top infill extrusion width = 0.40mm
; support material extrusion width = 0.46mm
; first layer extrusion width = 0.50mm

; object:{"name":"Back plate hex standoff","id":"Back plate hex standoff.stl id:0 copy 0","object_center":[34.117613,60.000001,0.000000],"boundingbox_center":[34.117613,60.000001,5.249498],"boundingbox_size":[45.000000,81.000004,10.498997]}
EXCLUDE_OBJECT_DEFINE NAME=Back_plate_hex_standoff_stl_id_0_copy_0 CENTER=34.117613,60.000001 POLYGON=[[11.617615,19.500000],[56.617616,19.500000],[56.617616,51.500004],[39.965376,96.436936],[39.849668,96.671568],[39.704324,96.889096],[39.531828,97.085784],[36.410508,100.207104],[36.291188,100.309024],[36.157392,100.391008],[36.012416,100.451048],[35.859836,100.487688],[35.703400,100.500000],[32.531830,100.500000],[32.375392,100.487688],[32.222812,100.451048],[32.077838,100.391008],[31.944042,100.309024],[31.824722,100.207104],[28.703402,97.085784],[28.530906,96.889096],[28.385562,96.671568],[28.269856,96.436936],[11.617615,51.500004],[11.617615,19.500000]]
; object:{"name":"Front hex standoff","id":"Front hex standoff.stl id:1 copy 0","object_center":[80.882388,77.328952,0.000000],"boundingbox_center":[80.882388,77.328952,7.025001],"boundingbox_size":[55.000000,21.567001,14.050001]}
EXCLUDE_OBJECT_DEFINE NAME=Front_hex_standoff_stl_id_1_copy_0 CENTER=80.882388,77.328952 POLYGON=[[53.382384,77.556440],[54.882384,76.056440],[99.882384,66.545448],[106.882384,66.545448],[108.379408,68.045448],[108.381016,70.112440],[108.382384,74.734448],[108.382384,81.423448],[108.381016,88.112448],[53.382384,88.112448],[53.382384,77.556440]]
; plater:{"center":[60.000000,60.000001,0.000000],"boundingbox_center":[60.000000,60.000001,7.025001],"boundingbox_size":[96.764775,81.000004,14.050001]}

M73 P0 R44
;TYPE:Custom
; custom gcode: start_gcode
START_PRINT T_BED=110 T_EXTRUDER=260
; custom gcode end: start_gcode
M107
G21 ; set units to millimeters
G90 ; use absolute coordinates
M82 ; use absolute distances for extrusion
G92 E0
; custom gcode: start_filament_gcode
; Filament gcode

    PRESSURE_ADVANCE_SELECT FILAMENT=ABS
; custom gcode end: start_filament_gcode
;_TOOLCHANGE 0
M104 S260 ; set temperature
M109 S260 ; set temperature and wait for it to be reached
M190 S110 ; set bed temperature and wait for it to be reached
;LAYER_CHANGE
;Z:0.2
;HEIGHT:0.2
G1 Z0.2 F12000
G1 E-0.5 F3000
M204 S2000
G1 X8.404 Y14 F12000
G1 E0 F1800
;TYPE:Skirt
;WIDTH:0.52
G1 X7.304 Y15.312 E0.0629
G1 X6.909 Y16.979 E0.12581
G1 X6.909 Y54.022 E1.48654
G1 X7.197 Y55.456 E1.5403
G1 X24.935 Y97.833 E3.22783
G1 X25.521 Y98.892 E3.27229
G1 X26.149 Y99.645 E3.30829
G1 X29.263 Y102.758 E3.47003
G1 X29.943 Y103.309 E3.5022
G1 X30.705 Y103.736 E3.53429
G1 X31.669 Y104.024 E3.57123
G1 X32.54 Y104.116 E3.6034
G1 X35.991 Y104.104 E3.73018
G1 X109.081 Y94.315 E6.43904
M73 P0 R44
G1 X110.563 Y93.779 E6.4969
G1 X111.764 Y92.559 E6.5598
G1 X112.291 Y90.93 E6.62271
G1 X113.612 Y74.418 E7.23118
G1 X113.626 Y72.905 E7.28678
G1 X113.128 Y66.401 E7.52638
G1 X112.925 Y65.441 E7.56243
G1 X111.996 Y64.003 E7.62533
G1 X60.18 Y14.297 E10.26289
G1 X59.274 Y13.658 E10.30362
G1 X57.608 Y13.263 E10.36652
G1 X54.737 Y13.263 E10.472
G1 X10.625 Y13.263 E12.0924
G1 X8.404 Y14 E12.17836
G1 X8.782 Y14.35 F12000
G1 F1800
G1 X7.78 Y15.431 E12.23249
G1 X7.386 Y16.979 E12.29116
G1 X7.386 Y54.022 E13.65189
G1 X7.637 Y55.272 E13.69874
G1 X25.375 Y97.649 E15.38627
G1 X25.918 Y98.627 E15.42736
G1 X26.486 Y99.307 E15.45993
G1 X29.6 Y102.421 E15.62167
G1 X30.223 Y102.923 E15.65109
G1 X30.888 Y103.295 E15.67906
G1 X31.743 Y103.553 E15.71188
G1 X32.54 Y103.639 E15.7413
G1 X35.954 Y103.629 E15.8667
G1 X109.018 Y93.842 E18.5746
G1 X110.123 Y93.484 E18.61728
G1 X111.299 Y92.403 E18.67595
G1 X111.816 Y90.892 E18.73461
G1 X113.125 Y74.601 E19.33498
G1 X113.15 Y72.941 E19.39595
G1 X112.653 Y66.437 E19.63555
G1 X111.666 Y64.347 E19.72047
G1 X59.85 Y14.641 E22.35802
G1 X59.156 Y14.134 E22.38961
G1 X57.608 Y13.74 E22.44828
G1 X54.737 Y13.74 E22.55376
G1 X10.625 Y13.74 E24.17416
G1 X8.866 Y14.259 E24.24153
G1 X8.782 Y14.35 E24.24607
G92 E0
G1 E-0.5 F3000
; printing object Back plate hex standoff.stl id:0 copy 0
EXCLUDE_OBJECT_START NAME=Back_plate_hex_standoff_stl_id_0_copy_0
G1 X33.646 Y67.308 F12000
G1 E0 F1800
;TYPE:Support material
;WIDTH:0.5
G1 X34.589 Y67.308 E0.03318
G1 X34.589 Y76.351 E0.35144
G1 X33.646 Y76.351 E0.38462
G1 X33.646 Y67.308 E0.70288
G1 X34.118 Y76.237 F12000
G1 F1800
G1 X34.118 Y67.422 E1.01309
G92 E0
G1 E-0.5 F3000
G1 X34.118 Y63.351 F12000
G1 E0 F1800
G1 X33.646 Y63.351 E0.01659
G1 X33.646 Y54.308 E0.33485
G1 X34.589 Y54.308 E0.36803
G1 X34.589 Y63.351 E0.68629
G1 X34.118 Y63.351 E0.70288
G1 X34.118 Y63.237 F12000
G1 F1800
G1 X34.118 Y54.422 E1.01309
G92 E0
G1 E-0.5 F3000
G1 X16.791 Y54.021 F12000
G1 E0 F1800
G1 X10.625 Y54.022 E0.21703
G1 X10.625 Y30.102 E1.05886
G1 X12.233 Y29.003 E1.12742
G1 X13.434 Y28.639 E1.17158
G1 X13.722 Y28.67 E1.18178
G1 X15.126 Y27.699 E1.24183
G1 X15.926 Y27.518 E1.2707
G1 X16.517 Y27.437 E1.29172
G1 X17.059 Y27.412 E1.31081
G1 X22.07 Y27.412 E1.48716
G1 X22.639 Y27.167 E1.50895
G1 X22.639 Y29.659 E1.59664
G1 X17.106 Y29.659 E1.79136
G1 X16.647 Y29.678 E1.80754
G1 X16.148 Y29.739 E1.82523
G1 X15.601 Y29.864 E1.84498
G1 X14.26 Y30.635 E1.89943
G1 X13.589 Y30.774 E1.92355
G1 X13.367 Y31.114 E1.93783
G1 X13.367 Y51.979 E2.67215
G1 X14.748 Y51.979 E2.72077
G1 X14.748 Y51.479 E2.73836
G1 X15.748 Y52.479 E2.78813
G1 X16.791 Y52.479 E2.82483
G1 X16.791 Y54.021 E2.87913
G92 E0
G1 E-0.5 F3000
G1 X21.929 Y29.544 F12000
G1 E0 F1800
G1 X21.929 Y27.722 E0.06413
G1 X21.421 Y27.722 E0.082
G1 X21.421 Y29.348 E0.13921
G1 X20.913 Y29.348 E0.15708
G1 X20.913 Y27.722 E0.2143
G1 X20.405 Y27.722 E0.23217
G1 X20.405 Y29.348 E0.28938
G1 X19.897 Y29.348 E0.30725
G1 X19.897 Y27.722 E0.36446
G1 X19.39 Y27.722 E0.38234
G1 X19.39 Y29.348 E0.43955
G1 X18.882 Y29.348 E0.45742
G1 X18.882 Y27.722 E0.51463
G1 X18.374 Y27.722 E0.5325
G1 X18.374 Y29.348 E0.58971
G1 X17.866 Y29.348 E0.60759
G1 X17.866 Y27.722 E0.6648
G1 X17.358 Y27.722 E0.68267
G1 X17.358 Y29.348 E0.73988
G1 X16.85 Y29.358 E0.75776
G1 X16.85 Y27.732 E0.81497
G1 X16.342 Y27.774 E0.83291
G1 X16.342 Y29.401 E0.89015
G1 X15.834 Y29.49 E0.90829
G1 X15.834 Y27.857 E0.96575
G1 X15.327 Y27.972 E0.98407
G1 X15.327 Y29.673 E1.04391
G1 X14.819 Y29.961 E1.06446
G1 X14.819 Y28.289 E1.12328
G1 X14.311 Y28.646 E1.14513
G1 X14.311 Y30.248 E1.20152
G1 X14.149 Y30.34 E1.20808
G1 X13.803 Y30.412 E1.22051
G1 X13.803 Y28.99 E1.27053
G1 X13.464 Y28.955 E1.28253
G1 X13.295 Y29.006 E1.28874
G1 X13.295 Y30.655 E1.34678
G1 X13.056 Y31.021 E1.36217
G1 X13.056 Y52.29 E2.11069
M73 P1 R44
G1 X13.295 Y52.29 E2.1191
G1 X13.295 Y53.711 E2.16912
G1 X13.803 Y53.711 E2.18699
G1 X13.803 Y52.29 E2.237
G1 X14.311 Y52.289 E2.25488
G1 X14.311 Y53.711 E2.30489
G1 X14.819 Y53.711 E2.32277
G1 X14.819 Y52.289 E2.37278
G1 X15.059 Y52.289 E2.38124
G1 X15.059 Y52.229 E2.38337
G1 X15.327 Y52.496 E2.39667
G1 X15.327 Y53.71 E2.4394
G1 X15.834 Y53.71 E2.45727
G1 X15.834 Y52.789 E2.48969
G1 X16.342 Y52.789 E2.50756
G1 X16.342 Y53.907 E2.5469
G1 X12.787 Y53.907 F12000
G1 F1800
G1 X12.787 Y29.16 E3.41785
G1 X12.369 Y29.287 E3.43323
G1 X12.279 Y29.348 E3.43706
G1 X12.279 Y53.711 E4.29448
M73 P1 R43
G1 X11.772 Y53.711 E4.31235
G1 X11.772 Y29.695 E5.15756
G1 X11.264 Y30.042 E5.17921
G1 X11.264 Y53.907 E6.01913
G92 E0
G1 E-0.5 F3000
G1 X45.596 Y38.97 F12000
G1 E0 F1800
G1 X45.596 Y36.478 E0.08769
G1 X46.165 Y36.723 E0.10948
G1 X51.176 Y36.723 E0.28582
G1 X51.718 Y36.748 E0.30492
G1 X52.309 Y36.829 E0.32594
G1 X53.11 Y37.01 E0.35481
G1 X54.53 Y37.993 E0.41561
G1 X54.858 Y38.004 E0.42715
G1 X55.296 Y38.099 E0.44292
G1 X55.996 Y38.314 E0.46871
G1 X57.611 Y39.403 E0.53724
G1 X57.611 Y54.021 E1.05172
G1 X51.868 Y54.021 E1.25381
G1 X51.868 Y52.479 E1.30811
G1 X52.487 Y52.479 E1.32988
G1 X53.487 Y51.479 E1.37964
G1 X53.487 Y51.979 E1.39724
G1 X54.868 Y51.979 E1.44586
G1 X54.868 Y40.425 E1.8525
G1 X54.623 Y40.049 E1.86827
G1 X54.108 Y39.972 E1.8866
G1 X53.869 Y39.885 E1.89555
G1 X52.634 Y39.175 E1.9457
G1 X52.143 Y39.06 E1.96346
G1 X51.633 Y38.992 E1.98157
G1 X51.129 Y38.97 E1.99932
G1 X45.596 Y38.97 E2.19404
G92 E0
G1 E-0.5 F3000
G1 X56.972 Y53.907 F12000
G1 E0 F1800
G1 X56.972 Y39.347 E0.51243
G1 X56.464 Y39.005 E0.53398
G1 X56.464 Y53.711 E1.05154
G1 X55.956 Y53.711 E1.06942
G1 X55.956 Y38.662 E1.59903
G1 X55.861 Y38.598 E1.60307
G1 X55.448 Y38.471 E1.61826
G1 X55.448 Y53.711 E2.1546
G1 X54.94 Y53.711 E2.17248
G1 X54.94 Y52.29 E2.22249
G1 X54.432 Y52.29 E2.24037
G1 X54.432 Y53.711 E2.29038
G1 X53.924 Y53.711 E2.30825
G1 X53.924 Y52.29 E2.35827
G1 X53.417 Y52.29 E2.37614
G1 X53.417 Y53.711 E2.42615
G1 X52.909 Y53.711 E2.44403
G1 X52.909 Y52.496 E2.48676
G1 X52.616 Y52.789 E2.50134
G1 X52.401 Y52.789 E2.5089
G1 X52.401 Y53.907 E2.54824
G92 E0
G1 E-0.5 F3000
G1 X54.94 Y40.325 F12000
G1 E0 F1800
G1 X54.94 Y38.34 E0.06989
G1 X54.819 Y38.313 E0.07423
G1 X54.432 Y38.301 E0.08787
G1 X54.432 Y39.716 E0.13766
G1 X54.19 Y39.671 E0.14632
G1 X54 Y39.602 E0.15344
G1 X53.924 Y39.559 E0.1565
G1 X53.924 Y37.958 E0.21288
G1 X53.417 Y37.6 E0.23474
G1 X53.417 Y39.271 E0.29356
G1 X52.909 Y38.984 E0.3141
G1 X52.909 Y37.283 E0.37394
G1 X52.401 Y37.168 E0.39227
G1 X52.401 Y38.801 E0.44972
G1 X51.893 Y38.712 E0.46787
G1 X51.893 Y37.085 E0.52511
G1 X51.385 Y37.043 E0.54304
G1 X51.385 Y38.669 E0.60026
G1 X50.877 Y38.659 E0.61813
G1 X50.877 Y37.033 E0.67534
G1 X50.369 Y37.033 E0.69322
G1 X50.369 Y38.659 E0.75043
G1 X49.861 Y38.659 E0.7683
G1 X49.861 Y37.033 E0.82551
G1 X49.354 Y37.033 E0.84338
G1 X49.354 Y38.659 E0.90059
G1 X48.846 Y38.659 E0.91847
G1 X48.846 Y37.033 E0.97568
G1 X48.338 Y37.033 E0.99355
G1 X48.338 Y38.659 E1.05076
G1 X47.83 Y38.659 E1.06864
G1 X47.83 Y37.033 E1.12585
G1 X47.322 Y37.033 E1.14372
G1 X47.322 Y38.659 E1.20093
G1 X46.814 Y38.659 E1.21881
G1 X46.814 Y37.033 E1.27602
G1 X46.306 Y37.033 E1.29389
G1 X46.306 Y38.855 E1.35802
G1 X45.596 Y35.61 F12000
G1 F1800
G1 X45.596 Y33.118 E1.4457
G1 X51.129 Y33.118 E1.64043
G1 X51.588 Y33.099 E1.6566
G1 X52.087 Y33.038 E1.6743
G1 X52.634 Y32.913 E1.69404
G1 X53.868 Y32.204 E1.74412
G1 X54.101 Y32.118 E1.75289
G1 X54.623 Y32.039 E1.77146
G1 X54.868 Y31.664 E1.78723
G1 X54.868 Y19.021 E2.23218
G1 X53.486 Y19.021 E2.2808
G1 X53.487 Y19.52 E2.29836
G1 X52.487 Y18.521 E2.3481
G1 X51.867 Y18.521 E2.36991
G1 X51.865 Y16.979 E2.42421
G1 X54.737 Y16.979 E2.52527
G1 X57.608 Y16.979 E2.62632
G1 X57.61 Y32.676 E3.17877
G1 X55.998 Y33.777 E3.24749
G1 X55.435 Y33.96 E3.2683
G1 X54.911 Y34.084 E3.28725
G1 X54.52 Y34.102 E3.30102
G1 X53.11 Y35.078 E3.36138
G1 X52.309 Y35.259 E3.39026
G1 X51.718 Y35.34 E3.41128
G1 X51.176 Y35.365 E3.43037
G1 X46.165 Y35.365 E3.60672
G1 X45.596 Y35.61 E3.62851
G1 X56.972 Y32.973 F12000
G1 F1800
G1 X56.972 Y17.289 E4.18049
G1 X56.464 Y17.289 E4.19836
G1 X56.464 Y33.082 E4.75417
G1 X55.956 Y33.429 E4.77582
G1 X55.956 Y17.289 E5.34384
G1 X55.448 Y17.289 E5.36171
G1 X55.448 Y33.629 E5.93677
G1 X54.94 Y33.758 E5.95521
G1 X54.94 Y32.122 E6.01277
G1 X54.804 Y32.331 E6.02153
G1 X54.432 Y32.375 E6.03471
G1 X54.432 Y33.795 E6.0847
G1 X53.924 Y34.131 E6.10612
G1 X53.924 Y32.529 E6.16251
G1 X53.417 Y32.816 E6.18306
G1 X53.417 Y34.488 E6.24189
G1 X52.982 Y34.788 E6.26046
G1 X52.909 Y34.805 E6.26312
G1 X52.909 Y33.104 E6.32295
G1 X52.761 Y33.203 E6.32919
G1 X52.401 Y33.287 E6.34222
G1 X52.401 Y34.92 E6.39967
G1 X51.893 Y35.003 E6.41778
G1 X51.893 Y33.376 E6.47502
G1 X51.385 Y33.419 E6.49296
G1 X51.385 Y35.045 E6.55017
G1 X50.877 Y35.055 E6.56805
G1 X50.877 Y33.429 E6.62526
G1 X50.369 Y33.429 E6.64313
G1 X50.369 Y35.055 E6.70034
G1 X49.861 Y35.055 E6.71822
G1 X49.861 Y33.429 E6.77543
G1 X49.354 Y33.429 E6.7933
G1 X49.354 Y35.055 E6.85051
G1 X48.846 Y35.055 E6.86838
G1 X48.846 Y33.429 E6.92559
G1 X48.338 Y33.429 E6.94347
G1 X48.338 Y35.055 E7.00068
G1 X47.83 Y35.055 E7.01855
G1 X47.83 Y33.429 E7.07576
G1 X47.322 Y33.429 E7.09363
G1 X47.322 Y35.055 E7.15084
G1 X46.814 Y35.055 E7.16872
G1 X46.814 Y33.429 E7.22593
G1 X46.306 Y33.429 E7.2438
G1 X46.306 Y35.251 E7.30793
G92 E0
G1 E-0.5 F3000
G1 X54.94 Y18.907 F12000
G1 E0 F1800
G1 X54.94 Y17.289 E0.05693
G1 X54.432 Y17.289 E0.0748
G1 X54.432 Y18.71 E0.12482
G1 X53.924 Y18.71 E0.14269
G1 X53.924 Y17.289 E0.19271
G1 X53.417 Y17.289 E0.21058
G1 X53.417 Y18.71 E0.26059
G1 X53.175 Y18.71 E0.26909
G1 X53.175 Y18.77 E0.27118
G1 X52.909 Y18.504 E0.28442
G1 X52.909 Y17.289 E0.32716
G1 X52.401 Y17.289 E0.34503
G1 X52.401 Y18.407 E0.38437
G92 E0
G1 E-0.5 F3000
G1 X22.639 Y23.806 F12000
G1 E0 F1800
G1 X22.639 Y26.299 E0.08773
G1 X22.07 Y26.054 E0.10953
G1 X17.059 Y26.054 E0.28587
G1 X16.517 Y26.029 E0.30497
G1 X15.92 Y25.947 E0.3262
G1 X15.069 Y25.75 E0.35692
G1 X14.372 Y25.263 E0.38685
G1 X13.906 Y24.905 E0.40754
G1 X13.008 Y24.7 E0.43997
G1 X12.179 Y24.432 E0.47063
G1 X10.625 Y23.351 E0.53725
G1 X10.625 Y16.979 E0.76153
G1 X16.367 Y16.979 E0.96362
G1 X16.367 Y18.521 E1.01792
G1 X15.748 Y18.521 E1.0397
G1 X14.748 Y19.521 E1.08946
G1 X14.748 Y19.021 E1.10705
G1 X13.367 Y19.021 E1.15567
G1 X13.367 Y22.352 E1.27291
G1 X13.623 Y22.745 E1.28939
G1 X13.79 Y22.783 E1.29542
G1 X14.023 Y22.879 E1.30431
G1 X14.51 Y23.181 E1.32446
G1 X14.746 Y23.196 E1.33279
G1 X15.077 Y23.294 E1.34493
G1 X15.459 Y23.511 E1.36041
G1 X15.585 Y23.604 E1.36591
G1 X15.861 Y23.675 E1.37593
G1 X15.959 Y23.797 E1.38143
G1 X22.639 Y23.806 E1.61653
G1 X21.929 Y25.94 F12000
G1 F1800
G1 X21.929 Y24.116 E1.68074
G1 X21.421 Y24.115 E1.69862
G1 X21.421 Y25.744 E1.75593
G1 X20.913 Y25.744 E1.7738
G1 X20.913 Y24.114 E1.83114
G1 X20.405 Y24.114 E1.84902
G1 X20.405 Y25.744 E1.90638
G1 X19.897 Y25.744 E1.92426
G1 X19.897 Y24.113 E1.98164
G1 X19.39 Y24.112 E1.99952
G1 X19.39 Y25.744 E2.05693
G1 X18.882 Y25.744 E2.0748
G1 X18.882 Y24.112 E2.13224
G1 X18.374 Y24.111 E2.15011
G1 X18.374 Y25.744 E2.20757
G1 X17.866 Y25.744 E2.22545
G1 X17.866 Y24.11 E2.28293
G1 X17.358 Y24.11 E2.30081
G1 X17.358 Y25.744 E2.35832
G1 X16.85 Y25.734 E2.37619
G1 X16.85 Y24.109 E2.43338
G1 X16.342 Y24.108 E2.45125
G1 X16.342 Y25.692 E2.50698
G1 X15.834 Y25.608 E2.52509
G1 X15.834 Y24.107 E2.57791
G1 X15.81 Y24.107 E2.57877
G1 X15.683 Y23.95 E2.58587
G1 X15.449 Y23.89 E2.59438
G1 X15.327 Y23.8 E2.59974
G1 X15.327 Y25.491 E2.65926
G1 X15.198 Y25.461 E2.66391
G1 X14.819 Y25.196 E2.68019
G1 X14.819 Y23.542 E2.73841
G1 X14.691 Y23.504 E2.7431
G1 X14.412 Y23.486 E2.75294
G1 X14.311 Y23.423 E2.75713
G1 X14.311 Y24.816 E2.80617
G1 X14.039 Y24.616 E2.81807
G1 X13.803 Y24.562 E2.82658
G1 X13.803 Y23.124 E2.87718
G1 X13.696 Y23.08 E2.88127
G1 X13.431 Y23.02 E2.89082
G1 X13.295 Y22.811 E2.89958
G1 X13.295 Y24.446 E2.95712
G1 X12.787 Y24.312 E2.97561
G1 X12.787 Y17.289 E3.22277
G1 X13.295 Y17.289 E3.24065
G1 X13.295 Y18.71 E3.29066
G1 X13.803 Y18.71 E3.30853
G1 X13.803 Y17.289 E3.35855
G1 X14.311 Y17.289 E3.37642
G1 X14.311 Y18.71 E3.42644
G1 X14.819 Y18.71 E3.44431
G1 X14.819 Y17.289 E3.49432
G1 X15.327 Y17.289 E3.5122
G1 X15.327 Y18.504 E3.55493
G1 X15.619 Y18.211 E3.5695
G1 X15.834 Y18.211 E3.57707
G1 X15.834 Y17.093 E3.61641
G92 E0
G1 E-0.5 F3000
G1 X12.279 Y24.345 F12000
G1 E0 F1800
G1 X12.279 Y17.289 E0.24833
G1 X11.772 Y17.289 E0.2662
G1 X11.772 Y23.77 E0.49427
G1 X11.264 Y23.417 E0.51604
G1 X11.264 Y17.093 E0.7386
G92 E0
G1 E-0.5 F3000
G1 X31.765 Y34.609 F12000
G1 E0 F1800
;TYPE:External perimeter
G1 X31.599 Y34.596 E0.00588
G1 X31.408 Y34.679 E0.01322
G1 X29.824 Y36.13 E0.0888
G1 X29.738 Y36.341 E0.09682
G1 X29.912 Y36.725 E0.11165
G1 X30.752 Y36.755 E0.14123
;TYPE:Internal perimeter
