; generated by SuperSlicer 2.5.59 on 2023-08-04 at 17:24:29 UTC


;
;

;
;
; 

; external perimeters extrusion width = 0.40mm
; perimeters extrusion width = 0.46mm
; infill extrusion width = 0.64mm
; solid infill extrusion width = 0.56mm
; top infill extrusion width = 0.40mm
; support material extrusion width = 0.46mm
; first layer extrusion width = 0.50mm

; object:{"name":"backplate","id":"backplate.stl id:0 copy 0","object_center":[59.999943,59.999979,0.000000],"boundingbox_center":[59.999943,59.999979,5.250532],"boundingbox_size":[45.038307,50.019651,10.501064]}
EXCLUDE_OBJECT_DEFINE NAME=backplate_stl_id_0_copy_0 CENTER=59.999943,59.999979 POLYGON=[[37.480788,37.377280],[37.480928,37.352452],[37.482128,37.236372],[37.519036,34.990180],[37.523952,34.990172],[37.535068,34.990164],[37.548028,34.990160],[37.621268,34.990156],[38.057604,34.990160],[38.218048,34.990164],[38.397536,34.990172],[38.811304,34.990196],[39.835396,34.990264],[40.740724,34.990332],[41.658632,34.990408],[42.918940,34.990524],[77.682056,34.993812],[78.969432,34.993944],[80.143456,34.994072],[80.666272,34.994132],[81.889104,34.994292],[82.161688,34.994340],[82.359280,34.994376],[82.479000,34.994408],[82.519096,34.994432],[82.516080,66.994432],[66.014372,85.009800],[65.514380,85.009776],[54.514376,85.008736],[54.014376,85.008672],[37.516088,66.990180],[37.480788,37.377280]]
; plater:{"center":[59.999943,59.999979,0.000000],"boundingbox_center":[59.999943,59.999979,5.250532],"boundingbox_size":[45.038307,50.019651,10.501064]}

M73 P0 R24
;TYPE:Custom
; custom gcode: start_gcode
START_PRINT T_BED=110 T_EXTRUDER=260
; custom gcode end: start_gcode
M107
G21 ; set units to millimeters
G90 ; use absolute coordinates
M82 ; use absolute distances for extrusion
G92 E0
; custom gcode: start_filament_gcode
; filament start gcode

    PRESSURE_ADVANCE_SELECT FILAMENT=ABS
; custom gcode end: start_filament_gcode
;_TOOLCHANGE 0
M104 S260 ; set temperature
M109 S260 ; set temperature and wait for it to be reached
M190 S110 ; set bed temperature and wait for it to be reached
;LAYER_CHANGE
;Z:0.2
;HEIGHT:0.2
G1 Z0.2 F12000
M73 P0 R24
G1 E-0.5 F2400
M204 S2000
G1 X33.873 Y29.364 F12000
G1 E0 F1800
;TYPE:Skirt
;WIDTH:0.52
G1 X32.773 Y30.677 E0.0629
G1 X31.564 Y33.087 E0.16196
G1 X31.169 Y34.747 E0.22466
G1 X31.169 Y38.288 E0.35473
G1 X32.715 Y69.729 E1.51107
G1 X32.984 Y70.945 E1.55679
G1 X33.976 Y72.34 E1.6197
G1 X51.634 Y87.828 E2.48249
G1 X52.418 Y88.355 E2.51718
G1 X54.084 Y88.75 E2.58009
G1 X65.944 Y88.751 E3.01576
G1 X66.881 Y88.631 E3.05046
G1 X68.394 Y87.829 E3.11336
G1 X86.055 Y72.344 E3.97617
G1 X86.925 Y71.218 E4.02842
G1 X87.32 Y69.552 E4.09133
G1 X87.323 Y32.346 E5.45806
G1 X86.587 Y30.127 E5.54395
G1 X85.274 Y29.027 E5.60685
G1 X83.608 Y28.632 E5.66976
G1 X42.432 Y28.628 E7.18229
G1 X36.094 Y28.627 E7.41511
G1 X33.873 Y29.364 E7.50108
G1 X34.244 Y29.686 F12000
G1 F1800
G1 X33.199 Y30.89 E7.55965
G1 X31.99 Y33.301 E7.65871
G1 X31.646 Y34.748 E7.71336
G1 X31.645 Y38.265 E7.84254
G1 X33.192 Y69.706 E8.99888
M73 P1 R24
G1 X33.387 Y70.665 E9.03483
G1 X34.291 Y71.981 E9.0935
G1 X51.949 Y87.469 E9.95629
G1 X54.084 Y88.273 E10.0401
G1 X65.944 Y88.274 E10.47577
G1 X68.08 Y87.47 E10.55958
G1 X85.74 Y71.985 E11.42238
G1 X86.449 Y71.1 E11.46404
G1 X86.843 Y69.552 E11.52271
G1 X86.846 Y32.346 E12.88943
G1 X86.327 Y30.589 E12.95674
G1 X85.156 Y29.503 E13.01541
G1 X83.608 Y29.109 E13.07408
G1 X42.432 Y29.105 E14.58661
G1 X36.094 Y29.104 E14.81943
G1 X34.244 Y29.686 E14.89068
G92 E0
G1 E-0.5 F2400
; printing object backplate.stl id:0 copy 0
EXCLUDE_OBJECT_START NAME=backplate_stl_id_0_copy_0
G1 X59.537 Y69.862 F12000
G1 E0 F1800
;TYPE:Support material
;WIDTH:0.5
G1 X60.016 Y69.862 E0.01685
G1 X60.495 Y69.862 E0.0337
G1 X60.494 Y78.925 E0.35266
G1 X59.536 Y78.925 E0.38636
G1 X59.537 Y69.862 E0.70531
G1 X60 Y78.811 F12000
G1 F1800
G1 X60 Y69.977 E1.01623
G92 E0
G1 E-0.5 F2400
G1 X77.597 Y69.55 F12000
G1 E0 F1800
G1 X77.597 Y68.007 E0.0543
G1 X78.439 Y68.008 E0.08395
G1 X79.467 Y66.984 E0.13501
G1 X79.467 Y67.508 E0.15345
G1 X80.86 Y67.508 E0.20249
G1 X80.865 Y56.102 E0.60391
G1 X80.548 Y55.614 E0.62437
G1 X80.404 Y55.517 E0.63049
G1 X80.202 Y55.428 E0.63827
G1 X80.032 Y55.405 E0.6443
G1 X79.738 Y55.301 E0.65528
G1 X79.462 Y55.134 E0.66664
G1 X79.251 Y55.082 E0.67428
G1 X78.987 Y54.944 E0.68478
G1 X78.866 Y54.903 E0.68927
G1 X78.181 Y54.744 E0.71401
G1 X77.783 Y54.684 E0.72819
G1 X77.119 Y54.643 E0.7516
G1 X71.549 Y54.642 E0.94763
G1 X71.549 Y52.097 E1.03721
G1 X72.17 Y52.391 E1.0614
G1 X77.193 Y52.392 E1.23817
G1 X78.027 Y52.451 E1.26761
G1 X78.987 Y52.655 E1.30213
G1 X79.787 Y52.948 E1.33213
G1 X80.09 Y53.216 E1.34635
G1 X80.438 Y53.398 E1.3602
G1 X81.035 Y53.479 E1.38138
G1 X81.57 Y53.84 E1.4041
G1 X82.003 Y53.987 E1.42021
G1 X83.614 Y55.096 E1.48903
G1 X83.605 Y69.55 E1.99772
G1 X77.597 Y69.55 E2.20917
G1 X82.854 Y69.436 F12000
G1 F1800
G1 X82.854 Y54.95 E2.71899
G1 X82.346 Y54.6 E2.74069
G1 X82.346 Y69.24 E3.25591
G1 X81.838 Y69.24 E3.27379
G1 X81.838 Y54.259 E3.80103
G1 X81.431 Y54.121 E3.81617
G1 X81.33 Y54.053 E3.82043
G1 X81.33 Y69.24 E4.35491
G1 X80.822 Y69.24 E4.37278
G1 X80.822 Y67.819 E4.4228
G1 X80.315 Y67.819 E4.44067
G1 X80.315 Y69.24 E4.49069
G1 X79.807 Y69.24 E4.50856
G1 X79.807 Y67.819 E4.55857
G1 X79.299 Y67.819 E4.57645
G1 X79.299 Y69.24 E4.62646
G1 X78.791 Y69.24 E4.64434
G1 X78.791 Y68.096 E4.68459
G1 X78.568 Y68.318 E4.69569
G1 X78.283 Y68.318 E4.7057
G1 X78.283 Y69.436 E4.74504
G92 E0
G1 E-0.5 F2400
G1 X80.822 Y55.827 F12000
G1 E0 F1800
G1 X80.822 Y53.764 E0.07261
G1 X80.315 Y53.684 E0.09071
G1 X80.315 Y55.137 E0.14185
G1 X80.106 Y55.101 E0.14931
G1 X79.872 Y55.018 E0.15805
G1 X79.807 Y54.979 E0.16072
G1 X79.807 Y53.38 E0.21698
G1 X79.625 Y53.219 E0.22552
G1 X79.299 Y53.1 E0.23774
G1 X79.299 Y54.757 E0.29604
G1 X79.109 Y54.657 E0.30357
G1 X78.791 Y54.564 E0.31524
G1 X78.791 Y52.931 E0.37271
G1 X78.283 Y52.823 E0.39098
G1 X78.283 Y54.448 E0.44817
G1 X77.775 Y54.37 E0.46625
G1 X77.775 Y52.745 E0.52346
G1 X77.267 Y52.709 E0.54138
G1 X77.267 Y54.34 E0.59877
G1 X76.76 Y54.332 E0.61665
G1 X76.76 Y52.703 E0.674
G1 X76.252 Y52.702 E0.69187
M73 P2 R24
G1 X76.252 Y54.332 E0.74922
G1 X75.744 Y54.332 E0.7671
G1 X75.744 Y52.702 E0.82445
G1 X75.236 Y52.702 E0.84233
G1 X75.236 Y54.332 E0.89968
G1 X74.728 Y54.332 E0.91755
G1 X74.728 Y52.702 E0.97491
G1 X74.22 Y52.702 E0.99278
G1 X74.22 Y54.332 E1.05014
G1 X73.712 Y54.332 E1.06801
G1 X73.712 Y52.702 E1.12537
G1 X73.204 Y52.702 E1.14324
G1 X73.204 Y54.332 E1.2006
G1 X72.697 Y54.332 E1.21848
G1 X72.697 Y52.702 E1.27584
G1 X72.189 Y52.702 E1.29371
G1 X72.189 Y54.528 E1.35799
G92 E0
G1 E-0.5 F2400
G1 X48.487 Y45.082 F12000
G1 E0 F1800
G1 X41.897 Y45.081 E0.23192
G1 X41.808 Y45.192 E0.23692
G1 X41.045 Y45.383 E0.26463
G1 X40.786 Y45.518 E0.27489
G1 X40.577 Y45.569 E0.28247
G1 X40.305 Y45.734 E0.29366
G1 X40.011 Y45.838 E0.30465
G1 X39.845 Y45.86 E0.31053
G1 X39.635 Y45.953 E0.3186
G1 X39.487 Y46.053 E0.32488
G1 X39.171 Y46.539 E0.34531
G1 X39.172 Y67.504 E1.08314
G1 X40.565 Y67.504 E1.13218
G1 X40.565 Y66.977 E1.15073
G1 X41.592 Y68.004 E1.20183
G1 X42.172 Y68.004 E1.22225
G1 X42.172 Y69.547 E1.27656
G1 X36.426 Y69.547 E1.47878
G1 X36.422 Y45.533 E2.32393
G1 X38.033 Y44.424 E2.39274
G1 X38.468 Y44.277 E2.40891
G1 X39.012 Y43.911 E2.43196
G1 X39.605 Y43.831 E2.45304
G1 X39.948 Y43.652 E2.46666
G1 X40.249 Y43.386 E2.48079
G1 X41.047 Y43.094 E2.51071
G1 X41.989 Y42.892 E2.54461
G1 X42.841 Y42.83 E2.57468
G1 X47.866 Y42.83 E2.75152
G1 X48.487 Y42.537 E2.7757
G1 X48.487 Y45.082 E2.86526
G1 X47.811 Y44.967 F12000
G1 F1800
G1 X47.811 Y43.141 E2.92953
G1 X47.303 Y43.141 E2.9474
G1 X47.303 Y44.771 E3.00475
G1 X46.795 Y44.771 E3.02263
G1 X46.795 Y43.141 E3.07998
G1 X46.288 Y43.141 E3.09785
G1 X46.288 Y44.771 E3.1552
G1 X45.78 Y44.771 E3.17308
G1 X45.78 Y43.141 E3.23043
G1 X45.272 Y43.141 E3.2483
G1 X45.272 Y44.771 E3.30565
G1 X44.764 Y44.771 E3.32352
G1 X44.764 Y43.141 E3.38087
G1 X44.256 Y43.141 E3.39875
G1 X44.256 Y44.771 E3.4561
G1 X43.748 Y44.77 E3.47397
G1 X43.748 Y43.141 E3.53132
G1 X43.24 Y43.141 E3.5492
G1 X43.24 Y44.77 E3.60655
G1 X42.732 Y44.77 E3.62442
G1 X42.732 Y43.15 E3.68146
G1 X42.225 Y43.187 E3.69938
G1 X42.225 Y44.77 E3.75512
G1 X41.747 Y44.77 E3.77192
G1 X41.717 Y44.809 E3.77364
G1 X41.717 Y43.268 E3.82785
G1 X41.209 Y43.377 E3.84613
G1 X41.209 Y45.011 E3.90362
G1 X40.922 Y45.097 E3.91415
G1 X40.701 Y45.212 E3.92294
G1 X40.701 Y43.551 E3.9814
G1 X40.411 Y43.657 E3.99228
G1 X40.193 Y43.85 E4.0025
G1 X40.193 Y45.438 E4.05841
G1 X39.937 Y45.534 E4.06802
G1 X39.759 Y45.558 E4.07434
G1 X39.685 Y45.591 E4.07719
G1 X39.685 Y44.134 E4.12846
G1 X39.177 Y44.202 E4.1465
G1 X39.177 Y45.959 E4.20832
G1 X38.86 Y46.447 E4.22881
G1 X38.861 Y67.815 E4.98082
G1 X39.177 Y67.815 E4.99195
G1 X39.177 Y69.236 E5.04196
G1 X38.67 Y69.236 E5.05983
G1 X38.67 Y44.515 E5.92984
G1 X38.607 Y44.558 E5.93251
G1 X38.162 Y44.712 E5.94908
G1 X38.162 Y69.236 E6.81218
G1 X37.654 Y69.236 E6.83005
G1 X37.654 Y45.062 E7.68083
G1 X37.146 Y45.412 E7.70253
G1 X37.146 Y69.432 E8.54792
G1 X41.717 Y69.433 F12000
G1 F1800
G1 X41.717 Y68.315 E8.58726
G1 X41.463 Y68.315 E8.59619
G1 X41.209 Y68.061 E8.60884
G1 X41.209 Y69.236 E8.65022
G1 X40.701 Y69.236 E8.66809
G1 X40.701 Y67.815 E8.71811
G1 X40.193 Y67.815 E8.73598
G1 X40.193 Y69.236 E8.78599
G1 X39.685 Y69.236 E8.80387
G1 X39.685 Y67.618 E8.8608
G92 E0
G1 E-0.5 F2400
G1 X71.549 Y51.294 F12000
G1 E0 F1800
G1 X71.549 Y48.749 E0.08956
G1 X78.139 Y48.749 E0.32148
G1 X78.228 Y48.638 E0.32648
G1 X78.989 Y48.448 E0.3541
G1 X79.251 Y48.311 E0.36452
G1 X79.461 Y48.26 E0.37213
G1 X79.735 Y48.094 E0.3834
G1 X80.03 Y47.99 E0.39439
G1 X80.198 Y47.968 E0.40034
G1 X80.401 Y47.877 E0.40818
G1 X80.549 Y47.778 E0.41445
G1 X80.865 Y47.291 E0.43488
G1 X80.862 Y34.39 E0.88893
G1 X79.468 Y34.39 E0.93798
G1 X79.468 Y34.917 E0.95654
G1 X78.438 Y33.89 E1.00774
G1 X77.599 Y33.89 E1.03727
G1 X77.599 Y32.347 E1.09157
G1 X80.405 Y32.347 E1.19034
G1 X83.607 Y32.347 E1.30303
G1 X83.614 Y48.298 E1.86438
G1 X82.004 Y49.407 E1.93321
G1 X81.568 Y49.554 E1.94938
G1 X81.028 Y49.917 E1.97228
G1 X80.435 Y49.997 E1.99334
G1 X80.09 Y50.178 E2.00707
G1 X79.788 Y50.445 E2.02126
G1 X78.989 Y50.737 E2.05119
G1 X78.047 Y50.939 E2.08508
G1 X77.195 Y51.001 E2.11515
G1 X72.17 Y51 E2.292
G1 X71.549 Y51.294 E2.31618
G1 X82.854 Y48.683 F12000
G1 F1800
G1 X82.854 Y32.658 E2.88014
G1 X82.346 Y32.658 E2.89802
G1 X82.346 Y48.794 E3.46589
M73 P3 R23
G1 X81.838 Y49.135 E3.48742
G1 X81.838 Y32.658 E4.06731
G1 X81.33 Y32.658 E4.08518
G1 X81.33 Y49.339 E4.67227
G1 X80.915 Y49.618 E4.68988
G1 X80.822 Y49.631 E4.69316
G1 X80.822 Y47.927 E4.75312
G1 X80.775 Y48 E4.75618
G1 X80.552 Y48.15 E4.76564
G1 X80.315 Y48.256 E4.77478
G1 X80.315 Y49.709 E4.82593
G1 X79.912 Y49.92 E4.84192
G1 X79.807 Y50.013 E4.84687
G1 X79.807 Y48.414 E4.90313
G1 X79.581 Y48.55 E4.91241
G1 X79.362 Y48.604 E4.92036
G1 X79.299 Y48.637 E4.92285
G1 X79.299 Y50.293 E4.98113
G1 X78.791 Y50.461 E4.99997
G1 X78.791 Y48.828 E5.05744
G1 X78.403 Y48.917 E5.07145
G1 X78.283 Y49.06 E5.07802
G1 X78.283 Y50.57 E5.13115
G1 X78.003 Y50.63 E5.14123
G1 X77.775 Y50.647 E5.14927
G1 X77.775 Y49.06 E5.20511
G1 X77.267 Y49.06 E5.22298
G1 X77.267 Y50.684 E5.28012
G1 X76.76 Y50.69 E5.29799
G1 X76.76 Y49.06 E5.35535
G1 X76.252 Y49.06 E5.37322
G1 X76.252 Y50.69 E5.43057
G1 X75.744 Y50.69 E5.44845
G1 X75.744 Y49.06 E5.5058
G1 X75.236 Y49.06 E5.52367
G1 X75.236 Y50.69 E5.58103
G1 X74.728 Y50.69 E5.5989
G1 X74.728 Y49.06 E5.65626
G1 X74.22 Y49.06 E5.67413
G1 X74.22 Y50.69 E5.73148
G1 X73.712 Y50.689 E5.74936
G1 X73.712 Y49.06 E5.80671
G1 X73.204 Y49.06 E5.82458
G1 X73.204 Y50.689 E5.88194
G1 X72.697 Y50.689 E5.89981
G1 X72.697 Y49.06 E5.95716
G1 X72.189 Y49.06 E5.97504
G1 X72.189 Y50.886 E6.03931
G92 E0
G1 E-0.5 F2400
G1 X80.822 Y34.275 F12000
G1 E0 F1800
G1 X80.822 Y32.658 E0.05693
G1 X80.315 Y32.658 E0.0748
G1 X80.315 Y34.079 E0.12482
G1 X79.807 Y34.079 E0.14269
G1 X79.807 Y32.658 E0.19271
G1 X79.299 Y32.658 E0.21058
G1 X79.299 Y34.079 E0.26059
G1 X79.157 Y34.079 E0.2656
G1 X79.157 Y34.168 E0.26873
G1 X78.791 Y33.803 E0.2869
G1 X78.791 Y32.658 E0.32721
G1 X78.283 Y32.658 E0.34509
G1 X78.283 Y33.775 E0.38443
G92 E0
G1 E-0.5 F2400
G1 X48.487 Y39.188 F12000
G1 E0 F1800
G1 X48.487 Y41.733 E0.08959
G1 X47.865 Y41.439 E0.11381
G1 X42.931 Y41.438 E0.28748
G1 X42.509 Y41.527 E0.30264
G1 X41.541 Y41.293 E0.33771
G1 X41.106 Y41.302 E0.35301
G1 X40.73 Y41.17 E0.36704
G1 X40.242 Y41.048 E0.38475
G1 X39.963 Y40.844 E0.39691
G1 X39.238 Y40.611 E0.42369
G1 X38.673 Y40.177 E0.44878
G1 X37.629 Y41.202 E0.50025
G1 X35.896 Y39.458 E0.58676
G1 X35.512 Y39.14 E0.60433
G1 X34.88 Y38.106 E0.64697
G1 X34.885 Y34.753 E0.76497
G1 X36.367 Y34.599 E0.81741
G1 X36.094 Y32.343 E0.89738
G1 X39.144 Y32.343 E1.00472
G1 X42.432 Y32.343 E1.12045
G1 X42.432 Y33.886 E1.17475
G1 X41.556 Y33.886 E1.20558
G1 X40.547 Y34.871 E1.25521
G1 X40.527 Y34.386 E1.27231
G1 X39.135 Y34.386 E1.32129
G1 X39.219 Y35.649 E1.36583
G1 X39.331 Y36.258 E1.38764
G1 X39.535 Y36.897 E1.41124
G1 X39.76 Y37.374 E1.42981
G1 X40.109 Y37.891 E1.45173
G1 X40.477 Y38.286 E1.47075
G1 X40.841 Y38.581 E1.48724
G1 X41.205 Y38.798 E1.50217
G1 X41.607 Y38.974 E1.5176
G1 X42.259 Y39.147 E1.54134
G1 X42.889 Y39.187 E1.56355
G1 X48.487 Y39.188 E1.76059
G1 X47.811 Y41.325 F12000
G1 F1800
G1 X47.811 Y39.498 E1.82486
G1 X47.303 Y39.498 E1.84274
G1 X47.303 Y41.128 E1.9001
G1 X46.795 Y41.128 E1.91797
G1 X46.795 Y39.498 E1.97533
G1 X46.288 Y39.498 E1.9932
G1 X46.288 Y41.128 E2.05056
G1 X45.78 Y41.128 E2.06844
G1 X45.78 Y39.498 E2.1258
G1 X45.272 Y39.498 E2.14367
G1 X45.272 Y41.128 E2.20103
G1 X44.764 Y41.128 E2.21891
G1 X44.764 Y39.498 E2.27627
G1 X44.256 Y39.498 E2.29414
G1 X44.256 Y41.128 E2.3515
G1 X43.748 Y41.128 E2.36937
G1 X43.748 Y39.498 E2.42674
G1 X43.24 Y39.498 E2.44461
G1 X43.24 Y41.128 E2.50197
G1 X42.898 Y41.127 E2.514
G1 X42.733 Y41.162 E2.51997
G1 X42.733 Y39.489 E2.57886
G1 X42.225 Y39.456 E2.59677
G1 X42.225 Y41.138 E2.65599
G1 X41.717 Y41.016 E2.67438
G1 X41.717 Y39.328 E2.73376
G1 X41.413 Y39.234 E2.74496
G1 X41.209 Y39.141 E2.75284
G1 X41.209 Y40.989 E2.81786
G1 X41.156 Y40.99 E2.81974
G1 X40.701 Y40.842 E2.83656
G1 X40.701 Y38.862 E2.90627
G1 X40.329 Y38.571 E2.92287
G1 X40.193 Y38.439 E2.92955
G1 X40.193 Y40.627 E3.00658
G1 X40.106 Y40.563 E3.01039
G1 X39.685 Y40.428 E3.02593
G1 X39.685 Y37.819 E3.11777
G1 X39.443 Y37.444 E3.13347
G1 X39.274 Y37.085 E3.14744
G1 X39.177 Y36.799 E3.15806
G1 X39.177 Y40.173 E3.27678
G1 X38.67 Y39.783 E3.29932
G1 X38.67 Y32.654 E3.55022
G1 X39.177 Y32.654 E3.56809
G1 X39.177 Y34.075 E3.6181
G1 X39.685 Y34.075 E3.63598
G1 X39.685 Y32.654 E3.68599
G1 X40.193 Y32.654 E3.70386
G1 X40.193 Y34.075 E3.75388
G1 X40.701 Y34.075 E3.77175
G1 X40.701 Y32.654 E3.82177
G1 X41.209 Y32.654 E3.83964
G1 X41.209 Y33.791 E3.87964
G1 X41.429 Y33.575 E3.89049
G1 X41.717 Y33.575 E3.9006
G1 X41.717 Y32.458 E3.93994
G92 E0
G1 E-0.5 F2400
G1 X38.162 Y40.519 F12000
G1 E0 F1800
G1 X38.162 Y32.654 E0.27679
G1 X37.654 Y32.654 E0.29467
G1 X37.654 Y40.742 E0.5793
G1 X37.631 Y40.763 E0.58041
G1 X37.146 Y40.275 E0.60464
G1 X37.146 Y32.654 E0.87287
G1 X36.638 Y32.654 E0.89074
G1 X36.638 Y39.764 E1.14099
G1 X36.13 Y39.254 E1.16634
G1 X36.13 Y34.936 E1.3183
G1 X35.622 Y34.989 E1.33627
G1 X35.622 Y39.083 E1.48036
G92 E0
G1 E-0.5 F2400
G1 X57.439 Y50.048 F12000
G1 E0 F1800
;TYPE:External perimeter
G1 X57.287 Y50.13 E0.00609
G1 X55.699 Y51.585 E0.0819
G1 X55.62 Y51.811 E0.09034
G1 X55.798 Y52.173 E0.10451
G1 X56.411 Y52.21 E0.12613
G1 X57.991 Y52.214 E0.18173
;TYPE:Internal perimeter
G1 X57.998 Y52.671 E0.19782
G1 X56.397 Y52.667 E0.25418
G1 X55.506 Y52.613 E0.2856
G1 X55.371 Y52.34 E0.29632
G1 X54.925 Y52.578 E0.31411
G1 X54.558 Y52.649 E0.32727
G1 X54.013 Y52.669 E0.34647
G1 X51.556 Y52.672 E0.43294
G1 X51.155 Y51.642 E0.47183
G1 X56.688 Y46.574 E0.7359
G1 X56.996 Y46.911 E0.75198
;TYPE:External perimeter
G1 X51.695 Y51.768 E1.00504
G1 X51.868 Y52.215 E1.0219
G1 X54.004 Y52.211 E1.09708
G1 X54.506 Y52.194 E1.11475
G1 X54.77 Y52.142 E1.12422
