; generated by SuperSlicer 2.5.59 on 2023-02-27 at 05:11:49 UTC


;
;

;
;
; 

; external perimeters extrusion width = 0.40mm
; perimeters extrusion width = 0.46mm
; infill extrusion width = 0.64mm
; solid infill extrusion width = 0.56mm
; top infill extrusion width = 0.40mm
; first layer extrusion width = 0.50mm

; object:{"name":"BagClip_65","id":"BagClip_65.stl id:0 copy 0","object_center":[60.000000,59.999926,0.000000],"boundingbox_center":[60.000000,59.999926,5.000000],"boundingbox_size":[67.099998,50.562000,10.000000]}
; plater:{"center":[60.000000,59.999926,0.000000],"boundingbox_center":[60.000000,59.999926,5.000000],"boundingbox_size":[67.099998,50.562000,10.000000]}

M73 P0 R31
;TYPE:Custom
; custom gcode: start_gcode
START_PRINT T_BED=60 T_EXTRUDER=200
; custom gcode end: start_gcode
M107
G21 ; set units to millimeters
G90 ; use absolute coordinates
M82 ; use absolute distances for extrusion
G92 E0
; custom gcode: start_filament_gcode
; Filament gcode

    PRESSURE_ADVANCE_SELECT FILAMENT=PLA
; custom gcode end: start_filament_gcode
;_TOOLCHANGE 0
M104 S200 ; set temperature
M109 S200 ; set temperature and wait for it to be reached
M190 S60 ; set bed temperature and wait for it to be reached
;LAYER_CHANGE
;Z:0.1
;HEIGHT:0.1
G1 Z0.1 F12000
M73 P0 R31
G1 E-0.8 F3000
M204 S2000
G1 X25.633 Y33.099 F12000
G1 E0 F1800
;TYPE:Skirt
;WIDTH:0.52
G1 X24.493 Y34.319 E0.03323
G1 X23.594 Y35.793 E0.06758
G1 X23.098 Y37.138 E0.0961
G1 X22.819 Y38.834 E0.1303
G1 X22.866 Y40.34 E0.16028
G1 X23.098 Y41.498 E0.18378
G1 X23.369 Y42.318 E0.20096
G1 X24.158 Y43.845 E0.23516
G1 X24.889 Y44.804 E0.25917
G1 X29.247 Y49.747 E0.39029
G1 X67.29 Y87.79 E1.46079
G1 X69.415 Y88.85 E1.50806
G1 X71.128 Y88.694 E1.54229
G1 X72.591 Y87.789 E1.57651
G1 X75.913 Y84.464 E1.67004
G1 X76.483 Y83.732 E1.68849
G1 X96.776 Y49.6 E2.47861
G1 X97.097 Y48.611 E2.4993
G1 X97.198 Y47.707 E2.5174
G1 X97.188 Y36.335 E2.74367
G1 X97.062 Y35.331 E2.76381
G1 X96.824 Y34.543 E2.78018
G1 X96.437 Y33.75 E2.79776
G1 X96.029 Y33.157 E2.81208
G1 X95.291 Y32.384 E2.83333
G1 X94.518 Y31.831 E2.85225
G1 X93.655 Y31.419 E2.87128
G1 X92.44 Y31.119 E2.89618
G1 X30.733 Y31.081 E4.12401
G1 X30.027 Y31.135 E4.1381
G1 X28.419 Y31.504 E4.17092
G1 X26.841 Y32.228 E4.20547
G1 X25.633 Y33.099 E4.2351
G1 X25.954 Y33.482 F12000
G1 F1800
G1 X24.881 Y34.632 E4.26641
G1 X24.039 Y36.019 E4.29868
G1 X23.575 Y37.283 E4.32547
G1 X23.315 Y38.877 E4.35761
G1 X23.362 Y40.287 E4.38568
G1 X23.575 Y41.353 E4.40731
G1 X23.828 Y42.123 E4.42345
G1 X24.567 Y43.56 E4.45559
G1 X25.264 Y44.475 E4.47848
G1 X29.6 Y49.394 E4.60896
G1 X67.642 Y87.437 E5.67947
G1 X69.265 Y88.318 E5.7162
G1 X70.864 Y88.255 E5.74804
G1 X72.238 Y87.436 E5.77987
G1 X75.561 Y84.112 E5.8734
G1 X76.054 Y83.477 E5.88939
G1 X96.327 Y49.382 E6.67868
G1 X96.606 Y48.524 E6.69662
G1 X96.699 Y47.707 E6.71298
G1 X96.689 Y36.336 E6.93926
G1 X96.573 Y35.426 E6.9575
G1 X96.356 Y34.714 E6.97231
G1 X96.001 Y33.992 E6.98833
G1 X95.647 Y33.478 E7.00075
G1 X94.977 Y32.771 E7.02011
G1 X94.276 Y32.267 E7.0373
G1 X93.493 Y31.89 E7.05458
G1 X92.363 Y31.612 E7.07774
G1 X30.08 Y31.631 E8.31705
G1 X28.564 Y31.981 E8.348
G1 X27.084 Y32.663 E8.38043
G1 X25.954 Y33.482 E8.4082
G92 E0
G1 E-0.8 F3000
; printing object BagClip_65.stl id:0 copy 0
; acceleration to travel
M204 S4000
G1 X55.278 Y66.782 F12000
; decel to extrusion
M204 S2000
G1 X69.94 Y83.432
; end travel
G1 E0 F1800
;TYPE:Internal perimeter
;WIDTH:0.5
G1 X33.604 Y47.097 E0.98145
M73 P1 R31
G1 X35.22 Y45.48 E1.02512
G1 X71.556 Y81.815 E2.00657
G1 X69.94 Y83.432 E2.05023
G1 X69.94 Y84.109 F12000
G1 F1800
G1 X32.928 Y47.097 E3.04997
G1 X35.22 Y44.803 E3.11191
G1 X72.232 Y81.815 E4.11164
G1 X69.94 Y84.109 E4.17359
G1 X69.94 Y84.786 F12000
;TYPE:External perimeter
G1 F1800
G1 X32.251 Y47.097 E5.1916
G1 X35.22 Y44.126 E5.27182
G1 X35.314 Y44.219 E5.27435
G1 X72.909 Y81.815 E6.28984
G1 X69.94 Y84.786 E6.37006
;WIPE_START
M204 S4000
G1 X69.836 Y84.4 F12000
;WIPE_END
G92 E0
G1 E-0.8 F3000
; acceleration to travel
G1 X46.797 Y58.845 F12000
; decel to extrusion
M204 S2000
G1 X35.068 Y45.835
; end travel
G1 E0 F1800
;TYPE:Solid infill
;WIDTH:0.528221
G1 F2400
G1 X71.201 Y81.968 E1.03106
G1 X70.862 Y82.306 F12000
G1 F2400
G1 X34.73 Y46.173 E2.06211
G1 X34.392 Y46.512 F12000
G1 F2400
G1 X70.524 Y82.644 E3.09317
G1 X70.186 Y82.983 F12000
G1 F2400
G1 X34.053 Y46.85 E4.12423
G92 E0
M73 P2 R31
G1 E-0.8 F3000
; acceleration to travel
M204 S4000
G1 X32.163 Y42.585 F12000
; decel to extrusion
M204 S2000
G1 X31.235 Y40.491
; end travel
G1 E0 F1800
;TYPE:Internal perimeter
;WIDTH:0.5
G1 X30.983 Y40.504 E0.00483
G1 X30.791 Y40.478 E0.00852
G1 X30.546 Y40.393 E0.01348
G1 X30.33 Y40.263 E0.01831
G1 X30.152 Y40.097 E0.02295
G1 X30.03 Y39.928 E0.02692
G1 X29.94 Y39.747 E0.03079
G1 X29.877 Y39.505 E0.03557
G1 X29.863 Y39.256 E0.04033
G1 X29.902 Y39.011 E0.04507
G1 X29.992 Y38.776 E0.04987
G1 X30.1 Y38.603 E0.05376
G1 X30.27 Y38.421 E0.05853
G1 X30.437 Y38.3 E0.06247
G1 X30.622 Y38.209 E0.06639
G1 X30.863 Y38.145 E0.07116
G1 X31.112 Y38.132 E0.07592
G1 X31.356 Y38.171 E0.08064
G1 X31.564 Y38.248 E0.08488
G1 X31.768 Y38.373 E0.08945
G1 X31.941 Y38.534 E0.09397
G1 X32.095 Y38.753 E0.09908
G1 X32.162 Y38.902 E0.10219
G1 X32.222 Y39.134 E0.10678
G1 X32.235 Y39.384 E0.11156
G1 X32.209 Y39.576 E0.11525
G1 X32.124 Y39.821 E0.1202
G1 X31.994 Y40.037 E0.12503
G1 X31.836 Y40.207 E0.12947
G1 X31.615 Y40.361 E0.13461
G1 X31.437 Y40.44 E0.13833
G1 X31.235 Y40.491 E0.14229
G1 X31.307 Y40.966 F12000
G1 F1800
G1 X30.962 Y40.985 E0.14888
G1 X30.68 Y40.945 E0.15434
G1 X30.342 Y40.829 E0.16115
G1 X30.04 Y40.647 E0.1679
G1 X29.791 Y40.415 E0.17438
G1 X29.618 Y40.176 E0.18002
G1 X29.49 Y39.915 E0.18557
G1 X29.401 Y39.579 E0.19221
G1 X29.383 Y39.231 E0.19888
G1 X29.437 Y38.886 E0.20555
G1 X29.562 Y38.562 E0.21217
G1 X29.718 Y38.311 E0.21782
G1 X29.952 Y38.06 E0.22437
G1 X30.19 Y37.888 E0.22998
G1 X30.454 Y37.759 E0.23559
G1 X30.788 Y37.67 E0.24219
G1 X31.136 Y37.651 E0.24886
G1 X31.478 Y37.706 E0.25547
G1 X31.774 Y37.816 E0.26149
G1 X32.059 Y37.989 E0.26787
G1 X32.304 Y38.218 E0.27428
G1 X32.512 Y38.515 E0.2812
G1 X32.615 Y38.742 E0.28595
G1 X32.697 Y39.061 E0.29224
G1 X32.716 Y39.404 E0.29882
G1 X32.676 Y39.687 E0.30427
G1 X32.56 Y40.025 E0.31108
G1 X32.378 Y40.327 E0.31783
G1 X32.151 Y40.571 E0.32419
G1 X31.851 Y40.78 E0.33118
G1 X31.593 Y40.895 E0.33657
G1 X31.307 Y40.966 E0.3422
G1 X31.378 Y41.442 F12000
;TYPE:External perimeter
G1 F1800
G1 X30.942 Y41.465 E0.35055
G1 X30.568 Y41.413 E0.35777
G1 X30.139 Y41.265 E0.36643
G1 X29.75 Y41.031 E0.3751
G1 X29.431 Y40.733 E0.38343
G1 X29.207 Y40.424 E0.39073
G1 X29.039 Y40.084 E0.39797
G1 X28.926 Y39.654 E0.40646
G1 X28.902 Y39.206 E0.41503
G1 X28.973 Y38.761 E0.42363
G1 X29.132 Y38.348 E0.43209
G1 X29.336 Y38.019 E0.43949
G1 X29.633 Y37.7 E0.44782
G1 X29.943 Y37.476 E0.45511
G1 X30.285 Y37.308 E0.46239
G1 X30.713 Y37.195 E0.47084
G1 X31.161 Y37.171 E0.47942
G1 X31.6 Y37.24 E0.48791
G1 X31.984 Y37.384 E0.49572
G1 X32.349 Y37.606 E0.5039
G1 X32.667 Y37.903 E0.5122
G1 X32.93 Y38.277 E0.52094
G1 X33.068 Y38.582 E0.52733
G1 X33.172 Y38.987 E0.53533
G1 X33.196 Y39.425 E0.54369
G1 X33.144 Y39.799 E0.55091
G1 X32.996 Y40.228 E0.55958
G1 X32.762 Y40.617 E0.56825
G1 X32.467 Y40.934 E0.57653
G1 X32.087 Y41.199 E0.58536
G1 X31.749 Y41.349 E0.59242
G1 X31.378 Y41.442 E0.59972
;WIPE_START
M204 S4000
G1 X31.139 Y41.121 F12000
;WIPE_END
G92 E0
G1 E-0.8 F3000
; acceleration to travel
G1 X31.174 Y39.256 F12000
; decel to extrusion
M204 S2000
G1 X31.192 Y38.306
; end travel
G1 E0 F1800
;TYPE:Solid infill
;WIDTH:0.510633
G1 F2400
G1 X32.077 Y39.191 E0.02441
G1 X31.966 Y39.757 F12000
G1 F2400
G1 X30.602 Y38.393 E0.06205
G1 X30.22 Y38.688 F12000
G1 F2400
G1 X31.663 Y40.131 E0.10186
G1 X31.202 Y40.346 F12000
G1 F2400
G1 X30.037 Y39.182 E0.13398
G92 E0
G1 E-0.8 F3000
; acceleration to travel
M204 S4000
G1 X33.509 Y38.329 F12000
; decel to extrusion
M204 S2000
G1 X35.214 Y37.91
; end travel
M73 P2 R31
G1 E0 F1800
;TYPE:Internal perimeter
;WIDTH:0.5
G1 X35.087 Y37.542 E0.00742
G1 X34.868 Y37.115 E0.01659
G1 X34.606 Y36.708 E0.02585
G1 X34.019 Y36.036 E0.04288
G1 X85.241 Y36.031 E1.02119
G1 X85.241 Y37.91 E1.05708
G1 X35.214 Y37.91 E2.01258
G1 X34.873 Y38.388 F12000
G1 F1800
G1 X34.646 Y37.731 E2.02586
G1 X34.453 Y37.355 E2.03394
G1 X34.222 Y36.996 E2.04208
G1 X33.789 Y36.499 E2.05468
G1 X33.469 Y36.221 E2.06278
G1 X33.13 Y35.984 E2.07066
G1 X32.876 Y35.845 E2.07619
G1 X32.95 Y35.557 E2.08187
G1 X85.719 Y35.552 E3.08973
G1 X85.719 Y37.745 E3.13163
G1 X90.221 Y37.745 E3.21761
G1 X90.221 Y38.388 E3.22989
G1 X34.873 Y38.388 E4.28703
G92 E0
G1 E-0.8 F3000
; acceleration to travel
M204 S4000
G1 X73.119 Y44.164 F12000
; decel to extrusion
M204 S2000
G1 X92.242 Y47.051
; end travel
G1 E0 F1800
G1 X91.562 Y46.376 E0.0183
G1 X92.242 Y46.376 E0.03128
G1 X92.242 Y47.051 E0.04418
G1 X92.721 Y47.688 F12000
G1 F1800
G1 X92.391 Y47.688 E0.05049
G1 X92.298 Y47.677 E0.05229
G1 X92.201 Y47.647 E0.05422
G1 X92.113 Y47.597 E0.05616
G1 X92.03 Y47.527 E0.05823
G1 X90.402 Y45.897 E0.10223
G1 X92.72 Y45.897 E0.1465
G1 X92.721 Y47.688 E0.18071
G92 E0
G1 E-0.8 F3000
; acceleration to travel
M204 S4000
G1 X52.002 Y44.374 F12000
; decel to extrusion
M204 S2000
G1 X31.643 Y42.717
; end travel
G1 E0 F1800
;TYPE:External perimeter
G1 X32.003 Y42.635 E0.00706
G1 X32.347 Y42.516 E0.01402
G1 X32.875 Y42.246 E0.02533
G1 X33.174 Y42.037 E0.03231
G1 X33.452 Y41.793 E0.03938
G1 X33.839 Y41.349 E0.05063
G1 X34.039 Y41.042 E0.05761
G1 X34.206 Y40.714 E0.06465
G1 X34.399 Y40.152 E0.07599
G1 X34.481 Y39.68 E0.08514
G1 X34.501 Y39.319 E0.09205
G1 X34.48 Y38.955 E0.09901
G1 X34.398 Y38.479 E0.10823
G1 X34.205 Y37.919 E0.11955
G1 X34.038 Y37.594 E0.12653
G1 X33.839 Y37.284 E0.13357
G1 X33.45 Y36.839 E0.14486
G1 X33.174 Y36.599 E0.15185
G1 X32.877 Y36.391 E0.15876
G1 X32.562 Y36.218 E0.16563
G1 X32.23 Y36.076 E0.17253
G1 X31.883 Y35.971 E0.17945
G1 X31.524 Y35.899 E0.18645
G1 X30.928 Y35.868 E0.19785
G1 X30.757 Y35.889 E0.20113
G1 X30.337 Y35.941 E0.20921
G1 X29.981 Y36.036 E0.21626
G1 X29.639 Y36.169 E0.22326
G1 X29.125 Y36.452 E0.23447
G1 X28.831 Y36.674 E0.24152
G1 X28.566 Y36.922 E0.24843
G1 X28.33 Y37.193 E0.25531
G1 X28.122 Y37.49 E0.26222
G1 X27.949 Y37.806 E0.2691
G1 X27.807 Y38.139 E0.27602
G1 X27.702 Y38.481 E0.28286
G1 X27.63 Y38.843 E0.28991
G1 X27.599 Y39.439 E0.30131
G1 X27.672 Y40.03 E0.31267
G1 X27.767 Y40.386 E0.31972
G1 X27.9 Y40.728 E0.32672
G1 X28.183 Y41.242 E0.33793
G1 X28.406 Y41.537 E0.34499
G1 X28.653 Y41.799 E0.35186
G1 X28.924 Y42.037 E0.35875
G1 X29.225 Y42.248 E0.36578
G1 X29.753 Y42.517 E0.37709
G1 X30.1 Y42.637 E0.38411
G1 X30.455 Y42.717 E0.39107
G1 X31.05 Y42.77 E0.40247
G1 X31.643 Y42.717 E0.41383
;WIPE_START
M204 S4000
G1 X31.901 Y43.023 F12000
;WIPE_END
G92 E0
G1 E-0.8 F3000
; acceleration to travel
G1 X72.098 Y46.439 F12000
; decel to extrusion
M204 S2000
G1 X92.196 Y48.147
; end travel
G1 E0 F1800
G1 X92.01 Y48.088 E0.00373
G1 X91.838 Y47.992 E0.00749
G1 X91.705 Y47.879 E0.01082
G1 X89.6 Y45.772 E0.06771
G1 X89.6 Y45.419 E0.07446
G1 X92.4 Y45.419 E0.12793
G1 X92.4 Y36.69 E0.29465
G1 X92.36 Y36.45 E0.2993
G1 X92.226 Y36.195 E0.3048
G1 X92.019 Y36.003 E0.31019
G1 X91.705 Y35.875 E0.31668
G1 X86.198 Y35.869 E0.42185
G1 X86.198 Y37.267 E0.44856
G1 X90.7 Y37.267 E0.53455
G1 X90.7 Y38.867 E0.56511
G1 X35.306 Y38.867 E1.6231
G1 X35.288 Y39.615 E1.63739
G1 X35.235 Y40.057 E1.64591
G1 X35.134 Y40.492 E1.65443
G1 X35.044 Y40.769 E1.66
G1 X34.869 Y41.182 E1.66856
G1 X34.652 Y41.57 E1.67705
G1 X34.395 Y41.939 E1.68563
G1 X34.209 Y42.161 E1.69117
G1 X33.891 Y42.479 E1.69976
G1 X33.668 Y42.665 E1.7053
G1 X33.3 Y42.922 E1.71389
G1 X32.911 Y43.138 E1.72237
G1 X32.498 Y43.313 E1.73094
G1 X32.221 Y43.404 E1.7365
G1 X31.787 Y43.504 E1.74502
G1 X31.345 Y43.557 E1.75352
G1 X30.9 Y43.565 E1.76203
G1 X30.456 Y43.526 E1.77053
G1 X30.02 Y43.441 E1.77902
G1 X29.595 Y43.311 E1.7875
G1 X29.183 Y43.137 E1.79606
G1 X28.926 Y42.999 E1.80162
G1 X28.552 Y42.755 E1.81015
G1 X28.206 Y42.476 E1.81865
G1 X27.888 Y42.16 E1.82721
G1 X27.702 Y41.938 E1.83273
G1 X27.445 Y41.569 E1.84132
G1 X27.229 Y41.181 E1.8498
G1 X27.055 Y40.771 E1.8583
G1 X26.926 Y40.346 E1.86679
G1 X26.84 Y39.905 E1.87537
G1 X26.81 Y39.617 E1.8809
G1 X26.802 Y39.169 E1.88946
G1 X26.841 Y38.726 E1.89796
G1 X26.926 Y38.29 E1.90645
G1 X27.056 Y37.861 E1.915
G1 X27.165 Y37.592 E1.92055
G1 X27.367 Y37.193 E1.92909
G1 X27.611 Y36.821 E1.93758
G1 X27.891 Y36.475 E1.94607
G1 X28.209 Y36.157 E1.95466
G1 X28.431 Y35.971 E1.96021
G1 X28.798 Y35.714 E1.96876
G1 X29.186 Y35.498 E1.97724
G1 X29.596 Y35.324 E1.98574
G1 X30.021 Y35.195 E1.99423
G1 X30.46 Y35.109 E2.00278
G1 X30.747 Y35.079 E2.00828
G1 X91.847 Y35.073 E3.17527
G1 X92.1 Y35.112 E3.18016
G1 X92.339 Y35.194 E3.18499
G1 X92.559 Y35.316 E3.1898
G1 X92.754 Y35.474 E3.19457
G1 X92.952 Y35.71 E3.20048
G1 X93.075 Y35.931 E3.20529
G1 X93.142 Y36.115 E3.20903
G1 X93.19 Y36.363 E3.21386
G1 X93.2 Y47.688 E3.43017
G1 X93.166 Y47.882 E3.43392
G1 X93.083 Y48.018 E3.43696
G1 X92.946 Y48.121 E3.44024
G1 X92.776 Y48.167 E3.4436
G1 X92.363 Y48.167 E3.4515
G1 X92.196 Y48.147 E3.4547
;WIPE_START
M204 S4000
G1 X92.086 Y47.763 F12000
;WIPE_END
G92 E0
G1 E-0.8 F3000
; acceleration to travel
G1 X92.561 Y46.372 F12000
; decel to extrusion
M204 S2000
G1 X92.799 Y45.676
; end travel
G1 E0 F1800
;TYPE:Gap fill
;WIDTH:0.37706
G1 X92.799 Y45.498 E0.00252
G1 X92.797 Y41.085 E0.06516
G1 X92.795 Y36.672 E0.1278
G1 X92.794 Y36.643 E0.12821
G1 X92.784 Y36.523 E0.12992
;WIDTH:0.411185
G1 X92.764 Y36.346 E0.13268
G1 X92.728 Y36.23 E0.13458
;WIDTH:0.443782
G1 X92.676 Y36.112 E0.13674
G1 X92.592 Y35.958 E0.1397
G1 X92.549 Y35.904 E0.14087
G1 X92.442 Y35.791 E0.1435
G1 X92.314 Y35.68 E0.14635
G1 X92.162 Y35.592 E0.1493
G1 X91.997 Y35.53 E0.15228
;WIDTH:0.415576
G1 X91.816 Y35.48 E0.15523
;WIDTH:0.387437
G1 X91.748 Y35.474 E0.15623
G1 X88.933 Y35.472 E0.19735
G1 X86.117 Y35.471 E0.23848
G1 X85.941 Y35.471 E0.24105
; acceleration to travel
M204 S4000
G1 X84.741 Y35.937 F12000
; decel to extrusion
M204 S2000
G1 X84.13 Y36.174
; end travel
;TYPE:Solid infill
;WIDTH:0.511331
G1 F2400
G1 X85.097 Y37.142 E0.26777
G1 X85.045 Y37.766 F12000
G1 F2400
G1 X83.453 Y36.174 E0.31175
G1 X82.777 Y36.174 F12000
G1 F2400
G1 X84.369 Y37.766 E0.35572
G1 X83.692 Y37.766 F12000
G1 F2400
G1 X82.1 Y36.174 E0.39969
G1 X81.423 Y36.175 F12000
G1 F2400
G1 X83.015 Y37.766 E0.44366
G1 X82.338 Y37.766 F12000
G1 F2400
G1 X80.747 Y36.175 E0.48763
G1 X80.07 Y36.175 F12000
G1 F2400
G1 X81.662 Y37.766 E0.53159
G1 X80.985 Y37.766 F12000
G1 F2400
G1 X79.393 Y36.175 E0.57556
G1 X78.717 Y36.175 F12000
G1 F2400
G1 X80.308 Y37.766 E0.61952
G1 X79.631 Y37.766 F12000
G1 F2400
G1 X78.04 Y36.175 E0.66348
G1 X77.363 Y36.175 F12000
G1 F2400
G1 X78.955 Y37.766 E0.70744
M73 P3 R30
G1 X78.278 Y37.766 F12000
G1 F2400
G1 X76.687 Y36.175 E0.75139
G1 X76.01 Y36.175 F12000
G1 F2400
G1 X77.601 Y37.766 E0.79535
G1 X76.924 Y37.766 F12000
G1 F2400
G1 X75.333 Y36.175 E0.8393
G1 X74.656 Y36.175 F12000
G1 F2400
G1 X76.248 Y37.766 E0.88325
G1 X75.571 Y37.766 F12000
G1 F2400
G1 X73.98 Y36.175 E0.9272
G1 X73.303 Y36.175 F12000
G1 F2400
G1 X74.894 Y37.766 E0.97115
G1 X74.217 Y37.766 F12000
G1 F2400
G1 X72.626 Y36.175 E1.01509
G1 X71.95 Y36.175 F12000
G1 F2400
G1 X73.541 Y37.766 E1.05903
G1 X72.864 Y37.766 F12000
G1 F2400
G1 X71.273 Y36.176 E1.10298
G1 X70.596 Y36.176 F12000
G1 F2400
G1 X72.187 Y37.766 E1.14692
G1 X71.51 Y37.766 F12000
G1 F2400
G1 X69.92 Y36.176 E1.19085
G1 X69.243 Y36.176 F12000
G1 F2400
G1 X70.834 Y37.766 E1.23479
G1 X70.157 Y37.766 F12000
G1 F2400
G1 X68.566 Y36.176 E1.27872
G1 X67.89 Y36.176 F12000
G1 F2400
G1 X69.48 Y37.766 E1.32266
G1 X68.803 Y37.766 F12000
G1 F2400
G1 X67.213 Y36.176 E1.36659
G1 X66.536 Y36.176 F12000
G1 F2400
G1 X68.126 Y37.766 E1.41052
G1 X67.45 Y37.766 F12000
G1 F2400
G1 X65.86 Y36.176 E1.45444
G1 X65.183 Y36.176 F12000
G1 F2400
G1 X66.773 Y37.766 E1.49837
G1 X66.096 Y37.766 F12000
G1 F2400
G1 X64.506 Y36.176 E1.54229
G1 X63.829 Y36.176 F12000
G1 F2400
G1 X65.419 Y37.766 E1.58621
