; generated by SuperSlicer 2.5.59 on 2023-04-22 at 23:11:56 UTC


;
;

;
;
; 

; external perimeters extrusion width = 0.15mm
; perimeters extrusion width = 0.17mm
; infill extrusion width = 0.24mm
; solid infill extrusion width = 0.21mm
; top infill extrusion width = 0.15mm
; first layer extrusion width = 0.19mm

; external perimeters extrusion width = 0.15mm
; perimeters extrusion width = 0.17mm
; infill extrusion width = 0.24mm
; solid infill extrusion width = 0.21mm
; top infill extrusion width = 0.15mm
; first layer extrusion width = 0.19mm

; external perimeters extrusion width = 0.15mm
; perimeters extrusion width = 0.17mm
; infill extrusion width = 0.24mm
; solid infill extrusion width = 0.21mm
; top infill extrusion width = 0.15mm
; first layer extrusion width = 0.19mm

; external perimeters extrusion width = 0.15mm
; perimeters extrusion width = 0.17mm
; infill extrusion width = 0.24mm
; solid infill extrusion width = 0.21mm
; top infill extrusion width = 0.15mm
; first layer extrusion width = 0.19mm

; object:{"name":"LogoBoard","id":"LogoBoard id:0 copy 0","object_center":[57.500000,51.250001,0.000000],"boundingbox_center":[57.500000,51.250001,2.424775],"boundingbox_size":[28.520000,6.500001,4.849550]}
EXCLUDE_OBJECT_DEFINE NAME=LogoBoard_id_0_copy_0 CENTER=57.500000,51.250001 POLYGON=[[43.239996,48.000000],[71.760000,48.000000],[71.760000,54.500000],[71.151136,54.500000],[43.239996,53.538296],[43.239996,48.000000]]
; object:{"name":"LogoBoard","id":"LogoBoard id:1 copy 0","object_center":[57.500001,63.750001,0.000000],"boundingbox_center":[57.500001,63.750001,2.424775],"boundingbox_size":[28.520000,6.500001,4.849550]}
EXCLUDE_OBJECT_DEFINE NAME=LogoBoard_id_1_copy_0 CENTER=57.500001,63.750001 POLYGON=[[43.239996,60.500000],[71.760000,60.500000],[71.760000,67.000000],[71.151136,67.000000],[43.239996,66.038292],[43.239996,60.500000]]
; plater:{"center":[57.500000,57.500001,0.000000],"boundingbox_center":[57.500000,57.500001,2.424775],"boundingbox_size":[28.520001,19.000001,4.849550]}

M73 P0 R31
M73 P0 R31
;TYPE:Custom
; custom gcode: start_gcode
START_PRINT T_BED=60 T_EXTRUDER=200
; custom gcode end: start_gcode
M107
G21 ; set units to millimeters
G90 ; use absolute coordinates
M82 ; use absolute distances for extrusion
G92 E0
; custom gcode: start_filament_gcode
; Filament gcode

    PRESSURE_ADVANCE_SELECT FILAMENT=PLA
; custom gcode end: start_filament_gcode
;_TOOLCHANGE 0
M104 S200 ; set temperature
M109 S200 ; set temperature and wait for it to be reached
M190 S60 ; set bed temperature and wait for it to be reached
;LAYER_CHANGE
;Z:0.1
;HEIGHT:0.1
G1 E-0.8 F3000
M73 P0 R31
M73 P0 R31
G1 Z0.1 F12000
G92 E0
M204 S2000
G1 X41.615 Y45.333
G1 E0.8 F1800
;TYPE:Skirt
;WIDTH:0.195
G1 X40.505 Y46.489 E0.81133
G1 X40.08 Y48.034 E0.82266
G1 X39.98 Y53.077 E0.85832
G1 X39.98 Y65.577 E0.9467
G1 X40.02 Y66.238 E0.95139
G1 X40.484 Y67.687 E0.96215
G1 X41.626 Y68.811 E0.97348
G1 X43.166 Y69.255 E0.98481
G1 X71.209 Y70.16 E1.1832
G1 X71.66 Y70.16 E1.18639
G1 X73.44 Y69.632 E1.19951
G1 X74.526 Y68.453 E1.21085
G1 X74.92 Y66.9 E1.22218
G1 X74.92 Y48.1 E1.35511
G1 X74.392 Y46.32 E1.36824
G1 X73.213 Y45.234 E1.37957
G1 X71.66 Y44.84 E1.3909
G1 X43.34 Y44.84 E1.59114
G1 X41.615 Y45.333 E1.60382
G1 X41.749 Y45.467 F12000
G1 F1800
G1 X40.678 Y46.538 E1.61453
G1 X40.254 Y48.038 E1.62555
G1 X40.153 Y53.077 E1.66119
G1 X40.153 Y65.577 E1.74957
G1 X40.193 Y66.225 E1.75417
G1 X40.589 Y67.523 E1.76376
G1 X41.677 Y68.639 E1.77478
G1 X43.171 Y69.082 E1.7858
G1 X71.209 Y69.987 E1.98415
G1 X71.66 Y69.987 E1.98734
G1 X73.273 Y69.532 E1.99919
G1 X74.353 Y68.408 E2.01021
G1 X74.747 Y66.9 E2.02123
G1 X74.747 Y48.1 E2.15416
G1 X74.292 Y46.487 E2.16601
G1 X73.168 Y45.407 E2.17703
G1 X71.66 Y45.013 E2.18805
G1 X43.34 Y45.013 E2.38829
G1 X41.78 Y45.436 E2.39972
G1 X41.749 Y45.467 E2.40003
G92 E0
G1 E-0.8 F3000
; printing object LogoBoard id:0 copy 0
EXCLUDE_OBJECT_START NAME=LogoBoard_id_0_copy_0
G1 X71.234 Y53.861 F12000
G1 E0 F1800
;TYPE:Internal perimeter
;WIDTH:0.1875
G1 X70.695 Y53.786 E0.00368
G1 X70.171 Y53.629 E0.00738
G1 X69.873 Y53.575 E0.00943
G1 X69.487 Y53.593 E0.01204
G1 X69.146 Y53.673 E0.01442
G1 X68.63 Y53.417 E0.01831
G1 X68.381 Y53.361 E0.02004
G1 X67.606 Y53.316 E0.02529
G1 X67.343 Y53.253 E0.02712
G1 X66.842 Y53.075 E0.03071
G1 X66.241 Y52.775 E0.03526
G1 X65.855 Y52.665 E0.03798
G1 X64.824 Y52.424 E0.04514
G1 X64.325 Y52.398 E0.04852
G1 X63.666 Y52.448 E0.05299
G1 X62.736 Y52.579 E0.05935
G1 X61.849 Y52.556 E0.06535
G1 X60.969 Y52.48 E0.07132
G1 X60.71 Y52.487 E0.07307
G1 X60.494 Y52.526 E0.07456
G1 X60.118 Y52.666 E0.07727
G1 X60.059 Y52.671 E0.07768
G1 X59.252 Y52.509 E0.08324
G1 X58.735 Y52.452 E0.08676
G1 X58.32 Y52.464 E0.08957
G1 X57.958 Y52.524 E0.09205
G1 X57.618 Y52.633 E0.09447
G1 X57.127 Y52.869 E0.09815
G1 X56.977 Y52.852 E0.09917
G1 X56.744 Y52.778 E0.10082
G1 X56.205 Y52.56 E0.10476
G1 X55.712 Y52.431 E0.10821
G1 X55.066 Y52.354 E0.1126
G1 X54.431 Y52.339 E0.1169
G1 X54.097 Y52.366 E0.11917
G1 X53.455 Y52.556 E0.1237
G1 X52.88 Y52.692 E0.1277
G1 X52.547 Y52.759 E0.13
G1 X52.405 Y52.766 E0.13096
G1 X52.119 Y52.712 E0.13293
G1 X51.499 Y52.466 E0.13744
G1 X51.204 Y52.408 E0.13947
G1 X49.384 Y52.395 E0.15178
G1 X48.696 Y52.504 E0.1565
G1 X48.064 Y52.456 E0.16078
G1 X47.226 Y52.46 E0.16645
G1 X46.88 Y52.536 E0.16885
G1 X46.052 Y52.822 E0.17478
G1 X45.802 Y52.862 E0.17649
G1 X45.259 Y52.887 E0.18017
G1 X44.64 Y52.863 E0.18436
G1 X43.719 Y52.738 E0.19064
G1 X43.76 Y52.167 E0.19452
G1 X43.765 Y48.526 E0.21915
G1 X71.234 Y48.526 E0.40498
G1 X71.234 Y53.861 E0.44107
G1 X71.4 Y54.159 F12000
G1 F1800
G1 X71.118 Y54.012 E0.44322
G1 X70.659 Y53.948 E0.44636
G1 X70.132 Y53.791 E0.45008
G1 X69.862 Y53.742 E0.45194
G1 X69.51 Y53.758 E0.45432
G1 X69.125 Y53.848 E0.45699
G1 X68.574 Y53.575 E0.46115
G1 X68.358 Y53.526 E0.46265
G1 X67.582 Y53.481 E0.46791
G1 X67.296 Y53.412 E0.4699
G1 X66.777 Y53.228 E0.47363
G1 X66.181 Y52.93 E0.47814
G1 X65.813 Y52.826 E0.48072
G1 X64.801 Y52.589 E0.48776
G1 X64.327 Y52.564 E0.49096
G1 X63.684 Y52.613 E0.49533
G1 X62.745 Y52.746 E0.50174
G1 X61.839 Y52.722 E0.50787
G1 X60.964 Y52.646 E0.51382
G1 X60.727 Y52.652 E0.51542
G1 X60.539 Y52.686 E0.51672
G1 X60.155 Y52.829 E0.51949
G1 X60.049 Y52.838 E0.5202
G1 X59.227 Y52.673 E0.52588
G1 X58.728 Y52.618 E0.52927
G1 X58.336 Y52.63 E0.53192
G1 X57.998 Y52.686 E0.53425
G1 X57.681 Y52.788 E0.5365
G1 X57.211 Y53.021 E0.54004
G1 X57.135 Y53.037 E0.54057
G1 X56.942 Y53.015 E0.54188
G1 X56.688 Y52.934 E0.54369
G1 X56.153 Y52.718 E0.54759
G1 X55.681 Y52.595 E0.55089
G1 X55.055 Y52.52 E0.55516
G1 X54.436 Y52.505 E0.55934
G1 X54.128 Y52.53 E0.56144
G1 X53.498 Y52.716 E0.56588
G1 X52.916 Y52.854 E0.56993
G1 X52.568 Y52.924 E0.57233
G1 X52.401 Y52.933 E0.57346
G1 X52.228 Y52.914 E0.57463
G1 X52.066 Y52.87 E0.57577
G1 X51.452 Y52.626 E0.58024
G1 X51.187 Y52.574 E0.58207
G1 X49.397 Y52.561 E0.59418
G1 X48.703 Y52.671 E0.59893
G1 X48.058 Y52.622 E0.6033
G1 X47.245 Y52.626 E0.60881
G1 X46.925 Y52.696 E0.61102
G1 X46.093 Y52.984 E0.61698
G1 X45.819 Y53.027 E0.61885
G1 X45.26 Y53.053 E0.62264
G1 X44.626 Y53.028 E0.62694
G1 X43.531 Y52.881 E0.63441
G1 X43.565 Y52.642 E0.63604
G1 X43.594 Y52.162 E0.6393
G1 X43.599 Y48.36 E0.66502
G1 X71.4 Y48.36 E0.85309
G1 X71.4 Y54.159 E0.89232
G1 X71.566 Y54.306 F12000
;TYPE:External perimeter
G1 F1800
G1 X71.263 Y54.306 E0.89437
G1 X71.238 Y54.261 E0.89472
G1 X71.067 Y54.173 E0.89602
G1 X70.624 Y54.111 E0.89905
G1 X70.093 Y53.953 E0.90279
G1 X69.851 Y53.909 E0.90446
G1 X69.533 Y53.924 E0.90661
G1 X69.133 Y54.017 E0.90939
G1 X69.08 Y54.011 E0.90975
G1 X68.519 Y53.732 E0.91399
G1 X68.335 Y53.691 E0.91527
G1 X67.558 Y53.646 E0.92053
G1 X67.249 Y53.572 E0.92268
G1 X66.712 Y53.381 E0.92653
G1 X66.12 Y53.086 E0.93101
G1 X65.772 Y52.986 E0.93346
G1 X64.777 Y52.754 E0.94037
G1 X64.329 Y52.731 E0.94341
G1 X63.702 Y52.778 E0.94766
G1 X62.755 Y52.912 E0.95413
G1 X61.83 Y52.888 E0.96039
G1 X60.958 Y52.812 E0.96631
G1 X60.744 Y52.818 E0.96776
G1 X60.583 Y52.847 E0.96887
G1 X60.191 Y52.993 E0.97169
G1 X60.039 Y53.006 E0.97273
G1 X59.201 Y52.837 E0.97851
G1 X58.721 Y52.784 E0.98178
G1 X58.352 Y52.795 E0.98427
G1 X58.037 Y52.848 E0.98644
G1 X57.743 Y52.942 E0.98852
G1 X57.266 Y53.179 E0.99212
G1 X57.143 Y53.205 E0.99298
G1 X56.907 Y53.179 E0.99458
G1 X56.632 Y53.09 E0.99654
G1 X56.1 Y52.876 E1.00041
G1 X55.65 Y52.758 E1.00356
G1 X55.043 Y52.686 E1.0077
G1 X54.441 Y52.671 E1.01177
G1 X54.158 Y52.694 E1.01369
G1 X53.54 Y52.877 E1.01805
G1 X52.951 Y53.016 E1.02215
G1 X52.589 Y53.089 E1.02465
G1 X52.396 Y53.099 E1.02596
G1 X52.197 Y53.078 E1.02731
G1 X52.013 Y53.027 E1.0286
G1 X51.405 Y52.786 E1.03303
G1 X51.17 Y52.74 E1.03464
G1 X49.409 Y52.727 E1.04656
G1 X48.706 Y52.838 E1.05137
G1 X48.397 Y52.802 E1.05348
G1 X48.056 Y52.788 E1.05579
G1 X47.263 Y52.792 E1.06115
G1 X46.97 Y52.856 E1.06318
G1 X46.133 Y53.146 E1.06917
G1 X45.836 Y53.193 E1.07121
G1 X45.26 Y53.219 E1.0751
G1 X44.611 Y53.194 E1.0795
G1 X43.566 Y53.053 E1.08663
G1 X43.348 Y53.261 E1.08867
G1 X43.334 Y53.08 E1.0899
G1 X43.4 Y52.625 E1.09301
G1 X43.428 Y52.157 E1.09618
G1 X43.434 Y48.194 E1.12299
G1 X71.566 Y48.194 E1.31331
G1 X71.566 Y54.306 E1.35466
;WIPE_START
M204 S4000
G1 X71.436 Y54.231 F12000
;WIPE_END
G92 E0
G1 E-0.8 F3000
M204 S2000
G1 X70.849 Y48.576 F12000
G1 E0 F1800
;TYPE:Solid infill
;WIDTH:0.195521
G1 F2400
G1 X71.184 Y48.911 E0.00335
G1 X71.184 Y49.146 F12000
G1 F2400
G1 X70.614 Y48.576 E0.00904
G1 X70.379 Y48.576 F12000
G1 F2400
G1 X71.184 Y49.381 E0.01707
G1 X71.184 Y49.616 F12000
G1 F2400
G1 X70.144 Y48.576 E0.02745
G1 X69.909 Y48.576 F12000
G1 F2400
G1 X71.184 Y49.851 E0.04017
G1 X71.184 Y50.085 F12000
G1 F2400
G1 X69.675 Y48.576 E0.05523
G1 X69.44 Y48.576 F12000
M73 P1 R31
G1 F2400
G1 X71.184 Y50.32 E0.07264
G1 X71.184 Y50.555 F12000
G1 F2400
G1 X69.205 Y48.576 E0.09239
G1 X68.97 Y48.576 F12000
G1 F2400
G1 X71.184 Y50.79 E0.11448
G1 X71.184 Y51.025 F12000
G1 F2400
G1 X68.735 Y48.576 E0.13891
G1 X68.501 Y48.576 F12000
G1 F2400
G1 X71.184 Y51.259 E0.16568
G1 X71.184 Y51.494 F12000
G1 F2400
G1 X68.266 Y48.576 E0.1948
G1 X68.031 Y48.576 F12000
G1 F2400
G1 X71.184 Y51.729 E0.22626
G1 X71.184 Y51.964 F12000
G1 F2400
G1 X67.796 Y48.576 E0.26007
G1 X67.561 Y48.576 F12000
G1 F2400
G1 X71.184 Y52.199 E0.29621
G1 X71.184 Y52.434 F12000
G1 F2400
G1 X67.326 Y48.576 E0.3347
G1 X67.092 Y48.576 F12000
G1 F2400
G1 X71.184 Y52.668 E0.37553
G1 X71.184 Y52.903 F12000
G1 F2400
G1 X66.857 Y48.576 E0.41871
G1 X66.622 Y48.576 F12000
G1 F2400
G1 X71.184 Y53.138 E0.46422
G1 X71.184 Y53.373 F12000
G1 F2400
G1 X66.387 Y48.576 E0.51208
G1 X66.152 Y48.576 F12000
G1 F2400
G1 X71.184 Y53.608 E0.56228
G1 X71.13 Y53.788 F12000
G1 F2400
G1 X65.918 Y48.576 E0.61428
G1 X65.683 Y48.576 F12000
G1 F2400
G1 X70.833 Y53.726 E0.66566
G1 X70.536 Y53.663 F12000
G1 F2400
G1 X65.448 Y48.576 E0.71642
G1 X65.213 Y48.576 F12000
G1 F2400
G1 X70.239 Y53.601 E0.76656
G1 X69.941 Y53.539 F12000
G1 F2400
G1 X64.978 Y48.576 E0.81607
G1 X64.744 Y48.576 F12000
G1 F2400
G1 X69.714 Y53.546 E0.86567
G1 X69.507 Y53.574 F12000
G1 F2400
G1 X64.509 Y48.576 E0.91553
G1 X64.274 Y48.576 F12000
G1 F2400
G1 X69.3 Y53.602 E0.96568
G1 X69.017 Y53.553 F12000
G1 F2400
G1 X64.039 Y48.576 E1.01534
G1 X63.804 Y48.576 F12000
G1 F2400
G1 X68.59 Y53.362 E1.06308
G1 X68.321 Y53.327 F12000
G1 F2400
G1 X63.569 Y48.576 E1.11049
G1 X63.335 Y48.576 F12000
G1 F2400
G1 X68.052 Y53.293 E1.15755
G1 X67.783 Y53.259 F12000
G1 F2400
G1 X63.1 Y48.576 E1.20428
G1 X62.865 Y48.576 F12000
G1 F2400
G1 X67.514 Y53.224 E1.25065
G1 X67.195 Y53.141 F12000
G1 F2400
G1 X62.63 Y48.576 E1.2962
G1 X62.395 Y48.576 F12000
G1 F2400
G1 X66.807 Y52.988 E1.34022
G1 X66.419 Y52.834 F12000
G1 F2400
G1 X62.161 Y48.576 E1.3827
G1 X61.926 Y48.576 F12000
G1 F2400
G1 X66.031 Y52.681 E1.42366
G1 X65.691 Y52.575 F12000
G1 F2400
G1 X61.691 Y48.576 E1.46357
G1 X61.456 Y48.576 F12000
G1 F2400
G1 X65.384 Y52.504 E1.50276
G1 X65.078 Y52.432 F12000
G1 F2400
G1 X61.221 Y48.576 E1.54123
G1 X60.986 Y48.576 F12000
G1 F2400
G1 X64.783 Y52.372 E1.57911
G1 X64.535 Y52.359 F12000
G1 F2400
G1 X60.752 Y48.576 E1.61686
G1 X60.517 Y48.576 F12000
G1 F2400
G1 X64.293 Y52.351 E1.65453
G1 X64.082 Y52.375 F12000
G1 F2400
G1 X60.282 Y48.576 E1.69244
G1 X60.047 Y48.576 F12000
G1 F2400
G1 X63.871 Y52.4 E1.73059
G1 X63.66 Y52.424 F12000
G1 F2400
G1 X59.812 Y48.576 E1.76898
G1 X59.578 Y48.576 F12000
G1 F2400
G1 X63.45 Y52.448 E1.8076
G1 X63.239 Y52.472 F12000
G1 F2400
G1 X59.343 Y48.576 E1.84647
G1 X59.108 Y48.576 F12000
G1 F2400
G1 X63.028 Y52.496 E1.88558
G1 X62.817 Y52.52 F12000
G1 F2400
G1 X58.873 Y48.576 E1.92493
G1 X58.638 Y48.576 F12000
G1 F2400
G1 X62.585 Y52.523 E1.96431
G1 X62.339 Y52.511 F12000
G1 F2400
G1 X58.404 Y48.576 E2.00358
G1 X58.169 Y48.576 F12000
G1 F2400
G1 X62.093 Y52.5 E2.04273
G1 X61.847 Y52.489 F12000
G1 F2400
G1 X57.934 Y48.576 E2.08177
G1 X57.699 Y48.576 F12000
G1 F2400
G1 X61.601 Y52.478 E2.1207
G1 X61.355 Y52.466 F12000
G1 F2400
G1 X57.464 Y48.576 E2.15951
G1 X57.229 Y48.576 F12000
G1 F2400
G1 X61.109 Y52.455 E2.19821
G1 X60.863 Y52.444 F12000
G1 F2400
G1 X56.995 Y48.576 E2.2368
G1 X56.76 Y48.576 F12000
G1 F2400
G1 X60.639 Y52.455 E2.2755
G1 X60.456 Y52.507 F12000
G1 F2400
G1 X56.525 Y48.576 E2.31472
G1 X56.29 Y48.576 F12000
G1 F2400
G1 X60.273 Y52.558 E2.35446
G1 X60.09 Y52.61 F12000
G1 F2400
G1 X56.055 Y48.576 E2.39471
G1 X55.821 Y48.576 F12000
G1 F2400
G1 X59.816 Y52.571 E2.43457
G1 X59.522 Y52.512 F12000
G1 F2400
G1 X55.586 Y48.576 E2.47384
G1 X55.351 Y48.576 F12000
G1 F2400
G1 X59.233 Y52.458 E2.51258
G1 X58.987 Y52.446 F12000
G1 F2400
G1 X55.116 Y48.576 E2.55119
G1 X54.881 Y48.576 F12000
G1 F2400
G1 X58.74 Y52.434 E2.58969
G1 X58.493 Y52.422 F12000
G1 F2400
G1 X54.646 Y48.576 E2.62807
G1 X54.412 Y48.576 F12000
G1 F2400
G1 X58.263 Y52.427 E2.66648
G1 X58.073 Y52.472 F12000
G1 F2400
G1 X54.177 Y48.576 E2.70536
G1 X53.942 Y48.576 F12000
G1 F2400
G1 X57.884 Y52.518 E2.74469
G1 X57.695 Y52.563 F12000
G1 F2400
G1 X53.707 Y48.576 E2.78447
G1 X53.472 Y48.576 F12000
G1 F2400
G1 X57.521 Y52.624 E2.82487
G1 X57.362 Y52.7 F12000
G1 F2400
G1 X53.238 Y48.576 E2.86602
G1 X53.003 Y48.576 F12000
G1 F2400
G1 X57.204 Y52.777 E2.90793
G1 X56.956 Y52.764 F12000
G1 F2400
G1 X52.768 Y48.576 E2.94971
G1 X52.533 Y48.576 F12000
G1 F2400
G1 X56.616 Y52.659 E2.99045
G1 X56.276 Y52.554 F12000
G1 F2400
G1 X52.298 Y48.576 E3.03014
G1 X52.064 Y48.576 F12000
G1 F2400
G1 X55.937 Y52.449 E3.06878
G1 X55.628 Y52.375 F12000
G1 F2400
G1 X51.829 Y48.576 E3.10669
G1 X51.594 Y48.576 F12000
G1 F2400
G1 X55.375 Y52.357 E3.14441
G1 X55.122 Y52.339 F12000
G1 F2400
G1 X51.359 Y48.576 E3.18195
G1 X51.124 Y48.576 F12000
G1 F2400
G1 X54.869 Y52.32 E3.21931
G1 X54.616 Y52.302 F12000
G1 F2400
G1 X50.889 Y48.576 E3.25649
G1 X50.655 Y48.576 F12000
G1 F2400
G1 X54.378 Y52.299 E3.29364
G1 X54.184 Y52.34 F12000
G1 F2400
G1 X50.42 Y48.576 E3.33119
G1 X50.185 Y48.576 F12000
G1 F2400
G1 X53.99 Y52.381 E3.36915
G1 X53.796 Y52.422 F12000
G1 F2400
G1 X49.95 Y48.576 E3.40753
G1 X49.715 Y48.576 F12000
G1 F2400
G1 X53.602 Y52.463 E3.4463
G1 X53.409 Y52.504 F12000
G1 F2400
G1 X49.481 Y48.576 E3.48549
G1 X49.246 Y48.576 F12000
G1 F2400
G1 X53.215 Y52.544 E3.52509
G1 X53.021 Y52.585 F12000
G1 F2400
G1 X49.011 Y48.576 E3.56509
G1 X48.776 Y48.576 F12000
G1 F2400
G1 X52.827 Y52.626 E3.6055
G1 X52.633 Y52.667 F12000
G1 F2400
G1 X48.541 Y48.576 E3.64632
G1 X48.306 Y48.576 F12000
G1 F2400
G1 X52.439 Y52.708 E3.68755
G1 X52.127 Y52.631 F12000
G1 F2400
G1 X48.072 Y48.576 E3.72802
G1 X47.837 Y48.576 F12000
G1 F2400
G1 X51.793 Y52.532 E3.76748
G1 X51.459 Y52.432 F12000
G1 F2400
G1 X47.602 Y48.576 E3.80596
G1 X47.367 Y48.576 F12000
G1 F2400
G1 X51.15 Y52.358 E3.8437
G1 X50.913 Y52.356 F12000
G1 F2400
G1 X47.132 Y48.576 E3.88142
G1 X46.898 Y48.576 F12000
G1 F2400
G1 X50.677 Y52.355 E3.91912
G1 X50.44 Y52.353 F12000
G1 F2400
G1 X46.663 Y48.576 E3.9568
G1 X46.428 Y48.576 F12000
G1 F2400
G1 X50.204 Y52.351 E3.99447
M73 P2 R31
G1 X49.967 Y52.349 F12000
G1 F2400
G1 X46.193 Y48.576 E4.03212
G1 X45.958 Y48.576 F12000
G1 F2400
