; HEADER_BLOCK_START
; generated by OrcaSlicer 1.6.3 on 2023-06-17 at 11:43:06
; total layer number: 100
; HEADER_BLOCK_END

; THUMBNAIL_BLOCK_START
; THUMBNAIL_BLOCK_END

; external perimeters extrusion width = 0.40mm
; perimeters extrusion width = 0.45mm
; infill extrusion width = 0.45mm
; solid infill extrusion width = 0.40mm
; top infill extrusion width = 0.40mm
; first layer extrusion width = 0.50mm

; EXECUTABLE_BLOCK_START
EXCLUDE_OBJECT_DEFINE NAME=BedSiliconeSupport.stl_id_0_copy_0 CENTER=60,60 POLYGON=[[45,60.3486],[45.0083,60.0602],[45.0333,59.7727],[45.0748,59.4872],[45.1327,59.2045],[45.2068,58.9257],[45.2968,58.6515],[45.4025,58.3831],[45.5236,58.1212],[45.6595,57.8666],[45.8099,57.6204],[45.9743,57.3833],[46.152,57.156],[46.3426,56.9393],[46.5453,56.734],[47.4119,55.9058],[54.9913,48.6617],[56.5474,47.1744],[56.5491,47.1729],[56.6167,47.1095],[56.6843,47.0484],[56.7077,47.0278],[56.7655,46.978],[56.772,46.9724],[56.8258,46.9275],[56.8479,46.9095],[56.8557,46.9031],[56.8742,46.8882],[56.8892,46.8763],[56.9244,46.8485],[56.9595,46.8213],[56.9946,46.7946],[57.0083,46.7844],[57.0307,46.7677],[57.0467,46.756],[57.0652,46.7425],[57.0812,46.7309],[57.0961,46.7202],[57.1059,46.7133],[57.1935,46.6524],[57.2246,46.6314],[57.2342,46.6251],[57.2556,46.6109],[57.2814,46.5941],[57.311,46.575],[57.3725,46.5365],[57.4028,46.5178],[57.4654,46.4804],[57.4832,46.4698],[57.5129,46.4527],[57.5331,46.4412],[57.5585,46.4269],[57.5856,46.4117],[57.6501,46.3768],[57.741,46.3295],[57.7618,46.319],[57.7727,46.3135],[57.7792,46.3103],[57.8225,46.2891],[57.9002,46.2523],[57.9638,46.2233],[57.9966,46.2088],[58.0065,46.2045],[58.0537,46.1843],[58.0602,46.1815],[58.1585,46.1413],[58.2226,46.1164],[58.2368,46.111],[58.279,46.0953],[58.3353,46.075],[58.3566,46.0676],[58.3871,46.057],[58.4817,46.0258],[58.5536,46.0034],[58.5573,46.0023],[58.5575,46.0022],[58.6229,45.983],[58.7048,45.9602],[58.7219,45.9557],[58.7308,45.9533],[58.7611,45.9455],[58.8406,45.9258],[58.8603,45.9211],[58.8917,45.9139],[58.9156,45.9085],[58.9301,45.9053],[58.941,45.9029],[58.9447,45.9021],[58.9588,45.8991],[58.9669,45.8974],[58.9718,45.8963],[58.9832,45.8939],[58.9932,45.8919],[59.0019,45.8901],[59.0087,45.8887],[59.0131,45.8878],[59.0154,45.8873],[59.0169,45.887],[59.0629,45.878],[59.128,45.866],[59.1745,45.858],[59.1796,45.8571],[59.2353,45.8482],[59.3331,45.834],[59.3836,45.8274],[59.4085,45.8244],[59.4183,45.8232],[59.4202,45.823],[59.4923,45.8151],[59.5826,45.8066],[59.5938,45.8057],[59.652,45.8013],[59.6622,45.8006],[59.6972,45.7983],[59.7107,45.7975],[59.7354,45.7961],[59.7571,45.795],[59.7762,45.7941],[59.8047,45.7929],[59.8121,45.7926],[59.8193,45.7924],[59.8639,45.7909],[59.9094,45.7899],[59.9319,45.7895],[59.955,45.7892],[59.9723,45.7891],[60,45.789],[60.004,45.789],[60.016,45.789],[60.045,45.7892],[60.0906,45.7898],[60.1068,45.7901],[60.1326,45.7907],[60.1361,45.7908],[60.1807,45.7922],[60.2238,45.7939],[60.2272,45.7941],[60.2646,45.7959],[60.2816,45.7968],[60.2928,45.7975],[60.2974,45.7977],[60.3028,45.7981],[60.3378,45.8003],[60.4381,45.8081],[60.4527,45.8094],[60.4561,45.8097],[60.5545,45.8196],[60.5897,45.8237],[60.6121,45.8264],[60.63,45.8286],[60.6481,45.8309],[60.7008,45.8381],[60.7702,45.8484],[60.7709,45.8485],[60.778,45.8496],[60.8571,45.8627],[60.8801,45.8667],[60.9288,45.8757],[60.9468,45.8791],[60.9845,45.8865],[61.036,45.8972],[61.0644,45.9032],[61.0859,45.9079],[61.1266,45.9172],[61.1673,45.9267],[61.1968,45.9339],[61.2169,45.9389],[61.2418,45.9451],[61.2699,45.9524],[61.3055,45.9619],[61.3964,45.9874],[61.407,45.9904],[61.4506,46.0034],[61.4732,46.0103],[61.5496,46.0345],[61.5715,46.0417],[61.6144,46.0561],[61.6738,46.0767],[61.7013,46.0866],[61.7289,46.0967],[61.8188,46.1307],[61.8326,46.1361],[61.8511,46.1435],[61.8714,46.1516],[61.9991,46.2051],[62.0012,46.2061],[62.0198,46.2142],[62.0657,46.2347],[62.088,46.2449],[62.145,46.2715],[62.2169,46.3063],[62.2563,46.326],[62.2667,46.3312],[62.2888,46.3425],[62.337,46.3677],[62.4098,46.4069],[62.4301,46.4181],[62.4428,46.4252],[62.5243,46.4718],[62.569,46.4982],[62.5788,46.5041],[62.5982,46.5158],[62.625,46.5322],[62.7052,46.5827],[62.7733,46.6272],[62.7817,46.6328],[62.8026,46.6469],[62.8127,46.6537],[62.8387,46.6715],[62.9599,46.7577],[62.9692,46.7646],[62.9751,46.7689],[63.0127,46.797],[63.0379,46.8161],[63.0967,46.8618],[63.1325,46.8902],[63.1423,46.8981],[63.221,46.963],[63.2417,46.9805],[63.2538,46.9908],[63.2992,47.0301],[63.3039,47.0343],[63.342,47.0681],[63.4596,47.1771],[71.8022,55.163],[73.4575,56.7476],[73.6599,56.9528],[73.8501,57.1694],[74.0276,57.3966],[74.1916,57.6336],[74.3417,57.8797],[74.4774,58.134],[74.5982,58.3957],[74.7038,58.664],[74.7936,58.9379],[74.8676,59.2165],[74.9254,59.4989],[74.9668,59.7841],[74.9917,60.0713],[75,60.3595],[75,74.211],[45,74.211],[45,60.3486]]
M73 P0 R16
;TYPE:Custom
START_PRINT T_BED=110 T_EXTRUDER=260
G90
G21
M83 ; use relative distances for extrusion
; Filament gcode

    PRESSURE_ADVANCE_SELECT FILAMENT=ABS
M106 S0
;LAYER_CHANGE
;Z:0.2
;HEIGHT:0.2
;BEFORE_LAYER_CHANGE
;0.2
G92 E0

;AFTER_LAYER_CHANGE
;0.2
M204 S1000
; printing object BedSiliconeSupport.stl id:0 copy 0
EXCLUDE_OBJECT_START NAME=BedSiliconeSupport.stl_id_0_copy_0
G1 E-.5 F3000
G1 Z.2 F21000
G1 X71.936 Y73.047
G1 E.5 F1800
;TYPE:Inner wall
;WIDTH:0.499999
G1 F3000
G1 X48.064 Y73.047 E.84014
G1 X48.064 Y61.503 E.40626
G1 X48.094 Y60.139 E.04802
G1 X48.188 Y59.723 E.01503
G1 X48.369 Y59.341 E.01487
G1 X48.694 Y58.919 E.01872
G1 X58.599 Y49.464 E.48194
G1 X58.881 Y49.223 E.01305
G1 X59.413 Y48.953 E.02097
G1 X59.707 Y48.896 E.01054
G1 X60.147 Y48.862 E.01555
G1 X60.547 Y48.941 E.01436
G1 X60.931 Y49.115 E.01482
G1 X61.362 Y49.412 E.01842
G1 X71.389 Y59.021 E.48877
G1 X71.743 Y59.533 E.02191
G1 X71.882 Y59.937 E.01503
G1 X71.936 Y60.556 E.02186
G1 X71.936 Y72.987 E.4375
G1 X72.393 Y73.504 F21000
G1 F3000
G1 X47.607 Y73.504 E.87231
G1 X47.607 Y60.387 E.46162
G1 X47.669 Y59.825 E.01992
G1 X47.842 Y59.325 E.0186
G1 X48.118 Y58.876 E.01855
G1 X48.366 Y58.601 E.01304
G1 X58.361 Y49.059 E.48632
G1 X58.788 Y48.731 E.01895
G1 X59.274 Y48.514 E.01873
G1 X59.838 Y48.405 E.02023
G1 X60.381 Y48.435 E.01912
G1 X60.875 Y48.564 E.01797
G1 X61.391 Y48.844 E.02064
G1 X61.666 Y49.069 E.01251
G1 X71.513 Y58.495 E.47974
G1 X71.883 Y58.888 E.01901
G1 X72.159 Y59.337 E.01854
G1 X72.331 Y59.836 E.01858
G1 X72.393 Y60.556 E.02542
G1 X72.393 Y73.444 E.45358
G1 X72.85 Y73.961 F21000
;TYPE:Outer wall
G1 F3000
G1 X47.15 Y73.961 E.90448
G1 X47.15 Y60.362 E.4786
G1 X47.221 Y59.724 E.0226
G1 X47.426 Y59.129 E.02215
G1 X47.75 Y58.601 E.0218
G1 X48.038 Y58.282 E.01512
G1 X58.046 Y48.729 E.48693
G1 X58.563 Y48.331 E.02295
G1 X59.136 Y48.076 E.02208
G1 X59.795 Y47.948 E.02362
G1 X60.45 Y47.983 E.02309
G1 X61.054 Y48.141 E.02197
G1 X61.647 Y48.463 E.02375
G1 X61.969 Y48.727 E.01466
G1 X71.88 Y58.214 E.48285
G1 X72.251 Y58.613 E.01919
G1 X72.575 Y59.141 E.02177
G1 X72.779 Y59.735 E.02213
G1 X72.85 Y60.556 E.02898
G1 X72.85 Y73.901 E.46967
G1 X72.781 Y73.921
G1 E-.5
G1 Z.4 F21000
G1 X59.645 Y66.032
G1 Z.2
G1 E.5 F1800
;TYPE:Inner wall
G1 F3000
G1 X59.172 Y65.949 E.0169
G1 X58.629 Y65.722 E.0207
G1 X58.145 Y65.388 E.0207
G1 X57.739 Y64.963 E.0207
G1 X57.428 Y64.463 E.0207
G1 X57.226 Y63.911 E.0207
G1 X57.142 Y63.328 E.0207
G1 X57.178 Y62.741 E.0207
G1 X57.334 Y62.174 E.0207
G1 X57.602 Y61.651 E.0207
G1 X57.972 Y61.193 E.0207
G1 X58.428 Y60.821 E.0207
G1 X58.95 Y60.55 E.0207
G1 X59.634 Y60.37 E.0249
G1 X60.222 Y60.355 E.0207
G1 X60.826 Y60.469 E.02162
G1 X61.445 Y60.748 E.0239
G1 X61.965 Y61.132 E.02275
G1 X62.349 Y61.578 E.0207
G1 X62.633 Y62.093 E.0207
G1 X62.806 Y62.655 E.0207
G1 X62.86 Y63.241 E.0207
G1 X62.794 Y63.825 E.0207
G1 X62.609 Y64.384 E.0207
G1 X62.314 Y64.893 E.0207
G1 X61.921 Y65.33 E.0207
G1 X61.447 Y65.679 E.0207
G1 X61.184 Y65.81 E.01033
G1 X60.684 Y65.984 E.01865
G1 X60.338 Y66.047 E.01236
G1 X59.809 Y66.061 E.01865
G1 X59.704 Y66.042 E.00373
G1 X59.71 Y65.587 F21000
G1 F3000
G1 X59.277 Y65.504 E.01552
G1 X58.702 Y65.235 E.02233
G1 X58.316 Y64.927 E.0174
G1 X58 Y64.546 E.0174
G1 X57.769 Y64.109 E.0174
G1 X57.633 Y63.634 E.0174
G1 X57.596 Y63.14 E.0174
G1 X57.662 Y62.65 E.0174
G1 X57.826 Y62.184 E.0174
G1 X58.082 Y61.761 E.0174
G1 X58.419 Y61.399 E.0174
G1 X58.823 Y61.114 E.0174
G1 X59.277 Y60.918 E.0174
G1 X59.692 Y60.824 E.01498
G1 X60.256 Y60.82 E.01984
G1 X60.771 Y60.937 E.0186
G1 X61.252 Y61.162 E.01867
G1 X61.672 Y61.483 E.01863
G1 X62.005 Y61.881 E.01827
G1 X62.274 Y62.429 E.02148
G1 X62.386 Y62.911 E.0174
G1 X62.397 Y63.405 E.0174
G1 X62.306 Y63.891 E.0174
G1 X62.118 Y64.349 E.0174
G1 X61.841 Y64.758 E.0174
G1 X61.486 Y65.102 E.0174
G1 X61.034 Y65.378 E.01863
G1 X60.534 Y65.552 E.01865
G1 X60.326 Y65.59 E.00742
G1 X59.797 Y65.604 E.01865
G1 X59.769 Y65.598 E.00099
G1 X59.745 Y65.138 F21000
;TYPE:Outer wall
G1 F3000
G1 X59.338 Y65.044 E.01473
G1 X58.977 Y64.87 E.01411
G1 X58.659 Y64.625 E.01411
G1 X58.398 Y64.321 E.01411
G1 X58.205 Y63.97 E.01411
G1 X58.087 Y63.587 E.01411
G1 X58.051 Y63.187 E.01411
G1 X58.097 Y62.789 E.01411
G1 X58.224 Y62.409 E.01411
G1 X58.425 Y62.063 E.01411
G1 X58.693 Y61.765 E.01411
G1 X59.017 Y61.528 E.0141
G1 X59.382 Y61.363 E.01411
G1 X59.75 Y61.277 E.0133
G1 X60.174 Y61.27 E.01492
G1 X60.577 Y61.351 E.01449
G1 X61.058 Y61.576 E.01867
G1 X61.412 Y61.868 E.01616
G1 X61.657 Y62.185 E.01411
G1 X61.832 Y62.545 E.01411
G1 X61.929 Y62.934 E.01411
G1 X61.945 Y63.335 E.01411
G1 X61.879 Y63.73 E.01411
G1 X61.733 Y64.103 E.01411
G1 X61.514 Y64.439 E.01411
G1 X61.23 Y64.723 E.01411
G1 X60.884 Y64.946 E.01451
G1 X60.384 Y65.12 E.01865
G1 X59.804 Y65.146 E.02041
G1 X59.699 Y65.203
G1 E-.5
G1 Z.4 F21000
G1 X64.388 Y52.498
G1 Z.2
G1 E.5 F1800
;TYPE:Bottom surface
;WIDTH:0.50153
G1 F6300
G1 X71.07 Y59.179 E.33368
G1 X71.24 Y59.369 E.00899
G1 X71.431 Y59.68 E.01291
G1 X71.545 Y60.013 E.0124
G1 X71.582 Y60.34 E.01164
G1 X60.539 Y49.298 E.55144
G1 X60.357 Y49.241 E.00674
G1 X60.025 Y49.205 E.01181
G1 X59.817 Y49.224 E.00737
G1 X71.593 Y61 E.58808
G1 X71.593 Y61.649 E.0229
G1 X59.316 Y49.371 E.6131
G1 X59.182 Y49.431 E.00516
G1 X58.924 Y49.628 E.01148
G1 X71.593 Y62.297 E.63268
G1 X71.593 Y62.946 E.0229
G1 X58.592 Y49.945 E.64925
G1 X58.26 Y50.261 E.0162
G1 X71.593 Y63.594 E.66582
M73 P1 R16
G1 X71.593 Y64.243 E.0229
G1 X57.928 Y50.578 E.68239
G1 X57.596 Y50.895 E.0162
G1 X71.593 Y64.891 E.69896
G1 X71.593 Y65.54 E.0229
G1 X57.265 Y51.212 E.71553
G1 X56.933 Y51.528 E.0162
G1 X71.593 Y66.189 E.7321
G1 X71.593 Y66.837 E.0229
G1 X56.601 Y51.845 E.74868
G1 X56.269 Y52.162 E.0162
G1 X71.593 Y67.486 E.76525
G1 X71.593 Y68.134 E.0229
G1 X55.937 Y52.479 E.78182
G1 X55.606 Y52.795 E.0162
G1 X71.593 Y68.783 E.79839
G1 X71.593 Y69.431 E.0229
G1 X55.274 Y53.112 E.81496
G1 X54.942 Y53.429 E.0162
G1 X71.593 Y70.08 E.83153
G1 X71.593 Y70.729 E.0229
G1 X63.023 Y62.158 E.42798
G1 X62.942 Y61.943 E.00813
G1 X62.653 Y61.411 E.02138
G1 X62.262 Y60.937 E.02169
G1 X61.758 Y60.528 E.02293
G1 X61.06 Y60.195 E.0273
G1 X54.61 Y53.746 E.32209
G1 X54.278 Y54.062 E.0162
G1 X60.236 Y60.02 E.29751
G1 X60.1 Y60.009 E.00482
G1 X59.597 Y60.029 E.01777
G1 X53.946 Y54.379 E.28217
G1 X53.615 Y54.696 E.0162
G1 X59.067 Y60.148 E.27226
G1 X58.81 Y60.237 E.00959
G1 X58.604 Y60.334 E.00804
G1 X53.283 Y55.013 E.26572
G1 X52.951 Y55.329 E.0162
G1 X58.192 Y60.57 E.26173
G1 X57.828 Y60.855 E.01632
G1 X52.619 Y55.646 E.2601
G1 X52.287 Y55.963 E.0162
G1 X57.52 Y61.196 E.26133
G1 X57.4 Y61.333 E.00643
G1 X57.255 Y61.579 E.01009
G1 X51.956 Y56.28 E.26463
G1 X51.624 Y56.596 E.0162
G1 X57.034 Y62.007 E.27019
G1 X56.875 Y62.496 E.01817
G1 X51.292 Y56.913 E.27881
G1 X50.96 Y57.23 E.0162
G1 X56.8 Y63.07 E.29165
G1 X56.8 Y63.358 E.01018
G1 X56.845 Y63.764 E.0144
G1 X50.483 Y57.401 E.31773
G1 E-.5 F3000
G1 Z.4 F21000
G1 X62.958 Y62.742
G1 Z.2
G1 E.5 F1800
G1 F6300
G1 X71.593 Y71.377 E.43124
G1 X71.593 Y72.026 E.0229
G1 X63.167 Y63.6 E.42077
G1 X63.128 Y63.909 E.01099
G1 X63.063 Y64.145 E.00863
G1 X71.593 Y72.674 E.42596
G1 X71.593 Y72.704 E.00105
G1 X70.974 Y72.704 E.02185
G1 X62.882 Y64.612 E.40411
G1 X62.639 Y65.018 E.0167
G1 X70.326 Y72.704 E.38384
G1 X69.677 Y72.704 E.0229
G1 X62.352 Y65.379 E.36579
G1 X62.019 Y65.694 E.0162
G1 X69.028 Y72.704 E.35006
G1 X68.38 Y72.704 E.0229
G1 X61.633 Y65.958 E.33691
G1 X61.476 Y66.059 E.00662
G1 X61.191 Y66.163 E.01072
G1 X67.731 Y72.704 E.32663
G1 X67.083 Y72.704 E.0229
G1 X60.71 Y66.331 E.31826
G1 X60.577 Y66.366 E.00486
G1 X60.125 Y66.395 E.01597
G1 X66.434 Y72.704 E.31505
G1 X65.786 Y72.704 E.0229
G1 X59.172 Y66.09 E.3303
G1 E-.5 F3000
G1 Z.4 F21000
G1 X65.343 Y72.91
G1 Z.2
G1 E.5 F1800
G1 F6300
G1 X50.296 Y57.863 E.75139
G1 X49.965 Y58.18 E.0162
G1 X64.488 Y72.704 E.7253
M73 P2 R16
G1 X63.84 Y72.704 E.0229
G1 X49.633 Y58.497 E.70948
G1 X49.301 Y58.814 E.0162
G1 X63.191 Y72.704 E.69366
G1 X62.543 Y72.704 E.0229
G1 X48.969 Y59.13 E.67785
G1 X48.761 Y59.357 E.01087
G1 X48.68 Y59.489 E.00549
G1 X61.894 Y72.704 E.65992
G1 X61.246 Y72.704 E.0229
G1 X48.477 Y59.936 E.63763
G1 X48.455 Y60.001 E.00245
G1 X48.407 Y60.514 E.01818
G1 X60.597 Y72.704 E.60875
G1 X59.948 Y72.704 E.0229
G1 X48.407 Y61.163 E.57636
G1 X48.407 Y61.811 E.0229
G1 X59.3 Y72.704 E.54397
G1 X58.651 Y72.704 E.0229
G1 X48.407 Y62.46 E.51159
G1 X48.407 Y63.108 E.0229
G1 X58.003 Y72.704 E.4792
G1 X57.354 Y72.704 E.0229
G1 X48.407 Y63.757 E.44681
G1 X48.407 Y64.405 E.0229
G1 X56.706 Y72.704 E.41442
G1 X56.057 Y72.704 E.0229
G1 X48.407 Y65.054 E.38203
G1 X48.407 Y65.703 E.0229
G1 X55.408 Y72.704 E.34964
G1 X54.76 Y72.704 E.0229
G1 X48.407 Y66.351 E.31725
G1 X48.407 Y67 E.0229
G1 X54.111 Y72.704 E.28487
G1 X53.463 Y72.704 E.0229
G1 X48.407 Y67.648 E.25248
G1 X48.407 Y68.297 E.0229
G1 X52.814 Y72.704 E.22009
G1 X52.166 Y72.704 E.0229
G1 X48.407 Y68.945 E.1877
G1 X48.407 Y69.594 E.0229
G1 X51.517 Y72.704 E.15531
G1 X50.868 Y72.704 E.0229
G1 X48.407 Y70.243 E.12292
G1 X48.407 Y70.891 E.0229
G1 X50.22 Y72.704 E.09053
G1 X49.571 Y72.704 E.0229
G1 X48.407 Y71.54 E.05815
G1 X48.407 Y72.188 E.0229
G1 X49.128 Y72.91 E.03603
; stop printing object BedSiliconeSupport.stl id:0 copy 0
EXCLUDE_OBJECT_END NAME=BedSiliconeSupport.stl_id_0_copy_0
;LAYER_CHANGE
;Z:0.4
;HEIGHT:0.2
;BEFORE_LAYER_CHANGE
;0.4
G92 E0

;AFTER_LAYER_CHANGE
;0.4
M204 S5000
M140 S110 ; set bed temperature
; printing object BedSiliconeSupport.stl id:0 copy 0
EXCLUDE_OBJECT_START NAME=BedSiliconeSupport.stl_id_0_copy_0
M204 S6000
G1 E-.5 F3000
G1 Z.4 F21000
G1 X72.311 Y73.222
G1 E.5 F1800
M204 S5000
;TYPE:Inner wall
;WIDTH:0.449999
G1 F8843.492
G1 X47.689 Y73.222 E.77175
G1 X47.689 Y60.403 E.4018
G1 X47.752 Y59.84 E.01776
G1 X47.921 Y59.353 E.01616
G1 X48.179 Y58.932 E.01548
G1 X48.431 Y58.652 E.01181
G1 X58.32 Y49.212 E.42851
G1 X58.658 Y48.922 E.01396
G1 X59.152 Y48.659 E.01754
G1 X59.624 Y48.514 E.01548
G1 X60.17 Y48.491 E.01713
G1 X60.707 Y48.593 E.01713
G1 X61.176 Y48.809 E.01618
G1 X61.628 Y49.147 E.01769
G1 X71.446 Y58.544 E.42597
G1 X71.822 Y58.944 E.01721
G1 X72.079 Y59.364 E.01543
G1 X72.248 Y59.851 E.01616
G1 X72.311 Y60.57 E.02262
G1 X72.311 Y73.162 E.39468
M204 S6000
G1 X72.718 Y73.629 F21000
M204 S5000
G1 F8843.492
G1 X47.282 Y73.629 E.79726
G1 X47.282 Y60.381 E.41524
G1 X47.353 Y59.749 E.01993
G1 X47.551 Y59.177 E.01897
G1 X47.852 Y58.688 E.018
G1 X48.138 Y58.368 E.01345
G1 X58.135 Y48.826 E.43317
G1 X58.617 Y48.454 E.01908
G1 X58.985 Y48.288 E.01265
G1 X59.567 Y48.109 E.01909
G1 X60.199 Y48.082 E.01983
G1 X60.822 Y48.2 E.01987
G1 X61.383 Y48.458 E.01935
G1 X61.898 Y48.842 E.02014
G1 X71.78 Y58.301 E.42877
G1 X72.149 Y58.7 E.01703
G1 X72.449 Y59.189 E.01798
G1 X72.647 Y59.761 E.01897
G1 X72.718 Y60.57 E.02545
G1 X72.718 Y73.569 E.40744
M204 S6000
G1 X72.94 Y74.011 F21000
M204 S3000
;TYPE:Outer wall
;WIDTH:0.399999
G1 F7200
G1 X47.06 Y74.011 E.71155
G1 F6360.005
G1 X46.98 Y74.011 E.0022
G1 F3000
G1 X46.9 Y74.011 E.0022
G1 X46.9 Y73.411 E.0165
G1 X46.9 Y60.959 E.34236
G1 X46.9 Y60.359 E.0165
G1 F3031.835
G1 X46.978 Y59.664 E.01923
G1 F3023.635
G1 X47.204 Y59.013 E.01895
G1 F3000.205
G1 X47.544 Y58.459 E.01787
G1 X47.864 Y58.102 E.01318
