; HEADER_BLOCK_START
; generated by OrcaSlicer 1.6.3 on 2023-06-16 at 11:19:34
; total layer number: 50
; HEADER_BLOCK_END

; THUMBNAIL_BLOCK_START
; THUMBNAIL_BLOCK_END

; external perimeters extrusion width = 0.40mm
; perimeters extrusion width = 0.45mm
; infill extrusion width = 0.45mm
; solid infill extrusion width = 0.40mm
; top infill extrusion width = 0.40mm
; first layer extrusion width = 0.50mm

; external perimeters extrusion width = 0.40mm
; perimeters extrusion width = 0.45mm
; infill extrusion width = 0.45mm
; solid infill extrusion width = 0.40mm
; top infill extrusion width = 0.40mm
; first layer extrusion width = 0.50mm

; external perimeters extrusion width = 0.40mm
; perimeters extrusion width = 0.45mm
; infill extrusion width = 0.45mm
; solid infill extrusion width = 0.40mm
; top infill extrusion width = 0.40mm
; first layer extrusion width = 0.50mm

; external perimeters extrusion width = 0.40mm
; perimeters extrusion width = 0.45mm
; infill extrusion width = 0.45mm
; solid infill extrusion width = 0.40mm
; top infill extrusion width = 0.40mm
; first layer extrusion width = 0.50mm

; EXECUTABLE_BLOCK_START
EXCLUDE_OBJECT_DEFINE NAME=Belt_clip_touthed.stl_id_0_copy_0 CENTER=68,65.7 POLYGON=[[62.5,63.5],[62.5031,63.4215],[62.5123,63.3436],[62.5276,63.2666],[62.5489,63.191],[62.5761,63.1173],[62.609,63.046],[62.6474,62.9775],[62.691,62.9122],[62.7396,62.8506],[62.7929,62.7929],[62.8506,62.7396],[62.9122,62.691],[62.9775,62.6474],[63.046,62.609],[63.1173,62.5761],[63.191,62.5489],[63.2666,62.5276],[63.3436,62.5123],[63.4215,62.5031],[63.5,62.5],[72.5,62.5],[72.5785,62.5031],[72.6564,62.5123],[72.7334,62.5276],[72.809,62.5489],[72.8827,62.5761],[72.954,62.609],[73.0225,62.6474],[73.0878,62.691],[73.1494,62.7396],[73.2071,62.7929],[73.2604,62.8506],[73.309,62.9122],[73.3526,62.9775],[73.391,63.046],[73.4239,63.1173],[73.4511,63.191],[73.4724,63.2666],[73.4877,63.3436],[73.4969,63.4215],[73.5,63.5],[73.5,67.9],[73.4969,67.9785],[73.4877,68.0564],[73.4724,68.1334],[73.4511,68.209],[73.4239,68.2827],[73.391,68.354],[73.3526,68.4225],[73.309,68.4878],[73.2604,68.5494],[73.2071,68.6071],[73.1494,68.6604],[73.0878,68.709],[73.0225,68.7526],[72.954,68.791],[72.8827,68.8239],[72.809,68.8511],[72.7334,68.8724],[72.6564,68.8877],[72.5785,68.8969],[72.5,68.9],[63.5,68.9],[63.4215,68.8969],[63.3436,68.8877],[63.2666,68.8724],[63.191,68.8511],[63.1173,68.8239],[63.046,68.791],[62.9775,68.7526],[62.9122,68.709],[62.8506,68.6604],[62.7929,68.6071],[62.7396,68.5494],[62.691,68.4878],[62.6474,68.4225],[62.609,68.354],[62.5761,68.2827],[62.5489,68.209],[62.5276,68.1334],[62.5123,68.0564],[62.5031,67.9785],[62.5,67.9],[62.5,63.5]]
EXCLUDE_OBJECT_DEFINE NAME=Belt_clip_touthed.stl_id_1_copy_0 CENTER=68,54.3 POLYGON=[[62.5,52.1],[62.5031,52.0215],[62.5123,51.9436],[62.5276,51.8666],[62.5489,51.791],[62.5761,51.7173],[62.609,51.646],[62.6474,51.5775],[62.691,51.5122],[62.7396,51.4506],[62.7929,51.3929],[62.8506,51.3396],[62.9122,51.291],[62.9775,51.2474],[63.046,51.209],[63.1173,51.1761],[63.191,51.1489],[63.2666,51.1276],[63.3436,51.1123],[63.4215,51.1031],[63.5,51.1],[72.5,51.1],[72.5785,51.1031],[72.6564,51.1123],[72.7334,51.1276],[72.809,51.1489],[72.8827,51.1761],[72.954,51.209],[73.0225,51.2474],[73.0878,51.291],[73.1494,51.3396],[73.2071,51.3929],[73.2604,51.4506],[73.309,51.5122],[73.3526,51.5775],[73.391,51.646],[73.4239,51.7173],[73.4511,51.791],[73.4724,51.8666],[73.4877,51.9436],[73.4969,52.0215],[73.5,52.1],[73.5,56.5],[73.4969,56.5785],[73.4877,56.6564],[73.4724,56.7334],[73.4511,56.809],[73.4239,56.8827],[73.391,56.954],[73.3526,57.0225],[73.309,57.0878],[73.2604,57.1494],[73.2071,57.2071],[73.1494,57.2604],[73.0878,57.309],[73.0225,57.3526],[72.954,57.391],[72.8827,57.4239],[72.809,57.4511],[72.7334,57.4724],[72.6564,57.4877],[72.5785,57.4969],[72.5,57.5],[63.5,57.5],[63.4215,57.4969],[63.3436,57.4877],[63.2666,57.4724],[63.191,57.4511],[63.1173,57.4239],[63.046,57.391],[62.9775,57.3526],[62.9122,57.309],[62.8506,57.2604],[62.7929,57.2071],[62.7396,57.1494],[62.691,57.0878],[62.6474,57.0225],[62.609,56.954],[62.5761,56.8827],[62.5489,56.809],[62.5276,56.7334],[62.5123,56.6564],[62.5031,56.5785],[62.5,56.5],[62.5,52.1]]
EXCLUDE_OBJECT_DEFINE NAME=Belt_clip_touthed.stl_id_2_copy_0 CENTER=52,54.3 POLYGON=[[46.5,52.1],[46.5031,52.0215],[46.5123,51.9436],[46.5276,51.8666],[46.5489,51.791],[46.5761,51.7173],[46.609,51.646],[46.6474,51.5775],[46.691,51.5122],[46.7396,51.4506],[46.7929,51.3929],[46.8506,51.3396],[46.9122,51.291],[46.9775,51.2474],[47.046,51.209],[47.1173,51.1761],[47.191,51.1489],[47.2666,51.1276],[47.3436,51.1123],[47.4215,51.1031],[47.5,51.1],[56.5,51.1],[56.5785,51.1031],[56.6564,51.1123],[56.7334,51.1276],[56.809,51.1489],[56.8827,51.1761],[56.954,51.209],[57.0225,51.2474],[57.0878,51.291],[57.1494,51.3396],[57.2071,51.3929],[57.2604,51.4506],[57.309,51.5122],[57.3526,51.5775],[57.391,51.646],[57.4239,51.7173],[57.4511,51.791],[57.4724,51.8666],[57.4877,51.9436],[57.4969,52.0215],[57.5,52.1],[57.5,56.5],[57.4969,56.5785],[57.4877,56.6564],[57.4724,56.7334],[57.4511,56.809],[57.4239,56.8827],[57.391,56.954],[57.3526,57.0225],[57.309,57.0878],[57.2604,57.1494],[57.2071,57.2071],[57.1494,57.2604],[57.0878,57.309],[57.0225,57.3526],[56.954,57.391],[56.8827,57.4239],[56.809,57.4511],[56.7334,57.4724],[56.6564,57.4877],[56.5785,57.4969],[56.5,57.5],[47.5,57.5],[47.4215,57.4969],[47.3436,57.4877],[47.2666,57.4724],[47.191,57.4511],[47.1173,57.4239],[47.046,57.391],[46.9775,57.3526],[46.9122,57.309],[46.8506,57.2604],[46.7929,57.2071],[46.7396,57.1494],[46.691,57.0878],[46.6474,57.0225],[46.609,56.954],[46.5761,56.8827],[46.5489,56.809],[46.5276,56.7334],[46.5123,56.6564],[46.5031,56.5785],[46.5,56.5],[46.5,52.1]]
EXCLUDE_OBJECT_DEFINE NAME=Belt_clip_touthed.stl_id_3_copy_0 CENTER=52,65.7 POLYGON=[[46.5,63.5],[46.5031,63.4215],[46.5123,63.3436],[46.5276,63.2666],[46.5489,63.191],[46.5761,63.1173],[46.609,63.046],[46.6474,62.9775],[46.691,62.9122],[46.7396,62.8506],[46.7929,62.7929],[46.8506,62.7396],[46.9122,62.691],[46.9775,62.6474],[47.046,62.609],[47.1173,62.5761],[47.191,62.5489],[47.2666,62.5276],[47.3436,62.5123],[47.4215,62.5031],[47.5,62.5],[56.5,62.5],[56.5785,62.5031],[56.6564,62.5123],[56.7334,62.5276],[56.809,62.5489],[56.8827,62.5761],[56.954,62.609],[57.0225,62.6474],[57.0878,62.691],[57.1494,62.7396],[57.2071,62.7929],[57.2604,62.8506],[57.309,62.9122],[57.3526,62.9775],[57.391,63.046],[57.4239,63.1173],[57.4511,63.191],[57.4724,63.2666],[57.4877,63.3436],[57.4969,63.4215],[57.5,63.5],[57.5,67.9],[57.4969,67.9785],[57.4877,68.0564],[57.4724,68.1334],[57.4511,68.209],[57.4239,68.2827],[57.391,68.354],[57.3526,68.4225],[57.309,68.4878],[57.2604,68.5494],[57.2071,68.6071],[57.1494,68.6604],[57.0878,68.709],[57.0225,68.7526],[56.954,68.791],[56.8827,68.8239],[56.809,68.8511],[56.7334,68.8724],[56.6564,68.8877],[56.5785,68.8969],[56.5,68.9],[47.5,68.9],[47.4215,68.8969],[47.3436,68.8877],[47.2666,68.8724],[47.191,68.8511],[47.1173,68.8239],[47.046,68.791],[46.9775,68.7526],[46.9122,68.709],[46.8506,68.6604],[46.7929,68.6071],[46.7396,68.5494],[46.691,68.4878],[46.6474,68.4225],[46.609,68.354],[46.5761,68.2827],[46.5489,68.209],[46.5276,68.1334],[46.5123,68.0564],[46.5031,67.9785],[46.5,67.9],[46.5,63.5]]
M73 P0 R13
;TYPE:Custom
START_PRINT T_BED=110 T_EXTRUDER=260
G90
G21
M83 ; use relative distances for extrusion
; Filament gcode

    PRESSURE_ADVANCE_SELECT FILAMENT=ABS
M106 S0
;LAYER_CHANGE
;Z:0.2
;HEIGHT:0.2
;BEFORE_LAYER_CHANGE
;0.2
G92 E0

;AFTER_LAYER_CHANGE
;0.2
M204 S500
; printing object Belt_clip touthed.stl id:0 copy 0
EXCLUDE_OBJECT_START NAME=Belt_clip_touthed.stl_id_0_copy_0
G1 E-.5 F3000
G1 Z.2 F21000
G1 X63.487 Y63.492
G1 E.5 F1800
;TYPE:Inner wall
;WIDTH:0.614285
G1 F3000
G1 X63.995 Y63.439 E.02244
;WIDTH:0.564299
G1 X64.237 Y63.414 E.00976
;WIDTH:0.514312
G1 X64.479 Y63.389 E.00883
;WIDTH:0.464325
G1 X71.522 Y63.39 E.22853
;WIDTH:0.50143
G1 X71.766 Y63.411 E.00865
;WIDTH:0.538933
G1 X72.01 Y63.433 E.00935
;WIDTH:0.576437
G1 X72.254 Y63.454 E.01006
;WIDTH:0.61394
G1 X72.498 Y63.475 E.01077
G1 X72.533 Y63.547 E.00352
G1 X72.552 Y63.933 E.01697
;WIDTH:0.576173
G1 X72.571 Y64.115 E.00751
;WIDTH:0.538406
G1 X72.59 Y64.297 E.00698
;WIDTH:0.500639
G1 X72.608 Y64.479 E.00645
;WIDTH:0.462871
G1 X72.608 Y66.921 E.07899
;WIDTH:0.469516
G1 X72.605 Y67.074 E.00502
;WIDTH:0.517755
G1 X72.574 Y67.352 E.01022
;WIDTH:0.565993
G1 X72.544 Y67.63 E.01126
;WIDTH:0.614231
G1 X72.513 Y67.908 E.0123
G1 X72.005 Y67.961 E.02244
;WIDTH:0.564281
G1 X71.763 Y67.986 E.00976
;WIDTH:0.514331
G1 X71.521 Y68.011 E.00883
;WIDTH:0.464381
G1 X64.479 Y68.011 E.22855
;WIDTH:0.502052
G1 X64.251 Y67.992 E.00808
;WIDTH:0.539722
G1 X64.023 Y67.973 E.00874
;WIDTH:0.577393
G1 X63.795 Y67.954 E.0094
;WIDTH:0.615063
G1 X63.568 Y67.935 E.01007
G1 X63.473 Y67.897 E.00452
G1 X63.446 Y67.467 E.01898
;WIDTH:0.57731
G1 X63.427 Y67.285 E.00753
;WIDTH:0.539557
G1 X63.409 Y67.103 E.00699
;WIDTH:0.501804
G1 X63.39 Y66.921 E.00646
;WIDTH:0.46405
G1 X63.391 Y64.478 E.07921
;WIDTH:0.463226
G1 X63.391 Y64.478 E.00002
;WIDTH:0.500991
G1 X63.415 Y64.231 E.00873
;WIDTH:0.538756
G1 X63.439 Y63.985 E.00945
;WIDTH:0.576521
G1 X63.463 Y63.738 E.01017
;WIDTH:0.614285
G1 X63.481 Y63.552 E.00825
G1 X63.223 Y63.029 F21000
;TYPE:Outer wall
;WIDTH:0.499999
G1 F3000
G1 X63.518 Y62.95 E.01074
G1 X72.501 Y62.951 E.31615
G1 X72.786 Y63.047 E.01055
G1 X72.987 Y63.253 E.01015
G1 X73.047 Y63.547 E.01056
G1 X73.047 Y67.83 E.15075
G1 X72.963 Y68.185 E.01284
G1 X72.777 Y68.371 E.00925
G1 X72.482 Y68.45 E.01075
G1 X64.479 Y68.45 E.28166
G1 X63.373 Y68.431 E.0389
G1 X63.201 Y68.335 E.00695
G1 X63.034 Y68.187 E.00785
G1 X62.95 Y67.882 E.01116
G1 X62.953 Y63.569 E.15176
G1 X63.037 Y63.215 E.01284
G1 X63.181 Y63.071 E.00714
G1 X63.277 Y63.058
G1 E-.5
G1 Z.4 F21000
G1 X63.839 Y64.378
G1 Z.2
G1 E.5 F1800
;TYPE:Inner wall
;WIDTH:0.50099
G1 F3000
G1 X63.847 Y64.347 E.00114
;WIDTH:0.538755
G1 X63.883 Y64.215 E.0052
;WIDTH:0.57652
G1 X63.919 Y64.084 E.0056
;WIDTH:0.614285
G1 X63.954 Y63.952 E.006
G1 X64.129 Y63.905 E.00796
;WIDTH:0.564299
G1 X64.304 Y63.858 E.00727
;WIDTH:0.514312
G1 X64.479 Y63.811 E.00657
;WIDTH:0.464325
G1 X71.521 Y63.811 E.22852
;WIDTH:0.501429
G1 X71.653 Y63.846 E.00479
;WIDTH:0.538933
G1 X71.784 Y63.882 E.00519
;WIDTH:0.576437
G1 X71.915 Y63.917 E.00558
;WIDTH:0.61394
G1 X72.046 Y63.953 E.00597
G1 X72.081 Y64.084 E.00599
;WIDTH:0.576173
G1 X72.117 Y64.216 E.00559
;WIDTH:0.538406
G1 X72.153 Y64.347 E.0052
;WIDTH:0.500639
G1 X72.189 Y64.479 E.0048
;WIDTH:0.462871
G1 X72.189 Y66.921 E.07899
;WIDTH:0.500711
G1 X72.153 Y67.053 E.00481
;WIDTH:0.538551
G1 X72.117 Y67.185 E.0052
;WIDTH:0.576391
G1 X72.081 Y67.316 E.0056
;WIDTH:0.614231
G1 X72.046 Y67.448 E.006
G1 X71.91 Y67.493 E.0063
;WIDTH:0.5665
G1 X71.773 Y67.538 E.00578
;WIDTH:0.518769
G1 X71.637 Y67.583 E.00525
;WIDTH:0.471038
G1 X71.521 Y67.589 E.00383
;WIDTH:0.464381
G1 X64.479 Y67.589 E.22855
;WIDTH:0.502052
G1 X64.347 Y67.554 E.00481
;WIDTH:0.539722
G1 X64.216 Y67.518 E.00521
;WIDTH:0.577393
G1 X64.084 Y67.483 E.0056
;WIDTH:0.615063
G1 X63.953 Y67.447 E.006
G1 X63.918 Y67.316 E.006
;WIDTH:0.57731
G1 X63.882 Y67.184 E.0056
;WIDTH:0.539557
G1 X63.846 Y67.053 E.0052
;WIDTH:0.501804
G1 X63.811 Y66.921 E.00481
;WIDTH:0.46405
G1 X63.811 Y64.479 E.07921
;WIDTH:0.50099
G1 X63.823 Y64.436 E.00155
G1 X64.25 Y64.478 F21000
;TYPE:Outer wall
;WIDTH:0.499999
G1 F3000
G1 X64.317 Y64.317 E.00617
G1 X64.479 Y64.25 E.00614
G1 X71.521 Y64.25 E.24787
G1 X71.683 Y64.317 E.00614
G1 X71.75 Y64.479 E.00617
G1 X71.75 Y66.921 E.08598
G1 X71.683 Y67.083 E.00617
G1 X71.561 Y67.147 E.00483
G1 X64.479 Y67.15 E.24926
G1 X64.317 Y67.083 E.00616
G1 X64.25 Y66.921 E.00616
G1 X64.25 Y64.538 E.08387
G1 X64.225 Y64.454
; stop printing object Belt_clip touthed.stl id:0 copy 0
EXCLUDE_OBJECT_END NAME=Belt_clip_touthed.stl_id_0_copy_0
; printing object Belt_clip touthed.stl id:1 copy 0
EXCLUDE_OBJECT_START NAME=Belt_clip_touthed.stl_id_1_copy_0
G1 E-.5
G1 Z.4 F21000
G1 X63.487 Y52.092
G1 Z.2
G1 E.5 F1800
;TYPE:Inner wall
;WIDTH:0.614285
G1 F3000
G1 X63.995 Y52.039 E.02244
;WIDTH:0.564299
G1 X64.237 Y52.014 E.00976
;WIDTH:0.514312
G1 X64.479 Y51.989 E.00883
;WIDTH:0.464325
G1 X71.522 Y51.99 E.22853
;WIDTH:0.50143
G1 X71.766 Y52.011 E.00865
;WIDTH:0.538933
G1 X72.01 Y52.033 E.00935
;WIDTH:0.576437
G1 X72.254 Y52.054 E.01006
;WIDTH:0.61394
G1 X72.498 Y52.075 E.01077
G1 X72.533 Y52.147 E.00352
G1 X72.552 Y52.533 E.01697
;WIDTH:0.576173
G1 X72.571 Y52.715 E.00751
;WIDTH:0.538406
G1 X72.59 Y52.897 E.00698
;WIDTH:0.500639
G1 X72.608 Y53.079 E.00645
;WIDTH:0.462871
G1 X72.608 Y55.521 E.07899
;WIDTH:0.469516
G1 X72.605 Y55.674 E.00502
;WIDTH:0.517755
G1 X72.574 Y55.952 E.01022
;WIDTH:0.565993
G1 X72.544 Y56.23 E.01126
;WIDTH:0.614231
G1 X72.513 Y56.508 E.0123
G1 X72.005 Y56.561 E.02244
;WIDTH:0.564281
G1 X71.763 Y56.586 E.00976
;WIDTH:0.514331
G1 X71.521 Y56.611 E.00883
;WIDTH:0.464381
G1 X64.479 Y56.611 E.22855
;WIDTH:0.502052
G1 X64.251 Y56.592 E.00808
;WIDTH:0.539722
G1 X64.023 Y56.573 E.00874
;WIDTH:0.577393
G1 X63.795 Y56.554 E.0094
;WIDTH:0.615063
G1 X63.568 Y56.535 E.01007
G1 X63.473 Y56.497 E.00452
G1 X63.446 Y56.067 E.01898
;WIDTH:0.57731
G1 X63.427 Y55.885 E.00753
;WIDTH:0.539557
G1 X63.409 Y55.703 E.00699
;WIDTH:0.501804
G1 X63.39 Y55.521 E.00646
;WIDTH:0.46405
G1 X63.391 Y53.078 E.07921
;WIDTH:0.463226
G1 X63.391 Y53.078 E.00002
;WIDTH:0.500991
G1 X63.415 Y52.831 E.00873
;WIDTH:0.538756
G1 X63.439 Y52.585 E.00945
;WIDTH:0.576521
G1 X63.463 Y52.338 E.01017
;WIDTH:0.614285
G1 X63.481 Y52.152 E.00825
G1 X63.223 Y51.629 F21000
;TYPE:Outer wall
;WIDTH:0.499999
G1 F3000
G1 X63.518 Y51.55 E.01074
G1 X72.501 Y51.551 E.31615
G1 X72.786 Y51.647 E.01055
G1 X72.987 Y51.853 E.01015
G1 X73.047 Y52.147 E.01056
G1 X73.047 Y56.43 E.15075
G1 X72.963 Y56.785 E.01284
G1 X72.777 Y56.971 E.00925
G1 X72.482 Y57.05 E.01075
G1 X64.479 Y57.05 E.28166
G1 X63.373 Y57.031 E.0389
G1 X63.201 Y56.935 E.00695
G1 X63.034 Y56.787 E.00785
G1 X62.95 Y56.482 E.01116
G1 X62.953 Y52.169 E.15176
G1 X63.037 Y51.815 E.01284
G1 X63.181 Y51.671 E.00714
G1 X63.277 Y51.658
G1 E-.5
G1 Z.4 F21000
G1 X63.839 Y52.978
G1 Z.2
G1 E.5 F1800
;TYPE:Inner wall
;WIDTH:0.50099
G1 F3000
G1 X63.847 Y52.947 E.00114
;WIDTH:0.538755
G1 X63.883 Y52.815 E.0052
;WIDTH:0.57652
G1 X63.919 Y52.684 E.0056
;WIDTH:0.614285
G1 X63.954 Y52.552 E.006
G1 X64.129 Y52.505 E.00796
;WIDTH:0.564299
G1 X64.304 Y52.458 E.00727
;WIDTH:0.514312
G1 X64.479 Y52.411 E.00657
;WIDTH:0.464325
G1 X71.521 Y52.411 E.22852
;WIDTH:0.501429
G1 X71.653 Y52.446 E.00479
;WIDTH:0.538933
G1 X71.784 Y52.482 E.00519
;WIDTH:0.576437
G1 X71.915 Y52.517 E.00558
;WIDTH:0.61394
G1 X72.046 Y52.553 E.00597
G1 X72.081 Y52.684 E.00599
;WIDTH:0.576173
G1 X72.117 Y52.816 E.00559
;WIDTH:0.538406
G1 X72.153 Y52.947 E.0052
;WIDTH:0.500639
G1 X72.189 Y53.079 E.0048
;WIDTH:0.462871
G1 X72.189 Y55.521 E.07899
;WIDTH:0.500711
G1 X72.153 Y55.653 E.00481
;WIDTH:0.538551
G1 X72.117 Y55.785 E.0052
;WIDTH:0.576391
G1 X72.081 Y55.916 E.0056
;WIDTH:0.614231
G1 X72.046 Y56.048 E.006
G1 X71.91 Y56.093 E.0063
;WIDTH:0.5665
G1 X71.773 Y56.138 E.00578
;WIDTH:0.518769
G1 X71.637 Y56.183 E.00525
;WIDTH:0.471038
G1 X71.521 Y56.189 E.00383
;WIDTH:0.464381
G1 X64.479 Y56.189 E.22855
;WIDTH:0.502052
G1 X64.347 Y56.154 E.00481
;WIDTH:0.539722
G1 X64.216 Y56.118 E.00521
;WIDTH:0.577393
G1 X64.084 Y56.083 E.0056
;WIDTH:0.615063
G1 X63.953 Y56.047 E.006
G1 X63.918 Y55.916 E.006
;WIDTH:0.57731
G1 X63.882 Y55.784 E.0056
;WIDTH:0.539557
G1 X63.846 Y55.653 E.0052
;WIDTH:0.501804
G1 X63.811 Y55.521 E.00481
;WIDTH:0.46405
G1 X63.811 Y53.079 E.07921
;WIDTH:0.50099
G1 X63.823 Y53.036 E.00155
G1 X64.25 Y53.078 F21000
;TYPE:Outer wall
;WIDTH:0.499999
G1 F3000
G1 X64.317 Y52.917 E.00617
G1 X64.479 Y52.85 E.00614
G1 X71.521 Y52.85 E.24787
G1 X71.683 Y52.917 E.00614
G1 X71.75 Y53.079 E.00617
G1 X71.75 Y55.521 E.08598
G1 X71.683 Y55.683 E.00617
G1 X71.561 Y55.747 E.00483
G1 X64.479 Y55.75 E.24926
G1 X64.317 Y55.683 E.00616
G1 X64.25 Y55.521 E.00616
