; HEADER_BLOCK_START
; generated by OrcaSlicer 1.6.3 on 2023-06-19 at 11:45:24
; total layer number: 25
; HEADER_BLOCK_END

; THUMBNAIL_BLOCK_START
; THUMBNAIL_BLOCK_END

; external perimeters extrusion width = 0.40mm
; perimeters extrusion width = 0.45mm
; infill extrusion width = 0.45mm
; solid infill extrusion width = 0.40mm
; top infill extrusion width = 0.40mm
; support material extrusion width = 0.40mm
; first layer extrusion width = 0.50mm

; external perimeters extrusion width = 0.40mm
; perimeters extrusion width = 0.45mm
; infill extrusion width = 0.45mm
; solid infill extrusion width = 0.40mm
; top infill extrusion width = 0.40mm
; support material extrusion width = 0.40mm
; first layer extrusion width = 0.50mm

; external perimeters extrusion width = 0.40mm
; perimeters extrusion width = 0.45mm
; infill extrusion width = 0.45mm
; solid infill extrusion width = 0.40mm
; top infill extrusion width = 0.40mm
; support material extrusion width = 0.40mm
; first layer extrusion width = 0.50mm

; external perimeters extrusion width = 0.40mm
; perimeters extrusion width = 0.45mm
; infill extrusion width = 0.45mm
; solid infill extrusion width = 0.40mm
; top infill extrusion width = 0.40mm
; support material extrusion width = 0.40mm
; first layer extrusion width = 0.50mm

; EXECUTABLE_BLOCK_START
EXCLUDE_OBJECT_DEFINE NAME=Belt_clip_touthed.stl_id_0_copy_0 CENTER=70.5,68.2 POLYGON=[[65,66],[65.0031,65.9215],[65.0123,65.8436],[65.0276,65.7666],[65.0489,65.691],[65.0761,65.6173],[65.109,65.546],[65.1474,65.4775],[65.191,65.4122],[65.2396,65.3506],[65.2929,65.2929],[65.3506,65.2396],[65.4122,65.191],[65.4775,65.1474],[65.546,65.109],[65.6173,65.0761],[65.691,65.0489],[65.7666,65.0276],[65.8436,65.0123],[65.9215,65.0031],[66,65],[75,65],[75.0785,65.0031],[75.1564,65.0123],[75.2334,65.0276],[75.309,65.0489],[75.3827,65.0761],[75.454,65.109],[75.5225,65.1474],[75.5878,65.191],[75.6494,65.2396],[75.7071,65.2929],[75.7604,65.3506],[75.809,65.4122],[75.8526,65.4775],[75.891,65.546],[75.9239,65.6173],[75.9511,65.691],[75.9724,65.7666],[75.9877,65.8436],[75.9969,65.9215],[76,66],[76,70.4],[75.9969,70.4785],[75.9877,70.5564],[75.9724,70.6334],[75.9511,70.709],[75.9239,70.7827],[75.891,70.854],[75.8526,70.9225],[75.809,70.9878],[75.7604,71.0494],[75.7071,71.1071],[75.6494,71.1604],[75.5878,71.209],[75.5225,71.2526],[75.454,71.291],[75.3827,71.3239],[75.309,71.3511],[75.2334,71.3724],[75.1564,71.3877],[75.0785,71.3969],[75,71.4],[66,71.4],[65.9215,71.3969],[65.8436,71.3877],[65.7666,71.3724],[65.691,71.3511],[65.6173,71.3239],[65.546,71.291],[65.4775,71.2526],[65.4122,71.209],[65.3506,71.1604],[65.2929,71.1071],[65.2396,71.0494],[65.191,70.9878],[65.1474,70.9225],[65.109,70.854],[65.0761,70.7827],[65.0489,70.709],[65.0276,70.6334],[65.0123,70.5564],[65.0031,70.4785],[65,70.4],[65,66]]
EXCLUDE_OBJECT_DEFINE NAME=Belt_clip_touthed.stl_id_1_copy_0 CENTER=70.5,51.8 POLYGON=[[65,49.6],[65.0031,49.5215],[65.0123,49.4436],[65.0276,49.3666],[65.0489,49.291],[65.0761,49.2173],[65.109,49.146],[65.1474,49.0775],[65.191,49.0122],[65.2396,48.9506],[65.2929,48.8929],[65.3506,48.8396],[65.4122,48.791],[65.4775,48.7474],[65.546,48.709],[65.6173,48.6761],[65.691,48.6489],[65.7666,48.6276],[65.8436,48.6123],[65.9215,48.6031],[66,48.6],[75,48.6],[75.0785,48.6031],[75.1564,48.6123],[75.2334,48.6276],[75.309,48.6489],[75.3827,48.6761],[75.454,48.709],[75.5225,48.7474],[75.5878,48.791],[75.6494,48.8396],[75.7071,48.8929],[75.7604,48.9506],[75.809,49.0122],[75.8526,49.0775],[75.891,49.146],[75.9239,49.2173],[75.9511,49.291],[75.9724,49.3666],[75.9877,49.4436],[75.9969,49.5215],[76,49.6],[76,54],[75.9969,54.0785],[75.9877,54.1564],[75.9724,54.2334],[75.9511,54.309],[75.9239,54.3827],[75.891,54.454],[75.8526,54.5225],[75.809,54.5878],[75.7604,54.6494],[75.7071,54.7071],[75.6494,54.7604],[75.5878,54.809],[75.5225,54.8526],[75.454,54.891],[75.3827,54.9239],[75.309,54.9511],[75.2334,54.9724],[75.1564,54.9877],[75.0785,54.9969],[75,55],[66,55],[65.9215,54.9969],[65.8436,54.9877],[65.7666,54.9724],[65.691,54.9511],[65.6173,54.9239],[65.546,54.891],[65.4775,54.8526],[65.4122,54.809],[65.3506,54.7604],[65.2929,54.7071],[65.2396,54.6494],[65.191,54.5878],[65.1474,54.5225],[65.109,54.454],[65.0761,54.3827],[65.0489,54.309],[65.0276,54.2334],[65.0123,54.1564],[65.0031,54.0785],[65,54],[65,49.6]]
EXCLUDE_OBJECT_DEFINE NAME=Belt_clip_touthed.stl_id_2_copy_0 CENTER=49.5,51.8 POLYGON=[[44,49.6],[44.0031,49.5215],[44.0123,49.4436],[44.0276,49.3666],[44.0489,49.291],[44.0761,49.2173],[44.109,49.146],[44.1474,49.0775],[44.191,49.0122],[44.2396,48.9506],[44.2929,48.8929],[44.3506,48.8396],[44.4122,48.791],[44.4775,48.7474],[44.546,48.709],[44.6173,48.6761],[44.691,48.6489],[44.7666,48.6276],[44.8436,48.6123],[44.9215,48.6031],[45,48.6],[54,48.6],[54.0785,48.6031],[54.1564,48.6123],[54.2334,48.6276],[54.309,48.6489],[54.3827,48.6761],[54.454,48.709],[54.5225,48.7474],[54.5878,48.791],[54.6494,48.8396],[54.7071,48.8929],[54.7604,48.9506],[54.809,49.0122],[54.8526,49.0775],[54.891,49.146],[54.9239,49.2173],[54.9511,49.291],[54.9724,49.3666],[54.9877,49.4436],[54.9969,49.5215],[55,49.6],[55,54],[54.9969,54.0785],[54.9877,54.1564],[54.9724,54.2334],[54.9511,54.309],[54.9239,54.3827],[54.891,54.454],[54.8526,54.5225],[54.809,54.5878],[54.7604,54.6494],[54.7071,54.7071],[54.6494,54.7604],[54.5878,54.809],[54.5225,54.8526],[54.454,54.891],[54.3827,54.9239],[54.309,54.9511],[54.2334,54.9724],[54.1564,54.9877],[54.0785,54.9969],[54,55],[45,55],[44.9215,54.9969],[44.8436,54.9877],[44.7666,54.9724],[44.691,54.9511],[44.6173,54.9239],[44.546,54.891],[44.4775,54.8526],[44.4122,54.809],[44.3506,54.7604],[44.2929,54.7071],[44.2396,54.6494],[44.191,54.5878],[44.1474,54.5225],[44.109,54.454],[44.0761,54.3827],[44.0489,54.309],[44.0276,54.2334],[44.0123,54.1564],[44.0031,54.0785],[44,54],[44,49.6]]
EXCLUDE_OBJECT_DEFINE NAME=Belt_clip_touthed.stl_id_3_copy_0 CENTER=49.5,68.2 POLYGON=[[44,66],[44.0031,65.9215],[44.0123,65.8436],[44.0276,65.7666],[44.0489,65.691],[44.0761,65.6173],[44.109,65.546],[44.1474,65.4775],[44.191,65.4122],[44.2396,65.3506],[44.2929,65.2929],[44.3506,65.2396],[44.4122,65.191],[44.4775,65.1474],[44.546,65.109],[44.6173,65.0761],[44.691,65.0489],[44.7666,65.0276],[44.8436,65.0123],[44.9215,65.0031],[45,65],[54,65],[54.0785,65.0031],[54.1564,65.0123],[54.2334,65.0276],[54.309,65.0489],[54.3827,65.0761],[54.454,65.109],[54.5225,65.1474],[54.5878,65.191],[54.6494,65.2396],[54.7071,65.2929],[54.7604,65.3506],[54.809,65.4122],[54.8526,65.4775],[54.891,65.546],[54.9239,65.6173],[54.9511,65.691],[54.9724,65.7666],[54.9877,65.8436],[54.9969,65.9215],[55,66],[55,70.4],[54.9969,70.4785],[54.9877,70.5564],[54.9724,70.6334],[54.9511,70.709],[54.9239,70.7827],[54.891,70.854],[54.8526,70.9225],[54.809,70.9878],[54.7604,71.0494],[54.7071,71.1071],[54.6494,71.1604],[54.5878,71.209],[54.5225,71.2526],[54.454,71.291],[54.3827,71.3239],[54.309,71.3511],[54.2334,71.3724],[54.1564,71.3877],[54.0785,71.3969],[54,71.4],[45,71.4],[44.9215,71.3969],[44.8436,71.3877],[44.7666,71.3724],[44.691,71.3511],[44.6173,71.3239],[44.546,71.291],[44.4775,71.2526],[44.4122,71.209],[44.3506,71.1604],[44.2929,71.1071],[44.2396,71.0494],[44.191,70.9878],[44.1474,70.9225],[44.109,70.854],[44.0761,70.7827],[44.0489,70.709],[44.0276,70.6334],[44.0123,70.5564],[44.0031,70.4785],[44,70.4],[44,66]]
M73 P0 R4
;TYPE:Custom
START_PRINT T_BED=110 T_EXTRUDER=260
G90
G21
M83 ; use relative distances for extrusion
; Filament gcode

    PRESSURE_ADVANCE_SELECT FILAMENT=ABS
M106 S0
;LAYER_CHANGE
;Z:0.2
;HEIGHT:0.2
;BEFORE_LAYER_CHANGE
;0.2
G92 E0

;AFTER_LAYER_CHANGE
;0.2
SET_VELOCITY_LIMIT ACCEL_TO_DECEL=500
M204 S1000
G1 E-.5 F3000
G1 Z.2 F21000
G1 X42.455 Y46.761
G1 E.5 F1800
;TYPE:Skirt
;WIDTH:0.5
G1 F3000
G1 X42.827 Y46.468 E.01668
G1 X43.612 Y46.049 E.03132
G1 X44.175 Y45.878 E.02068
G1 X44.88 Y45.788 E.02501
G1 X75.053 Y45.788 E1.06191
G1 X75.719 Y45.855 E.02356
G1 X76.324 Y46.024 E.02211
G1 X76.893 Y46.29 E.02212
G1 X77.516 Y46.736 E.02695
G1 X77.954 Y47.189 E.02219
G1 X78.346 Y47.771 E.02471
G1 X78.601 Y48.346 E.02212
G1 X78.789 Y49.166 E.02962
G1 X78.809 Y70.594 E.75414
G1 X78.693 Y71.348 E.02684
G1 X78.413 Y72.098 E.02819
G1 X78.059 Y72.675 E.02382
G1 X77.42 Y73.346 E.0326
G1 X76.811 Y73.755 E.02583
G1 X76.298 Y73.985 E.01976
G1 X75.12 Y74.212 E.04222
G1 X45 Y74.214 E1.06005
G1 X44.227 Y74.134 E.02736
G1 X43.405 Y73.863 E.03046
G1 X42.84 Y73.543 E.02283
G1 X42.161 Y72.945 E.03187
G1 X41.868 Y72.573 E.01667
G1 X41.449 Y71.788 E.03132
G1 X41.191 Y70.594 E.04297
G1 X41.186 Y49.6 E.73887
M73 P1 R4
G1 X41.278 Y48.775 E.02922
G1 X41.587 Y47.902 E.0326
G1 X42.054 Y47.18 E.03024
G1 X42.413 Y46.804 E.01831
G1 X42.733 Y47.151 F21000
G1 F3000
G1 X42.992 Y46.912 E.01238
G1 X43.863 Y46.443 E.03484
G1 X44.899 Y46.245 E.0371
G1 X75.053 Y46.245 E1.06124
G1 X75.637 Y46.305 E.02068
G1 X76.358 Y46.53 E.02656
G1 X76.904 Y46.836 E.02205
G1 X77.414 Y47.268 E.0235
G1 X77.805 Y47.757 E.02205
G1 X78.07 Y48.242 E.01946
G1 X78.277 Y48.881 E.02364
G1 X78.352 Y49.425 E.01931
G1 X78.352 Y70.575 E.74437
G1 X78.248 Y71.241 E.02373
G1 X78.007 Y71.888 E.0243
G1 X77.688 Y72.408 E.02147
G1 X77.124 Y72.998 E.02871
G1 X76.137 Y73.557 E.03993
G1 X75.101 Y73.755 E.03711
G1 X45 Y73.757 E1.05939
G1 X44.314 Y73.685 E.02429
G1 X43.516 Y73.41 E.02971
G1 X42.876 Y72.998 E.02676
G1 X42.312 Y72.408 E.02871
G1 X41.843 Y71.537 E.03483
G1 X41.645 Y70.501 E.03711
G1 X41.645 Y49.499 E.73917
M73 P2 R4
G1 X41.752 Y48.758 E.02632
G1 X42.051 Y48 E.02871
G1 X42.484 Y47.38 E.0266
G1 X42.689 Y47.191 E.0098
; printing object Belt_clip touthed.stl id:3 copy 0
EXCLUDE_OBJECT_START NAME=Belt_clip_touthed.stl_id_3_copy_0
G1 E-.5
G1 Z.4 F21000
G1 X45.65 Y66.65
G1 Z.2
G1 E.5 F1800
;TYPE:Outer wall
G1 F3000
G1 X53.35 Y66.65 E.27099
G1 X53.35 Y69.75 E.1091
G1 X45.65 Y69.75 E.27099
G1 X45.65 Y66.71 E.10699
G1 X45.619 Y66.576
G1 E-.5
G1 Z.4 F21000
G1 X44.607 Y65.618
G1 Z.2
G1 E.5 F1800
G1 F3000
G1 X44.713 Y65.533 E.00478
G1 X44.902 Y65.46 E.00714
G1 X45.479 Y65.45 E.02028
G1 X54.025 Y65.452 E.30077
G1 X54.165 Y65.477 E.005
G1 X54.288 Y65.534 E.00477
G1 X54.383 Y65.608 E.00423
G1 X54.467 Y65.713 E.00475
G1 X54.523 Y65.836 E.00475
G1 X54.547 Y65.959 E.00441
G1 X54.55 Y70.379 E.15555
G1 X54.521 Y70.568 E.00674
G1 X54.467 Y70.687 E.00459
G1 X54.382 Y70.793 E.00478
G1 X54.289 Y70.866 E.00415
G1 X54.168 Y70.921 E.00468
G1 X53.979 Y70.95 E.00674
G1 X45.019 Y70.95 E.31533
G1 X44.87 Y70.932 E.00527
G1 X44.709 Y70.864 E.00616
G1 X44.618 Y70.793 E.00407
G1 X44.533 Y70.687 E.00477
G1 X44.477 Y70.563 E.00478
G1 X44.453 Y70.441 E.00437
G1 X44.461 Y65.9 E.15981
G1 X44.534 Y65.711 E.00716
G1 X44.57 Y65.665 E.00204
G1 X44.634 Y65.624
G1 X45.115 Y66.112 F21000
;TYPE:Gap infill
;WIDTH:0.81587
G1 F3000
G1 X45.21 Y66.091 E.00577
;WIDTH:0.778605
G1 X45.305 Y66.071 E.0055
;WIDTH:0.74134
G1 X45.4 Y66.051 E.00522
;WIDTH:0.74146
G1 X53.6 Y66.051 E.44104
G1 X53.696 Y66.071 E.00528
;WIDTH:0.820501
G1 X53.792 Y66.091 E.00588
;WIDTH:0.860267
G1 X53.889 Y66.111 E.00618
;WIDTH:0.820317
G1 X53.909 Y66.207 E.0059
;WIDTH:0.780367
G1 X53.929 Y66.304 E.00559
;WIDTH:0.740416
G1 X53.949 Y66.4 E.00529
;WIDTH:0.743741
G1 X53.95 Y70 E.19426
G1 X53.93 Y70.097 E.00533
;WIDTH:0.822878
G1 X53.91 Y70.193 E.00593
;WIDTH:0.862982
G1 X53.89 Y70.29 E.00623
;WIDTH:0.822962
G1 X53.793 Y70.31 E.00593
;WIDTH:0.782941
G1 X53.697 Y70.33 E.00562
;WIDTH:0.74292
G1 X53.6 Y70.35 E.00532
;WIDTH:0.743386
G1 X45.4 Y70.35 E.44226
M73 P3 R4
G1 X45.304 Y70.33 E.00528
;WIDTH:0.82178
G1 X45.208 Y70.311 E.00587
;WIDTH:0.86121
G1 X45.112 Y70.291 E.00617
;WIDTH:0.820579
G1 X45.092 Y70.194 E.00593
;WIDTH:0.779949
G1 X45.072 Y70.097 E.00562
;WIDTH:0.739318
G1 X45.052 Y70 E.00531
;WIDTH:0.734167
G1 X45.055 Y66.4 E.19161
G1 X45.075 Y66.304 E.00523
;WIDTH:0.813123
G1 X45.095 Y66.208 E.00582
;WIDTH:0.853132
G1 X45.115 Y66.112 E.00613
G1 E-.5
G1 Z.4 F21000
G1 X45.832 Y71.032
G1 X53.89 Y70.29
G1 Z.2
G1 E.5 F1800
;WIDTH:0.821402
G1 F3000
G1 X53.911 Y70.311 E.00176
;WIDTH:0.779824
G1 X53.932 Y70.332 E.00167
;WIDTH:0.779227
G1 X54.225 Y70.583 E.02189
; stop printing object Belt_clip touthed.stl id:3 copy 0
EXCLUDE_OBJECT_END NAME=Belt_clip_touthed.stl_id_3_copy_0
; printing object Belt_clip touthed.stl id:2 copy 0
EXCLUDE_OBJECT_START NAME=Belt_clip_touthed.stl_id_2_copy_0
G1 E-.5
G1 Z.4 F21000
G1 X53.229 Y66.771
G1 X45.771 Y53.229
G1 X45.65 Y50.25
G1 Z.2
G1 E.5 F1800
;TYPE:Outer wall
;WIDTH:0.5
G1 F3000
G1 X53.35 Y50.25 E.27099
G1 X53.35 Y53.35 E.1091
G1 X45.65 Y53.35 E.27099
G1 X45.65 Y50.31 E.10699
G1 X45.619 Y50.176
G1 E-.5
G1 Z.4 F21000
G1 X44.607 Y49.218
G1 Z.2
G1 E.5 F1800
G1 F3000
G1 X44.713 Y49.133 E.00478
G1 X44.902 Y49.06 E.00714
G1 X45.479 Y49.05 E.02028
G1 X54.025 Y49.052 E.30077
G1 X54.165 Y49.077 E.005
G1 X54.288 Y49.134 E.00477
G1 X54.383 Y49.208 E.00423
G1 X54.467 Y49.313 E.00475
G1 X54.523 Y49.436 E.00475
G1 X54.547 Y49.559 E.00441
G1 X54.55 Y53.979 E.15555
G1 X54.521 Y54.168 E.00674
G1 X54.467 Y54.287 E.00459
G1 X54.382 Y54.393 E.00478
G1 X54.289 Y54.466 E.00415
G1 X54.168 Y54.521 E.00468
G1 X53.979 Y54.55 E.00674
G1 X45.019 Y54.55 E.31533
G1 X44.87 Y54.532 E.00527
G1 X44.709 Y54.464 E.00616
G1 X44.618 Y54.393 E.00407
G1 X44.533 Y54.287 E.00477
G1 X44.477 Y54.163 E.00478
G1 X44.453 Y54.041 E.00437
G1 X44.461 Y49.5 E.15981
G1 X44.534 Y49.311 E.00716
G1 X44.57 Y49.265 E.00204
G1 X44.634 Y49.224
G1 X45.115 Y49.712 F21000
;TYPE:Gap infill
;WIDTH:0.853132
M73 P4 R4
G1 F3000
G1 X45.095 Y49.808 E.00613
;WIDTH:0.813123
G1 X45.075 Y49.904 E.00582
;WIDTH:0.734167
G1 X45.055 Y50 E.00523
G1 X45.052 Y53.6 E.19161
;WIDTH:0.739318
G1 X45.072 Y53.697 E.00531
;WIDTH:0.779949
G1 X45.092 Y53.794 E.00562
;WIDTH:0.820579
G1 X45.112 Y53.891 E.00593
;WIDTH:0.86121
G1 X45.208 Y53.911 E.00617
;WIDTH:0.82178
G1 X45.304 Y53.93 E.00587
;WIDTH:0.743386
G1 X45.4 Y53.95 E.00528
G1 X53.6 Y53.95 E.44226
;WIDTH:0.74292
G1 X53.697 Y53.93 E.00532
;WIDTH:0.782941
G1 X53.793 Y53.91 E.00562
;WIDTH:0.822962
G1 X53.89 Y53.89 E.00593
;WIDTH:0.821402
G1 X53.911 Y53.911 E.00176
;WIDTH:0.779824
G1 X53.932 Y53.932 E.00167
;WIDTH:0.779227
G1 X54.225 Y54.183 E.02189
G1 X53.89 Y53.89 F21000
;WIDTH:0.862982
G1 F3000
G1 X53.91 Y53.793 E.00623
;WIDTH:0.822878
G1 X53.93 Y53.697 E.00593
;WIDTH:0.743741
G1 X53.95 Y53.6 E.00533
G1 X53.949 Y50 E.19426
;WIDTH:0.740416
G1 X53.929 Y49.904 E.00529
;WIDTH:0.780367
G1 X53.909 Y49.807 E.00559
;WIDTH:0.820317
G1 X53.889 Y49.711 E.0059
;WIDTH:0.860267
G1 X53.792 Y49.691 E.00618
;WIDTH:0.820501
G1 X53.696 Y49.671 E.00588
;WIDTH:0.74146
G1 X53.6 Y49.651 E.00528
G1 X45.4 Y49.651 E.44104
;WIDTH:0.74134
G1 X45.305 Y49.671 E.00522
;WIDTH:0.778605
G1 X45.21 Y49.691 E.0055
;WIDTH:0.81587
G1 X45.115 Y49.712 E.00577
; stop printing object Belt_clip touthed.stl id:2 copy 0
EXCLUDE_OBJECT_END NAME=Belt_clip_touthed.stl_id_2_copy_0
; printing object Belt_clip touthed.stl id:1 copy 0
EXCLUDE_OBJECT_START NAME=Belt_clip_touthed.stl_id_1_copy_0
G1 E-.5
G1 Z.4 F21000
G1 X66.65 Y50.25
G1 Z.2
G1 E.5 F1800
;TYPE:Outer wall
;WIDTH:0.5
G1 F3000
G1 X74.35 Y50.25 E.27099
G1 X74.35 Y53.35 E.1091
G1 X66.65 Y53.35 E.27099
G1 X66.65 Y50.31 E.10699
G1 X66.619 Y50.176
G1 E-.5
G1 Z.4 F21000
G1 X65.607 Y49.218
G1 Z.2
G1 E.5 F1800
G1 F3000
G1 X65.713 Y49.133 E.00478
G1 X65.902 Y49.06 E.00714
G1 X66.479 Y49.05 E.02028
G1 X75.025 Y49.052 E.30077
G1 X75.165 Y49.077 E.005
G1 X75.288 Y49.134 E.00477
G1 X75.383 Y49.208 E.00423
G1 X75.467 Y49.313 E.00475
G1 X75.523 Y49.436 E.00475
G1 X75.547 Y49.559 E.00441
G1 X75.55 Y53.979 E.15555
G1 X75.521 Y54.168 E.00674
G1 X75.467 Y54.287 E.00459
G1 X75.382 Y54.393 E.00478
G1 X75.289 Y54.466 E.00415
G1 X75.168 Y54.521 E.00468
G1 X74.979 Y54.55 E.00674
G1 X66.019 Y54.55 E.31533
G1 X65.87 Y54.532 E.00527
G1 X65.709 Y54.464 E.00616
G1 X65.618 Y54.393 E.00407
G1 X65.533 Y54.287 E.00477
G1 X65.477 Y54.163 E.00478
G1 X65.453 Y54.041 E.00437
G1 X65.461 Y49.5 E.15981
G1 X65.534 Y49.311 E.00716
G1 X65.57 Y49.265 E.00204
G1 X65.634 Y49.224
G1 X66.115 Y49.712 F21000
;TYPE:Gap infill
;WIDTH:0.81587
G1 F3000
G1 X66.21 Y49.691 E.00577
