; generated by SuperSlicer 2.5.59 on 2023-01-16 at 01:12:22 UTC


;
;

;
;
; 

; external perimeters extrusion width = 0.40mm
; perimeters extrusion width = 0.46mm
; infill extrusion width = 0.64mm
; solid infill extrusion width = 0.56mm
; top infill extrusion width = 0.40mm
; first layer extrusion width = 0.50mm

; object:{"name":"3DBenchy","id":"3DBenchy.stl id:0 copy 0","object_center":[60.000000,60.000000,0.000000],"boundingbox_center":[60.000000,60.000000,24.000000],"boundingbox_size":[60.000999,31.004000,48.000000]}
; plater:{"center":[60.000000,60.000000,0.000000],"boundingbox_center":[60.000000,60.000000,24.000000],"boundingbox_size":[60.000999,31.004000,48.000000]}

M73 P0 R53
;TYPE:Custom
; custom gcode: start_gcode
START_PRINT T_BED=60 T_EXTRUDER=200
; custom gcode end: start_gcode
M107
G21 ; set units to millimeters
G90 ; use absolute coordinates
M83 ; use relative distances for extrusion
; custom gcode: start_filament_gcode
; Filament gcode

    PRESSURE_ADVANCE_SELECT FILAMENT=PLA
; custom gcode end: start_filament_gcode
;_TOOLCHANGE 0
M104 S200 ; set temperature
M109 S200 ; set temperature and wait for it to be reached
M190 S60 ; set bed temperature and wait for it to be reached
;LAYER_CHANGE
;Z:0.2
;HEIGHT:0.2
G1 Z0.2 F12000
G92 E0
M73 P0 R53
G1 E-0.2 F1800
M204 S2000
G1 X33.017 Y50.547 F12000
G1 E0.2 F1800
;TYPE:Skirt
;WIDTH:0.52
G1 X32.01 Y51.365 E0.05143
G1 X31.412 Y52.111 E0.03794
G1 X30.83 Y53.287 E0.05207
G1 X30.557 Y54.49 E0.04892
G1 X30.415 Y59.458 E0.19717
G1 X30.521 Y65.128 E0.22495
G1 X30.636 Y66.022 E0.03579
G1 X30.83 Y66.713 E0.02846
G1 X31.471 Y67.968 E0.0559
G1 X32.13 Y68.758 E0.0408
G1 X32.879 Y69.364 E0.03821
G1 X33.921 Y69.904 E0.04656
G1 X35.085 Y70.209 E0.04775
G1 X59.681 Y71.71 E0.9775
G1 X62.228 Y71.585 E0.10115
G1 X64.297 Y71.22 E0.08335
G1 X65.543 Y70.88 E0.05124
G1 X67.97 Y69.934 E0.10332
G1 X69.427 Y69.163 E0.06543
G1 X70.459 Y68.51 E0.04843
G1 X72.514 Y66.98 E0.10163
G1 X73.681 Y65.872 E0.06386
G1 X74.519 Y64.873 E0.05173
G1 X76.105 Y62.399 E0.11655
G1 X76.516 Y61.42 E0.04214
G1 X76.719 Y60.293 E0.0454
G1 X76.654 Y59.155 E0.04524
G1 X76.462 Y58.405 E0.0307
G1 X76.07 Y57.54 E0.03769
G1 X74.747 Y55.549 E0.09481
G1 X73.193 Y53.765 E0.09386
G1 X71.534 Y52.28 E0.08832
G1 X69.466 Y50.86 E0.09951
G1 X67.271 Y49.753 E0.09754
G1 X64.924 Y48.94 E0.09852
G1 X62.534 Y48.453 E0.09675
G1 X60.204 Y48.289 E0.09268
G1 X35.555 Y49.74 E0.97948
G1 X34.109 Y50.032 E0.05853
G1 X33.017 Y50.547 E0.04791
G1 X33.261 Y50.956 F12000
G1 F1800
G1 X32.362 Y51.687 E0.04598
G1 X31.568 Y52.786 E0.05376
G1 X31.21 Y53.657 E0.03736
G1 X30.993 Y54.971 E0.05282
G1 X30.891 Y59.961 E0.19802
G1 X30.997 Y65.095 E0.2037
G1 X31.105 Y65.934 E0.03354
G1 X31.283 Y66.565 E0.02601
G1 X31.855 Y67.685 E0.04989
G1 X32.457 Y68.41 E0.03738
G1 X33.152 Y68.973 E0.0355
G1 X34.083 Y69.456 E0.04161
G1 X35.144 Y69.736 E0.04352
G1 X59.699 Y71.233 E0.9759
G1 X62.16 Y71.113 E0.09775
G1 X64.199 Y70.752 E0.08214
G1 X65.414 Y70.42 E0.04996
G1 X67.756 Y69.508 E0.0997
G1 X70.047 Y68.212 E0.10442
G1 X72.226 Y66.6 E0.10749
G1 X73.338 Y65.54 E0.06095
G1 X74.121 Y64.61 E0.04825
G1 X75.693 Y62.159 E0.11551
G1 X76.063 Y61.268 E0.03827
G1 X76.243 Y60.251 E0.04095
G1 X76.182 Y59.224 E0.04082
G1 X76.014 Y58.571 E0.02676
G1 X75.662 Y57.787 E0.0341
G1 X74.376 Y55.849 E0.09226
G1 X72.863 Y54.109 E0.09148
G1 X71.227 Y52.646 E0.08706
G1 X69.214 Y51.265 E0.09683
G1 X67.073 Y50.187 E0.09508
G1 X64.788 Y49.397 E0.09591
G1 X62.459 Y48.924 E0.09428
G1 X60.187 Y48.765 E0.09037
G1 X35.584 Y50.216 E0.97765
G1 X34.279 Y50.478 E0.05282
G1 X33.261 Y50.956 E0.04459
G1 E-0.2
; printing object 3DBenchy.stl id:0 copy 0
; acceleration to travel
M204 S4000
G1 X44.315 Y56.642 F12000
; decel to extrusion
M204 S2000
G1 X49.841 Y59.485
; end travel
G1 E0.2 F1800
;TYPE:Internal perimeter
;WIDTH:0.5
G1 X50.053 Y59.11 E0.01637
G1 X50.326 Y59.182 E0.01073
G1 X50.325 Y60.042 E0.03271
G1 X49.841 Y59.485 E0.02804
G1 E-0.2
; acceleration to travel
M204 S4000
G1 X60.676 Y62.145 F12000
; decel to extrusion
M204 S2000
G1 X66.093 Y63.474
; end travel
G1 E0.2 F1800
G1 X66.708 Y64.117 E0.03381
G1 X67.235 Y64.323 E0.02149
G1 X67.84 Y64.398 E0.02319
G1 X67.004 Y64.927 E0.03762
G1 X66.488 Y65.218 E0.0225
G1 X65.814 Y65.556 E0.02865
G1 X65.392 Y65.737 E0.01746
G1 X65.217 Y65.537 E0.01008
G1 X65.307 Y65.386 E0.0067
G1 X65.613 Y64.71 E0.0282
G1 X66.093 Y63.474 E0.05038
G1 E-0.2
; acceleration to travel
M204 S4000
G1 X49.377 Y60.686 F12000
; decel to extrusion
M204 S2000
G1 X41.019 Y59.291
; end travel
G1 E0.2 F1800
G1 X41.036 Y62.034 E0.10425
G1 X41.027 Y62.036 E0.00035
G1 X40.989 Y62.664 E0.02392
G1 X41.103 Y63.162 E0.01941
G1 X41.375 Y63.623 E0.02036
G1 X41.939 Y64.034 E0.02653
G1 X42.648 Y64.193 E0.0276
G1 X43.32 Y64.103 E0.02576
G1 X43.84 Y63.819 E0.02255
G1 X44.22 Y63.389 E0.0218
G1 X44.424 Y62.92 E0.01943
G1 X44.507 Y62.456 E0.01792
G1 X44.493 Y59.275 E0.12091
G1 X45.057 Y59.205 E0.02161
G1 X45.779 Y58.949 E0.02911
G1 X45.628 Y59.5 E0.02173
G1 X45.626 Y60.043 E0.02064
G1 X45.833 Y60.641 E0.02406
G1 X45.397 Y60.914 E0.01956
G1 X45 Y61.574 E0.02927
G1 X44.925 Y62.28 E0.02699
G1 X45.046 Y62.842 E0.02185
G1 X45.337 Y63.376 E0.02312
G1 X45.724 Y63.753 E0.02053
G1 X46.132 Y64.001 E0.01814
G1 X46.58 Y64.171 E0.01822
G1 X47.025 Y64.271 E0.01736
G1 X47.38 Y64.312 E0.01356
G1 X47.903 Y64.32 E0.01988
G1 X48.425 Y64.269 E0.01995
G1 X49.042 Y64.101 E0.02428
G1 X49.632 Y63.787 E0.02542
G1 X50.125 Y63.366 E0.02462
G1 X50.296 Y63.646 E0.01249
G1 X50.714 Y63.986 E0.02048
G1 X51.148 Y64.149 E0.01764
G1 X51.594 Y64.186 E0.01698
M73 P0 R53
G1 X52.077 Y64.141 E0.01843
G1 X52.872 Y64.148 E0.03023
G1 X53.484 Y64.117 E0.0233
G1 X54.174 Y64.004 E0.02658
G1 X54.809 Y63.777 E0.02559
G1 X54.959 Y63.679 E0.00685
G1 X55.215 Y64.019 E0.01617
G1 X55.637 Y64.329 E0.01987
G1 X56.022 Y64.508 E0.01616
G1 X56.42 Y64.606 E0.01556
G1 X56.825 Y64.632 E0.01545
G1 X57.227 Y64.583 E0.01537
G1 X57.672 Y64.447 E0.01768
G1 X58.23 Y64.081 E0.02538
G1 X58.462 Y64.234 E0.01058
G1 X59.236 Y64.366 E0.02983
G1 X59.946 Y64.081 E0.02905
G1 X60.104 Y63.931 E0.00833
G1 X60.4 Y64.181 E0.01471
G1 X61.119 Y64.406 E0.02863
G1 X61.014 Y64.921 E0.01999
G1 X61.036 Y65.303 E0.01452
G1 X61.123 Y65.66 E0.01395
G1 X61.346 Y66.127 E0.01969
G1 X61.919 Y66.721 E0.03135
G1 X60.734 Y66.817 E0.04518
G1 X59.837 Y66.833 E0.03409
G1 X59.211 Y66.808 E0.0238
G1 X35.916 Y65.393 E0.88701
G1 X35.71 Y65.357 E0.00792
G1 X35.6 Y65.309 E0.00458
G1 X35.535 Y65.257 E0.00314
G1 X35.47 Y65.169 E0.00417
G1 X35.424 Y65.053 E0.00473
G1 X35.392 Y64.807 E0.00944
G1 X35.389 Y63.644 E0.0442
G1 X35.98 Y63.984 E0.02594
G1 X36.338 Y64.125 E0.01463
G1 X36.719 Y64.231 E0.01502
G1 X37.093 Y64.294 E0.01439
G1 X37.636 Y64.322 E0.02068
G1 X38.158 Y64.288 E0.01988
G1 X38.643 Y64.194 E0.01878
G1 X39.095 Y64.033 E0.01821
G1 X39.415 Y63.865 E0.01374
G1 X39.795 Y63.594 E0.01774
G1 X40.15 Y63.224 E0.0195
G1 X40.482 Y62.68 E0.02422
G1 X40.688 Y61.965 E0.02828
G1 X40.433 Y61.145 E0.03262
G1 X39.917 Y60.607 E0.02837
G1 X39.296 Y60.326 E0.02591
G1 X38.749 Y60.263 E0.02091
G1 X38.255 Y60.346 E0.01905
G1 X37.894 Y60.509 E0.01506
G1 X37.459 Y60.834 E0.02061
G1 X37.374 Y60.528 E0.01205
G1 X37.342 Y60.302 E0.00868
G1 X37.327 Y59.929 E0.01418
G1 X37.345 Y59.596 E0.01268
G1 X37.377 Y59.395 E0.00773
G1 X37.467 Y59.145 E0.01009
G1 X38.091 Y59.498 E0.02722
G1 X38.555 Y59.642 E0.01846
G1 X39.089 Y59.669 E0.02032
G1 X39.676 Y59.485 E0.02339
G1 X40.103 Y59.132 E0.02109
G1 X40.227 Y59.202 E0.0054
G1 X40.755 Y59.318 E0.02054
G1 X41.019 Y59.291 E0.01011
; acceleration to travel
M204 S4000
G1 X40.326 Y58.787 F12000
; decel to extrusion
M204 S2000
G1 X39.98 Y58.534
; end travel
G1 F1800
G1 X40.393 Y58.771 E0.01808
G1 X40.781 Y58.856 E0.01513
G1 X41.497 Y58.784 E0.02732
G1 X41.475 Y59.128 E0.01311
G1 X41.492 Y61.912 E0.10579
G1 X41.449 Y62.626 E0.02717
G1 X41.533 Y62.99 E0.01423
G1 X41.721 Y63.31 E0.01408
G1 X42.132 Y63.609 E0.01932
G1 X42.668 Y63.729 E0.02089
G1 X43.175 Y63.661 E0.01944
G1 X43.551 Y63.456 E0.01629
G1 X43.83 Y63.141 E0.01599
G1 X43.983 Y62.787 E0.01465
G1 X44.05 Y62.416 E0.01432
G1 X44.034 Y58.804 E0.13728
G1 X44.519 Y58.811 E0.01841
G1 X44.952 Y58.757 E0.01659
G1 X45.308 Y58.631 E0.01437
G1 X45.63 Y58.384 E0.01541
G1 X45.809 Y58.614 E0.0111
G1 X46.132 Y58.889 E0.01613
G1 X46.312 Y58.947 E0.00717
G1 X46.183 Y59.205 E0.01096
G1 X46.085 Y59.563 E0.0141
G1 X46.083 Y59.967 E0.01536
G1 X46.234 Y60.4 E0.01743
G1 X46.72 Y60.864 E0.02557
G1 X46.187 Y60.959 E0.02059
G1 X45.733 Y61.243 E0.02038
G1 X45.444 Y61.723 E0.02127
G1 X45.387 Y62.255 E0.02035
G1 X45.479 Y62.681 E0.01656
G1 X45.705 Y63.097 E0.01799
G1 X46.005 Y63.389 E0.01593
G1 X46.333 Y63.588 E0.01457
G1 X46.712 Y63.732 E0.01539
G1 X47.102 Y63.82 E0.01521
G1 X47.41 Y63.855 E0.01177
G1 X47.884 Y63.863 E0.01802
G1 X48.342 Y63.818 E0.0175
G1 X48.872 Y63.673 E0.02089
G1 X49.374 Y63.407 E0.02156
G1 X49.803 Y63.039 E0.0215
G1 X50.266 Y62.412 E0.02961
G1 X50.443 Y63.009 E0.02366
G1 X50.645 Y63.341 E0.01477
G1 X50.945 Y63.584 E0.01467
G1 X51.25 Y63.699 E0.01239
G1 X51.591 Y63.727 E0.01302
G1 X52.057 Y63.683 E0.0178
G1 X52.862 Y63.691 E0.0306
G1 X53.435 Y63.662 E0.02181
G1 X54.06 Y63.56 E0.02404
G1 X54.604 Y63.365 E0.02196
G1 X55.116 Y63.031 E0.02325
G1 X55.299 Y63.37 E0.01468
G1 X55.54 Y63.69 E0.01522
G1 X55.87 Y63.933 E0.01559
G1 X56.175 Y64.074 E0.01274
G1 X56.49 Y64.152 E0.01234
G1 X56.812 Y64.173 E0.01229
G1 X57.132 Y64.134 E0.01222
G1 X57.476 Y64.029 E0.01367
G1 X57.854 Y63.781 E0.01721
G1 X58.158 Y63.485 E0.0161
G1 X58.634 Y63.8 E0.02169
G1 X59.186 Y63.894 E0.02127
G1 X59.694 Y63.69 E0.02083
G1 X60.148 Y63.259 E0.02378
G1 X60.307 Y63.503 E0.01105
G1 X60.625 Y63.772 E0.01584
G1 X61.039 Y63.902 E0.01649
G1 X61.45 Y63.896 E0.01564
G1 X61.872 Y63.762 E0.01681
G1 X61.869 Y63.757 E0.0002
G1 X62.253 Y63.448 E0.01871
G1 X62.457 Y63.039 E0.01738
G1 X62.509 Y62.623 E0.01594
G1 X62.447 Y62.21 E0.01587
G1 X62.264 Y61.802 E0.017
G1 X61.603 Y60.702 E0.04878
G1 X62.108 Y59.838 E0.03802
G1 X62.371 Y60.491 E0.02673
G1 X62.968 Y62.104 E0.06539
G1 X63.234 Y62.711 E0.02518
G1 X63.042 Y63.11 E0.01681
G1 X62.834 Y63.656 E0.0222
G1 X62.77 Y63.762 E0.00471
G1 X62.71 Y63.812 E0.00297
G1 X62.662 Y63.834 E0.00202
G1 X62.053 Y64.009 E0.02408
G1 X62.064 Y64.033 E0.00099
G1 X61.798 Y64.205 E0.01205
G1 X61.553 Y64.563 E0.01647
G1 X61.474 Y64.954 E0.01518
G1 X61.49 Y65.235 E0.01069
G1 X61.556 Y65.506 E0.01059
G1 X61.726 Y65.864 E0.01507
G1 X62.054 Y66.203 E0.01793
G1 X62.363 Y66.358 E0.01315
G1 X62.724 Y66.431 E0.01397
G1 X63.095 Y66.414 E0.01411
G1 X63.473 Y66.328 E0.01474
G1 X63.76 Y66.229 E0.01154
G1 X64.123 Y66.05 E0.01537
G1 X64.508 Y65.74 E0.0188
G1 X64.748 Y65.431 E0.01487
G1 X64.901 Y65.174 E0.01137
G1 X65.192 Y64.533 E0.02675
G1 X65.582 Y63.528 E0.04097
G1 X66.118 Y62.028 E0.06053
G1 X66.443 Y62.114 E0.01275
G1 X66.385 Y62.446 E0.0128
G1 X66.415 Y62.851 E0.01546
G1 X66.592 Y63.334 E0.01956
G1 X66.969 Y63.728 E0.0207
G1 X67.348 Y63.876 E0.01549
G1 X67.63 Y63.912 E0.0108
G1 X68.247 Y63.881 E0.02345
G1 X68.857 Y63.879 E0.02322
G1 X68.943 Y64.126 E0.00992
G1 X68.41 Y64.543 E0.02572
G1 X67.923 Y64.887 E0.02265
G1 X67.238 Y65.32 E0.03081
G1 X66.703 Y65.622 E0.02336
G1 X66.007 Y65.971 E0.0296
G1 X65.153 Y66.336 E0.0353
G1 X64.328 Y66.627 E0.03323
G1 X63.372 Y66.895 E0.03773
G1 X62.456 Y67.085 E0.03557
G1 X61.625 Y67.203 E0.03188
G1 X60.756 Y67.274 E0.03314
G1 X59.832 Y67.29 E0.03513
G1 X59.188 Y67.265 E0.02447
G1 X35.862 Y65.848 E0.88819
G1 X35.577 Y65.798 E0.01099
G1 X35.362 Y65.703 E0.00895
G1 X35.269 Y65.639 E0.00427
G1 X35.203 Y65.577 E0.00345
G1 X35.068 Y65.393 E0.00867
G1 X35.017 Y65.29 E0.00436
G1 X34.978 Y65.169 E0.00483
G1 X34.935 Y64.837 E0.01274
G1 X34.928 Y62.563 E0.08641
G1 X35.337 Y62.998 E0.02268
G1 X35.686 Y63.287 E0.01721
G1 X36.179 Y63.571 E0.02164
G1 X36.484 Y63.691 E0.01244
G1 X36.819 Y63.784 E0.0132
G1 X37.143 Y63.839 E0.01251
G1 X37.634 Y63.864 E0.01867
G1 X38.099 Y63.834 E0.01774
G1 X38.522 Y63.752 E0.01637
G1 X38.911 Y63.613 E0.01568
G1 X39.175 Y63.475 E0.01132
G1 X39.494 Y63.246 E0.01494
G1 X39.786 Y62.943 E0.01599
G1 X40.06 Y62.495 E0.01997
G1 X40.211 Y61.97 E0.02074
G1 X40.029 Y61.384 E0.02333
G1 X39.648 Y60.987 E0.02091
G1 X39.172 Y60.772 E0.01984
G1 X38.761 Y60.724 E0.01575
G1 X38.389 Y60.786 E0.01432
G1 X38.128 Y60.905 E0.01091
G1 X37.914 Y61.065 E0.01015
G1 X37.788 Y61.213 E0.00739
G1 X37.657 Y61.247 E0.00513
G1 X37.479 Y61.247 E0.00679
G1 X37.378 Y61.227 E0.00389
G1 X37.229 Y61.161 E0.00621
G1 X37.135 Y61.088 E0.00453
G1 X37.049 Y60.975 E0.00539
G1 X36.986 Y60.836 E0.00579
G1 X36.926 Y60.622 E0.00845
G1 X36.886 Y60.344 E0.01069
G1 X36.869 Y59.926 E0.01589
G1 X36.89 Y59.548 E0.0144
G1 X36.932 Y59.281 E0.01027
G1 X36.99 Y59.085 E0.00776
G1 X37.049 Y58.957 E0.00535
G1 X37.142 Y58.832 E0.00595
G1 X37.201 Y58.782 E0.00294
G1 X37.293 Y58.73 E0.00401
G1 X37.391 Y58.697 E0.00393
G1 X37.527 Y58.682 E0.00519
G1 X37.604 Y58.698 E0.00299
G1 X38.273 Y59.076 E0.02921
G1 X38.636 Y59.189 E0.01442
G1 X39.03 Y59.209 E0.01502
G1 X39.454 Y59.076 E0.01686
G1 X39.766 Y58.817 E0.01543
G1 X39.98 Y58.534 E0.01346
G1 E-0.2
; acceleration to travel
M204 S4000
G1 X59.825 Y57.659 F12000
; decel to extrusion
M204 S2000
G1 X69.747 Y57.221
; end travel
G1 E0.2 F1800
G1 X67.838 Y57.222 E0.07256
G1 X67.47 Y57.268 E0.0141
G1 X67.05 Y57.387 E0.01659
G1 X66.779 Y57.542 E0.01184
G1 X66.695 Y57.467 E0.00431
G1 X66.172 Y57.248 E0.02152
G1 X65.549 Y57.235 E0.02369
G1 X64.994 Y57.484 E0.02312
G1 X64.553 Y57.892 E0.02283
G1 X64.389 Y57.69 E0.00987
G1 X63.944 Y57.4 E0.02021
G1 X63.496 Y57.252 E0.01793
G1 X62.934 Y57.207 E0.02141
G1 X62.292 Y57.401 E0.02552
G1 X62.135 Y57.528 E0.00767
G1 X61.751 Y57.277 E0.01746
G1 X60.91 Y57.205 E0.03207
G1 X60.295 Y57.536 E0.02654
G1 X60.197 Y57.621 E0.00491
G1 X59.903 Y57.408 E0.01383
G1 X59.418 Y57.227 E0.01966
G1 X58.915 Y57.219 E0.01911
G1 X58.278 Y57.41 E0.02527
G1 X57.698 Y57.888 E0.02856
G1 X57.394 Y58.592 E0.02915
G1 X57.431 Y59.262 E0.0255
G1 X57.583 Y59.713 E0.01807
G1 X57.892 Y60.338 E0.02652
G1 X57.129 Y60.129 E0.03005
G1 X56.887 Y60.133 E0.00923
G1 X56.862 Y59.375 E0.02884
G1 X56.748 Y58.649 E0.02793
G1 X56.642 Y58.268 E0.01502
G1 X56.448 Y57.776 E0.02009
G1 X56.11 Y57.2 E0.02537
G1 X55.714 Y56.738 E0.02315
G1 X55.203 Y56.33 E0.02482
G1 X54.627 Y56.049 E0.02439
G1 X53.991 Y55.883 E0.02497
G1 X53.417 Y55.808 E0.022
G1 X51.684 Y55.768 E0.06587
G1 X51.181 Y55.821 E0.01922
G1 X50.568 Y56.058 E0.02497
G1 X50.107 Y56.508 E0.02452
G1 X49.934 Y56.322 E0.00964
G1 X49.637 Y56.093 E0.01425
G1 X49.229 Y55.873 E0.01762
G1 X48.884 Y55.75 E0.01393
G1 X48.437 Y55.654 E0.01738
G1 X48.045 Y55.612 E0.01498
G1 X47.515 Y55.611 E0.02013
G1 X47.088 Y55.657 E0.01632
G1 X46.619 Y55.764 E0.01829
G1 X46.172 Y55.942 E0.01829
G1 X45.803 Y56.157 E0.01624
G1 X45.712 Y56.075 E0.00466
G1 X45.295 Y55.864 E0.01777
G1 X44.899 Y55.785 E0.01533
G1 X41.517 Y55.792 E0.12857
G1 X40.773 Y55.744 E0.02833
G1 X40.262 Y55.836 E0.01972
G1 X39.795 Y56.101 E0.02041
G1 X39.663 Y56.248 E0.00748
G1 X39.511 Y56.128 E0.00737
G1 X39.079 Y55.891 E0.01872
G1 X38.596 Y55.723 E0.01944
G1 X38.05 Y55.626 E0.02107
G1 X37.271 Y55.617 E0.02961
G1 X36.827 Y55.677 E0.01705
G1 X36.418 Y55.779 E0.01602
G1 X36.086 Y55.9 E0.01343
G1 X35.762 Y56.057 E0.01366
G1 X35.391 Y56.295 E0.01678
G1 X35.395 Y55.133 E0.04415
G1 X35.422 Y54.953 E0.00693
G1 X35.479 Y54.816 E0.00565
G1 X35.538 Y54.743 E0.00356
G1 X35.641 Y54.67 E0.0048
G1 X35.732 Y54.636 E0.00369
G1 X35.909 Y54.607 E0.00681
G1 X59.221 Y53.191 E0.88767
G1 X60.067 Y53.167 E0.03214
G1 X60.382 Y53.178 E0.012
G1 X61.054 Y53.202 E0.02554
G1 X61.801 Y53.278 E0.02853
G1 X62.555 Y53.397 E0.02902
G1 X63.572 Y53.629 E0.03965
G1 X64.302 Y53.846 E0.02896
G1 X65.289 Y54.212 E0.04
G1 X66.071 Y54.568 E0.03265
G1 X66.919 Y55.023 E0.03659
G1 X67.58 Y55.434 E0.02958
G1 X68.43 Y56.046 E0.03983
G1 X69.169 Y56.666 E0.03663
G1 X69.747 Y57.221 E0.03047
G1 E-0.2
; acceleration to travel
M204 S4000
G1 X62.114 Y60.024 F12000
; decel to extrusion
M204 S2000
G1 X58.298 Y61.425
; end travel
G1 E0.2 F1800
G1 X57.993 Y61.049 E0.0184
G1 X57.727 Y60.837 E0.01292
