; generated by SuperSlicer 2.5.59 on 2023-03-19 at 04:20:18 UTC


;
;

;
;
; 

; external perimeters extrusion width = 0.20mm
; perimeters extrusion width = 0.23mm
; infill extrusion width = 0.32mm
; solid infill extrusion width = 0.28mm
; top infill extrusion width = 0.20mm
; first layer extrusion width = 0.25mm

; external perimeters extrusion width = 0.20mm
; perimeters extrusion width = 0.23mm
; infill extrusion width = 0.32mm
; solid infill extrusion width = 0.28mm
; top infill extrusion width = 0.20mm
; first layer extrusion width = 0.25mm

; object:{"name":"Blue","id":"Blue.stl id:0 copy 0","object_center":[60.000001,59.999916,0.000000],"boundingbox_center":[60.000001,59.999916,4.000000],"boundingbox_size":[99.998001,40.685997,8.000000]}
EXCLUDE_OBJECT_DEFINE NAME=Blue_stl_id_0_copy_0 CENTER=60.000001,59.999916 POLYGON=[[10.000999,39.658916],[53.670996,39.656916],[109.999000,39.658916],[109.999000,59.862876],[108.223000,60.874880],[104.723000,62.702876],[100.653000,64.610880],[96.059000,66.568880],[88.101000,69.698872],[80.359000,72.604920],[74.949000,74.476912],[69.891000,76.046920],[65.101000,77.344920],[60.489004,78.396912],[55.845000,79.242920],[51.497000,79.826920],[47.403000,80.184920],[43.541000,80.342912],[39.892996,80.318920],[36.434996,80.134920],[33.221000,79.810912],[32.915000,79.770920],[30.331000,79.376912],[28.535000,79.018920],[26.957000,78.630920],[25.446998,78.182912],[23.971000,77.666920],[22.536998,77.084912],[21.145000,76.438920],[19.771000,75.712912],[18.411000,74.906912],[17.075000,74.020920],[15.772999,73.058912],[14.508999,72.022920],[13.294998,70.920912],[12.132999,69.758880],[11.035000,68.540880],[10.000999,67.274880],[10.000999,39.658916]]
; plater:{"center":[60.000001,59.999916,0.000000],"boundingbox_center":[60.000001,59.999916,4.000000],"boundingbox_size":[99.998001,40.685997,8.000000]}

M73 P0 R64
M73 P0 R64
;TYPE:Custom
; custom gcode: start_gcode
START_PRINT T_BED=60 T_EXTRUDER=200
; custom gcode end: start_gcode
M107
G21 ; set units to millimeters
G90 ; use absolute coordinates
M82 ; use absolute distances for extrusion
G92 E0
; custom gcode: start_filament_gcode
; Filament gcode

     PRESSURE_ADVANCE_SELECT Nozzle=0.2 FILAMENT=PLA
; custom gcode end: start_filament_gcode
;_TOOLCHANGE 0
M104 S200 ; set temperature
M109 S200 ; set temperature and wait for it to be reached
M190 S60 ; set bed temperature and wait for it to be reached
;LAYER_CHANGE
;Z:0.15
;HEIGHT:0.15
G1 Z0.15 F12000
M73 P0 R64
M73 P0 R64
G1 E-0.8 F3000
M204 S2000
G1 X10.101 Y36.417 F12000
G1 E0 F1800
;TYPE:Skirt
;WIDTH:0.26
G1 X8.242 Y36.982 E0.0276
G1 X7.153 Y38.185 E0.05065
G1 X6.759 Y39.759 E0.0737
G1 X6.759 Y67.239 E0.46411
G1 X7.513 Y69.353 E0.496
G1 X8.629 Y70.713 E0.52099
G1 X9.843 Y72.053 E0.54667
G1 X11.001 Y73.211 E0.56995
G1 X12.328 Y74.422 E0.59547
G1 X13.716 Y75.565 E0.62101
G1 X15.285 Y76.724 E0.64873
G1 X16.76 Y77.697 E0.67383
G1 X18.259 Y78.58 E0.69854
G1 X19.783 Y79.381 E0.723
G1 X21.32 Y80.09 E0.74705
G1 X22.75 Y80.67 E0.76897
G1 X24.375 Y81.242 E0.79345
G1 X26.033 Y81.738 E0.81803
G1 X27.759 Y82.166 E0.8433
G1 X29.695 Y82.556 E0.87136
G1 X32.584 Y82.996 E0.91287
G1 X36.099 Y83.359 E0.96308
G1 X39.718 Y83.556 E1.01457
G1 X43.676 Y83.582 E1.07079
G1 X47.688 Y83.414 E1.12784
G1 X51.931 Y83.039 E1.18836
G1 X56.274 Y82.456 E1.25062
G1 X61.068 Y81.587 E1.31983
G1 X65.82 Y80.506 E1.38907
G1 X70.737 Y79.176 E1.46143
G1 X76.011 Y77.54 E1.53988
G1 X81.499 Y75.639 E1.6224
G1 X89.288 Y72.715 E1.74059
G1 X97.331 Y69.55 E1.86339
G1 X102.031 Y67.545 E1.93597
G1 X106.097 Y65.639 E1.99978
G1 X109.722 Y63.749 E2.05786
G1 X111.553 Y62.708 E2.08778
G1 X112.847 Y61.379 E2.11413
G1 X113.241 Y59.805 E2.13718
G1 X113.241 Y39.759 E2.42197
G1 X112.676 Y37.9 E2.44957
G1 X111.473 Y36.811 E2.47262
G1 X109.899 Y36.417 E2.49568
G1 X10.101 Y36.417 E3.91349
G1 X10.101 Y36.645 F12000
G1 F1800
G1 X8.462 Y37.111 E3.9377
G1 X7.381 Y38.244 E3.95994
G1 X6.987 Y39.759 E3.98219
G1 X6.987 Y67.239 E4.37259
G1 X7.689 Y69.209 E4.4023
G1 X8.798 Y70.561 E4.42714
G1 X9.893 Y71.775 E4.45037
G1 X11.162 Y73.05 E4.47593
G1 X12.6 Y74.356 E4.50352
G1 X13.984 Y75.484 E4.52889
G1 X15.411 Y76.534 E4.55407
G1 X16.877 Y77.501 E4.579
G1 X18.365 Y78.379 E4.60356
G1 X19.879 Y79.174 E4.62784
G1 X21.406 Y79.879 E4.65174
G1 X22.835 Y80.459 E4.67366
G1 X24.45 Y81.027 E4.69798
G1 X26.097 Y81.52 E4.7224
G1 X27.813 Y81.945 E4.74752
G1 X29.74 Y82.332 E4.77543
G1 X32.607 Y82.769 E4.81664
G1 X36.123 Y83.133 E4.86685
G1 X39.731 Y83.328 E4.91818
G1 X43.667 Y83.354 E4.9741
G1 X47.668 Y83.187 E5.031
G1 X51.901 Y82.814 E5.09137
G1 X56.244 Y82.23 E5.15363
G1 X61.027 Y81.362 E5.22269
G1 X65.769 Y80.284 E5.29178
G1 X70.678 Y78.956 E5.36402
G1 X75.936 Y77.325 E5.44224
G1 X81.419 Y75.426 E5.52468
G1 X89.205 Y72.503 E5.64282
G1 X97.242 Y69.341 E5.76552
G1 X101.833 Y67.384 E5.83643
G1 X106.12 Y65.373 E5.9037
G1 X109.617 Y63.547 E5.95974
G1 X111.441 Y62.51 E5.98955
G1 X112.619 Y61.32 E6.01335
G1 X113.013 Y59.805 E6.03559
G1 X113.013 Y39.759 E6.32038
G1 X112.547 Y38.12 E6.34459
G1 X111.414 Y37.039 E6.36683
G1 X109.899 Y36.645 E6.38907
G1 X10.101 Y36.645 E7.80689
G92 E0
M73 P1 R63
G1 E-0.8 F3000
; printing object Blue.stl id:0 copy 0
EXCLUDE_OBJECT_START NAME=Blue_stl_id_0_copy_0
; acceleration to travel
M204 S4000
G1 X10.475 Y39.095 F12000
; decel to extrusion
M204 S2000
G1 X10.662 Y40.32
; end travel
G1 E0 F1800
;TYPE:Internal perimeter
;WIDTH:0.25
G1 X109.338 Y40.32 E1.34035
G1 X109.338 Y59.479 E1.60059
G1 X107.906 Y60.295 E1.62298
G1 X104.43 Y62.111 E1.67626
G1 X100.383 Y64.008 E1.73696
G1 X95.809 Y65.958 E1.80451
G1 X87.864 Y69.082 E1.92047
G1 X80.135 Y71.983 E2.03261
G1 X74.743 Y73.849 E2.11011
G1 X69.707 Y75.412 E2.18174
G1 X64.941 Y76.704 E2.2488
G1 X60.356 Y77.75 E2.31268
G1 X55.742 Y78.59 E2.37639
G1 X51.424 Y79.17 E2.43556
G1 X47.361 Y79.525 E2.49097
G1 X43.53 Y79.682 E2.54305
G1 X39.913 Y79.658 E2.59218
G1 X36.487 Y79.476 E2.63879
G1 X32.999 Y79.115 E2.68642
G1 X30.445 Y78.726 E2.7215
G1 X28.678 Y78.374 E2.74597
G1 X27.13 Y77.993 E2.76763
G1 X25.65 Y77.554 E2.7886
G1 X24.204 Y77.049 E2.8094
G1 X22.8 Y76.479 E2.82998
G1 X21.439 Y75.847 E2.85038
G1 X20.094 Y75.136 E2.87103
G1 X18.762 Y74.347 E2.89206
G1 X17.454 Y73.48 E2.91338
G1 X16.179 Y72.537 E2.93492
G1 X14.941 Y71.523 E2.95666
G1 X13.751 Y70.442 E2.97849
G1 X12.612 Y69.304 E3.00036
G1 X11.536 Y68.111 E3.02219
G1 X10.662 Y67.039 E3.04097
G1 X10.662 Y40.32 E3.40392
G1 X10.444 Y40.102 F12000
G1 F1800
G1 X109.556 Y40.102 E4.75018
G1 X109.556 Y59.606 E5.0151
G1 X108.011 Y60.486 E5.03926
G1 X104.526 Y62.306 E5.09266
G1 X100.472 Y64.207 E5.15348
G1 X95.891 Y66.159 E5.22112
G1 X87.942 Y69.286 E5.33715
G1 X80.209 Y72.188 E5.44935
G1 X74.811 Y74.056 E5.52693
G1 X69.767 Y75.622 E5.59866
G1 X64.994 Y76.915 E5.66584
G1 X60.4 Y77.963 E5.72984
G1 X55.776 Y78.805 E5.79369
G1 X51.448 Y79.387 E5.853
G1 X47.375 Y79.743 E5.90854
G1 X43.533 Y79.9 E5.96076
G1 X39.906 Y79.876 E6.01003
G1 X36.47 Y79.693 E6.05678
G1 X32.971 Y79.332 E6.10455
G1 X30.408 Y78.941 E6.13977
G1 X28.631 Y78.587 E6.16438
G1 X27.073 Y78.203 E6.18618
G1 X25.583 Y77.761 E6.20729
G1 X24.127 Y77.253 E6.22823
G1 X22.714 Y76.679 E6.24896
G1 X21.342 Y76.042 E6.2695
G1 X19.987 Y75.326 E6.29031
G1 X18.646 Y74.532 E6.31148
G1 X17.329 Y73.658 E6.33295
G1 X16.045 Y72.709 E6.35464
G1 X14.798 Y71.688 E6.37653
G1 X13.601 Y70.6 E6.39851
G1 X12.454 Y69.454 E6.42053
G1 X11.371 Y68.252 E6.4425
G1 X10.444 Y67.117 E6.46241
G1 X10.444 Y40.102 E6.82937
G1 X10.226 Y39.884 F12000
;TYPE:External perimeter
G1 F1800
G1 X109.774 Y39.884 E8.18155
G1 X109.774 Y59.732 E8.45115
G1 X108.115 Y60.677 E8.47708
G1 X104.623 Y62.501 E8.5306
G1 X100.561 Y64.405 E8.59153
G1 X95.974 Y66.361 E8.65927
G1 X88.02 Y69.489 E8.77536
G1 X80.283 Y72.393 E8.88762
G1 X74.879 Y74.263 E8.96529
G1 X69.828 Y75.831 E9.03712
G1 X65.047 Y77.127 E9.10442
G1 X60.444 Y78.176 E9.16854
G1 X55.81 Y79.021 E9.23252
G1 X51.472 Y79.603 E9.29197
G1 X47.389 Y79.96 E9.34765
G1 X43.537 Y80.118 E9.40001
G1 X39.9 Y80.094 E9.44942
G1 X36.453 Y79.911 E9.49631
G1 X32.944 Y79.548 E9.54423
G1 X30.37 Y79.155 E9.57959
G1 X28.584 Y78.799 E9.60433
G1 X27.016 Y78.414 E9.62626
G1 X25.516 Y77.969 E9.64751
G1 X24.05 Y77.456 E9.6686
G1 X22.627 Y76.879 E9.68947
G1 X21.245 Y76.237 E9.71016
G1 X19.881 Y75.517 E9.73112
G1 X18.531 Y74.716 E9.75244
G1 X17.204 Y73.837 E9.77406
G1 X15.911 Y72.881 E9.79589
G1 X14.656 Y71.853 E9.81794
G1 X13.45 Y70.758 E9.84006
G1 X12.296 Y69.604 E9.86223
G1 X11.206 Y68.394 E9.88435
G1 X10.226 Y67.195 E9.90539
G1 X10.226 Y39.884 E10.27635
;WIPE_START
M204 S4000
G1 X10.399 Y39.984 F12000
;WIPE_END
G92 E0
G1 E-0.8 F3000
; acceleration to travel
G1 X75.917 Y40.541 F12000
; decel to extrusion
M204 S2000
M73 P1 R63
G1 X109.273 Y40.825
; end travel
G1 E0 F1800
;TYPE:Solid infill
;WIDTH:0.251235
G1 F2400
G1 X108.833 Y40.385 E0.0085
G1 X108.525 Y40.385 F12000
G1 F2400
G1 X109.273 Y41.133 E0.02295
G1 X109.273 Y41.441 F12000
G1 F2400
G1 X108.217 Y40.385 E0.04334
G1 X107.909 Y40.385 F12000
G1 F2400
G1 X109.273 Y41.749 E0.06968
G1 X109.273 Y42.057 F12000
G1 F2400
G1 X107.601 Y40.385 E0.10197
G1 X107.293 Y40.385 F12000
G1 F2400
G1 X109.273 Y42.365 E0.1402
G1 X109.273 Y42.673 F12000
G1 F2400
G1 X106.985 Y40.385 E0.18438
G1 X106.677 Y40.385 F12000
G1 F2400
G1 X109.273 Y42.981 E0.2345
G1 X109.273 Y43.289 F12000
G1 F2400
G1 X106.369 Y40.385 E0.29057
G1 X106.06 Y40.385 F12000
G1 F2400
G1 X109.273 Y43.597 E0.35259
G1 X109.273 Y43.905 F12000
G1 F2400
G1 X105.752 Y40.385 E0.42055
G1 X105.444 Y40.385 F12000
G1 F2400
G1 X109.273 Y44.214 E0.49446
G1 X109.273 Y44.522 F12000
G1 F2400
G1 X105.136 Y40.385 E0.57432
G1 X104.828 Y40.385 F12000
G1 F2400
G1 X109.273 Y44.83 E0.66012
G1 X109.273 Y45.138 F12000
G1 F2400
G1 X104.52 Y40.385 E0.75187
G1 X104.212 Y40.385 F12000
G1 F2400
G1 X109.273 Y45.446 E0.84957
G1 X109.273 Y45.754 F12000
G1 F2400
G1 X103.904 Y40.385 E0.95321
G1 X103.596 Y40.385 F12000
G1 F2400
G1 X109.273 Y46.062 E1.0628
G1 X109.273 Y46.37 F12000
G1 F2400
G1 X103.288 Y40.385 E1.17833
G1 X102.98 Y40.385 F12000
G1 F2400
G1 X109.273 Y46.678 E1.29981
G1 X109.273 Y46.986 F12000
G1 F2400
G1 X102.672 Y40.385 E1.42724
G1 X102.364 Y40.385 F12000
G1 F2400
G1 X109.273 Y47.294 E1.56061
G1 X109.273 Y47.602 F12000
G1 F2400
G1 X102.056 Y40.385 E1.69993
G1 X101.748 Y40.385 F12000
G1 F2400
G1 X109.273 Y47.91 E1.8452
G1 X109.273 Y48.218 F12000
G1 F2400
G1 X101.44 Y40.385 E1.99641
G1 X101.132 Y40.385 F12000
G1 F2400
G1 X109.273 Y48.526 E2.15357
G1 X109.273 Y48.834 F12000
G1 F2400
G1 X100.824 Y40.385 E2.31667
G1 X100.516 Y40.385 F12000
G1 F2400
G1 X109.273 Y49.142 E2.48572
G1 X109.273 Y49.45 F12000
G1 F2400
G1 X100.208 Y40.385 E2.66072
G1 X99.9 Y40.385 F12000
G1 F2400
G1 X109.273 Y49.758 E2.84167
G1 X109.273 Y50.066 F12000
G1 F2400
G1 X99.592 Y40.385 E3.02856
G1 X99.284 Y40.385 F12000
G1 F2400
G1 X109.273 Y50.374 E3.22139
G1 X109.273 Y50.682 F12000
G1 F2400
G1 X98.976 Y40.385 E3.42018
G1 X98.668 Y40.385 F12000
G1 F2400
G1 X109.273 Y50.99 E3.62491
G1 X109.273 Y51.298 F12000
G1 F2400
G1 X98.36 Y40.385 E3.83558
G1 X98.052 Y40.385 F12000
G1 F2400
G1 X109.273 Y51.606 E4.0522
M73 P1 R63
G1 X109.273 Y51.914 F12000
G1 F2400
G1 X97.744 Y40.385 E4.27477
G1 X97.436 Y40.385 F12000
G1 F2400
G1 X109.273 Y52.222 E4.50329
G1 X109.273 Y52.53 F12000
G1 F2400
G1 X97.128 Y40.385 E4.73775
G1 X96.82 Y40.385 F12000
G1 F2400
G1 X109.273 Y52.838 E4.97815
G1 X109.273 Y53.146 F12000
G1 F2400
G1 X96.512 Y40.385 E5.22451
G1 X96.204 Y40.385 F12000
G1 F2400
G1 X109.273 Y53.454 E5.47681
G1 X109.273 Y53.762 F12000
G1 F2400
G1 X95.896 Y40.385 E5.73505
G1 X95.588 Y40.385 F12000
G1 F2400
G1 X109.273 Y54.07 E5.99925
G1 X109.273 Y54.378 F12000
G1 F2400
G1 X95.279 Y40.385 E6.26939
G1 X94.971 Y40.385 F12000
G1 F2400
G1 X109.273 Y54.686 E6.54547
G1 X109.273 Y54.994 F12000
G1 F2400
G1 X94.663 Y40.385 E6.8275
G1 X94.355 Y40.385 F12000
G1 F2400
G1 X109.273 Y55.303 E7.11548
G1 X109.273 Y55.611 F12000
G1 F2400
G1 X94.047 Y40.385 E7.4094
G1 X93.739 Y40.385 F12000
G1 F2400
G1 X109.273 Y55.919 E7.70928
G1 X109.273 Y56.227 F12000
G1 F2400
G1 X93.431 Y40.385 E8.01509
G1 X93.123 Y40.385 F12000
G1 F2400
G1 X109.273 Y56.535 E8.32686
G1 X109.273 Y56.843 F12000
G1 F2400
G1 X92.815 Y40.385 E8.64457
G1 X92.507 Y40.385 F12000
G1 F2400
G1 X109.273 Y57.151 E8.96822
G1 X109.273 Y57.459 F12000
G1 F2400
G1 X92.199 Y40.385 E9.29782
G1 X91.891 Y40.385 F12000
G1 F2400
G1 X109.273 Y57.767 E9.63337
G1 X109.273 Y58.075 F12000
G1 F2400
G1 X91.583 Y40.385 E9.97487
G1 X91.275 Y40.385 F12000
G1 F2400
G1 X109.273 Y58.383 E10.32231
G1 X109.273 Y58.691 F12000
G1 F2400
G1 X90.967 Y40.385 E10.6757
G1 X90.659 Y40.385 F12000
G1 F2400
G1 X109.273 Y58.999 E11.03503
G1 X109.273 Y59.307 F12000
G1 F2400
G1 X90.351 Y40.385 E11.40031
G1 X90.043 Y40.385 F12000
G1 F2400
G1 X109.159 Y59.501 E11.76934
G1 X108.959 Y59.608 F12000
G1 F2400
G1 X89.735 Y40.385 E12.14044
G1 X89.427 Y40.385 F12000
G1 F2400
G1 X108.758 Y59.716 E12.51362
G1 X108.558 Y59.823 F12000
G1 F2400
G1 X89.119 Y40.385 E12.88887
G1 X88.811 Y40.385 F12000
G1 F2400
G1 X108.357 Y59.931 E13.2662
G1 X108.157 Y60.039 F12000
G1 F2400
G1 X88.503 Y40.385 E13.6456
G1 X88.195 Y40.385 F12000
G1 F2400
G1 X107.956 Y60.146 E14.02708
G1 X107.755 Y60.254 F12000
G1 F2400
G1 X87.887 Y40.385 E14.41063
G1 X87.579 Y40.385 F12000
G1 F2400
G1 X107.555 Y60.361 E14.79626
G1 X107.354 Y60.469 F12000
G1 F2400
G1 X87.271 Y40.385 E15.18397
G1 X86.963 Y40.385 F12000
G1 F2400
G1 X107.154 Y60.576 E15.57375
G1 X106.953 Y60.684 F12000
G1 F2400
G1 X86.655 Y40.385 E15.96561
G1 X86.347 Y40.385 F12000
G1 F2400
G1 X106.753 Y60.791 E16.35954
G1 X106.552 Y60.899 F12000
G1 F2400
G1 X86.039 Y40.385 E16.75555
G1 X85.731 Y40.385 F12000
G1 F2400
G1 X106.352 Y61.006 E17.15363
G1 X106.151 Y61.114 F12000
G1 F2400
G1 X85.423 Y40.385 E17.55379
G1 X85.115 Y40.385 F12000
G1 F2400
G1 X105.951 Y61.221 E17.95602
G1 X105.75 Y61.329 F12000
G1 F2400
G1 X84.807 Y40.385 E18.36033
G1 X84.498 Y40.385 F12000
G1 F2400
G1 X105.55 Y61.436 E18.76671
G1 X105.349 Y61.544 F12000
G1 F2400
G1 X84.19 Y40.385 E19.17517
G1 X83.882 Y40.385 F12000
G1 F2400
G1 X105.149 Y61.651 E19.58571
G1 X104.948 Y61.759 F12000
G1 F2400
G1 X83.574 Y40.385 E19.99832
G1 X83.266 Y40.385 F12000
G1 F2400
G1 X104.748 Y61.866 E20.413
G1 X104.547 Y61.974 F12000
G1 F2400
G1 X82.958 Y40.385 E20.82976
G1 X82.65 Y40.385 F12000
G1 F2400
G1 X104.344 Y62.079 E21.24855
G1 X104.134 Y62.177 F12000
G1 F2400
G1 X82.342 Y40.385 E21.66924
G1 X82.034 Y40.385 F12000
G1 F2400
G1 X103.925 Y62.275 E22.09182
G1 X103.715 Y62.374 F12000
G1 F2400
G1 X81.726 Y40.385 E22.51631
G1 X81.418 Y40.385 F12000
G1 F2400
G1 X103.505 Y62.472 E22.94269
G1 X103.296 Y62.57 F12000
G1 F2400
G1 X81.11 Y40.385 E23.37096
M73 P2 R62
G1 X80.802 Y40.385 F12000
G1 F2400
G1 X103.086 Y62.669 E23.80114
G1 X102.876 Y62.767 F12000
G1 F2400
G1 X80.494 Y40.385 E24.23322
G1 X80.186 Y40.385 F12000
G1 F2400
G1 X102.666 Y62.865 E24.66719
G1 X102.457 Y62.964 F12000
G1 F2400
G1 X79.878 Y40.385 E25.10306
G1 X79.57 Y40.385 F12000
G1 F2400
G1 X102.247 Y63.062 E25.54082
G1 X102.037 Y63.16 F12000
G1 F2400
G1 X79.262 Y40.385 E25.98049
G1 X78.954 Y40.385 F12000
G1 F2400
G1 X101.828 Y63.258 E26.42205
G1 X101.618 Y63.357 F12000
G1 F2400
G1 X78.646 Y40.385 E26.86552
G1 X78.338 Y40.385 F12000
G1 F2400
G1 X101.408 Y63.455 E27.31087
G1 X101.198 Y63.553 F12000
G1 F2400
G1 X78.03 Y40.385 E27.75813
G1 X77.722 Y40.385 F12000
G1 F2400
G1 X100.989 Y63.652 E28.20729
G1 X100.779 Y63.75 F12000
G1 F2400
G1 X77.414 Y40.385 E28.65834
G1 X77.106 Y40.385 F12000
G1 F2400
G1 X100.569 Y63.848 E29.11129
G1 X100.36 Y63.947 F12000
G1 F2400
G1 X76.798 Y40.385 E29.56614
G1 X76.49 Y40.385 F12000
G1 F2400
G1 X100.144 Y64.039 E30.02277
G1 X99.928 Y64.131 F12000
G1 F2400
G1 X76.182 Y40.385 E30.48117
G1 X75.874 Y40.385 F12000
G1 F2400
G1 X99.712 Y64.223 E30.94135
G1 X99.496 Y64.315 F12000
G1 F2400
G1 X75.566 Y40.385 E31.40331
M73 P3 R62
G1 X75.258 Y40.385 F12000
G1 F2400
G1 X99.28 Y64.407 E31.86705
G1 X99.064 Y64.499 F12000
G1 F2400
G1 X74.95 Y40.385 E32.33256
G1 X74.642 Y40.385 F12000
G1 F2400
G1 X98.848 Y64.591 E32.79985
G1 X98.632 Y64.683 F12000
G1 F2400
