; HEADER_BLOCK_START
; generated by OrcaSlicer 1.7.0-beta on 2023-09-17 at 18:06:46
; total layer number: 275
; HEADER_BLOCK_END

; THUMBNAIL_BLOCK_START
; THUMBNAIL_BLOCK_END

; external perimeters extrusion width = 0.40mm
; perimeters extrusion width = 0.46mm
; infill extrusion width = 0.64mm
; solid infill extrusion width = 0.56mm
; top infill extrusion width = 0.40mm
; first layer extrusion width = 0.50mm

; EXECUTABLE_BLOCK_START
EXCLUDE_OBJECT_DEFINE NAME=Body3.stl_id_0_copy_0 CENTER=60,60 POLYGON=[[28.375,66.7],[28.3942,66.5049],[28.4091,66.4412],[28.4511,66.3173],[28.509,66.2],[28.5435,66.1444],[28.6679,65.9929],[58.5885,29.5876],[58.6679,29.4929],[58.875,29.334],[59.1162,29.2341],[59.375,29.2],[90.625,29.2],[90.8838,29.2341],[91.125,29.334],[91.2374,29.4134],[91.3321,29.4929],[91.491,29.7],[91.5909,29.9412],[91.625,30.2],[91.625,90.8],[28.375,90.8],[28.375,66.7]]
M73 P0 R54
;TYPE:Custom
START_PRINT T_BED=110 T_EXTRUDER=260
G90
G21
M83 ; use relative distances for extrusion
; Filament gcode

    PRESSURE_ADVANCE_SELECT FILAMENT=ABS
M106 S0
;LAYER_CHANGE
;Z:0.1
;HEIGHT:0.1
;BEFORE_LAYER_CHANGE
;0.1
G92 E0

;AFTER_LAYER_CHANGE
;0.1
;_SET_FAN_SPEED_CHANGING_LAYER
SET_VELOCITY_LIMIT ACCEL=500 ACCEL_TO_DECEL=250
G1 E-.5 F3000
G1 Z.2 F21000
G1 X26.523 Y92.289
G1 Z.2
G1 Z.1
G1 E.5 F1800
;TYPE:Skirt
;WIDTH:0.5
G1 F3000
G1 X26.121 Y90.8 E.02841
G1 X26.121 Y66.7 E.444
G1 X26.433 Y65.358 E.02538
G1 X26.88 Y64.612 E.01603
G1 X56.874 Y28.118 E.87027
G1 X57.329 Y27.672 E.01174
G1 X58.073 Y27.231 E.01594
G1 X58.944 Y26.977 E.01671
G1 X59.375 Y26.946 E.00796
G1 X90.625 Y26.946 E.57572
G1 X91.463 Y27.067 E.0156
G1 X91.995 Y27.27 E.01049
G1 X93.567 Y28.858 E.04117
G1 X93.879 Y30.2 E.02538
G1 X93.879 Y90.8 E1.11644
G1 X93.486 Y92.273 E.0281
G1 X92.411 Y93.355 E.0281
G1 X90.922 Y93.757 E.02841
G1 X29.078 Y93.757 E1.13937
G1 X27.604 Y93.364 E.0281
G1 X26.551 Y92.317 E.02736
G1 X26.946 Y91.973 F21000
G1 F3000
G1 X26.825 Y91.835 E.00339
G1 X26.599 Y90.8 E.01951
G1 X26.599 Y66.7 E.444
G1 X26.875 Y65.541 E.02194
G1 X27.25 Y64.916 E.01343
G1 X57.244 Y28.422 E.87027
G1 X57.631 Y28.044 E.00997
G1 X58.254 Y27.674 E.01336
G1 X59.008 Y27.451 E.01448
G1 X59.375 Y27.424 E.00678
G1 X90.625 Y27.424 E.57572
G1 X91.328 Y27.526 E.01308
G1 X91.807 Y27.71 E.00947
G1 X93.125 Y29.041 E.03451
G1 X93.401 Y30.2 E.02194
G1 X93.401 Y90.8 E1.11644
G1 X93.009 Y92.138 E.02568
G1 X91.957 Y93.052 E.02568
G1 X90.922 Y93.279 E.01951
G1 X29.078 Y93.279 E1.13937
G1 X27.74 Y92.887 E.02568
G1 X26.972 Y92.004 E.02156
; printing object Body3.stl id:0 copy 0
G1 E-.5
EXCLUDE_OBJECT_START NAME=Body3.stl_id_0_copy_0
G1 Z.3 F21000
G1 X59.197 Y45.98 Z.3
G1 Z.1
G1 E.5 F1800
;TYPE:Outer wall
G1 F3000
G1 X59.26 Y45.777 E.00391
G2 X59.328 Y45.307 I-2.057 J-.538 E.00876
G1 X59.328 Y30.153 E.2792
G1 X90.672 Y30.153 E.57747
G1 X90.672 Y90.55 E1.11271
G1 X29.328 Y90.55 E1.13016
G1 X29.328 Y66.653 E.44026
G1 X37.982 Y66.653 E.15945
G2 X39.245 Y66.154 I-.011 J-1.875 E.0256
G1 X39.327 Y66.095 E.00185
G1 X58.77 Y46.652 E.50659
G2 X59.079 Y46.24 I-2.907 J-2.497 E.00948
G2 X59.176 Y46.03 I-1.876 J-1.001 E.00426
G1 X59.182 Y46.017 E.00028
G1 X59.631 Y46.19 F21000
;TYPE:Inner wall
G1 F3000
G1 X59.723 Y45.898 E.00564
G2 X59.806 Y45.349 I-2.569 J-.672 E.01025
G1 X59.806 Y30.631 E.27114
G1 X90.194 Y30.631 E.55983
G1 X90.194 Y90.071 E1.09507
G1 X29.806 Y90.071 E1.11253
G1 X29.806 Y67.131 E.42263
G1 X38.024 Y67.131 E.15139
G2 X39.637 Y66.462 I-.076 J-2.463 E.0329
G1 X59.137 Y46.962 E.50805
G2 X59.496 Y46.476 I-3.024 J-2.61 E.01114
G2 X59.613 Y46.226 I-2.342 J-1.251 E.0051
G1 X60.084 Y46.345 F21000
G1 F3000
G1 X60.193 Y46.02 E.00631
G2 X60.285 Y45.39 I-2.815 J-.733 E.01176
G1 X60.285 Y31.11 E.26309
G1 X89.715 Y31.11 E.5422
G1 X89.715 Y89.593 E1.07744
G1 X30.285 Y89.593 E1.0949
G1 X30.285 Y67.61 E.405
G1 X38.065 Y67.61 E.14334
G2 X39.947 Y66.828 I-.125 J-2.959 E.03833
G1 X59.503 Y47.272 E.50952
G2 X60.067 Y46.394 I-2.126 J-1.986 E.01933
G1 X60.071 Y46.383 E.00022
G1 E-.5
G1 Z.3 F21000
G1 X63.354 Y41.306 Z.3
G1 Z.1
G1 E.5 F1800
;TYPE:Outer wall
G1 F3000
G1 X63.254 Y41.176 E.00302
G1 X63.059 Y40.705 E.00939
G1 X62.994 Y40.208 E.00925
G1 X63.059 Y39.695 E.00952
G1 X63.254 Y39.224 E.0094
G1 X63.565 Y38.82 E.00939
G1 X63.969 Y38.509 E.00939
G1 X64.44 Y38.314 E.00939
G1 X64.929 Y38.25 E.00908
G1 X74.961 Y38.25 E.18483
G1 X75.45 Y38.314 E.00908
G1 X75.921 Y38.509 E.00939
G1 X76.325 Y38.82 E.00939
G1 X76.636 Y39.224 E.00939
G1 X76.831 Y39.695 E.00939
G1 X76.896 Y40.192 E.00925
G1 X76.831 Y40.705 E.00952
G1 X76.636 Y41.176 E.0094
G1 X76.325 Y41.58 E.00939
G1 X75.927 Y41.886 E.00925
G1 X75.451 Y42.086 E.00952
G1 X74.961 Y42.15 E.00909
G1 X64.929 Y42.15 E.18483
G1 X64.44 Y42.086 E.00908
G1 X63.969 Y41.891 E.00939
G1 X63.565 Y41.58 E.00939
G1 X63.379 Y41.338 E.00563
G1 X62.862 Y41.45 F21000
;TYPE:Inner wall
G1 F3000
G1 X62.836 Y41.417 E.00076
G1 X62.593 Y40.83 E.01171
G1 X62.511 Y40.209 E.01155
G1 X62.593 Y39.571 E.01184
G1 X62.836 Y38.983 E.01174
G1 X63.223 Y38.478 E.01171
G1 X63.728 Y38.091 E.01171
G1 X64.315 Y37.848 E.01171
G1 X64.897 Y37.771 E.01082
G1 X74.993 Y37.771 E.18599
G1 X75.575 Y37.848 E.01082
G1 X76.162 Y38.091 E.01171
G1 X76.667 Y38.478 E.01171
G1 X77.054 Y38.983 E.01171
G1 X77.297 Y39.57 E.01171
G1 X77.379 Y40.191 E.01155
G1 X77.297 Y40.829 E.01184
G1 X77.054 Y41.417 E.01174
G1 X76.667 Y41.922 E.01171
G1 X76.169 Y42.303 E.01155
G1 X75.577 Y42.552 E.01184
G1 X74.993 Y42.629 E.01085
G1 X64.897 Y42.629 E.18599
G1 X64.315 Y42.552 E.01082
G1 X63.728 Y42.309 E.01171
G1 X63.223 Y41.922 E.01171
G1 X62.886 Y41.482 E.01021
G1 X62.475 Y41.732 F21000
G1 F3000
G1 X62.418 Y41.659 E.00171
G1 X62.127 Y40.955 E.01403
G1 X62.029 Y40.21 E.01385
G1 X62.126 Y39.447 E.01416
G1 X62.418 Y38.741 E.01408
G1 X62.882 Y38.137 E.01403
G1 X63.486 Y37.673 E.01403
G1 X64.19 Y37.382 E.01403
G1 X64.866 Y37.293 E.01256
G1 X75.024 Y37.293 E.18715
G1 X75.7 Y37.382 E.01256
G1 X76.404 Y37.673 E.01403
G1 X77.008 Y38.137 E.01403
G1 X77.472 Y38.741 E.01403
G1 X77.763 Y39.445 E.01403
G1 X77.861 Y40.19 E.01385
G1 X77.764 Y40.953 E.01416
G1 X77.472 Y41.659 E.01408
G1 X77.008 Y42.263 E.01403
G1 X76.411 Y42.721 E.01385
G1 X75.703 Y43.018 E.01416
G1 X75.024 Y43.107 E.01261
G1 X64.866 Y43.107 E.18715
G1 X64.19 Y43.018 E.01256
G1 X63.486 Y42.727 E.01403
G1 X62.882 Y42.263 E.01403
G1 X62.499 Y41.764 E.01159
G1 E-.5
G1 Z.3 F21000
G1 X80.617 Y73.546 Z.3
G1 Z.1
G1 E.5 F1800
;TYPE:Outer wall
G1 F3000
G1 X80.617 Y79.454 E.10884
G2 X75.552 Y79.453 I-2.616 J326.952 E.09333
G1 X55.098 Y79.453 E.37681
G2 X50.033 Y79.454 I-2.45 J326.953 E.09333
G1 X50.033 Y73.546 E.10884
G2 X55.098 Y73.547 I2.617 J-326.973 E.09332
G1 X77.347 Y73.556 E.4099
G1 X80.577 Y73.546 E.05951
G1 X81.096 Y73.066 F21000
;TYPE:Inner wall
G1 F3000
G1 X81.096 Y79.934 E.12653
G2 X75.553 Y79.931 I-2.948 J357.737 E.10213
G1 X55.097 Y79.931 E.37685
M73 P1 R54
G2 X49.554 Y79.934 I-2.596 J357.74 E.10213
G1 X49.554 Y73.066 E.12653
G2 X55.097 Y73.069 I2.949 J-357.778 E.10212
G1 X77.348 Y73.077 E.40993
G1 X81.056 Y73.066 E.06832
G1 X81.574 Y72.586 F21000
G1 F3000
G1 X81.574 Y80.414 E.14421
G2 X75.554 Y80.41 I-3.279 J388.517 E.11092
G1 X55.096 Y80.41 E.37689
G2 X49.076 Y80.414 I-2.742 J388.521 E.11092
G1 X49.076 Y72.586 E.14421
G2 X55.096 Y72.59 I3.28 J-388.597 E.11091
G1 X77.348 Y72.599 E.40996
G1 X81.534 Y72.586 E.07713
G1 E-.5
G1 Z.3 F21000
G1 X75.342 Y69.4 Z.3
G1 Z.1
G1 E.5 F1800
;TYPE:Outer wall
G1 F3000
G1 X74.967 Y69.45 E.00698
G1 X64.929 Y69.45 E.18493
G1 X64.44 Y69.386 E.00908
G1 X63.969 Y69.191 E.00939
G1 X63.565 Y68.88 E.00939
G1 X63.254 Y68.476 E.00939
G1 X63.059 Y68.005 E.00939
G1 X62.994 Y67.508 E.00925
G1 X63.059 Y66.995 E.00952
G1 X63.254 Y66.524 E.0094
G1 X63.565 Y66.12 E.00939
G1 X63.969 Y65.809 E.00939
G1 X64.44 Y65.614 E.00939
G1 X64.929 Y65.55 E.00908
G1 X74.961 Y65.55 E.18483
G1 X75.45 Y65.614 E.00909
G1 X75.921 Y65.809 E.00938
G1 X76.321 Y66.116 E.00928
G1 X76.636 Y66.524 E.00951
G1 X76.831 Y66.995 E.00939
G1 X76.896 Y67.493 E.00925
G1 X76.831 Y68.004 E.0095
G1 X76.636 Y68.476 E.0094
G1 X76.32 Y68.884 E.00951
G1 X75.921 Y69.191 E.00928
G1 X75.45 Y69.386 E.00938
G1 X75.382 Y69.395 E.00128
G1 X75.613 Y69.836 F21000
;TYPE:Inner wall
G1 F3000
G1 X75.575 Y69.852 E.00075
G1 X74.998 Y69.928 E.01073
G1 X64.897 Y69.929 E.18609
G1 X64.315 Y69.852 E.01082
G1 X63.728 Y69.609 E.01171
G1 X63.223 Y69.222 E.01171
G1 X62.836 Y68.717 E.01171
G1 X62.593 Y68.13 E.01171
G1 X62.511 Y67.509 E.01155
G1 X62.593 Y66.871 E.01184
G1 X62.836 Y66.283 E.01174
G1 X63.223 Y65.778 E.01171
G1 X63.728 Y65.391 E.01171
G1 X64.315 Y65.148 E.01171
G1 X64.897 Y65.071 E.01082
G1 X74.993 Y65.071 E.18599
G1 X75.575 Y65.148 E.01083
G1 X76.162 Y65.391 E.0117
G1 X76.661 Y65.774 E.01159
G1 X77.054 Y66.282 E.01183
G1 X77.297 Y66.87 E.01172
G1 X77.379 Y67.492 E.01155
G1 X77.297 Y68.128 E.01182
G1 X77.054 Y68.718 E.01175
G1 X76.661 Y69.226 E.01183
G1 X76.162 Y69.609 E.01159
G1 X75.65 Y69.821 E.01022
G1 X75.785 Y70.283 F21000
G1 F3000
G1 X75.7 Y70.318 E.0017
G1 X75.029 Y70.407 E.01247
G1 X64.866 Y70.407 E.18724
G1 X64.19 Y70.318 E.01256
G1 X63.486 Y70.027 E.01403
G1 X62.882 Y69.563 E.01403
G1 X62.418 Y68.959 E.01403
G1 X62.127 Y68.255 E.01403
G1 X62.029 Y67.51 E.01385
G1 X62.126 Y66.747 E.01416
G1 X62.418 Y66.041 E.01408
G1 X62.882 Y65.437 E.01403
G1 X63.486 Y64.973 E.01403
G1 X64.19 Y64.682 E.01403
G1 X64.866 Y64.593 E.01256
G1 X75.024 Y64.593 E.18714
G1 X75.7 Y64.682 E.01256
G1 X76.404 Y64.973 E.01403
G1 X77.002 Y65.432 E.0139
G1 X77.471 Y66.04 E.01415
G1 X77.763 Y66.745 E.01406
G1 X77.861 Y67.491 E.01385
G1 X77.764 Y68.252 E.01414
G1 X77.471 Y68.96 E.0141
G1 X77.002 Y69.568 E.01415
G1 X76.404 Y70.027 E.0139
G1 X75.822 Y70.268 E.01159
G1 E-.5
G1 Z.3 F21000
G1 X76.654 Y69.218 Z.3
G1 X77.044 Y68.712
G1 X77.287 Y68.126
G1 X88.601 Y31.253
G1 Z.1
G1 E.5 F1800
;TYPE:Bottom surface
;WIDTH:0.501455
G1 F6300
G1 X89.356 Y32.008 E.01973
G1 X89.356 Y32.687 E.01254
G1 X88.138 Y31.469 E.03185
G1 X87.459 Y31.469 E.01254
G1 X89.356 Y33.366 E.04959
G1 X89.356 Y34.045 E.01254
G1 X86.78 Y31.469 E.06733
G1 X86.101 Y31.469 E.01254
G1 X89.356 Y34.724 E.08506
G1 X89.356 Y35.402 E.01254
G1 X85.423 Y31.469 E.1028
G1 X84.744 Y31.469 E.01254
G1 X89.356 Y36.081 E.12054
G1 X89.356 Y36.76 E.01254
G1 X84.065 Y31.469 E.13828
G1 X83.386 Y31.469 E.01254
G1 X89.356 Y37.439 E.15602
G1 X89.356 Y38.118 E.01254
G1 X82.707 Y31.469 E.17376
G1 X82.028 Y31.469 E.01254
G1 X89.356 Y38.797 E.1915
G1 X89.356 Y39.475 E.01254
G1 X81.35 Y31.469 E.20924
G1 X80.671 Y31.469 E.01254
G1 X89.356 Y40.154 E.22698
G1 X89.356 Y40.833 E.01254
G1 X79.992 Y31.469 E.24472
G1 X79.313 Y31.469 E.01254
G1 X89.356 Y41.512 E.26246
G1 X89.356 Y42.191 E.01254
G1 X78.634 Y31.469 E.2802
G1 X77.956 Y31.469 E.01254
G1 X89.356 Y42.869 E.29794
G1 X89.356 Y43.548 E.01254
G1 X77.277 Y31.469 E.31568
G1 X76.598 Y31.469 E.01254
G1 X89.356 Y44.227 E.33342
G1 X89.356 Y44.906 E.01254
G1 X75.919 Y31.469 E.35116
G1 X75.24 Y31.469 E.01254
G1 X89.356 Y45.585 E.3689
G1 X89.356 Y46.264 E.01254
G1 X74.561 Y31.469 E.38664
G1 X73.883 Y31.469 E.01254
G1 X89.356 Y46.942 E.40438
G1 X89.356 Y47.621 E.01254
G1 X73.204 Y31.469 E.42212
G1 X72.525 Y31.469 E.01254
G1 X89.356 Y48.3 E.43986
M73 P1 R53
G1 X89.356 Y48.979 E.01254
G1 X71.846 Y31.469 E.4576
G1 X71.167 Y31.469 E.01254
G1 X89.356 Y49.658 E.47534
G1 X89.356 Y50.336 E.01254
G1 X77.93 Y38.91 E.29861
G1 X77.785 Y38.56 E.007
G1 X77.264 Y37.881 E.01582
G1 X76.585 Y37.36 E.01582
G1 X76.235 Y37.215 E.007
G1 X70.489 Y31.469 E.15017
G1 X69.81 Y31.469 E.01254
G1 X75.31 Y36.969 E.14373
G2 X74.596 Y36.934 I-.488 J2.692 E.01323
G1 X69.131 Y31.469 E.14283
G1 X68.452 Y31.469 E.01254
G1 X73.918 Y36.934 E.14283
G1 X73.239 Y36.934 E.01254
G1 X67.773 Y31.469 E.14283
G1 X67.094 Y31.469 E.01254
G1 X72.56 Y36.934 E.14283
G1 X71.881 Y36.934 E.01254
G1 X66.416 Y31.469 E.14283
G1 X65.737 Y31.469 E.01254
G1 X71.202 Y36.934 E.14283
G1 X70.523 Y36.934 E.01254
G1 X65.058 Y31.469 E.14283
G1 X64.379 Y31.469 E.01254
G1 X69.845 Y36.934 E.14283
G1 X69.166 Y36.934 E.01254
G1 X63.7 Y31.469 E.14283
G1 X63.022 Y31.469 E.01254
G1 X68.487 Y36.934 E.14283
G1 X67.808 Y36.934 E.01254
G1 X62.343 Y31.469 E.14283
G1 X61.664 Y31.469 E.01254
G1 X67.129 Y36.934 E.14283
G1 X66.451 Y36.934 E.01254
G1 X60.985 Y31.469 E.14283
G1 X60.644 Y31.469 E.00631
G1 X60.644 Y31.806 E.00623
G1 X65.772 Y36.934 E.13401
G1 X65.093 Y36.934 E.01254
G1 X60.644 Y32.485 E.11628
G1 X60.644 Y33.164 E.01254
G1 X64.464 Y36.984 E.09984
G1 X64.096 Y37.032 E.00685
G1 X63.91 Y37.109 E.00372
G1 X60.644 Y33.842 E.08537
G1 X60.644 Y34.521 E.01254
G1 X63.43 Y37.308 E.07283
G1 X63.305 Y37.36 E.0025
G1 X63.021 Y37.578 E.00661
G1 X60.644 Y35.2 E.06214
G1 X60.644 Y35.879 E.01254
G1 X62.637 Y37.872 E.0521
G1 X62.34 Y38.254 E.00894
G1 X60.644 Y36.558 E.04433
G1 X60.644 Y37.236 E.01254
G1 X62.065 Y38.657 E.03713
G1 X61.866 Y39.137 E.0096
G1 X60.644 Y37.915 E.03194
G1 X60.644 Y38.594 E.01254
G1 X61.734 Y39.684 E.02849
G1 X61.667 Y40.21 E.0098
G1 X61.68 Y40.309 E.00184
G1 X60.428 Y39.058 E.03271
G1 E-.5 F3000
G1 Z.3 F21000
G1 X64.318 Y37.858 Z.3
G1 X64.898 Y37.782
G1 X74.992 Y37.782
G1 X75.572 Y37.858
G1 X76.157 Y38.101
G1 X76.659 Y38.486
G1 X77.926 Y39.585
G1 Z.1
G1 E.5 F1800
G1 F6300
G1 X89.356 Y51.015 E.29871
G1 X89.356 Y51.694 E.01254
G1 X78.181 Y40.519 E.29205
G1 X78.114 Y41.046 E.00981
G1 X78.089 Y41.106 E.0012
G1 X89.356 Y52.373 E.29445
G1 X89.356 Y53.052 E.01254
G1 X77.89 Y41.586 E.29965
G3 X77.646 Y42.021 I-.933 J-.238 E.00932
G1 X89.356 Y53.73 E.30602
G1 X89.356 Y54.409 E.01254
G1 X77.352 Y42.405 E.31372
G1 X77.264 Y42.519 E.00266
G1 X76.994 Y42.726 E.00628
G1 X89.356 Y55.088 E.32307
G1 X89.356 Y55.767 E.01254
G1 X76.61 Y43.021 E.3331
G1 X76.136 Y43.225 E.00954
G1 X89.356 Y56.446 E.3455
G1 X89.356 Y57.125 E.01254
G1 X75.622 Y43.39 E.35892
G1 X75.019 Y43.466 E.01123
G1 X89.356 Y57.803 E.37469
G1 X89.356 Y58.482 E.01254
G1 X74.34 Y43.466 E.39243
G1 X73.661 Y43.466 E.01254
G1 X89.356 Y59.161 E.41017
G1 X89.356 Y59.84 E.01254
G1 X72.982 Y43.466 E.42791
G1 X72.304 Y43.466 E.01254
G1 X89.356 Y60.519 E.44565
G1 X89.356 Y61.197 E.01254
G1 X71.625 Y43.466 E.46339
G1 X70.946 Y43.466 E.01254
G1 X89.356 Y61.876 E.48112
G1 X89.356 Y62.555 E.01254
G1 X70.267 Y43.466 E.49886
G1 X69.588 Y43.466 E.01254
G1 X89.356 Y63.234 E.5166
G1 X89.356 Y63.913 E.01254
G1 X68.91 Y43.466 E.53434
G1 X68.231 Y43.466 E.01254
G1 X89.356 Y64.592 E.55208
G1 X89.356 Y65.27 E.01254
G1 X67.552 Y43.466 E.56982
G1 X66.873 Y43.466 E.01254
G1 X89.356 Y65.949 E.58756
G1 X89.356 Y66.628 E.01254
G1 X66.194 Y43.466 E.6053
G1 X65.516 Y43.466 E.01254
G1 X89.356 Y67.307 E.62304
G1 X89.356 Y67.986 E.01254
G1 X64.586 Y43.215 E.64734
G1 E-.5 F3000
G1 Z.3 F21000
G1 X60.428 Y39.736 Z.3
G1 Z.1
G1 E.5 F1800
G1 F6300
G1 X61.803 Y41.111 E.03593
G1 X62.105 Y41.84 E.01457
G1 X62.626 Y42.519 E.01582
G1 X63.305 Y43.04 E.01582
G1 X64.034 Y43.342 E.01457
G1 X89.356 Y68.664 E.66177
M73 P2 R53
G1 X89.356 Y69.343 E.01254
G1 X60.644 Y40.631 E.75036
G1 X60.644 Y41.309 E.01254
G1 X89.356 Y70.022 E.75036
G1 X89.356 Y70.701 E.01254
G1 X60.644 Y41.988 E.75036
G1 X60.644 Y42.667 E.01254
G1 X89.356 Y71.38 E.75036
G1 X89.356 Y72.059 E.01254
G1 X60.644 Y43.346 E.75036
G1 X60.644 Y44.025 E.01254
G1 X89.356 Y72.737 E.75036
G1 X89.356 Y73.416 E.01254
G1 X60.644 Y44.703 E.75036
G1 X60.644 Y45.382 E.01254
G1 X89.356 Y74.095 E.75036
G1 X89.356 Y74.774 E.01254
G1 X60.565 Y45.983 E.75241
G3 X60.409 Y46.505 I-1.968 J-.304 E.01011
G1 X89.356 Y75.453 E.7565
G1 X89.356 Y76.131 E.01254
G1 X60.182 Y46.957 E.76242
G3 X59.905 Y47.359 I-1.542 J-.767 E.00905
G1 X89.356 Y76.81 E.76966
G1 X89.356 Y77.489 E.01254
G1 X59.575 Y47.708 E.77828
G1 X59.236 Y48.047 E.00887
G1 X75.479 Y64.291 E.42449
G2 X74.744 Y64.234 I-.584 J2.773 E.01367
G1 X58.897 Y48.387 E.41414
G1 X58.557 Y48.726 E.00887
G1 X74.065 Y64.234 E.40527
G1 X73.386 Y64.234 E.01254
G1 X58.218 Y49.066 E.3964
G1 X57.878 Y49.405 E.00887
G1 X72.707 Y64.234 E.38753
G1 X72.028 Y64.234 E.01254
G1 X57.539 Y49.744 E.37866
G1 X57.199 Y50.084 E.00887
G1 X71.35 Y64.234 E.36979
G1 X70.671 Y64.234 E.01254
G1 X56.86 Y50.423 E.36092
G1 X56.521 Y50.763 E.00887
