; HEADER_BLOCK_START
; generated by OrcaSlicer 1.7.0-beta on 2023-09-16 at 11:18:05
; total layer number: 688
; HEADER_BLOCK_END

; THUMBNAIL_BLOCK_START
; THUMBNAIL_BLOCK_END

; external perimeters extrusion width = 0.40mm
; perimeters extrusion width = 0.46mm
; infill extrusion width = 0.64mm
; solid infill extrusion width = 0.56mm
; top infill extrusion width = 0.40mm
; support material extrusion width = 0.46mm
; first layer extrusion width = 0.50mm

; EXECUTABLE_BLOCK_START
EXCLUDE_OBJECT_DEFINE NAME=Body5.stl_id_0_copy_0 CENTER=69.8826,57.6603 POLYGON=[[60.8826,28.0328],[60.897,27.7388],[60.9281,27.5119],[60.9402,27.4475],[61.0118,27.162],[61.0635,27.0067],[61.111,26.8848],[61.2369,26.6186],[61.2846,26.5328],[61.3882,26.3661],[61.4568,26.269],[61.5635,26.1296],[61.5845,26.1044],[61.7613,25.9115],[61.9543,25.7347],[61.9794,25.7138],[62.2159,25.5384],[62.3826,25.4347],[62.4684,25.387],[62.7345,25.2612],[62.8566,25.2137],[63.0118,25.162],[63.2973,25.0905],[63.3616,25.0784],[63.5885,25.0473],[63.8826,25.0328],[75.8826,25.0328],[76.4036,25.0784],[76.9086,25.2137],[77.3826,25.4347],[77.811,25.7347],[78.1807,26.1044],[78.3084,26.269],[78.4806,26.5328],[78.7017,27.0067],[78.8371,27.5119],[78.8826,28.0328],[78.8826,87.2878],[78.8371,87.8087],[78.7017,88.3139],[78.4806,88.7878],[78.3084,89.0516],[78.1807,89.2162],[77.811,89.5859],[77.3826,89.8859],[76.9086,90.1069],[76.4036,90.2422],[75.8826,90.2878],[63.8826,90.2878],[63.5885,90.2734],[63.3616,90.2422],[63.2973,90.2302],[63.0118,90.1586],[62.8566,90.1069],[62.7345,90.0595],[62.4684,89.9336],[62.3826,89.8859],[62.2159,89.7822],[61.9794,89.6068],[61.9543,89.5859],[61.7613,89.4091],[61.5845,89.2162],[61.5635,89.191],[61.4568,89.0516],[61.3882,88.9545],[61.2846,88.7878],[61.2369,88.702],[61.111,88.4359],[61.0635,88.3139],[61.0118,88.1587],[60.9402,87.8731],[60.9281,87.8087],[60.897,87.5819],[60.8826,87.2878],[60.8826,28.0328]]
M73 P0 R57
;TYPE:Custom
START_PRINT T_BED=110 T_EXTRUDER=260
G90
G21
M83 ; use relative distances for extrusion
; Filament gcode

    PRESSURE_ADVANCE_SELECT FILAMENT=ABS
M106 S0
;LAYER_CHANGE
;Z:0.1
;HEIGHT:0.1
;BEFORE_LAYER_CHANGE
;0.1
G92 E0

;AFTER_LAYER_CHANGE
;0.1
;_SET_FAN_SPEED_CHANGING_LAYER
SET_VELOCITY_LIMIT ACCEL=500 ACCEL_TO_DECEL=250
G1 E-.5 F3000
G1 Z.2 F21000
G1 X56.141 Y23.367
G1 Z.2
G1 Z.1
G1 E.5 F1800
;TYPE:Skirt
;WIDTH:0.5
G1 F3000
G1 X56.534 Y21.894 E.0281
G1 X57.609 Y20.812 E.0281
G1 X59.098 Y20.41 E.02841
G1 X80.667 Y20.41 E.39738
G1 X82.141 Y20.803 E.0281
G1 X83.222 Y21.878 E.0281
G1 X83.624 Y23.367 E.02841
G1 X83.624 Y91.953 E1.26357
G1 X83.231 Y93.427 E.0281
G1 X82.156 Y94.508 E.0281
G1 X80.667 Y94.911 E.02841
G1 X59.098 Y94.911 E.39738
G1 X57.624 Y94.517 E.0281
G1 X56.543 Y93.442 E.0281
G1 X56.141 Y91.953 E.02841
G1 X56.141 Y23.407 E1.26284
G1 X56.619 Y23.407 F21000
G1 F3000
G1 X56.619 Y23.367 E.00074
G1 X57.011 Y22.03 E.02568
G1 X58.063 Y21.115 E.02568
G1 X59.098 Y20.889 E.01951
G1 X80.667 Y20.889 E.39738
G1 X82.005 Y21.281 E.02568
G1 X82.92 Y22.332 E.02568
G1 X83.146 Y23.367 E.01951
G1 X83.146 Y91.953 E1.26357
G1 X82.754 Y93.291 E.02568
G1 X81.702 Y94.206 E.02568
G1 X80.667 Y94.432 E.01951
G1 X59.098 Y94.432 E.39738
G1 X57.76 Y94.04 E.02568
G1 X56.846 Y92.988 E.02568
G1 X56.619 Y91.953 E.01951
G1 X56.619 Y23.447 E1.2621
; printing object Body5.stl id:0 copy 0
G1 E-.5
EXCLUDE_OBJECT_START NAME=Body5.stl_id_0_copy_0
G1 Z.3 F21000
G1 X80.667 Y91.953 Z.3
G1 Z.1
G1 E.5 F1800
;TYPE:Support
G1 F3000
G1 X59.098 Y91.953 E.39738
G1 X59.098 Y76.261 E.2891
G1 X73.791 Y76.261 E.27069
G1 X73.791 Y39.06 E.68536
G1 X59.098 Y39.06 E.27069
G1 X59.098 Y23.367 E.2891
G1 X80.667 Y23.367 E.39738
G1 X80.667 Y91.882 E1.26225
G1 X74.221 Y38.629 F21000
G1 F3000
G1 X59.529 Y38.629 E.27069
G1 X59.529 Y23.798 E.27324
G1 X80.237 Y23.798 E.38151
G1 X80.237 Y91.523 E1.2477
G1 X59.529 Y91.523 E.38151
G1 X59.529 Y76.692 E.27324
G1 X74.221 Y76.692 E.27069
G1 X74.221 Y38.629 E.70123
G1 X74.753 Y38.097 F21000
G1 F3000
G1 X60.06 Y38.097 E.27069
G1 X60.06 Y24.33 E.25364
G1 X79.705 Y24.33 E.36192
G1 X79.705 Y90.991 E1.22811
G1 X60.06 Y90.991 E.36192
G1 X60.06 Y77.223 E.25364
G1 X74.753 Y77.223 E.27069
G1 X74.753 Y38.097 E.72082
G1 X75.285 Y37.566 F21000
G1 F3000
G1 X60.592 Y37.566 E.27069
G1 X60.592 Y24.861 E.23405
G1 X79.173 Y24.861 E.34233
G1 X79.173 Y90.459 E1.20852
G1 X60.592 Y90.459 E.34233
G1 X60.592 Y77.755 E.23405
G1 X75.285 Y77.755 E.27069
G1 X75.285 Y37.566 E.74041
G1 X75.816 Y37.034 F21000
G1 F3000
G1 X61.124 Y37.034 E.27069
G1 X61.124 Y25.393 E.21446
G1 X78.642 Y25.393 E.32274
G1 X78.642 Y89.928 E1.18893
G1 X61.124 Y89.928 E.32274
G1 X61.124 Y78.287 E.21446
G1 X75.816 Y78.287 E.27069
G1 X75.816 Y37.034 E.76001
G1 X76.348 Y36.502 F21000
G1 F3000
G1 X61.655 Y36.502 E.27069
G1 X61.655 Y25.925 E.19487
G1 X78.11 Y25.925 E.30314
G1 X78.11 Y89.396 E1.16934
M73 P1 R57
G1 X61.655 Y89.396 E.30314
G1 X61.655 Y78.818 E.19487
G1 X76.348 Y78.818 E.27069
G1 X76.348 Y36.502 E.7796
G1 X76.88 Y35.97 F21000
G1 F3000
G1 X62.187 Y35.97 E.27069
G1 X62.187 Y26.456 E.17528
G1 X77.578 Y26.456 E.28355
G1 X77.578 Y88.864 E1.14975
G1 X62.187 Y88.864 E.28355
G1 X62.187 Y79.35 E.17528
G1 X76.88 Y79.35 E.27069
G1 X76.88 Y35.97 E.79919
G1 X77.046 Y79.882 F21000
G1 F3000
G1 X77.046 Y88.332 E.15569
G1 X62.719 Y88.332 E.26396
G1 X62.719 Y79.882 E.15569
G1 X77.046 Y79.882 E.26396
G1 X76.515 Y80.414 F21000
G1 F3000
G1 X76.515 Y87.801 E.1361
G1 X63.25 Y87.801 E.24437
G1 X63.25 Y80.414 E.1361
G1 X76.515 Y80.414 E.24437
G1 X75.983 Y80.945 F21000
G1 F3000
G1 X75.983 Y87.269 E.1165
G1 X63.782 Y87.269 E.22478
G1 X63.782 Y80.945 E.1165
G1 X75.983 Y80.945 E.22478
G1 X75.451 Y81.477 F21000
G1 F3000
G1 X75.451 Y86.737 E.09691
G1 X64.314 Y86.737 E.20519
G1 X64.314 Y81.477 E.09691
G1 X75.451 Y81.477 E.20519
G1 X74.92 Y82.009 F21000
G1 F3000
G1 X74.92 Y86.206 E.07732
G1 X64.846 Y86.206 E.18559
G1 X64.846 Y82.009 E.07732
G1 X74.92 Y82.009 E.18559
G1 X74.388 Y82.54 F21000
G1 F3000
G1 X74.388 Y85.674 E.05773
G1 X65.377 Y85.674 E.166
G1 X65.377 Y82.54 E.05773
G1 X74.388 Y82.54 E.166
G1 X73.856 Y83.072 F21000
G1 F3000
G1 X73.856 Y85.142 E.03814
G1 X65.909 Y85.142 E.14641
G1 X65.909 Y83.072 E.03814
G1 X73.856 Y83.072 E.14641
G1 X73.324 Y83.604 F21000
G1 F3000
G1 X73.324 Y84.611 E.01855
G1 X66.441 Y84.611 E.12682
G1 X66.441 Y83.604 E.01855
G1 X73.324 Y83.604 E.12682
G1 X77.046 Y35.439 F21000
G1 F3000
G1 X62.719 Y35.439 E.26396
G1 X62.719 Y26.988 E.15569
G1 X77.046 Y26.988 E.26396
G1 X77.046 Y35.439 E.15569
G1 X76.515 Y34.907 F21000
G1 F3000
G1 X63.25 Y34.907 E.24437
G1 X63.25 Y27.52 E.1361
G1 X76.515 Y27.52 E.24437
G1 X76.515 Y34.907 E.1361
G1 X75.983 Y34.375 F21000
G1 F3000
G1 X63.782 Y34.375 E.22478
G1 X63.782 Y28.052 E.1165
G1 X75.983 Y28.052 E.22478
G1 X75.983 Y34.375 E.1165
M73 P1 R56
G1 X75.451 Y33.844 F21000
G1 F3000
G1 X64.314 Y33.844 E.20519
G1 X64.314 Y28.583 E.09691
G1 X75.451 Y28.583 E.20519
G1 X75.451 Y33.844 E.09691
G1 X74.92 Y33.312 F21000
G1 F3000
G1 X64.846 Y33.312 E.18559
G1 X64.846 Y29.115 E.07732
G1 X74.92 Y29.115 E.18559
G1 X74.92 Y33.312 E.07732
G1 X74.388 Y32.78 F21000
G1 F3000
G1 X65.377 Y32.78 E.166
G1 X65.377 Y29.647 E.05773
G1 X74.388 Y29.647 E.166
G1 X74.388 Y32.78 E.05773
G1 X73.856 Y32.249 F21000
G1 F3000
G1 X65.909 Y32.249 E.14641
G1 X65.909 Y30.178 E.03814
G1 X73.856 Y30.178 E.14641
G1 X73.856 Y32.249 E.03814
G1 X73.324 Y31.717 F21000
G1 F3000
G1 X66.441 Y31.717 E.12682
G1 X66.441 Y30.71 E.01855
G1 X73.324 Y30.71 E.12682
G1 X73.324 Y31.717 E.01855
G1 E-.5
G1 Z.3 F21000
G1 X61.133 Y41.668 Z.3
G1 Z.1
G1 E.5 F1800
;TYPE:Outer wall
G1 F3000
G1 X69.033 Y41.668 E.14555
G1 X69.141 Y41.753 E.00252
G1 X69.247 Y41.885 E.00312
G1 X69.247 Y73.471 E.58192
G1 X69.066 Y73.652 E.00472
G1 X61.133 Y73.652 E.14616
G1 X61.133 Y41.708 E.5885
G1 X61.611 Y42.147 F21000
;TYPE:Inner wall
G1 F3000
G1 X68.768 Y42.147 E.13186
G1 X68.768 Y73.174 E.57161
G1 X61.611 Y73.174 E.13186
G1 X61.611 Y42.187 E.57087
G1 X62.09 Y42.626 F21000
G1 F3000
G1 X68.29 Y42.626 E.11423
G1 X68.29 Y72.695 E.55398
G1 X62.09 Y72.695 E.11423
G1 X62.09 Y42.666 E.55324
G1 E-.5
G1 Z.3 F21000
G1 X68.146 Y43.754 Z.3
G1 Z.1
G1 E.5 F1800
;TYPE:Bottom surface
;WIDTH:0.508157
G1 F6300
G1 X67.377 Y42.984 E.02039
G1 X66.689 Y42.984 E.0129
G1 X67.931 Y44.227 E.03292
G1 X67.931 Y44.915 E.0129
G1 X66 Y42.984 E.05116
G1 X65.312 Y42.984 E.0129
G1 X67.931 Y45.603 E.0694
G1 X67.931 Y46.292 E.0129
G1 X64.624 Y42.984 E.08763
G1 X63.936 Y42.984 E.0129
G1 X67.931 Y46.98 E.10587
G1 X67.931 Y47.668 E.0129
G1 X63.247 Y42.984 E.12411
G1 X62.559 Y42.984 E.0129
G1 X67.931 Y48.356 E.14235
G1 X67.931 Y49.045 E.0129
G1 X62.449 Y43.562 E.14528
G1 X62.449 Y44.251 E.0129
G1 X67.931 Y49.733 E.14528
G1 X67.931 Y50.421 E.0129
G1 X62.449 Y44.939 E.14528
G1 X62.449 Y45.627 E.0129
G1 X67.931 Y51.11 E.14528
G1 X67.931 Y51.798 E.0129
G1 X62.449 Y46.315 E.14528
G1 X62.449 Y47.004 E.0129
G1 X67.931 Y52.486 E.14528
G1 X67.931 Y53.175 E.0129
G1 X62.449 Y47.692 E.14528
G1 X62.449 Y48.38 E.0129
G1 X67.931 Y53.863 E.14528
G1 X67.931 Y54.551 E.0129
G1 X62.449 Y49.069 E.14528
G1 X62.449 Y49.757 E.0129
G1 X67.931 Y55.239 E.14528
G1 X67.931 Y55.928 E.0129
G1 X62.449 Y50.445 E.14528
G1 X62.449 Y51.134 E.0129
G1 X67.931 Y56.616 E.14528
G1 X67.931 Y57.304 E.0129
G1 X62.449 Y51.822 E.14528
G1 X62.449 Y52.51 E.0129
G1 X67.931 Y57.993 E.14528
G1 X67.931 Y58.681 E.0129
G1 X62.449 Y53.198 E.14528
G1 X62.449 Y53.887 E.0129
G1 X67.931 Y59.369 E.14528
G1 X67.931 Y60.057 E.0129
G1 X62.449 Y54.575 E.14528
G1 X62.449 Y55.263 E.0129
G1 X67.931 Y60.746 E.14528
G1 X67.931 Y61.434 E.0129
G1 X62.449 Y55.952 E.14528
G1 X62.449 Y56.64 E.0129
G1 X67.931 Y62.122 E.14528
G1 X67.931 Y62.811 E.0129
G1 X62.449 Y57.328 E.14528
G1 X62.449 Y58.016 E.0129
G1 X67.931 Y63.499 E.14528
G1 X67.931 Y64.187 E.0129
G1 X62.449 Y58.705 E.14528
M73 P2 R56
G1 X62.449 Y59.393 E.0129
G1 X67.931 Y64.875 E.14528
G1 X67.931 Y65.564 E.0129
G1 X62.449 Y60.081 E.14528
G1 X62.449 Y60.77 E.0129
G1 X67.931 Y66.252 E.14528
G1 X67.931 Y66.94 E.0129
G1 X62.449 Y61.458 E.14528
G1 X62.449 Y62.146 E.0129
G1 X67.931 Y67.629 E.14528
G1 X67.931 Y68.317 E.0129
G1 X62.449 Y62.835 E.14528
G1 X62.449 Y63.523 E.0129
G1 X67.931 Y69.005 E.14528
G1 X67.931 Y69.694 E.0129
G1 X62.449 Y64.211 E.14528
G1 X62.449 Y64.899 E.0129
G1 X67.931 Y70.382 E.14528
G1 X67.931 Y71.07 E.0129
G1 X62.449 Y65.588 E.14528
G1 X62.449 Y66.276 E.0129
G1 X67.931 Y71.758 E.14528
G1 X67.931 Y72.336 E.01083
G1 X67.821 Y72.336 E.00207
G1 X62.449 Y66.964 E.14235
G1 X62.449 Y67.653 E.0129
G1 X67.132 Y72.336 E.12411
G1 X66.444 Y72.336 E.0129
G1 X62.449 Y68.341 E.10587
G1 X62.449 Y69.029 E.0129
G1 X65.756 Y72.336 E.08763
G1 X65.067 Y72.336 E.0129
G1 X62.449 Y69.717 E.06939
G1 X62.449 Y70.406 E.0129
G1 X64.379 Y72.336 E.05115
G1 X63.691 Y72.336 E.0129
G1 X62.449 Y71.094 E.03292
G1 X62.449 Y71.782 E.0129
G1 X63.218 Y72.552 E.02038
; stop printing object Body5.stl id:0 copy 0
;LAYER_CHANGE
;Z:0.2
;HEIGHT:0.1
;BEFORE_LAYER_CHANGE
;0.2
G92 E0

EXCLUDE_OBJECT_END NAME=Body5.stl_id_0_copy_0
;AFTER_LAYER_CHANGE
;0.2
;_SET_FAN_SPEED_CHANGING_LAYER
SET_VELOCITY_LIMIT ACCEL=6000 ACCEL_TO_DECEL=3000
M140 S110 ; set bed temperature
; printing object Body5.stl id:0 copy 0
SET_VELOCITY_LIMIT ACCEL=7000 ACCEL_TO_DECEL=3500
G1 E-.5 F3000
EXCLUDE_OBJECT_START NAME=Body5.stl_id_0_copy_0
G1 Z.3 F21000
G1 X61.083 Y41.378 Z.3
G1 Z.2
G1 E.5 F1800
SET_VELOCITY_LIMIT ACCEL=1500 ACCEL_TO_DECEL=750
;TYPE:Overhang wall
;WIDTH:0.438073
G1 F2059.894
G1 X61.083 Y41.333 E.00072
G1 X61.826 Y41.333 E.01192
G1 X68.31 Y41.333 E.104
G1 X69.053 Y41.333 E.01192
G1 F1258.741
G1 X69.338 Y41.42 E.00478
G1 F1023.652
G1 X69.549 Y41.632 E.0048
G1 X69.583 Y41.848 E.00351
G1 F2060.54
G1 X69.583 Y42.591 E.01192
G1 F2061.02
G1 X69.581 Y72.751 E.48374
G1 F2079.88
G1 X69.581 Y73.492 E.01188
G1 F1749.109
G1 X69.518 Y73.712 E.00367
G1 X69.306 Y73.923 E.0048
G1 X69.087 Y73.986 E.00365
G1 F2078.284
G1 X68.346 Y73.986 E.01188
G1 F2062.227
G1 X61.825 Y73.988 E.10459
G1 F2060.398
G1 X61.083 Y73.988 E.0119
G1 X61.083 Y73.942 E.00074
SET_VELOCITY_LIMIT ACCEL=3000 ACCEL_TO_DECEL=1500
;TYPE:Outer wall
;WIDTH:0.4
G1 F2520
G1 X61.083 Y73.902 E.00058
G1 F3000
G1 X61.083 Y73.302 E.00874
M106 S0
G1 F7200
G1 X61.083 Y42.018 E.45591
G1 F3000
G1 X61.083 Y41.418 E.00874
G1 X61.083 Y41.418
SET_VELOCITY_LIMIT ACCEL=7000 ACCEL_TO_DECEL=3500
G1 X61.491 Y41.741 F21000
SET_VELOCITY_LIMIT ACCEL=5000 ACCEL_TO_DECEL=2500
;TYPE:Inner wall
;WIDTH:0.46
G1 F12000
M106 S0
G1 X68.991 Y41.741 E.12662
G1 X69.174 Y41.797 E.00323
G1 X69.172 Y73.435 E.53414
G3 X69.029 Y73.578 I-.174 J-.031 E.00363
G1 X61.491 Y73.579 E.12727
G1 X61.491 Y41.781 E.53685
SET_VELOCITY_LIMIT ACCEL=7000 ACCEL_TO_DECEL=3500
G1 X61.93 Y42.18 F21000
SET_VELOCITY_LIMIT ACCEL=5000 ACCEL_TO_DECEL=2500
G1 F12000
G1 X68.736 Y42.18 E.11491
G1 X68.734 Y73.139 E.52269
G1 X61.93 Y73.141 E.11488
G1 X61.93 Y42.22 E.52204
SET_VELOCITY_LIMIT ACCEL=7000 ACCEL_TO_DECEL=3500
G1 X67.519 Y73.015 F21000
SET_VELOCITY_LIMIT ACCEL=6000 ACCEL_TO_DECEL=3000
;TYPE:Internal solid infill
;WIDTH:0.560809
G1 F12000
G1 X68.367 Y72.167 E.02491
G1 X68.368 Y71.404 E.01584
G1 X66.999 Y72.773 E.0402
G1 X66.236 Y72.773 E.01584
G1 X68.368 Y70.641 E.0626
G1 X68.368 Y69.879 E.01584
G1 X65.473 Y72.773 E.08501
G1 X64.71 Y72.774 E.01584
G1 X68.368 Y69.116 E.10741
G1 X68.368 Y68.353 E.01584
G1 X63.947 Y72.774 E.12982
G1 X63.184 Y72.774 E.01584
G1 X68.368 Y67.59 E.15222
G1 X68.368 Y66.827 E.01584
G1 X62.421 Y72.774 E.17463
G1 X62.296 Y72.774 E.0026
G1 X62.296 Y72.136 E.01324
G1 X68.368 Y66.065 E.1783
G1 X68.368 Y65.302 E.01584
G1 X62.296 Y71.374 E.1783
G1 X62.296 Y70.611 E.01584
G1 X68.368 Y64.539 E.1783
G1 X68.368 Y63.776 E.01584
G1 X62.296 Y69.848 E.1783
G1 X62.296 Y69.085 E.01584
G1 X68.368 Y63.013 E.1783
G1 X68.368 Y62.251 E.01584
G1 X62.296 Y68.323 E.1783
G1 X62.296 Y67.56 E.01584
G1 X68.368 Y61.488 E.1783
G1 X68.368 Y60.725 E.01584
G1 X62.296 Y66.797 E.17831
G1 X62.296 Y66.034 E.01584
G1 X68.368 Y59.962 E.17831
G1 X68.368 Y59.199 E.01584
G1 X62.296 Y65.272 E.17831
G1 X62.296 Y64.509 E.01584
G1 X68.368 Y58.437 E.17831
G1 X68.368 Y57.674 E.01584
G1 X62.296 Y63.746 E.17831
G1 X62.296 Y62.983 E.01584
G1 X68.368 Y56.911 E.17831
G1 X68.368 Y56.148 E.01584
G1 X62.296 Y62.221 E.17831
G1 X62.296 Y61.458 E.01584
G1 X68.368 Y55.385 E.17832
G1 X68.369 Y54.623 E.01584
G1 X62.296 Y60.695 E.17832
G1 X62.296 Y59.932 E.01584
G1 X68.369 Y53.86 E.17832
G1 X68.369 Y53.097 E.01584
G1 X62.296 Y59.17 E.17832
G1 X62.296 Y58.407 E.01584
G1 X68.369 Y52.334 E.17832
G1 X68.369 Y51.571 E.01584
G1 X62.296 Y57.644 E.17832
G1 X62.296 Y56.881 E.01584
G1 X68.369 Y50.809 E.17832
G1 X68.369 Y50.046 E.01584
G1 X62.296 Y56.119 E.17832
G1 X62.296 Y55.356 E.01584
G1 X68.369 Y49.283 E.17833
G1 X68.369 Y48.52 E.01584
G1 X62.296 Y54.593 E.17833
G1 X62.296 Y53.83 E.01584
G1 X68.369 Y47.757 E.17833
G1 X68.369 Y46.995 E.01584
G1 X62.296 Y53.068 E.17833
G1 X62.296 Y52.305 E.01584
G1 X68.369 Y46.232 E.17833
G1 X68.369 Y45.469 E.01584
G1 X62.296 Y51.542 E.17833
G1 X62.296 Y50.779 E.01584
G1 X68.369 Y44.706 E.17833
G1 X68.369 Y43.943 E.01584
G1 X62.296 Y50.017 E.17834
G1 X62.296 Y49.254 E.01584
G1 X68.369 Y43.181 E.17834
G1 X68.369 Y42.546 E.01318
G1 X68.241 Y42.546 E.00266
G1 X62.296 Y48.491 E.17457
G1 X62.296 Y47.728 E.01584
G1 X67.478 Y42.546 E.15217
G1 X66.715 Y42.546 E.01584
G1 X62.296 Y46.965 E.12977
G1 X62.296 Y46.203 E.01584
G1 X65.953 Y42.546 E.10738
G1 X65.19 Y42.546 E.01584
G1 X62.296 Y45.44 E.08498
G1 X62.296 Y44.677 E.01584
G1 X64.427 Y42.546 E.06258
G1 X63.664 Y42.546 E.01584
G1 X62.296 Y43.914 E.04018
G1 X62.296 Y43.152 E.01584
G1 X63.144 Y42.304 E.0249
; stop printing object Body5.stl id:0 copy 0
;LAYER_CHANGE
;Z:0.3
;HEIGHT:0.1
;BEFORE_LAYER_CHANGE
;0.3
G92 E0

EXCLUDE_OBJECT_END NAME=Body5.stl_id_0_copy_0
;AFTER_LAYER_CHANGE
;0.3
;_SET_FAN_SPEED_CHANGING_LAYER
; printing object Body5.stl id:0 copy 0
SET_VELOCITY_LIMIT ACCEL=7000 ACCEL_TO_DECEL=3500
G1 E-.5 F3000
EXCLUDE_OBJECT_START NAME=Body5.stl_id_0_copy_0
G1 Z.4 F21000
G1 X61.083 Y41.138 Z.4
G1 Z.3
G1 E.5 F1800
SET_VELOCITY_LIMIT ACCEL=3000 ACCEL_TO_DECEL=1500
;TYPE:Outer wall
;WIDTH:0.4
