; HEADER_BLOCK_START
; generated by OrcaSlicer 1.6.4-beta2 on 2023-08-16 at 21:45:20
; total layer number: 125
; HEADER_BLOCK_END

; THUMBNAIL_BLOCK_START
; THUMBNAIL_BLOCK_END

; external perimeters extrusion width = 0.40mm
; perimeters extrusion width = 0.46mm
; infill extrusion width = 0.64mm
; solid infill extrusion width = 0.56mm
; top infill extrusion width = 0.40mm
; first layer extrusion width = 0.50mm

; EXECUTABLE_BLOCK_START
EXCLUDE_OBJECT_DEFINE NAME=Body6.stl_id_0_copy_0 CENTER=60,60 POLYGON=[[30.85,54.3],[31.25,53.9],[88.75,53.9],[89.15,54.3],[89.15,62.1],[89.115,62.6283],[89.1093,62.6693],[89.0105,63.1473],[88.988,63.2269],[88.8383,63.6479],[88.7885,63.7617],[88.6016,64.1215],[88.515,64.2626],[88.3044,64.5596],[88.173,64.7194],[87.9519,64.9547],[87.7694,65.123],[87.5504,65.2997],[87.487,65.3463],[87.4241,65.3907],[87.3126,65.465],[87.3025,65.4715],[87.1902,65.5406],[87.0855,65.6005],[86.9836,65.6549],[86.8864,65.7035],[86.8117,65.7385],[86.7962,65.7456],[86.7151,65.7811],[86.2769,65.938],[86.2093,65.9572],[85.7193,66.0593],[85.6844,66.0641],[85.15,66.1],[34.85,66.1],[34.2807,66.0593],[33.7231,65.938],[33.1883,65.7385],[32.6874,65.465],[32.2306,65.123],[31.827,64.7194],[31.485,64.2626],[31.2115,63.7617],[31.012,63.2269],[30.8907,62.6693],[30.85,62.1],[30.85,54.3]]
M73 P0 R22
;TYPE:Custom
START_PRINT T_BED=105 T_EXTRUDER=260
G90
G21
M83 ; use relative distances for extrusion
; Filament gcode
M106 S0
;LAYER_CHANGE
;Z:0.2
;HEIGHT:0.2
;BEFORE_LAYER_CHANGE
;0.2
G92 E0

;AFTER_LAYER_CHANGE
;0.2
SET_VELOCITY_LIMIT ACCEL=1000 ACCEL_TO_DECEL=500
G1 E-.8 F1800
G1 Z.2 F21000
G1 X28.889 Y52.139
G1 E.8 F1800
;TYPE:Skirt
;WIDTH:0.5
G1 F3000
G1 X30.95 Y51.286 E.07884
G1 X89.05 Y51.286 E2.0536
G1 X91.111 Y52.139 E.07884
G1 X91.211 Y52.239 E.005
G1 X92.064 Y54.3 E.07884
G1 X92.064 Y62.1 E.2757
G1 X92.016 Y62.876 E.02748
G1 X91.836 Y63.844 E.0348
G1 X91.52 Y64.776 E.0348
G1 X91.075 Y65.655 E.0348
G1 X90.51 Y66.461 E.0348
G1 X89.836 Y67.178 E.0348
G1 X89.061 Y67.797 E.03505
G1 X88.208 Y68.296 E.03495
G1 X87.293 Y68.669 E.03492
G1 X86.337 Y68.907 E.03482
G1 X85.15 Y69.014 E.04212
G1 X34.073 Y68.966 E1.80537
G1 X33.085 Y68.78 E.03553
G1 X32.17 Y68.469 E.03416
G1 X30.941 Y67.798 E.04949
G1 X30.17 Y67.184 E.03485
G1 X29.494 Y66.466 E.03485
G1 X28.654 Y65.158 E.05494
G1 X28.282 Y64.245 E.03485
G1 X28.043 Y63.289 E.03485
G1 X27.936 Y62.1 E.04219
G1 X27.936 Y54.3 E.2757
G1 X28.789 Y52.239 E.07884
G1 X28.861 Y52.168 E.00358
G1 X29.184 Y52.491 F21000
G1 F3000
G1 X29.213 Y52.463 E.00141
G1 X30.95 Y51.743 E.06647
G1 X89.05 Y51.743 E2.0536
G1 X90.787 Y52.463 E.06647
G1 X90.887 Y52.563 E.005
G1 X91.607 Y54.3 E.06647
G1 X91.607 Y62.1 E.2757
G1 X91.56 Y62.843 E.02633
G1 X91.389 Y63.747 E.0325
G1 X91.092 Y64.617 E.0325
G1 X90.674 Y65.436 E.0325
G1 X90.144 Y66.187 E.0325
G1 X89.512 Y66.855 E.0325
G1 X88.786 Y67.431 E.03275
G1 X87.989 Y67.895 E.03263
G1 X87.133 Y68.241 E.03261
G1 X86.24 Y68.46 E.03251
G1 X85.15 Y68.557 E.03868
G1 X34.105 Y68.51 E1.80422
G1 X33.183 Y68.333 E.03318
G1 X32.011 Y67.895 E.04425
G1 X31.215 Y67.432 E.03254
G1 X30.493 Y66.86 E.03254
G1 X29.86 Y66.192 E.03254
G1 X29.055 Y64.939 E.05263
G1 X28.71 Y64.086 E.03254
G1 X28.49 Y63.192 E.03254
G1 X28.393 Y62.1 E.03873
G1 X28.393 Y54.3 E.2757
G1 X29.113 Y52.563 E.06647
G1 X29.156 Y52.519 E.00217
; printing object Body6.stl id:0 copy 0
EXCLUDE_OBJECT_START NAME=Body6.stl_id_0_copy_0
G1 E-.8 F1800
G1 Z.4 F21000
G1 X73.382 Y63.017
G1 Z.2
G1 E.8 F1800
;TYPE:Outer wall
G1 F3000
G1 X71.04 Y59.672 E.14434
G1 X76.952 Y55.535 E.25505
G1 X77.809 Y54.992 E.03587
G1 X78.155 Y54.87 E.01296
G1 X78.605 Y55.364 E.02364
G1 X78.913 Y55.758 E.01766
G1 X80.509 Y58.027 E.09804
G1 X73.415 Y62.994 E.30611
G1 E-.8 F1800
G1 Z.4 F21000
G1 X71.701 Y63.879
G1 Z.2
G1 E.8 F1800
;TYPE:Inner wall
G1 F3000
G1 X37.617 Y63.879 E1.20472
G1 X37.56 Y63.68 E.00732
G1 X37.76 Y63.556 E.0083
G1 X38.385 Y62.986 E.0299
G1 X38.895 Y62.312 E.02987
G1 X39.272 Y61.555 E.02988
G1 X39.503 Y60.742 E.02988
G1 X39.581 Y59.9 E.02988
G1 X39.503 Y59.058 E.02988
G1 X39.272 Y58.246 E.02986
G1 X38.895 Y57.489 E.0299
G1 X38.385 Y56.814 E.02988
G1 X37.954 Y56.421 E.02061
G1 X72.087 Y56.421 E1.20645
G1 X72.147 Y56.613 E.00711
G1 X68.433 Y59.212 E.16024
G1 X71.678 Y63.846 E.19996
G1 E-.8 F1800
G1 Z.4 F21000
G1 X72.579 Y64.336
G1 Z.2
G1 E.8 F1800
G1 F3000
G1 X34.913 Y64.336 E1.33134
G1 X34.535 Y64.309 E.0134
G1 X34.213 Y64.238 E.01165
G1 X33.919 Y64.128 E.01107
G1 X33.987 Y63.886 E.00889
G1 X34.62 Y64.004 E.02276
G1 X35.38 Y64.004 E.02688
G1 X36.128 Y63.864 E.02688
G1 X36.837 Y63.59 E.02689
G1 X37.483 Y63.19 E.02686
G1 X38.046 Y62.677 E.02691
G1 X38.504 Y62.07 E.02688
G1 X38.843 Y61.389 E.02689
G1 X39.052 Y60.657 E.02689
G1 X39.122 Y59.9 E.02688
G1 X39.052 Y59.143 E.02689
G1 X38.844 Y58.412 E.02686
G1 X38.504 Y57.73 E.02691
G1 X38.046 Y57.123 E.02688
G1 X37.484 Y56.611 E.02688
G1 X36.761 Y56.163 E.03004
G1 X36.818 Y55.964 E.00732
G1 X73.538 Y55.964 E1.29789
G1 X73.598 Y56.156 E.00711
G1 X69.07 Y59.324 E.19535
G1 X72.556 Y64.303 E.21484
G1 E-.8 F1800
G1 Z.4 F21000
G1 X80.46 Y60.345
G1 Z.2
G1 E.8 F1800
G1 F3000
G1 X80.497 Y60.742 E.01409
G1 X80.729 Y61.555 E.02988
G1 X81.105 Y62.311 E.02988
G1 X81.615 Y62.986 E.02988
G1 X82.239 Y63.556 E.02988
G1 X82.44 Y63.68 E.00833
G1 X82.383 Y63.879 E.00732
G1 X75.748 Y63.879 E.23454
G1 X75.687 Y63.687 E.00711
G1 X80.428 Y60.368 E.20455
G1 E-.8 F1800
G1 Z.4 F21000
G1 X86.014 Y63.886
M73 P1 R22
G1 Z.2
G1 E.8 F1800
G1 F3000
G1 X86.081 Y64.128 E.00889
G1 X85.777 Y64.241 E.01144
G1 X85.467 Y64.309 E.01123
G1 X85.087 Y64.336 E.01347
G1 X74.298 Y64.336 E.38135
G1 X74.238 Y64.144 E.00711
G1 X80.918 Y59.466 E.28828
G1 X80.878 Y59.9 E.01541
G1 X80.948 Y60.657 E.02688
G1 X81.157 Y61.389 E.02688
G1 X81.496 Y62.07 E.02688
G1 X81.954 Y62.677 E.02688
G1 X82.516 Y63.189 E.02688
G1 X83.163 Y63.59 E.02689
G1 X83.872 Y63.864 E.02688
G1 X84.62 Y64.004 E.02689
G1 X85.38 Y64.004 E.02688
G1 X85.974 Y63.893 E.02136
G1 E-.8 F1800
G1 Z.4 F21000
G1 X73.299 Y63.484
G1 X35.28 Y56.874
G1 X32.614 Y56.55
G1 Z.2
G1 E.8 F1800
G1 F3000
G1 X32.614 Y55.964 E.02071
G1 X33.182 Y55.964 E.02007
G1 X33.239 Y56.163 E.00732
G1 X32.648 Y56.529 E.02455
G1 E-.8 F1800
G1 Z.4 F21000
G1 X73.147 Y64.35
G1 Z.2
G1 E.8 F1800
G1 F3000
G1 X81.633 Y58.408 E.36617
G1 X81.4 Y59.227 E.0301
G1 X81.337 Y59.9 E.02389
G1 X81.4 Y60.573 E.02389
G1 X81.585 Y61.223 E.02389
G1 X81.886 Y61.828 E.02389
G1 X82.293 Y62.368 E.02389
G1 X82.793 Y62.823 E.02389
G1 X83.367 Y63.179 E.02389
G1 X83.998 Y63.423 E.02389
G1 X84.662 Y63.547 E.02389
G1 X85.338 Y63.547 E.02389
G1 X86.002 Y63.423 E.02389
G1 X86.633 Y63.179 E.02389
G1 X87.207 Y62.823 E.02389
G1 X87.626 Y62.441 E.02002
G1 X87.799 Y62.541 E.00708
G1 X87.731 Y62.857 E.0114
G1 X87.597 Y63.216 E.01354
G1 X87.414 Y63.552 E.01354
G1 X87.184 Y63.859 E.01354
G1 X86.914 Y64.13 E.01353
G1 X86.603 Y64.363 E.01372
G1 X86.267 Y64.547 E.01354
G1 X85.906 Y64.681 E.01361
G1 X85.532 Y64.762 E.01354
G1 X85.103 Y64.793 E.0152
G1 X34.897 Y64.793 E1.7746
G1 X34.469 Y64.762 E.01515
G1 X34.083 Y64.677 E.01396
G1 X33.733 Y64.547 E.01323
G1 X33.396 Y64.363 E.01356
G1 X33.089 Y64.133 E.01356
G1 X32.817 Y63.861 E.01356
G1 X32.587 Y63.554 E.01356
G1 X32.403 Y63.217 E.01356
G1 X32.269 Y62.858 E.01356
G1 X32.201 Y62.542 E.01144
G1 X32.374 Y62.441 E.00708
G1 X32.793 Y62.823 E.02001
G1 X33.368 Y63.179 E.0239
G1 X33.998 Y63.423 E.02388
G1 X34.662 Y63.547 E.02389
G1 X35.338 Y63.547 E.02389
G1 X36.002 Y63.423 E.02389
G1 X36.633 Y63.179 E.02389
G1 X37.207 Y62.823 E.02387
G1 X37.707 Y62.368 E.02392
G1 X38.114 Y61.828 E.02388
G1 X38.415 Y61.223 E.02389
G1 X38.6 Y60.573 E.0239
G1 X38.663 Y59.9 E.02389
G1 X38.6 Y59.227 E.02389
G1 X38.416 Y58.578 E.02387
G1 X38.114 Y57.972 E.02391
G1 X37.707 Y57.432 E.02389
G1 X37.207 Y56.977 E.02389
G1 X36.633 Y56.621 E.02389
G1 X36.002 Y56.377 E.02389
G1 X35.338 Y56.253 E.02389
G1 X34.662 Y56.253 E.02389
G1 X33.998 Y56.377 E.02389
G1 X33.367 Y56.621 E.02389
G1 X32.793 Y56.977 E.02389
G1 X32.157 Y57.557 E.0304
G1 X32.157 Y55.507 E.07244
G1 X74.988 Y55.507 E1.51391
G1 X75.049 Y55.699 E.00711
G1 X69.706 Y59.437 E.23046
G1 X73.124 Y64.317 E.21059
G1 E-.8 F1800
G1 Z.4 F21000
G1 X83.24 Y56.162
G1 Z.2
G1 E.8 F1800
G1 F3000
G1 X82.516 Y56.611 E.0301
G1 X81.954 Y57.123 E.02688
G1 X81.772 Y57.364 E.01068
G1 X80.786 Y55.963 E.06055
G1 X83.184 Y55.963 E.08473
G1 X83.229 Y56.124 E.00591
G1 E-.8 F1800
G1 Z.4 F21000
G1 X87.386 Y56.55
G1 Z.2
G1 E.8 F1800
G1 F3000
G1 X86.761 Y56.163 E.02599
G1 X86.817 Y55.964 E.00732
G1 X87.386 Y55.964 E.02009
G1 X87.386 Y56.51 E.01931
G1 X87.651 Y57.382 F21000
G1 F3000
G1 X87.207 Y56.977 E.02122
G1 X86.633 Y56.621 E.02389
G1 X86.002 Y56.377 E.02389
G1 X85.338 Y56.253 E.02389
G1 X84.662 Y56.253 E.02389
G1 X83.998 Y56.377 E.02389
G1 X83.367 Y56.621 E.02389
G1 X82.793 Y56.977 E.02389
G1 X82.293 Y57.432 E.02389
G1 X81.886 Y57.972 E.02389
G1 X81.784 Y58.176 E.00807
G1 X79.906 Y55.506 E.1154
G1 X87.843 Y55.507 E.28053
G1 X87.843 Y57.557 E.07245
G1 X87.681 Y57.409 E.00777
G1 E-.8 F1800
G1 Z.4 F21000
G1 X87.656 Y64.267
G1 X31.654 Y62.987
G1 X31.7 Y55.05
G1 Z.2
G1 E.8 F1800
G1 F3000
G1 X76.442 Y55.045 E1.58144
G1 X76.504 Y55.238 E.00716
G1 X70.343 Y59.549 E.26578
G1 X73.259 Y63.713 E.17969
G1 X81.206 Y58.149 E.34291
G1 X79.315 Y55.459 E.11621
G1 X78.974 Y55.024 E.01954
G1 X79.6 Y55.049 E.02217
G1 X88.3 Y55.05 E.3075
G1 X88.3 Y58.978 E.13884
G1 X88.064 Y59.011 E.00844
G1 X87.987 Y58.743 E.00986
G1 X87.724 Y58.214 E.02089
G1 X87.368 Y57.742 E.0209
G1 X86.931 Y57.343 E.0209
G1 X86.428 Y57.032 E.0209
G1 X85.877 Y56.819 E.0209
G1 X85.296 Y56.71 E.0209
G1 X84.704 Y56.71 E.0209
G1 X84.123 Y56.819 E.0209
G1 X83.572 Y57.032 E.0209
G1 X83.069 Y57.343 E.0209
G1 X82.632 Y57.742 E.0209
G1 X82.276 Y58.213 E.0209
G1 X82.013 Y58.743 E.0209
G1 X81.851 Y59.311 E.0209
G1 X81.796 Y59.9 E.0209
G1 X81.851 Y60.489 E.0209
G1 X82.013 Y61.057 E.0209
G1 X82.276 Y61.587 E.0209
G1 X82.632 Y62.058 E.0209
G1 X83.069 Y62.457 E.0209
G1 X83.572 Y62.768 E.0209
G1 X84.123 Y62.981 E.0209
G1 X84.704 Y63.09 E.0209
G1 X85.296 Y63.09 E.0209
G1 X85.877 Y62.981 E.0209
G1 X86.428 Y62.768 E.0209
G1 X86.931 Y62.457 E.0209
G1 X87.368 Y62.058 E.0209
G1 X87.724 Y61.586 E.0209
G1 X87.987 Y61.057 E.0209
G1 X88.064 Y60.789 E.00986
G1 X88.3 Y60.822 E.00844
G1 X88.3 Y62.07 E.0441
G1 X88.266 Y62.547 E.01693
G1 X88.171 Y62.986 E.01585
G1 X88.014 Y63.406 E.01585
G1 X87.8 Y63.8 E.01585
G1 X87.531 Y64.159 E.01585
G1 X87.214 Y64.476 E.01584
G1 X86.851 Y64.748 E.01604
G1 X86.457 Y64.963 E.01586
G1 X86.035 Y65.121 E.01592
G1 X85.597 Y65.216 E.01585
G1 X85.12 Y65.25 E.01692
G1 X34.88 Y65.25 E1.77575
G1 X34.403 Y65.216 E.01691
G1 X33.954 Y65.117 E.01627
G1 X33.542 Y64.963 E.01551
G1 X33.148 Y64.748 E.01587
G1 X32.789 Y64.479 E.01588
G1 X32.471 Y64.161 E.01587
G1 X32.202 Y63.802 E.01587
G1 X31.987 Y63.408 E.01587
G1 X31.83 Y62.987 E.01587
G1 X31.734 Y62.548 E.01588
G1 X31.7 Y62.07 E.01695
G1 X31.7 Y60.822 E.04409
G1 X31.936 Y60.789 E.00844
G1 X32.013 Y61.057 E.00985
G1 X32.276 Y61.587 E.0209
G1 X32.632 Y62.058 E.02089
G1 X33.069 Y62.457 E.0209
G1 X33.572 Y62.768 E.02091
G1 X34.123 Y62.981 E.02089
G1 X34.704 Y63.09 E.0209
G1 X35.296 Y63.09 E.0209
G1 X35.877 Y62.981 E.0209
G1 X36.428 Y62.768 E.0209
G1 X36.93 Y62.457 E.02087
G1 X37.368 Y62.058 E.02092
G1 X37.724 Y61.587 E.02089
G1 X37.987 Y61.057 E.0209
G1 X38.149 Y60.489 E.0209
G1 X38.204 Y59.9 E.02089
G1 X38.149 Y59.311 E.0209
G1 X37.988 Y58.743 E.02087
G1 X37.724 Y58.213 E.02092
G1 X37.368 Y57.742 E.0209
G1 X36.931 Y57.343 E.0209
G1 X36.428 Y57.032 E.0209
G1 X35.877 Y56.819 E.0209
G1 X35.296 Y56.71 E.0209
G1 X34.704 Y56.71 E.0209
G1 X34.123 Y56.819 E.0209
G1 X33.572 Y57.032 E.0209
G1 X33.069 Y57.343 E.0209
G1 X32.632 Y57.742 E.02091
G1 X32.276 Y58.213 E.02088
G1 X32.013 Y58.743 E.02089
G1 X31.936 Y59.011 E.00986
G1 X31.7 Y58.978 E.00844
G1 X31.7 Y55.09 E.13742
G1 E-.8 F1800
G1 Z.4 F21000
G1 X78.08 Y55.169
G1 X85.832 Y56.977
G1 X86.354 Y57.18
G1 X86.829 Y57.479
G1 X87.123 Y57.964
G1 X87.152 Y58.031
G1 X87.006 Y58.092
G1 Z.2
G1 E.8 F1800
;TYPE:Outer wall
G1 F3000
G1 X87.297 Y58.478 E.01707
G1 X87.519 Y58.924 E.01762
G1 X87.655 Y59.404 E.01762
G1 X87.701 Y59.894 E.01742
G1 X87.656 Y60.396 E.0178
G1 X87.519 Y60.876 E.01763
G1 X87.297 Y61.322 E.01762
G1 X86.996 Y61.72 E.01762
G1 X86.628 Y62.056 E.01762
G1 X86.204 Y62.318 E.01762
G1 X85.739 Y62.498 E.01762
G1 X85.249 Y62.59 E.01762
G1 X84.751 Y62.59 E.01762
G1 X84.261 Y62.498 E.01762
G1 X83.796 Y62.318 E.01762
G1 X83.372 Y62.056 E.01762
G1 X83.004 Y61.72 E.01762
G1 X82.703 Y61.322 E.01762
G1 X82.481 Y60.876 E.01762
G1 X82.345 Y60.396 E.01762
G1 X82.299 Y59.9 E.01762
G1 X82.344 Y59.404 E.01762
G1 X82.481 Y58.924 E.01762
G1 X82.703 Y58.478 E.01762
G1 X83.004 Y58.08 E.01762
G1 X83.372 Y57.744 E.01762
G1 X83.796 Y57.482 E.01762
G1 X84.261 Y57.302 E.01762
G1 X84.751 Y57.21 E.01762
G1 X85.249 Y57.21 E.01762
G1 X85.739 Y57.302 E.01762
G1 X86.204 Y57.482 E.01762
G1 X86.628 Y57.744 E.01762
G1 X86.978 Y58.064 E.01676
G1 E-.8 F1800
G1 Z.4 F21000
G1 X87.137 Y57.997
G1 X87.123 Y57.964
G1 X86.829 Y57.479
G1 X86.354 Y57.18
G1 X85.832 Y56.977
G1 X78.08 Y55.169
G1 X35.28 Y62.926
M73 P2 R22
G1 X34.72 Y62.926
G1 X34.168 Y62.823
G1 X33.646 Y62.62
G1 X33.171 Y62.321
G1 X32.876 Y61.836
G1 X32.669 Y61.344
G1 X32.477 Y60.864
G1 Z.2
G1 E.8 F1800
G1 F3000
G1 X32.344 Y60.396 E.01717
G1 X32.298 Y59.9 E.01762
G1 X32.344 Y59.404 E.01761
G1 X32.481 Y58.924 E.01764
G1 X32.703 Y58.478 E.01761
G1 X33.003 Y58.08 E.0176
G1 X33.372 Y57.744 E.01764
G1 X33.796 Y57.482 E.01762
G1 X34.261 Y57.302 E.01762
G1 X34.751 Y57.21 E.01762
G1 X35.249 Y57.21 E.01762
G1 X35.739 Y57.302 E.01762
G1 X36.204 Y57.482 E.01762
G1 X36.628 Y57.744 E.01762
G1 X36.996 Y58.08 E.01762
G1 X37.297 Y58.478 E.01762
G1 X37.519 Y58.925 E.01765
G1 X37.656 Y59.404 E.0176
G1 X37.702 Y59.9 E.01762
G1 X37.656 Y60.396 E.01762
G1 X37.519 Y60.876 E.01762
G1 X37.297 Y61.322 E.01762
G1 X36.997 Y61.72 E.01761
G1 X36.628 Y62.056 E.01765
G1 X36.204 Y62.318 E.0176
G1 X35.739 Y62.498 E.01762
G1 X35.249 Y62.59 E.01762
G1 X34.751 Y62.59 E.01762
G1 X34.261 Y62.498 E.01762
G1 X33.796 Y62.318 E.01761
G1 X33.372 Y62.056 E.01763
G1 X33.003 Y61.72 E.01762
G1 X32.703 Y61.322 E.01762
G1 X32.493 Y60.9 E.01665
G1 E-.8 F1800
G1 Z.4 F21000
G1 X31.2 Y54.55
G1 Z.2
G1 E.8 F1800
G1 F3000
G1 X76.141 Y54.55 E1.58847
G1 X77.144 Y54.535 E.03546
G1 X78.122 Y54.458 E.03467
G1 X78.604 Y54.509 E.01713
G1 X79.61 Y54.549 E.0356
G1 X88.8 Y54.55 E.32483
G1 X88.8 Y62.088 E.26642
G1 X88.762 Y62.619 E.01882
G1 X88.652 Y63.127 E.01838
G1 X88.47 Y63.614 E.01838
G1 X88.221 Y64.07 E.01838
G1 X87.91 Y64.487 E.01838
G1 X87.543 Y64.855 E.01837
G1 X87.123 Y65.17 E.01858
G1 X86.666 Y65.419 E.0184
G1 X86.176 Y65.602 E.01845
G1 X85.669 Y65.712 E.01837
G1 X85.138 Y65.75 E.01882
G1 X34.862 Y65.75 E1.77701
G1 X34.331 Y65.712 E.01883
G1 X33.812 Y65.597 E.0188
G1 X33.334 Y65.419 E.01802
G1 X32.877 Y65.17 E.0184
G1 X32.46 Y64.858 E.0184
G1 X32.092 Y64.49 E.0184
G1 X31.78 Y64.073 E.0184
G1 X31.531 Y63.616 E.0184
G1 X31.349 Y63.128 E.0184
G1 X31.238 Y62.619 E.0184
G1 X31.2 Y62.088 E.01885
G1 X31.2 Y54.59 E.26501
G1 E-.8 F1800
G1 Z.4 F21000
G1 X33.439 Y56.031
G1 Z.2
G1 E.8 F1800
;TYPE:Gap infill
;WIDTH:0.510341
G1 F3000
G1 X33.648 Y55.992 E.00767
;WIDTH:0.478402
G1 X33.856 Y55.953 E.00715
;WIDTH:0.467311
G1 X33.896 Y55.948 E.00131
;WIDTH:0.422941
G1 X34.135 Y55.926 E.00707
;WIDTH:0.378571
G1 X34.375 Y55.903 E.00624
;WIDTH:0.3342
G1 X34.614 Y55.881 E.00542
;WIDTH:0.342917
G1 X35.359 Y55.88 E.01728
G1 X35.625 Y55.903 E.0062
;WIDTH:0.422947
G1 X35.865 Y55.926 E.00707
;WIDTH:0.467319
G1 X36.104 Y55.948 E.00789
;WIDTH:0.505276
G1 X36.352 Y55.992 E.00902
;WIDTH:0.542282
G1 X36.561 Y56.031 E.0082
G1 E-.8 F1800
G1 Z.4 F21000
G1 X32.264 Y57.806
G1 Z.2
G1 E.8 F1800
;WIDTH:0.10292
G1 F3000
G1 X32.149 Y57.931 E.00079
;WIDTH:0.147544
G1 X31.929 Y58.196 E.00279
G1 E-.8 F1800
G1 Z.4 F21000
G1 X31.785 Y59.242
G1 Z.2
G1 E.8 F1800
;WIDTH:0.658731
G1 F3000
G1 X31.75 Y59.866 E.02975
G1 X31.785 Y60.558 E.033
G1 X31.94 Y61.502 F21000
;WIDTH:0.212474
G1 F3000
G1 X32.167 Y62.297 E.01084
G1 X32.584 Y63.048 F21000
