; HEADER_BLOCK_START
; generated by OrcaSlicer 1.7.0-beta on 2023-09-17 at 19:29:49
; total layer number: 69
; HEADER_BLOCK_END

; THUMBNAIL_BLOCK_START
; THUMBNAIL_BLOCK_END

; external perimeters extrusion width = 0.40mm
; perimeters extrusion width = 0.46mm
; infill extrusion width = 0.64mm
; solid infill extrusion width = 0.56mm
; top infill extrusion width = 0.40mm
; support material extrusion width = 0.46mm
; first layer extrusion width = 0.50mm

; external perimeters extrusion width = 0.40mm
; perimeters extrusion width = 0.46mm
; infill extrusion width = 0.64mm
; solid infill extrusion width = 0.56mm
; top infill extrusion width = 0.40mm
; support material extrusion width = 0.46mm
; first layer extrusion width = 0.50mm

; EXECUTABLE_BLOCK_START
EXCLUDE_OBJECT_DEFINE NAME=Body4.stl_id_0_copy_0 CENTER=60,68.122 POLYGON=[[40.3732,68.122],[40.3976,67.7709],[40.471,67.4266],[40.5914,67.0959],[40.7569,66.7852],[40.964,66.5006],[41.2088,66.2477],[41.4864,66.0313],[41.7914,65.8556],[42.1178,65.7242],[42.4595,65.6396],[59.2214,62.5311],[59.7398,62.4832],[60.2602,62.4832],[60.7785,62.5311],[77.5405,65.6396],[77.882,65.7242],[78.2086,65.8556],[78.5136,66.0313],[78.7912,66.2477],[79.036,66.5006],[79.2431,66.7852],[79.4084,67.0959],[79.529,67.4266],[79.6022,67.7709],[79.6268,68.122],[79.6022,68.4731],[79.529,68.8174],[79.4084,69.1481],[79.2431,69.4588],[79.036,69.7434],[78.7912,69.9964],[78.5136,70.2128],[78.2086,70.3884],[77.882,70.5198],[77.5405,70.6044],[60.7785,73.7128],[60.2602,73.7608],[59.7398,73.7608],[59.2214,73.7128],[42.4595,70.6044],[42.1178,70.5198],[41.7914,70.3884],[41.4864,70.2128],[41.2088,69.9964],[40.964,69.7434],[40.7569,69.4588],[40.5914,69.1481],[40.471,68.8174],[40.3976,68.4731],[40.3732,68.122]]
EXCLUDE_OBJECT_DEFINE NAME=Body4.stl_id_1_copy_0 CENTER=60,51.8612 POLYGON=[[40.4316,51.8612],[40.456,51.5111],[40.5291,51.1679],[40.6492,50.8382],[40.8142,50.5284],[41.0207,50.2446],[41.2647,49.9924],[41.5415,49.7767],[41.8456,49.6015],[42.1711,49.4705],[42.5117,49.3862],[59.2237,46.287],[59.7405,46.2392],[60.2595,46.2392],[60.7762,46.287],[77.4883,49.3862],[77.8288,49.4705],[78.1544,49.6015],[78.4585,49.7767],[78.7353,49.9924],[78.9793,50.2446],[79.1858,50.5284],[79.3507,50.8382],[79.4709,51.1679],[79.5439,51.5111],[79.5684,51.8612],[79.5439,52.2113],[79.4709,52.5545],[79.3507,52.8842],[79.1858,53.194],[78.9793,53.4778],[78.7353,53.73],[78.4585,53.9457],[78.1544,54.1208],[77.8288,54.2519],[77.4883,54.3362],[60.7762,57.4354],[60.2595,57.4832],[59.7405,57.4832],[59.2237,57.4354],[42.5117,54.3362],[42.1711,54.2519],[41.8456,54.1208],[41.5415,53.9457],[41.2647,53.73],[41.0207,53.4778],[40.8142,53.194],[40.6492,52.8842],[40.5291,52.5545],[40.456,52.2113],[40.4316,51.8612]]
M73 P0 R15
;TYPE:Custom
START_PRINT T_BED=110 T_EXTRUDER=260
G90
G21
M83 ; use relative distances for extrusion
; Filament gcode

    PRESSURE_ADVANCE_SELECT FILAMENT=ABS
M106 S0
;LAYER_CHANGE
;Z:0.1
;HEIGHT:0.1
;BEFORE_LAYER_CHANGE
;0.1
G92 E0

;AFTER_LAYER_CHANGE
;0.1
;_SET_FAN_SPEED_CHANGING_LAYER
SET_VELOCITY_LIMIT ACCEL=500 ACCEL_TO_DECEL=250
G1 E-.5 F3000
G1 Z.2 F21000
G1 X38.201 Y70.441
G1 Z.2
G1 Z.1
G1 E.5 F1800
;TYPE:Skirt
;WIDTH:0.5
G1 F3000
G1 X37.809 Y69.367 E.02105
G1 X37.663 Y68.328 E.01934
G1 X37.722 Y51.655 E.30716
G1 X37.801 Y50.928 E.01347
G1 X37.981 Y50.222 E.01343
G1 X38.258 Y49.546 E.01347
G1 X38.626 Y48.916 E.01344
G1 X39.3 Y48.115 E.01928
G1 X39.857 Y47.643 E.01345
G1 X40.846 Y47.074 E.02102
G1 X41.534 Y46.828 E.01346
G1 X58.718 Y43.617 E.32205
G1 X60.259 Y43.522 E.02845
G1 X61.282 Y43.617 E.01893
G1 X78.15 Y46.75 E.31607
G1 X78.864 Y46.957 E.0137
G1 X79.8 Y47.413 E.01918
G1 X80.7 Y48.115 E.02102
G1 X81.19 Y48.663 E.01355
G1 X81.742 Y49.546 E.01918
G1 X82.018 Y50.221 E.01343
G1 X82.199 Y50.929 E.01347
G1 X82.286 Y51.851 E.01704
G1 X82.337 Y68.329 E.30358
G1 X82.257 Y69.055 E.01346
G1 X82.077 Y69.764 E.01349
G1 X81.8 Y70.44 E.01345
G1 X81.431 Y71.071 E.01347
G1 X80.756 Y71.874 E.01932
G1 X80.198 Y72.346 E.01347
G1 X79.208 Y72.916 E.02105
G1 X78.519 Y73.162 E.01347
G1 X61.285 Y76.383 E.32301
G1 X60.249 Y76.479 E.01916
G1 X58.715 Y76.383 E.02832
G1 X41.97 Y73.278 E.31376
G1 X40.792 Y72.916 E.0227
G1 X39.802 Y72.346 E.02104
G1 X39.022 Y71.645 E.01932
G1 X38.569 Y71.071 E.01347
G1 X38.221 Y70.475 E.01272
G1 X38.623 Y70.216 F21000
G1 F3000
G1 X38.277 Y69.268 E.01859
G1 X38.14 Y68.294 E.0181
G1 X38.199 Y51.689 E.30593
G1 X38.431 Y50.386 E.02438
G1 X39.013 Y49.197 E.02438
G1 X39.644 Y48.447 E.01805
G1 X40.439 Y47.828 E.01857
G1 X41.319 Y47.4 E.01804
G1 X41.966 Y47.215 E.01238
G1 X58.805 Y44.087 E.31554
G1 X60.258 Y44.001 E.02683
G1 X61.195 Y44.087 E.01733
G1 X78.035 Y47.215 E.31554
G1 X78.684 Y47.401 E.01245
G1 X79.561 Y47.828 E.01797
G1 X80.356 Y48.447 E.01857
G1 X80.802 Y48.944 E.0123
G1 X81.32 Y49.771 E.01797
G1 X81.569 Y50.385 E.0122
G1 X81.731 Y51.029 E.01223
G1 X81.807 Y51.852 E.01523
G1 X81.859 Y68.295 E.30293
G1 X81.627 Y69.6 E.02442
G1 X81.044 Y70.79 E.02441
G1 X80.412 Y71.541 E.01808
G1 X79.903 Y71.969 E.01224
G1 X79.029 Y72.472 E.01859
G1 X78.404 Y72.697 E.01224
G1 X61.197 Y75.913 E.32249
G1 X60.249 Y76 E.01754
G1 X58.802 Y75.913 E.0267
G1 X42.057 Y72.807 E.31376
G1 X40.971 Y72.472 E.02094
G1 X40.097 Y71.969 E.01858
G1 X39.366 Y71.312 E.01809
G1 X38.645 Y70.249 E.02367
; printing object Body4.stl id:0 copy 0
G1 E-.5
EXCLUDE_OBJECT_START NAME=Body4.stl_id_0_copy_0
G1 Z.3 F21000
G1 X47.246 Y68.283 Z.3
G1 Z.1
G1 E.5 F1800
;TYPE:Support
G1 F3000
G1 X47.246 Y67.961 E.00593
G1 X47.561 Y67.906 E.00589
G1 X47.715 Y68.122 E.00488
G1 X47.561 Y68.338 E.00488
G1 X47.286 Y68.29 E.00515
G1 X47.203 Y68.761 F21000
G1 F3000
G1 X44.465 Y68.283 E.05121
G1 X44.465 Y67.961 E.00593
G1 X47.777 Y67.383 E.06194
G1 X48.301 Y68.122 E.0167
G1 X47.777 Y68.861 E.0167
G1 X47.243 Y68.768 E.00999
G1 X47.16 Y69.239 F21000
G1 F3000
G1 X42.904 Y68.496 E.0796
G1 X42.782 Y68.466 E.00232
G1 X42.735 Y68.447 E.00092
G1 X42.691 Y68.422 E.00093
G1 X42.652 Y68.391 E.00093
G1 X42.617 Y68.355 E.00093
G1 X42.587 Y68.314 E.00093
G1 X42.563 Y68.269 E.00093
G1 X42.546 Y68.222 E.00093
G1 X42.535 Y68.172 E.00093
G1 X42.532 Y68.122 E.00093
G1 X42.535 Y68.072 E.00093
G1 X42.546 Y68.022 E.00093
G1 X42.563 Y67.975 E.00093
G1 X42.587 Y67.931 E.00093
G1 X42.617 Y67.89 E.00093
G1 X42.652 Y67.853 E.00093
G1 X42.691 Y67.822 E.00093
G1 X42.735 Y67.797 E.00093
G1 X42.782 Y67.778 E.00092
G1 X42.904 Y67.748 E.00232
G1 X48.093 Y66.842 E.09705
G1 X48.098 Y67.008 E.00307
G1 X48.888 Y68.122 E.02516
G1 X48.098 Y69.236 E.02516
G1 X48.093 Y69.402 E.00307
G1 X47.2 Y69.246 E.01671
G1 X47.118 Y69.718 F21000
G1 F3000
G1 X42.805 Y68.965 E.08065
G1 X42.634 Y68.922 E.00324
G1 X42.526 Y68.878 E.00216
G1 X42.424 Y68.82 E.00217
G1 X42.331 Y68.748 E.00217
G1 X42.249 Y68.663 E.00216
G1 X42.18 Y68.568 E.00217
G1 X42.125 Y68.464 E.00216
G1 X42.085 Y68.354 E.00216
G1 X42.06 Y68.239 E.00216
G1 X42.052 Y68.122 E.00217
G1 X42.06 Y68.005 E.00217
G1 X42.085 Y67.89 E.00216
G1 X42.125 Y67.78 E.00216
G1 X42.18 Y67.676 E.00216
G1 X42.249 Y67.581 E.00217
G1 X42.331 Y67.497 E.00216
G1 X42.424 Y67.424 E.00217
G1 X42.526 Y67.366 E.00217
G1 X42.634 Y67.322 E.00216
G1 X42.805 Y67.279 E.00325
G1 X48.557 Y66.275 E.10757
G1 X48.572 Y66.85 E.0106
G1 X49.163 Y67.682 E.01879
G1 X49.63 Y67.859 E.0092
G1 X49.688 Y67.9 E.00132
G1 X49.885 Y68.122 E.00547
G1 X49.689 Y68.344 E.00547
G1 X49.63 Y68.385 E.00132
G1 X49.162 Y68.562 E.00921
G1 X48.572 Y69.394 E.01879
G1 X48.557 Y69.969 E.0106
G1 X47.157 Y69.725 E.02619
G1 X47.075 Y70.196 F21000
G1 F3000
G1 X42.707 Y69.433 E.08169
G1 X42.487 Y69.379 E.00417
G1 X42.316 Y69.31 E.00339
G1 X42.156 Y69.218 E.0034
G1 X42.01 Y69.104 E.0034
G1 X41.882 Y68.972 E.0034
G1 X41.774 Y68.823 E.0034
G1 X41.687 Y68.66 E.0034
G1 X41.624 Y68.486 E.0034
G1 X41.585 Y68.306 E.0034
G1 X41.572 Y68.122 E.0034
G1 X41.585 Y67.938 E.0034
G1 X41.624 Y67.758 E.0034
G1 X41.687 Y67.584 E.0034
G1 X41.774 Y67.422 E.0034
G1 X41.882 Y67.272 E.0034
G1 X42.01 Y67.14 E.0034
G1 X42.156 Y67.026 E.0034
G1 X42.316 Y66.934 E.0034
G1 X42.487 Y66.865 E.00339
G1 X42.707 Y66.811 E.00417
G1 X49.021 Y65.708 E.1181
G1 X49.047 Y66.692 E.01814
G1 X49.469 Y67.286 E.01342
G1 X49.854 Y67.432 E.00759
G1 X50.008 Y67.539 E.00346
G1 X50.525 Y68.122 E.01435
G1 X50.008 Y68.705 E.01435
G1 X49.854 Y68.812 E.00346
G1 X49.468 Y68.958 E.00759
G1 X49.047 Y69.552 E.01342
M73 P1 R15
G1 X49.021 Y70.536 E.01813
G1 X47.114 Y70.203 E.03567
G1 X47.032 Y70.674 F21000
G1 F3000
G1 X42.608 Y69.902 E.08274
G1 X42.339 Y69.835 E.0051
G1 X42.106 Y69.741 E.00463
G1 X41.888 Y69.616 E.00463
G1 X41.69 Y69.461 E.00463
G1 X41.515 Y69.28 E.00463
G1 X41.367 Y69.077 E.00463
G1 X41.249 Y68.855 E.00463
G1 X41.163 Y68.619 E.00463
G1 X41.11 Y68.373 E.00463
G1 X41.093 Y68.122 E.00463
G1 X41.11 Y67.871 E.00463
G1 X41.163 Y67.625 E.00463
G1 X41.249 Y67.389 E.00463
G1 X41.367 Y67.167 E.00463
G1 X41.515 Y66.964 E.00463
G1 X41.69 Y66.783 E.00463
G1 X41.888 Y66.628 E.00463
G1 X42.106 Y66.503 E.00463
G1 X42.339 Y66.409 E.00463
G1 X42.608 Y66.342 E.0051
G1 X49.485 Y65.141 E.12862
G1 X49.522 Y66.534 E.02567
G1 X49.775 Y66.89 E.00805
G1 X50.078 Y67.005 E.00597
G1 X50.328 Y67.178 E.0056
G1 X50.68 Y67.576 E.00979
G1 X51.327 Y67.576 E.01191
G1 X51.679 Y67.178 E.0098
G1 X51.929 Y67.005 E.0056
G1 X52.214 Y66.898 E.0056
G1 X52.516 Y66.861 E.0056
G1 X52.817 Y66.898 E.0056
G1 X53.102 Y67.005 E.0056
G1 X53.352 Y67.178 E.0056
G1 X53.553 Y67.406 E.0056
G1 X53.695 Y67.675 E.0056
G1 X53.767 Y67.97 E.0056
G1 X53.767 Y68.274 E.0056
G1 X53.695 Y68.569 E.0056
G1 X53.553 Y68.838 E.0056
G1 X53.352 Y69.066 E.0056
G1 X53.102 Y69.239 E.0056
G1 X52.817 Y69.346 E.0056
G1 X52.516 Y69.383 E.0056
G1 X52.214 Y69.346 E.0056
G1 X51.929 Y69.239 E.0056
G1 X51.679 Y69.066 E.0056
G1 X51.326 Y68.668 E.0098
G1 X50.68 Y68.668 E.0119
G1 X50.328 Y69.066 E.00979
G1 X50.078 Y69.239 E.0056
G1 X49.774 Y69.354 E.00598
G1 X49.521 Y69.71 E.00805
G1 X49.485 Y71.103 E.02567
G1 X47.071 Y70.681 E.04515
G1 X51.482 Y68.122 F21000
G1 F3000
G1 X51.999 Y67.539 E.01436
G1 X52.153 Y67.432 E.00346
G1 X52.329 Y67.366 E.00346
G1 X52.516 Y67.343 E.00346
G1 X52.702 Y67.366 E.00346
G1 X52.878 Y67.432 E.00346
G1 X53.032 Y67.539 E.00346
G1 X53.157 Y67.679 E.00346
G1 X53.244 Y67.846 E.00346
G1 X53.289 Y68.028 E.00346
G1 X53.289 Y68.216 E.00346
G1 X53.244 Y68.398 E.00346
G1 X53.157 Y68.565 E.00346
G1 X53.032 Y68.705 E.00346
G1 X52.878 Y68.812 E.00346
G1 X52.702 Y68.878 E.00346
G1 X52.516 Y68.901 E.00346
G1 X52.329 Y68.878 E.00346
G1 X52.153 Y68.812 E.00346
G1 X51.999 Y68.705 E.00346
G1 X51.509 Y68.152 E.01362
G1 X52.122 Y68.122 F21000
G1 F3000
G1 X52.319 Y67.9 E.00548
G1 X52.377 Y67.859 E.00132
G1 X52.444 Y67.834 E.00132
G1 X52.516 Y67.825 E.00132
G1 X52.587 Y67.834 E.00132
G1 X52.654 Y67.859 E.00132
G1 X52.712 Y67.9 E.00132
G1 X52.76 Y67.953 E.00132
G1 X52.793 Y68.017 E.00132
G1 X52.81 Y68.086 E.00132
G1 X52.81 Y68.158 E.00132
G1 X52.793 Y68.227 E.00132
G1 X52.76 Y68.291 E.00132
G1 X52.713 Y68.344 E.00132
G1 X52.654 Y68.385 E.00132
G1 X52.587 Y68.41 E.00132
G1 X52.516 Y68.419 E.00132
G1 X52.445 Y68.41 E.00132
G1 X52.378 Y68.385 E.00132
G1 X52.319 Y68.344 E.00132
G1 X52.148 Y68.152 E.00474
G1 X51.111 Y69.146 F21000
G1 F3000
G1 X51.36 Y69.427 E.0069
G1 X51.705 Y69.665 E.00774
G1 X52.098 Y69.815 E.00774
G1 X52.516 Y69.865 E.00774
G1 X52.933 Y69.815 E.00775
G1 X53.326 Y69.665 E.00774
G1 X53.672 Y69.427 E.00774
G1 X53.95 Y69.112 E.00774
G1 X54.145 Y68.74 E.00774
G1 X54.246 Y68.332 E.00774
G1 X54.246 Y67.912 E.00774
G1 X54.145 Y67.504 E.00774
G1 X53.95 Y67.132 E.00774
G1 X53.672 Y66.817 E.00774
G1 X53.326 Y66.578 E.00775
G1 X52.933 Y66.43 E.00774
G1 X52.516 Y66.379 E.00774
G1 X52.099 Y66.43 E.00774
G1 X51.705 Y66.578 E.00774
G1 X51.36 Y66.817 E.00774
G1 X51.111 Y67.098 E.0069
G1 X50.896 Y67.098 E.00397
G1 X50.648 Y66.817 E.0069
G1 X50.302 Y66.578 E.00775
G1 X50.08 Y66.495 E.00436
G1 X49.996 Y66.376 E.00268
G1 X49.97 Y65.364 E.01864
G1 X50.082 Y65.227 E.00328
G1 X51.198 Y65.032 E.02086
G1 X51.218 Y65.03 E.00038
G1 X55.813 Y65.03 E.08464
G1 X56.818 Y63.969 E.02694
G1 X56.849 Y63.945 E.00072
G1 X58.329 Y63.161 E.03085
G1 X58.372 Y63.147 E.00084
G1 X60.541 Y62.911 E.04019
G1 X60.592 Y62.917 E.00096
G1 X62.659 Y63.614 E.04018
G1 X62.699 Y63.636 E.00084
G1 X63.99 Y64.733 E.03122
G1 X64.019 Y64.768 E.00084
G1 X64.158 Y65.03 E.00546
G1 X68.781 Y65.03 E.08519
G1 X68.802 Y65.032 E.00038
G1 X69.917 Y65.227 E.02086
G1 X70.03 Y65.364 E.00328
G1 X70.004 Y66.376 E.01864
G1 X69.92 Y66.495 E.00268
G1 X69.698 Y66.578 E.00436
G1 X69.353 Y66.817 E.00774
G1 X69.104 Y67.098 E.0069
G1 X68.889 Y67.098 E.00397
G1 X68.64 Y66.817 E.0069
G1 X68.294 Y66.578 E.00775
G1 X67.902 Y66.43 E.00774
G1 X67.484 Y66.379 E.00774
G1 X67.067 Y66.43 E.00774
G1 X66.674 Y66.578 E.00774
G1 X66.329 Y66.817 E.00774
G1 X66.05 Y67.132 E.00774
G1 X65.854 Y67.504 E.00774
G1 X65.754 Y67.912 E.00774
G1 X65.754 Y68.332 E.00774
G1 X65.854 Y68.74 E.00774
G1 X66.05 Y69.112 E.00774
G1 X66.329 Y69.427 E.00774
G1 X66.674 Y69.665 E.00774
G1 X67.067 Y69.815 E.00774
G1 X67.484 Y69.865 E.00774
G1 X67.902 Y69.815 E.00775
G1 X68.295 Y69.665 E.00774
G1 X68.64 Y69.427 E.00774
G1 X68.889 Y69.146 E.0069
G1 X69.104 Y69.146 E.00397
G1 X69.353 Y69.427 E.00691
G1 X69.698 Y69.665 E.00774
G1 X69.92 Y69.749 E.00436
G1 X70.004 Y69.868 E.00268
G1 X70.03 Y70.88 E.01864
G1 X69.917 Y71.017 E.00328
G1 X68.802 Y71.212 E.02086
G1 X68.781 Y71.214 E.00038
G1 X64.094 Y71.214 E.08637
G1 X63.204 Y72.261 E.02532
G1 X63.168 Y72.29 E.00084
G1 X61.671 Y73.083 E.03122
G1 X61.628 Y73.097 E.00084
G1 X59.459 Y73.333 E.04018
G1 X59.408 Y73.327 E.00096
G1 X57.322 Y72.624 E.04056
G1 X57.277 Y72.597 E.00096
G1 X55.817 Y71.214 E.03706
G1 X51.218 Y71.214 E.08471
G1 X51.198 Y71.212 E.00038
G1 X50.082 Y71.017 E.02086
G1 X49.97 Y70.88 E.00328
G1 X49.996 Y69.868 E.01864
G1 X50.08 Y69.749 E.00268
G1 X50.302 Y69.665 E.00436
G1 X50.648 Y69.427 E.00774
G1 X50.896 Y69.146 E.0069
G1 X51.071 Y69.146 E.00323
G1 X50.233 Y69.947 F21000
G1 X50.115 Y70.244
G1 X50.099 Y70.494
G1 X50.569 Y72.021
G1 X50.61 Y71.785
G1 F3000
G1 X42.509 Y70.37 E.15151
G1 X42.192 Y70.292 E.00602
G1 X41.896 Y70.173 E.00587
G1 X41.62 Y70.014 E.00587
G1 X41.369 Y69.818 E.00587
G1 X41.148 Y69.589 E.00587
G1 X40.96 Y69.332 E.00587
G1 X40.811 Y69.05 E.00587
G1 X40.702 Y68.751 E.00587
G1 X40.635 Y68.44 E.00587
G1 X40.613 Y68.122 E.00587
G1 X40.635 Y67.804 E.00587
G1 X40.702 Y67.493 E.00587
G1 X40.811 Y67.194 E.00587
G1 X40.96 Y66.912 E.00587
G1 X41.148 Y66.655 E.00587
G1 X41.369 Y66.426 E.00587
G1 X41.62 Y66.23 E.00587
G1 X41.896 Y66.071 E.00587
G1 X42.192 Y65.952 E.00587
G1 X42.509 Y65.874 E.00602
G1 X51.15 Y64.365 E.16161
G1 X56.058 Y64.365 E.09042
G1 X56.142 Y64.332 E.00165
G1 X56.552 Y63.96 E.01021
G1 X56.954 Y63.657 E.00928
G1 X57.374 Y63.398 E.00909
G1 X57.82 Y63.176 E.00918
G1 X58.285 Y62.996 E.00918
G1 X58.764 Y62.86 E.00918
G1 X59.254 Y62.768 E.00918
G1 X59.751 Y62.722 E.00918
G1 X60.254 Y62.723 E.00928
G1 X60.745 Y62.768 E.00909
G1 X61.236 Y62.86 E.00918
G1 X61.715 Y62.996 E.00918
G1 X62.18 Y63.176 E.00918
G1 X62.626 Y63.398 E.00918
G1 X63.05 Y63.66 E.00918
G1 X63.448 Y63.96 E.00918
G1 X63.858 Y64.332 E.01021
G1 X63.942 Y64.365 E.00165
G1 X68.85 Y64.365 E.09042
G1 X77.491 Y65.874 E.16161
G1 X77.808 Y65.952 E.00602
G1 X78.107 Y66.073 E.00593
G1 X78.38 Y66.23 E.0058
G1 X78.631 Y66.426 E.00587
G1 X78.852 Y66.655 E.00587
G1 X79.04 Y66.912 E.00587
G1 X79.189 Y67.194 E.00587
G1 X79.298 Y67.493 E.00587
G1 X79.365 Y67.804 E.00587
G1 X79.387 Y68.122 E.00587
G1 X79.365 Y68.44 E.00587
G1 X79.298 Y68.751 E.00587
G1 X79.189 Y69.05 E.00587
G1 X79.04 Y69.332 E.00587
G1 X78.852 Y69.589 E.00587
G1 X78.631 Y69.818 E.00587
G1 X78.38 Y70.014 E.00587
G1 X78.104 Y70.173 E.00587
G1 X77.808 Y70.292 E.00587
G1 X77.491 Y70.37 E.00602
G1 X68.85 Y71.879 E.16161
G1 X63.942 Y71.879 E.09042
G1 X63.858 Y71.912 E.00165
G1 X63.448 Y72.285 E.01021
G1 X63.05 Y72.584 E.00918
G1 X62.626 Y72.846 E.00918
G1 X62.18 Y73.068 E.00918
G1 X61.715 Y73.248 E.00918
G1 X61.236 Y73.384 E.00918
G1 X60.745 Y73.476 E.00918
G1 X60.249 Y73.522 E.00918
G1 X59.751 Y73.522 E.00918
G1 X59.254 Y73.476 E.00918
