; HEADER_BLOCK_START
; generated by OrcaSlicer 1.7.0-beta on 2023-09-17 at 09:31:46
; total layer number: 306
; HEADER_BLOCK_END

; THUMBNAIL_BLOCK_START
; THUMBNAIL_BLOCK_END

; external perimeters extrusion width = 0.40mm
; perimeters extrusion width = 0.46mm
; infill extrusion width = 0.64mm
; solid infill extrusion width = 0.56mm
; top infill extrusion width = 0.40mm
; support material extrusion width = 0.46mm
; first layer extrusion width = 0.50mm

; EXECUTABLE_BLOCK_START
EXCLUDE_OBJECT_DEFINE NAME=Body3.stl_id_0_copy_0 CENTER=56.1679,53.8778 POLYGON=[[24.3847,59.6063],[24.4041,59.4102],[24.419,59.3462],[24.4613,59.2217],[24.5194,59.1038],[24.5541,59.0479],[24.6791,58.8956],[54.7493,22.3083],[54.8291,22.2131],[55.0373,22.0534],[55.2796,21.953],[55.5398,21.9188],[86.946,21.9188],[87.2061,21.953],[87.4485,22.0534],[87.5615,22.1333],[87.6567,22.2131],[87.8164,22.4213],[87.9167,22.6637],[87.951,22.9238],[87.951,84.8318],[87.9167,85.0919],[87.8164,85.3343],[87.6567,85.5424],[87.5615,85.6223],[87.4485,85.7021],[87.2061,85.8025],[86.946,85.8368],[25.3897,85.8368],[25.1296,85.8025],[24.8872,85.7021],[24.7743,85.6223],[24.6791,85.5424],[24.5993,85.4472],[24.5194,85.3343],[24.419,85.0919],[24.3847,84.8318],[24.3847,59.6063]]
M73 P0 R60
;TYPE:Custom
START_PRINT T_BED=110 T_EXTRUDER=260
G90
G21
M83 ; use relative distances for extrusion
; Filament gcode

    PRESSURE_ADVANCE_SELECT FILAMENT=ABS
M106 S0
;LAYER_CHANGE
;Z:0.1
;HEIGHT:0.1
;BEFORE_LAYER_CHANGE
;0.1
G92 E0

;AFTER_LAYER_CHANGE
;0.1
;_SET_FAN_SPEED_CHANGING_LAYER
SET_VELOCITY_LIMIT ACCEL=500 ACCEL_TO_DECEL=250
G1 E-.5 F3000
G1 Z.2 F21000
G1 X22.347 Y58.504
G1 Z.2
G1 Z.1
G1 E.5 F1800
;TYPE:Skirt
;WIDTH:0.5
G1 F3000
G1 X22.524 Y58.093 E.00826
G1 X22.873 Y57.544 E.01197
G1 X54.831 Y17.734 E.94052
G1 X56.06 Y16.831 E.0281
G1 X57.137 Y16.628 E.02019
G1 X67.397 Y16.661 E.18902
G1 X87.784 Y19.79 E.37998
G1 X88.316 Y19.993 E.01049
G1 X89.889 Y21.581 E.04118
G1 X89.976 Y21.792 E.0042
G1 X90.201 Y22.924 E.02126
G1 X90.201 Y84.832 E1.14054
G1 X90.17 Y85.263 E.00796
G1 X89.976 Y85.986 E.01379
G1 X89.475 Y86.876 E.01881
G1 X88.998 Y87.357 E.01247
G1 X88.572 Y87.65 E.00954
G1 X83.102 Y90.745 E.11579
G1 X81.645 Y91.128 E.02774
G1 X24.813 Y91.128 E1.04702
G1 X23.34 Y90.735 E.0281
G1 X22.258 Y89.66 E.0281
G1 X21.856 Y88.171 E.02841
G1 X22.135 Y59.575 E.52686
G1 X22.34 Y58.544 E.01936
G1 X22.791 Y58.683 F21000
G1 F3000
G1 X22.954 Y58.303 E.0076
G1 X23.246 Y57.844 E.01003
G1 X55.204 Y18.033 E.94052
G1 X56.347 Y17.235 E.02568
G1 X57.137 Y17.106 E.01474
G1 X67.325 Y17.134 E.1877
G1 X87.319 Y20.175 E.37258
M73 P0 R59
G1 X88.129 Y20.433 E.01566
G1 X89.447 Y21.764 E.03452
G1 X89.534 Y21.975 E.0042
G1 X89.723 Y22.924 E.01782
G1 X89.723 Y84.832 E1.14054
G1 X89.533 Y85.805 E.01826
G1 X89.104 Y86.574 E.01624
G1 X88.336 Y87.233 E.01864
G1 X82.866 Y90.328 E.11579
G1 X81.645 Y90.649 E.02325
G1 X24.813 Y90.649 E1.04702
G1 X23.476 Y90.258 E.02568
G1 X22.561 Y89.206 E.02568
G1 X22.335 Y88.171 E.01951
G1 X22.613 Y59.58 E.52676
G1 X22.784 Y58.722 E.01611
; printing object Body3.stl id:0 copy 0
G1 E-.5
EXCLUDE_OBJECT_START NAME=Body3.stl_id_0_copy_0
G1 Z.3 F21000
G1 X24.888 Y85.579 Z.3
G1 Z.1
G1 E.5 F1800
;TYPE:Support
G1 F3000
G2 X25.343 Y85.73 I.754 J-1.511 E.00886
G1 X31.69 Y85.73 E.11693
G1 X31.69 Y88.171 E.04497
G1 X24.813 Y88.171 E.12669
G1 X24.832 Y85.534 E.04858
G1 X31.26 Y86.161 F21000
G1 F3000
G1 X31.26 Y87.74 E.0291
G1 X25.244 Y87.74 E.11082
G1 X25.244 Y86.15 E.02929
G1 X31.26 Y86.161 E.11082
G1 X30.728 Y86.692 F21000
G1 F3000
G1 X30.728 Y87.209 E.00951
G1 X25.776 Y87.209 E.09123
G1 X25.776 Y86.692 E.00951
G1 X30.728 Y86.692 E.09123
G1 E-.5
G1 Z.3 F21000
G1 X81.645 Y88.171 Z.3
G1 Z.1
G1 E.5 F1800
G1 F3000
G1 X71.83 Y88.171 E.18083
G1 X71.83 Y85.73 E.04497
G1 X81.645 Y85.73 E.18083
G1 X81.645 Y88.099 E.04365
G1 X72.261 Y86.161 F21000
G1 F3000
G1 X81.215 Y86.161 E.16496
G1 X81.215 Y87.74 E.0291
G1 X72.261 Y87.74 E.16496
G1 X72.261 Y86.161 E.0291
G1 X72.792 Y86.692 F21000
G1 F3000
G1 X80.683 Y86.692 E.14537
G1 X80.683 Y87.209 E.00951
G1 X72.792 Y87.209 E.14537
G1 X72.792 Y86.692 E.00951
G1 E-.5
G1 Z.3 F21000
G1 X72.597 Y84.53 Z.3
G1 X86.644 Y84.53
G1 X86.644 Y23.226
G1 X67.061 Y23.226
G1 X66.953 Y22.026
G1 Z.1
G1 E.5 F1800
G1 F3000
G1 X57.137 Y22.026 E.18083
G1 X57.137 Y19.585 E.04497
G1 X66.953 Y19.585 E.18083
G1 X66.953 Y21.954 E.04365
G1 X57.568 Y21.595 F21000
G1 F3000
G1 X57.568 Y20.015 E.0291
G1 X66.522 Y20.015 E.16496
G1 X66.522 Y21.595 E.0291
G1 X57.568 Y21.595 E.16496
G1 X58.1 Y21.063 F21000
G1 F3000
G1 X58.1 Y20.547 E.00951
G1 X65.99 Y20.547 E.14537
G1 X65.99 Y21.063 E.00951
G1 X58.1 Y21.063 E.14537
G1 E-.5
G1 Z.3 F21000
G1 X57.765 Y23.226 Z.3
G1 X55.831 Y38.335
G1 X55.768 Y38.668
G1 X55.693 Y38.893
G1 X55.361 Y38.782
G1 Z.1
G1 E.5 F1800
;TYPE:Outer wall
G1 F3000
G1 X55.424 Y38.579 E.00392
G2 X55.492 Y38.107 I-2.06 J-.538 E.0088
G1 X55.492 Y22.876 E.2806
G1 X86.994 Y22.876 E.58038
G1 X86.994 Y84.88 E1.14231
G1 X25.342 Y84.88 E1.13583
G1 X25.342 Y59.558 E.46651
G1 X34.04 Y59.558 E.16025
G2 X35.31 Y59.056 I-.008 J-1.877 E.02576
G1 X35.391 Y58.998 E.00183
G1 X54.932 Y39.458 E.50912
G2 X55.242 Y39.044 I-2.889 J-2.487 E.00953
G2 X55.34 Y38.833 I-1.878 J-1.003 E.00428
G1 X55.346 Y38.819 E.00029
G1 X55.795 Y38.993 F21000
;TYPE:Inner wall
G1 F3000
G1 X55.886 Y38.699 E.00567
G2 X55.97 Y38.148 I-2.571 J-.672 E.01029
G1 X55.97 Y23.354 E.27255
G1 X86.516 Y23.354 E.56274
G1 X86.516 Y84.401 E1.12468
G1 X25.82 Y84.401 E1.1182
G1 X25.82 Y60.037 E.44888
G1 X34.081 Y60.037 E.1522
G2 X35.701 Y59.365 I-.075 J-2.468 E.03303
G1 X55.298 Y39.768 E.51058
G2 X55.659 Y39.28 I-3.005 J-2.6 E.01118
G2 X55.777 Y39.029 I-2.343 J-1.253 E.00512
G1 X56.208 Y39.244 F21000
G1 F3000
G1 X56.231 Y39.197 E.00096
G2 X56.449 Y38.189 I-2.694 J-1.109 E.0191
G1 X56.449 Y23.833 E.26449
G1 X86.037 Y23.833 E.54511
G1 X86.037 Y83.923 E1.10705
G1 X26.299 Y83.923 E1.10057
G1 X26.299 Y60.515 E.43124
G1 X34.123 Y60.515 E.14414
G2 X36.012 Y59.731 I-.123 J-2.964 E.03847
G1 X55.665 Y40.078 E.51205
G2 X56.076 Y39.516 I-2.128 J-1.99 E.01286
G1 X56.191 Y39.28 E.00484
G1 E-.5
G1 Z.3 F21000
G1 X59.374 Y33.796 Z.3
M73 P1 R59
G1 Z.1
G1 E.5 F1800
;TYPE:Outer wall
G1 F3000
G1 X59.244 Y33.481 E.00627
G1 X59.178 Y32.981 E.00929
G1 X59.244 Y32.467 E.00956
G1 X59.44 Y31.993 E.00944
G1 X59.751 Y31.587 E.00943
G1 X60.157 Y31.276 E.00943
G1 X60.63 Y31.08 E.00943
G1 X61.121 Y31.015 E.00913
G1 X71.204 Y31.015 E.18576
G1 X71.695 Y31.08 E.00912
G1 X72.168 Y31.276 E.00943
G1 X72.574 Y31.587 E.00943
G1 X72.886 Y31.993 E.00943
G1 X73.081 Y32.466 E.00943
G1 X73.147 Y32.966 E.00929
G1 X73.082 Y33.481 E.00956
G1 X72.886 Y33.954 E.00944
G1 X72.574 Y34.36 E.00943
G1 X72.174 Y34.667 E.00929
G1 X71.696 Y34.868 E.00956
G1 X71.204 Y34.932 E.00913
G1 X61.121 Y34.932 E.18576
G1 X60.63 Y34.868 E.00913
G1 X60.157 Y34.672 E.00943
G1 X59.751 Y34.36 E.00943
G1 X59.44 Y33.954 E.00943
G1 X59.389 Y33.833 E.00242
G1 X59.006 Y34.157 F21000
;TYPE:Inner wall
G1 F3000
G1 X58.778 Y33.606 E.01099
G1 X58.695 Y32.982 E.01159
G1 X58.777 Y32.343 E.01188
G1 X59.022 Y31.752 E.01178
G1 X59.41 Y31.246 E.01175
G1 X59.916 Y30.858 E.01175
G1 X60.505 Y30.614 E.01175
G1 X61.09 Y30.537 E.01086
G1 X71.235 Y30.537 E.18691
G1 X71.82 Y30.614 E.01086
G1 X72.409 Y30.858 E.01175
G1 X72.915 Y31.246 E.01175
G1 X73.304 Y31.752 E.01175
G1 X73.548 Y32.341 E.01175
G1 X73.63 Y32.965 E.01159
G1 X73.548 Y33.605 E.01188
G1 X73.304 Y34.195 E.01178
G1 X72.915 Y34.701 E.01175
G1 X72.416 Y35.084 E.01159
G1 X71.821 Y35.334 E.01188
G1 X71.235 Y35.411 E.01089
G1 X61.09 Y35.411 E.18691
G1 X60.505 Y35.334 E.01086
G1 X59.916 Y35.09 E.01175
G1 X59.41 Y34.701 E.01175
G1 X59.022 Y34.195 E.01175
G1 X59.021 Y34.194 E.00003
G1 X58.568 Y34.351 F21000
G1 F3000
G1 X58.311 Y33.731 E.01236
G1 X58.213 Y32.983 E.01389
G1 X58.31 Y32.219 E.0142
G1 X58.604 Y31.511 E.01412
G1 X59.069 Y30.905 E.01407
G1 X59.675 Y30.44 E.01407
G1 X60.38 Y30.147 E.01407
G1 X61.059 Y30.058 E.0126
G1 X71.267 Y30.058 E.18807
G1 X71.945 Y30.147 E.0126
G1 X72.651 Y30.44 E.01407
G1 X73.257 Y30.905 E.01407
G1 X73.722 Y31.511 E.01407
G1 X74.014 Y32.217 E.01407
G1 X74.112 Y32.964 E.01389
G1 X74.015 Y33.729 E.0142
G1 X73.722 Y34.437 E.01412
G1 X73.257 Y35.043 E.01407
G1 X72.658 Y35.502 E.01389
G1 X71.947 Y35.8 E.0142
G1 X71.267 Y35.889 E.01265
G1 X61.059 Y35.889 E.18807
G1 X60.38 Y35.8 E.0126
G1 X59.675 Y35.508 E.01407
G1 X59.069 Y35.043 E.01407
G1 X58.604 Y34.437 E.01407
G1 X58.583 Y34.388 E.00097
G1 E-.5
G1 Z.3 F21000
G1 X76.888 Y66.487 Z.3
G1 Z.1
G1 E.5 F1800
;TYPE:Outer wall
G1 F3000
G1 X76.888 Y72.424 E.10937
G2 X71.797 Y72.422 I-2.643 J328.582 E.09379
G1 X51.242 Y72.422 E.3787
G2 X46.151 Y72.424 I-2.448 J328.583 E.09379
G1 X46.151 Y66.487 E.10937
G2 X51.242 Y66.488 I2.644 J-328.571 E.09378
G1 X73.574 Y66.497 E.41143
G1 X76.848 Y66.487 E.06033
G1 X77.366 Y66.007 F21000
;TYPE:Inner wall
G1 F3000
G1 X77.366 Y72.904 E.12706
G2 X71.798 Y72.901 I-2.975 J359.368 E.10258
G1 X51.241 Y72.901 E.37874
G2 X45.673 Y72.904 I-2.594 J359.371 E.10258
G1 X45.673 Y66.007 E.12706
G2 X51.24 Y66.01 I2.976 J-359.376 E.10258
G1 X73.574 Y66.018 E.41146
G1 X77.326 Y66.007 E.06913
G1 X77.845 Y65.527 F21000
G1 F3000
G1 X77.845 Y73.384 E.14474
G2 X71.799 Y73.379 I-3.306 J390.149 E.11138
G1 X51.24 Y73.379 E.37877
G2 X45.194 Y73.384 I-2.74 J390.153 E.11138
G1 X45.194 Y65.527 E.14474
G2 X51.239 Y65.531 I3.307 J-390.195 E.11137
G1 X73.574 Y65.54 E.41149
G1 X77.805 Y65.527 E.07794
G1 E-.5
G1 Z.3 F21000
G1 X71.796 Y62.262 Z.3
G1 Z.1
G1 E.5 F1800
;TYPE:Outer wall
G1 F3000
G1 X71.695 Y62.304 E.00201
G1 X71.209 Y62.368 E.00903
G1 X61.121 Y62.369 E.18585
G1 X60.63 Y62.304 E.00913
G1 X60.157 Y62.108 E.00943
G1 X59.751 Y61.797 E.00943
G1 X59.44 Y61.391 E.00943
G1 X59.244 Y60.918 E.00943
G1 X59.178 Y60.418 E.00929
G1 X59.244 Y59.903 E.00956
G1 X59.44 Y59.43 E.00944
G1 X59.751 Y59.024 E.00943
G1 X60.157 Y58.712 E.00943
G1 X60.63 Y58.516 E.00943
G1 X61.121 Y58.452 E.00913
G1 X71.204 Y58.452 E.18576
G1 X71.695 Y58.516 E.00913
G1 X72.168 Y58.712 E.00942
G1 X72.569 Y59.02 E.00932
G1 X72.886 Y59.43 E.00955
G1 X73.082 Y59.903 E.00943
G1 X73.147 Y60.403 E.00929
G1 X73.082 Y60.917 E.00954
G1 X72.886 Y61.39 E.00944
G1 X72.569 Y61.801 E.00955
G1 X72.168 Y62.109 E.00932
G1 X71.833 Y62.247 E.00667
G1 X71.857 Y62.755 F21000
;TYPE:Inner wall
G1 F3000
G1 X71.82 Y62.771 E.00074
G1 X71.241 Y62.847 E.01077
G1 X61.09 Y62.847 E.18701
G1 X60.505 Y62.77 E.01086
G1 X59.916 Y62.526 E.01175
G1 X59.41 Y62.138 E.01175
G1 X59.022 Y61.632 E.01175
G1 X58.778 Y61.043 E.01175
G1 X58.695 Y60.419 E.01159
G1 X58.777 Y59.779 E.01188
G1 X59.022 Y59.189 E.01178
G1 X59.41 Y58.683 E.01175
G1 X59.916 Y58.294 E.01175
G1 X60.505 Y58.05 E.01175
G1 X61.09 Y57.973 E.01086
G1 X71.235 Y57.973 E.18691
G1 X71.82 Y58.05 E.01087
G1 X72.409 Y58.294 E.01175
G1 X72.91 Y58.678 E.01163
G1 X73.304 Y59.188 E.01187
G1 X73.548 Y59.778 E.01177
G1 X73.63 Y60.402 E.01159
G1 X73.548 Y61.041 E.01186
G1 X73.304 Y61.632 E.01179
G1 X72.91 Y62.142 E.01187
G1 X72.409 Y62.527 E.01163
G1 X71.894 Y62.74 E.01026
G1 X71.854 Y63.249 F21000
G1 F3000
G1 X71.272 Y63.325 E.01082
G1 X61.059 Y63.326 E.18816
G1 X60.38 Y63.237 E.0126
G1 X59.675 Y62.944 E.01407
G1 X59.069 Y62.479 E.01407
G1 X58.604 Y61.873 E.01407
G1 X58.311 Y61.168 E.01407
G1 X58.213 Y60.42 E.01389
G1 X58.31 Y59.655 E.0142
G1 X58.604 Y58.947 E.01412
G1 X59.069 Y58.341 E.01407
G1 X59.675 Y57.876 E.01407
G1 X60.38 Y57.584 E.01407
G1 X61.058 Y57.495 E.0126
G1 X71.267 Y57.495 E.18806
G1 X71.945 Y57.584 E.0126
G1 X72.65 Y57.876 E.01407
G1 X73.251 Y58.337 E.01394
G1 X73.721 Y58.946 E.01419
G1 X74.014 Y59.654 E.0141
G1 X74.112 Y60.401 E.0139
G1 X74.015 Y61.165 E.01418
G1 X73.721 Y61.874 E.01414
G1 X73.251 Y62.484 E.01419
G1 X72.65 Y62.945 E.01394
G1 X71.945 Y63.237 E.01406
G1 X71.894 Y63.243 E.00095
G1 E-.5
G1 Z.3 F21000
G1 X72.818 Y62.051 Z.3
G1 X73.191 Y61.567
G1 X73.423 Y61.008
G1 X84.924 Y23.976
G1 Z.1
G1 E.5 F1800
;TYPE:Bottom surface
;WIDTH:0.500967
G1 F6300
G1 X85.678 Y24.73 E.01969
G1 X85.678 Y25.408 E.01252
G1 X84.461 Y24.192 E.03177
G1 X83.783 Y24.192 E.01252
G1 X85.678 Y26.087 E.04947
G1 X85.678 Y26.765 E.01252
G1 X83.105 Y24.192 E.06718
G1 X82.427 Y24.192 E.01252
G1 X85.678 Y27.443 E.08488
G1 X85.678 Y28.121 E.01252
G1 X81.749 Y24.192 E.10258
G1 X81.071 Y24.192 E.01252
G1 X85.678 Y28.799 E.12029
G1 X85.678 Y29.477 E.01252
G1 X80.393 Y24.192 E.13799
G1 X79.715 Y24.192 E.01252
G1 X85.678 Y30.155 E.15569
G1 X85.678 Y30.833 E.01252
G1 X79.036 Y24.192 E.1734
G1 X78.358 Y24.192 E.01252
G1 X85.678 Y31.512 E.1911
G1 X85.678 Y32.19 E.01252
G1 X77.68 Y24.192 E.20881
G1 X77.002 Y24.192 E.01252
G1 X85.678 Y32.868 E.22651
G1 X85.678 Y33.546 E.01252
G1 X76.324 Y24.192 E.24421
G1 X75.646 Y24.192 E.01252
G1 X85.678 Y34.224 E.26192
G1 X85.678 Y34.902 E.01252
G1 X74.968 Y24.192 E.27962
G1 X74.29 Y24.192 E.01252
G1 X85.678 Y35.58 E.29732
G1 X85.678 Y36.258 E.01252
G1 X73.611 Y24.192 E.31503
G1 X72.933 Y24.192 E.01252
G1 X85.678 Y36.937 E.33273
G1 X85.678 Y37.615 E.01252
G1 X72.255 Y24.192 E.35044
G1 X71.577 Y24.192 E.01252
G1 X85.678 Y38.293 E.36814
G1 X85.678 Y38.971 E.01252
G1 X70.899 Y24.192 E.38584
G1 X70.221 Y24.192 E.01252
G1 X85.678 Y39.649 E.40355
G1 X85.678 Y40.327 E.01252
G1 X69.543 Y24.192 E.42125
G1 X68.865 Y24.192 E.01252
G1 X85.678 Y41.005 E.43895
G1 X85.678 Y41.683 E.01252
G1 X68.186 Y24.192 E.45666
G1 X67.508 Y24.192 E.01252
G1 X85.678 Y42.362 E.47436
G1 X85.678 Y43.04 E.01252
G1 X66.83 Y24.192 E.49207
G1 X66.152 Y24.192 E.01252
G1 X71.716 Y29.755 E.14525
G2 X70.982 Y29.699 I-.58 J2.76 E.01363
G1 X65.474 Y24.192 E.14379
G1 X64.796 Y24.192 E.01252
G1 X70.304 Y29.699 E.14379
G1 X69.625 Y29.699 E.01252
G1 X64.118 Y24.192 E.14379
G1 X63.44 Y24.192 E.01252
G1 X68.947 Y29.699 E.14379
G1 X68.269 Y29.699 E.01252
G1 X62.761 Y24.192 E.14379
G1 X62.083 Y24.192 E.01252
G1 X67.591 Y29.699 E.14379
G1 X66.913 Y29.699 E.01252
G1 X61.405 Y24.192 E.14379
G1 X60.727 Y24.192 E.01252
G1 X66.235 Y29.699 E.14379
G1 X65.557 Y29.699 E.01252
G1 X60.049 Y24.192 E.14379
G1 X59.371 Y24.192 E.01252
G1 X64.879 Y29.699 E.14379
G1 X64.2 Y29.699 E.01252
G1 X58.693 Y24.192 E.14379
G1 X58.015 Y24.192 E.01252
G1 X63.522 Y29.699 E.14379
G1 X62.844 Y29.699 E.01252
G1 X57.336 Y24.192 E.14379
G1 X56.808 Y24.192 E.00976
G1 X56.808 Y24.341 E.00276
G1 X62.166 Y29.699 E.13989
G1 X61.488 Y29.699 E.01252
G1 X56.808 Y25.019 E.12219
G1 X56.808 Y25.697 E.01252
G1 X60.836 Y29.726 E.10517
G1 X60.247 Y29.814 E.011
G1 X56.808 Y26.375 E.08979
G1 X56.808 Y27.053 E.01252
G1 X59.767 Y30.013 E.07727
G2 X59.329 Y30.253 I.228 J.938 E.00933
G1 X56.808 Y27.731 E.06582
G1 X56.808 Y28.41 E.01252
G1 X58.945 Y30.547 E.05581
G1 X58.813 Y30.649 E.00308
G1 X58.62 Y30.9 E.00585
G1 X56.808 Y29.088 E.04732
G1 X56.808 Y29.766 E.01252
G1 X58.325 Y31.284 E.03963
G1 X58.29 Y31.33 E.00107
G1 X58.115 Y31.752 E.00843
G1 X56.808 Y30.444 E.03414
G1 X56.808 Y31.122 E.01252
G1 X57.944 Y32.258 E.02966
G1 X57.867 Y32.86 E.01119
G1 X56.808 Y31.8 E.02766
G1 X56.808 Y32.478 E.01252
G1 X58.224 Y33.894 E.03697
G1 E-.5 F3000
G1 Z.3 F21000
G1 X59.981 Y34.978 Z.3
G1 X60.539 Y35.209
G1 X61.098 Y35.282
G1 X71.227 Y35.282
G1 X71.788 Y35.209
G1 X72.351 Y34.972
G1 X72.824 Y34.61
G1 X73.191 Y34.131
G1 X74.156 Y32.195
G1 Z.1
G1 E.5 F1800
G1 F6300
G1 X85.678 Y43.718 E.30081
G1 X85.678 Y44.396 E.01252
G1 X74.448 Y33.166 E.29318
G1 X74.372 Y33.767 E.01119
G1 X85.678 Y45.074 E.29518
G1 X85.678 Y45.752 E.01252
G1 X74.184 Y34.258 E.30008
G1 X74.035 Y34.618 E.00719
G1 X73.962 Y34.714 E.00223
G1 X85.678 Y46.43 E.30589
G1 X85.678 Y47.108 E.01252
G1 X73.667 Y35.097 E.31357
G3 X73.33 Y35.439 I-.806 J-.458 E.00895
G1 X85.678 Y47.787 E.32237
G1 X85.678 Y48.465 E.01252
G1 X72.947 Y35.733 E.33238
G1 X72.84 Y35.815 E.00248
G1 X72.495 Y35.959 E.0069
G1 X85.678 Y49.143 E.34418
G1 X85.678 Y49.821 E.01252
G1 X72.011 Y36.153 E.35682
G1 X71.412 Y36.232 E.01116
G1 X85.678 Y50.499 E.37246
G1 X85.678 Y51.177 E.01252
G1 X70.749 Y36.248 E.38975
G1 X70.071 Y36.248 E.01252
G1 X85.678 Y51.855 E.40745
M73 P1 R58
G1 X85.678 Y52.533 E.01252
G1 X69.393 Y36.248 E.42515
G1 X68.715 Y36.248 E.01252
G1 X85.678 Y53.212 E.44286
