; HEADER_BLOCK_START
; generated by OrcaSlicer 1.6.4-beta2 on 2023-08-16 at 22:33:23
; total layer number: 126
; HEADER_BLOCK_END

; THUMBNAIL_BLOCK_START
; THUMBNAIL_BLOCK_END

; external perimeters extrusion width = 0.40mm
; perimeters extrusion width = 0.46mm
; infill extrusion width = 0.64mm
; solid infill extrusion width = 0.56mm
; top infill extrusion width = 0.40mm
; first layer extrusion width = 0.50mm

; EXECUTABLE_BLOCK_START
EXCLUDE_OBJECT_DEFINE NAME=Body6.stl_id_0_copy_0 CENTER=60,60 POLYGON=[[30.6168,54.2544],[31.02,53.8512],[88.98,53.8512],[89.3832,54.2544],[89.3832,62.1168],[89.3479,62.6493],[89.3422,62.6906],[89.2426,63.1725],[89.2199,63.2527],[89.069,63.6771],[89.0188,63.7918],[88.8304,64.1545],[88.7431,64.2967],[88.5308,64.5961],[88.3984,64.7572],[88.1756,64.9943],[87.9916,65.164],[87.7708,65.3421],[87.7069,65.3891],[87.6435,65.4338],[87.5311,65.5087],[87.5209,65.5153],[87.4077,65.5849],[87.3022,65.6453],[87.1995,65.7002],[87.1015,65.7491],[87.0262,65.7844],[87.0105,65.7915],[86.9289,65.8273],[86.4871,65.9855],[86.419,66.0048],[85.925,66.1078],[85.8899,66.1127],[85.3512,66.1488],[34.6488,66.1488],[34.075,66.1078],[33.5129,65.9855],[32.9738,65.7844],[32.4689,65.5087],[32.0084,65.164],[31.6016,64.7572],[31.2569,64.2967],[30.9812,63.7918],[30.7801,63.2527],[30.6578,62.6906],[30.6168,62.1168],[30.6168,54.2544]]
M73 P0 R22
;TYPE:Custom
START_PRINT T_BED=105 T_EXTRUDER=260
G90
G21
M83 ; use relative distances for extrusion
; Filament gcode
M106 S0
;LAYER_CHANGE
;Z:0.2
;HEIGHT:0.2
;BEFORE_LAYER_CHANGE
;0.2
G92 E0

;AFTER_LAYER_CHANGE
;0.2
SET_VELOCITY_LIMIT ACCEL=1000 ACCEL_TO_DECEL=500
G1 E-.8 F1800
G1 Z.2 F21000
G1 X28.656 Y52.094
G1 E.8 F1800
;TYPE:Skirt
;WIDTH:0.5
G1 F3000
G1 X30.717 Y51.24 E.07884
G1 X89.283 Y51.24 E2.07008
G1 X91.344 Y52.094 E.07884
G1 X91.444 Y52.194 E.005
G1 X92.297 Y54.254 E.07884
G1 X92.297 Y62.117 E.2779
G1 X92.249 Y62.897 E.02764
G1 X92.068 Y63.87 E.03496
G1 X91.751 Y64.807 E.03496
G1 X91.303 Y65.689 E.03496
G1 X90.735 Y66.498 E.03496
G1 X90.058 Y67.219 E.03496
G1 X89.279 Y67.84 E.03521
G1 X88.422 Y68.342 E.03511
G1 X87.503 Y68.717 E.03508
G1 X86.543 Y68.956 E.03498
G1 X85.351 Y69.063 E.04229
G1 X33.867 Y69.014 E1.81975
G1 X32.875 Y68.827 E.03569
G1 X31.955 Y68.515 E.03432
G1 X30.723 Y67.842 E.04965
G1 X29.948 Y67.225 E.03501
G1 X28.924 Y66.043 E.05526
G1 X28.423 Y65.188 E.03501
G1 X28.05 Y64.271 E.03501
G1 X27.81 Y63.31 E.03501
G1 X27.703 Y62.117 E.04235
G1 X27.703 Y54.254 E.2779
G1 X28.556 Y52.194 E.07884
G1 X28.628 Y52.122 E.00358
G1 X28.951 Y52.445 F21000
G1 F3000
G1 X28.979 Y52.417 E.00141
G1 X30.717 Y51.697 E.06647
G1 X89.283 Y51.697 E2.07008
G1 X91.021 Y52.417 E.06647
G1 X91.121 Y52.517 E.005
G1 X91.84 Y54.254 E.06647
G1 X91.84 Y62.117 E.2779
G1 X91.793 Y62.865 E.02649
G1 X91.621 Y63.773 E.03266
G1 X91.322 Y64.647 E.03266
G1 X90.902 Y65.47 E.03266
G1 X90.369 Y66.225 E.03266
G1 X89.734 Y66.896 E.03266
G1 X89.005 Y67.475 E.03291
G1 X88.203 Y67.941 E.03279
G1 X87.343 Y68.288 E.03277
G1 X86.446 Y68.509 E.03268
G1 X85.351 Y68.606 E.03884
G1 X33.9 Y68.559 E1.8186
G1 X32.973 Y68.381 E.03334
G1 X32.115 Y68.087 E.03206
G1 X30.996 Y67.476 E.04505
G1 X30.271 Y66.901 E.03271
G1 X29.29 Y65.769 E.05295
G1 X28.825 Y64.969 E.03271
G1 X28.478 Y64.111 E.03271
G1 X28.257 Y63.213 E.03271
G1 X28.16 Y62.117 E.03889
G1 X28.16 Y54.254 E.2779
G1 X28.879 Y52.517 E.06647
G1 X28.923 Y52.474 E.00217
; printing object Body6.stl id:0 copy 0
EXCLUDE_OBJECT_START NAME=Body6.stl_id_0_copy_0
G1 E-.8 F1800
G1 Z.4 F21000
G1 X73.49 Y63.037
G1 Z.2
G1 E.8 F1800
;TYPE:Outer wall
G1 F3000
G1 X71.132 Y59.67 E.1453
G1 X77.089 Y55.501 E.25701
G1 X77.951 Y54.951 E.03612
G1 X78.301 Y54.825 E.01314
G1 X78.753 Y55.329 E.02394
G1 X79.063 Y55.725 E.01777
G1 X80.669 Y58.01 E.09872
G1 X73.522 Y63.014 E.30837
G1 E-.8 F1800
G1 Z.4 F21000
G1 X71.829 Y63.928
G1 Z.2
G1 E.8 F1800
;TYPE:Inner wall
G1 F3000
G1 X37.372 Y63.928 E1.21788
G1 X37.316 Y63.728 E.00732
G1 X37.571 Y63.57 E.01062
G1 X38.199 Y62.998 E.03003
G1 X38.711 Y62.321 E.03
G1 X39.089 Y61.561 E.03
G1 X39.321 Y60.744 E.03001
G1 X39.4 Y59.899 E.03
G1 X39.321 Y59.054 E.03
G1 X39.089 Y58.238 E.02998
G1 X38.711 Y57.478 E.03003
G1 X38.199 Y56.801 E.03
G1 X37.733 Y56.376 E.02229
G1 X72.241 Y56.375 E1.21972
G1 X72.302 Y56.567 E.00711
G1 X68.525 Y59.21 E.16291
G1 X71.806 Y63.895 E.20216
G1 E-.8 F1800
G1 Z.4 F21000
G1 X72.707 Y64.385
G1 Z.2
G1 E.8 F1800
G1 F3000
G1 X34.712 Y64.385 E1.34296
G1 X34.329 Y64.357 E.01356
G1 X34.003 Y64.285 E.01181
G1 X33.709 Y64.176 E.0111
G1 X33.567 Y64.098 E.0057
G1 X33.646 Y63.878 E.00828
G1 X34.418 Y64.022 E.02777
G1 X35.182 Y64.022 E.02701
G1 X35.933 Y63.882 E.02701
G1 X36.646 Y63.606 E.02701
G1 X37.295 Y63.204 E.02698
G1 X37.86 Y62.689 E.02703
G1 X38.32 Y62.079 E.027
G1 X38.661 Y61.395 E.02701
G1 X38.87 Y60.66 E.02701
G1 X38.941 Y59.899 E.027
G1 X38.87 Y59.138 E.02701
G1 X38.661 Y58.404 E.02698
G1 X38.32 Y57.719 E.02703
G1 X37.86 Y57.11 E.02701
G1 X37.295 Y56.595 E.02701
G1 X36.646 Y56.193 E.02701
G1 X36.516 Y56.142 E.00493
G1 X36.557 Y55.919 E.00805
G1 X73.692 Y55.918 E1.31254
G1 X73.752 Y56.11 E.00711
G1 X69.162 Y59.322 E.19802
G1 X72.684 Y64.352 E.21704
G1 E-.8 F1800
G1 Z.4 F21000
G1 X80.639 Y60.315
G1 Z.2
G1 E.8 F1800
G1 F3000
G1 X80.679 Y60.744 E.01523
G1 X80.911 Y61.561 E.03
G1 X81.289 Y62.321 E.03
G1 X81.801 Y62.998 E.03
G1 X82.428 Y63.57 E.03
G1 X82.684 Y63.728 E.01065
G1 X82.628 Y63.928 E.00732
G1 X75.815 Y63.928 E.24081
G1 X75.754 Y63.736 E.00711
G1 X80.606 Y60.338 E.20936
G1 E-.8 F1800
G1 Z.4 F21000
G1 X81.103 Y59.433
G1 Z.2
G1 E.8 F1800
G1 F3000
G1 X81.059 Y59.899 E.01656
M73 P1 R22
G1 X81.13 Y60.66 E.02701
G1 X81.339 Y61.395 E.02701
G1 X81.68 Y62.079 E.02701
G1 X82.14 Y62.689 E.02701
G1 X82.705 Y63.203 E.02701
G1 X83.354 Y63.606 E.02701
G1 X84.067 Y63.882 E.02701
G1 X84.818 Y64.022 E.02701
G1 X85.582 Y64.022 E.02701
G1 X86.355 Y63.878 E.02778
G1 X86.433 Y64.098 E.00828
G1 X86.291 Y64.176 E.00571
G1 X85.988 Y64.289 E.01146
G1 X85.673 Y64.357 E.01139
G1 X85.288 Y64.385 E.01363
G1 X74.365 Y64.385 E.38609
G1 X74.304 Y64.193 E.00711
G1 X81.07 Y59.456 E.29192
G1 E-.8 F1800
G1 Z.4 F21000
G1 X73.407 Y63.505
G1 X70.664 Y59.587
G1 X32.381 Y56.548
G1 Z.2
G1 E.8 F1800
G1 F3000
G1 X32.381 Y55.919 E.02224
G1 X33.043 Y55.919 E.02339
G1 X33.084 Y56.142 E.00805
G1 X32.954 Y56.193 E.00493
G1 X32.415 Y56.527 E.02243
G1 E-.8 F1800
G1 Z.4 F21000
G1 X73.254 Y64.37
G1 Z.2
G1 E.8 F1800
G1 F3000
G1 X81.824 Y58.37 E.36977
G1 X81.581 Y59.223 E.03135
G1 X81.519 Y59.899 E.02401
G1 X81.581 Y60.576 E.02401
G1 X81.767 Y61.229 E.02401
G1 X82.07 Y61.837 E.02401
G1 X82.479 Y62.379 E.02401
G1 X82.981 Y62.837 E.02401
G1 X83.559 Y63.195 E.02401
G1 X84.193 Y63.44 E.02401
G1 X84.86 Y63.565 E.02401
G1 X85.54 Y63.565 E.02401
G1 X86.208 Y63.44 E.02401
G1 X86.841 Y63.195 E.02401
G1 X87.419 Y62.837 E.02401
G1 X87.866 Y62.429 E.0214
G1 X88.04 Y62.529 E.00708
G1 X87.963 Y62.882 E.01277
G1 X87.828 Y63.246 E.01371
G1 X87.642 Y63.586 E.0137
G1 X87.41 Y63.897 E.0137
G1 X87.136 Y64.171 E.01369
G1 X86.822 Y64.407 E.01388
G1 X86.482 Y64.592 E.0137
G1 X86.117 Y64.729 E.01377
G1 X85.738 Y64.811 E.0137
G1 X85.305 Y64.842 E.01536
G1 X34.695 Y64.842 E1.78882
G1 X34.263 Y64.811 E.01532
G1 X33.873 Y64.725 E.01412
G1 X33.518 Y64.592 E.01339
G1 X33.177 Y64.406 E.01372
G1 X32.867 Y64.174 E.01373
G1 X32.592 Y63.899 E.01373
G1 X32.359 Y63.588 E.01372
G1 X32.173 Y63.247 E.01373
G1 X32.037 Y62.884 E.01373
G1 X31.96 Y62.529 E.01281
G1 X32.134 Y62.429 E.00708
G1 X32.581 Y62.837 E.02139
G1 X33.159 Y63.195 E.02402
G1 X33.792 Y63.44 E.024
G1 X34.46 Y63.565 E.02401
G1 X35.14 Y63.565 E.02401
G1 X35.807 Y63.44 E.02401
G1 X36.441 Y63.195 E.02402
G1 X37.018 Y62.837 E.02399
G1 X37.521 Y62.379 E.02404
G1 X37.93 Y61.837 E.02401
G1 X38.233 Y61.229 E.02402
G1 X38.419 Y60.576 E.02402
G1 X38.482 Y59.899 E.02401
G1 X38.419 Y59.223 E.02402
G1 X38.233 Y58.57 E.02399
G1 X37.93 Y57.961 E.02404
G1 X37.521 Y57.419 E.02401
G1 X37.019 Y56.961 E.02401
G1 X36.441 Y56.604 E.02401
G1 X35.807 Y56.358 E.02401
G1 X35.14 Y56.233 E.02401
G1 X34.46 Y56.233 E.02401
G1 X33.793 Y56.358 E.02401
G1 X33.159 Y56.604 E.02401
G1 X32.581 Y56.961 E.02401
G1 X31.924 Y57.561 E.03145
G1 X31.924 Y55.461 E.0742
G1 X75.142 Y55.461 E1.52759
G1 X75.203 Y55.653 E.00711
G1 X69.798 Y59.434 E.23313
G1 X73.232 Y64.337 E.21156
G1 E-.8 F1800
G1 Z.4 F21000
G1 X83.485 Y56.142
G1 Z.2
G1 E.8 F1800
G1 F3000
G1 X83.354 Y56.193 E.00494
G1 X82.705 Y56.595 E.02701
G1 X82.14 Y57.11 E.02701
G1 X81.946 Y57.367 E.0114
G1 X80.927 Y55.918 E.0626
G1 X83.443 Y55.918 E.08893
G1 X83.478 Y56.103 E.00664
G1 E-.8 F1800
G1 Z.4 F21000
G1 X86.915 Y56.142
G1 Z.2
G1 E.8 F1800
G1 F3000
G1 X86.957 Y55.918 E.00805
G1 X87.619 Y55.919 E.02339
G1 X87.619 Y56.548 E.02224
G1 X87.046 Y56.193 E.02384
G1 X86.953 Y56.157 E.00352
G1 E-.8 F1800
G1 Z.4 F21000
G1 X85.614 Y56.247
G1 Z.2
G1 E.8 F1800
G1 F3000
G1 X85.54 Y56.233 E.00267
G1 X84.86 Y56.233 E.02401
G1 X84.192 Y56.358 E.02401
G1 X83.559 Y56.604 E.02401
G1 X82.981 Y56.961 E.02401
G1 X82.479 Y57.419 E.02401
G1 X82.07 Y57.961 E.02401
G1 X81.96 Y58.182 E.00873
G1 X80.047 Y55.461 E.11757
G1 X88.076 Y55.461 E.2838
G1 X88.076 Y57.561 E.0742
G1 X87.419 Y56.961 E.03145
G1 X86.841 Y56.604 E.02401
G1 X86.207 Y56.358 E.02401
G1 X85.653 Y56.255 E.01993
G1 E-.8 F1800
G1 Z.4 F21000
G1 X78.225 Y55.13
G1 X31.467 Y55.004
G1 Z.2
G1 E.8 F1800
G1 F3000
G1 X76.594 Y55 E1.59506
G1 X76.657 Y55.193 E.00718
G1 X70.435 Y59.547 E.26841
G1 X73.367 Y63.734 E.18066
G1 X81.366 Y58.132 E.34517
G1 X79.464 Y55.428 E.11687
G1 X79.118 Y54.984 E.0199
G1 X79.842 Y55.004 E.02561
G1 X88.533 Y55.004 E.30718
G1 X88.533 Y59.026 E.14213
G1 X88.297 Y59.058 E.00844
G1 X88.205 Y58.735 E.01188
G1 X87.94 Y58.203 E.02102
G1 X87.581 Y57.728 E.02102
G1 X87.142 Y57.328 E.02102
G1 X86.636 Y57.015 E.02102
G1 X86.082 Y56.8 E.02102
G1 X85.497 Y56.691 E.02102
G1 X84.903 Y56.691 E.02102
G1 X84.318 Y56.8 E.02102
G1 X83.764 Y57.015 E.02102
G1 X83.258 Y57.328 E.02102
G1 X82.819 Y57.728 E.02102
G1 X82.46 Y58.203 E.02102
G1 X82.195 Y58.735 E.02102
G1 X82.032 Y59.307 E.02102
G1 X81.978 Y59.899 E.02102
G1 X82.032 Y60.491 E.02102
G1 X82.195 Y61.063 E.02102
G1 X82.46 Y61.596 E.02102
G1 X82.819 Y62.07 E.02102
G1 X83.258 Y62.471 E.02102
G1 X83.764 Y62.784 E.02102
G1 X84.318 Y62.999 E.02102
G1 X84.903 Y63.108 E.02102
G1 X85.497 Y63.108 E.02102
G1 X86.082 Y62.999 E.02102
G1 X86.636 Y62.784 E.02102
G1 X87.142 Y62.471 E.02102
G1 X87.581 Y62.07 E.02102
G1 X87.94 Y61.596 E.02102
G1 X88.205 Y61.063 E.02102
G1 X88.297 Y60.74 E.01188
G1 X88.533 Y60.773 E.00844
G1 X88.533 Y62.086 E.04643
G1 X88.499 Y62.569 E.01709
G1 X88.403 Y63.011 E.01601
G1 X88.244 Y63.436 E.01601
G1 X88.028 Y63.834 E.01601
G1 X87.756 Y64.197 E.01601
G1 X87.437 Y64.517 E.01601
G1 X87.07 Y64.792 E.0162
G1 X86.672 Y65.009 E.01602
G1 X86.246 Y65.168 E.01608
G1 X85.803 Y65.264 E.01601
G1 X85.321 Y65.299 E.01709
G1 X34.679 Y65.299 E1.78998
G1 X34.197 Y65.264 E.01707
G1 X33.743 Y65.164 E.01644
G1 X33.328 Y65.009 E.01567
G1 X32.93 Y64.792 E.01604
G1 X32.566 Y64.52 E.01604
G1 X32.246 Y64.199 E.01604
G1 X31.974 Y63.836 E.01604
G1 X31.756 Y63.438 E.01604
G1 X31.598 Y63.013 E.01604
G1 X31.501 Y62.569 E.01604
G1 X31.467 Y62.086 E.01711
G1 X31.467 Y60.773 E.04641
G1 X31.703 Y60.74 E.00844
G1 X31.795 Y61.063 E.01187
G1 X32.06 Y61.596 E.02102
G1 X32.418 Y62.07 E.02102
G1 X32.858 Y62.471 E.02102
G1 X33.364 Y62.784 E.02103
G1 X33.918 Y62.999 E.02101
G1 X34.503 Y63.108 E.02102
G1 X35.097 Y63.108 E.02102
G1 X35.682 Y62.999 E.02102
G1 X36.236 Y62.784 E.02102
G1 X36.742 Y62.471 E.021
G1 X37.182 Y62.07 E.02104
G1 X37.54 Y61.596 E.02101
G1 X37.805 Y61.063 E.02102
G1 X37.968 Y60.491 E.02102
G1 X38.023 Y59.899 E.02101
G1 X37.968 Y59.307 E.02102
G1 X37.805 Y58.736 E.021
G1 X37.54 Y58.203 E.02104
G1 X37.181 Y57.728 E.02102
G1 X36.742 Y57.328 E.02102
G1 X36.236 Y57.015 E.02102
G1 X35.682 Y56.8 E.02102
G1 X35.097 Y56.691 E.02102
G1 X34.503 Y56.691 E.02102
G1 X33.918 Y56.8 E.02102
G1 X33.364 Y57.015 E.02102
G1 X32.858 Y57.328 E.02102
G1 X32.418 Y57.729 E.02104
G1 X32.06 Y58.203 E.021
G1 X31.795 Y58.735 E.02101
G1 X31.703 Y59.058 E.01188
G1 X31.467 Y59.025 E.00844
G1 X31.467 Y55.044 E.14071
G1 E-.8 F1800
G1 Z.4 F21000
G1 X78.225 Y55.13
G1 X85.431 Y56.855
G1 X85.431 Y57.191
G1 Z.2
G1 E.8 F1800
;TYPE:Outer wall
G1 F3000
G1 X85.451 Y57.191 E.00072
G1 X85.944 Y57.283 E.01774
G1 X86.413 Y57.464 E.01774
G1 X86.839 Y57.728 E.01774
G1 X87.21 Y58.067 E.01774
G1 X87.513 Y58.467 E.01774
G1 X87.737 Y58.917 E.01774
G1 X87.874 Y59.399 E.01774
G1 X87.92 Y59.899 E.01774
G1 X87.874 Y60.399 E.01774
G1 X87.737 Y60.882 E.01774
G1 X87.513 Y61.331 E.01774
G1 X87.21 Y61.732 E.01774
G1 X86.839 Y62.07 E.01774
G1 X86.413 Y62.334 E.01774
G1 X85.944 Y62.516 E.01774
G1 X85.451 Y62.608 E.01774
G1 X84.949 Y62.608 E.01774
G1 X84.456 Y62.516 E.01774
G1 X83.987 Y62.334 E.01774
G1 X83.561 Y62.07 E.01774
G1 X83.19 Y61.732 E.01774
G1 X82.887 Y61.331 E.01774
G1 X82.663 Y60.882 E.01774
G1 X82.526 Y60.399 E.01774
G1 X82.48 Y59.899 E.01774
G1 X82.526 Y59.399 E.01774
G1 X82.663 Y58.917 E.01774
G1 X82.887 Y58.467 E.01774
G1 X83.19 Y58.067 E.01774
G1 X83.561 Y57.728 E.01774
G1 X83.987 Y57.464 E.01774
G1 X84.456 Y57.283 E.01774
G1 X84.949 Y57.191 E.01774
G1 X85.391 Y57.191 E.01561
G1 E-.8 F1800
G1 Z.4 F21000
G1 X85.391 Y56.855
G1 X78.225 Y55.13
G1 X35.082 Y62.944
G1 X34.518 Y62.944
G1 X33.963 Y62.84
G1 X33.437 Y62.636
G1 X32.957 Y62.339
G1 X32.655 Y61.854
G1 X32.445 Y61.357
G1 X32.26 Y60.87
G1 Z.2
M73 P2 R22
G1 E.8 F1800
G1 F3000
G1 X32.126 Y60.399 E.0173
G1 X32.08 Y59.899 E.01774
G1 X32.126 Y59.4 E.01773
G1 X32.263 Y58.916 E.01776
G1 X32.487 Y58.467 E.01774
G1 X32.789 Y58.067 E.01773
G1 X33.161 Y57.728 E.01776
G1 X33.587 Y57.464 E.01774
G1 X34.056 Y57.283 E.01774
G1 X34.549 Y57.191 E.01774
G1 X35.051 Y57.191 E.01774
G1 X35.544 Y57.283 E.01774
G1 X36.013 Y57.464 E.01774
G1 X36.439 Y57.728 E.01774
G1 X36.81 Y58.067 E.01774
G1 X37.113 Y58.467 E.01774
G1 X37.337 Y58.917 E.01777
G1 X37.474 Y59.399 E.01772
G1 X37.52 Y59.899 E.01775
G1 X37.474 Y60.399 E.01774
G1 X37.337 Y60.882 E.01775
G1 X37.113 Y61.331 E.01775
G1 X36.811 Y61.732 E.01773
G1 X36.439 Y62.07 E.01777
G1 X36.013 Y62.334 E.01772
G1 X35.544 Y62.516 E.01775
G1 X35.051 Y62.608 E.01774
G1 X34.549 Y62.608 E.01774
G1 X34.055 Y62.516 E.01774
G1 X33.588 Y62.334 E.01774
G1 X33.161 Y62.07 E.01775
G1 X32.79 Y61.732 E.01774
G1 X32.487 Y61.331 E.01774
G1 X32.275 Y60.906 E.01678
G1 E-.8 F1800
G1 Z.4 F21000
G1 X30.967 Y54.504
G1 Z.2
G1 E.8 F1800
G1 F3000
G1 X76.381 Y54.504 E1.60521
G1 X77.382 Y54.485 E.03539
G1 X78.358 Y54.42 E.03457
G1 X78.842 Y54.476 E.01724
G1 X79.849 Y54.504 E.03561
G1 X89.033 Y54.504 E.32461
G1 X89.033 Y62.104 E.26863
G1 X88.995 Y62.64 E.01898
G1 X88.884 Y63.152 E.01854
G1 X88.701 Y63.644 E.01854
G1 X88.45 Y64.104 E.01854
G1 X88.136 Y64.524 E.01854
G1 X87.765 Y64.896 E.01853
G1 X87.341 Y65.214 E.01874
G1 X86.88 Y65.465 E.01856
G1 X86.387 Y65.649 E.01861
G1 X85.874 Y65.761 E.01853
G1 X85.339 Y65.799 E.01898
G1 X34.661 Y65.799 E1.79124
G1 X34.125 Y65.76 E.01899
G1 X33.601 Y65.645 E.01896
G1 X33.12 Y65.465 E.01818
G1 X32.659 Y65.214 E.01856
G1 X32.238 Y64.899 E.01856
G1 X31.867 Y64.527 E.01856
G1 X31.552 Y64.107 E.01856
G1 X31.3 Y63.646 E.01856
G1 X31.117 Y63.154 E.01856
G1 X31.005 Y62.641 E.01856
G1 X30.967 Y62.104 E.01901
G1 X30.967 Y54.544 E.26721
G1 E-.8 F1800
G1 Z.4 F21000
G1 X33.288 Y55.988
G1 Z.2
G1 E.8 F1800
;TYPE:Gap infill
;WIDTH:0.506063
G1 F3000
G1 X33.646 Y55.922 E.01304
;WIDTH:0.494268
G1 X33.688 Y55.916 E.00149
;WIDTH:0.449681
G1 X33.929 Y55.893 E.0076
;WIDTH:0.405095
G1 X34.169 Y55.871 E.00677
;WIDTH:0.360508
G1 X34.41 Y55.849 E.00593
;WIDTH:0.369067
G1 X35.161 Y55.847 E.01894
G1 X35.431 Y55.871 E.00683
;WIDTH:0.449685
G1 X35.671 Y55.893 E.0076
;WIDTH:0.494272
G1 X35.912 Y55.916 E.00843
;WIDTH:0.506068
G1 X35.954 Y55.922 E.00153
;WIDTH:0.547197
G1 X36.312 Y55.988 E.0142
G1 E-.8 F1800
G1 Z.4 F21000
G1 X32.05 Y57.792
G1 Z.2
G1 E.8 F1800
;WIDTH:0.10292
G1 F3000
G1 X31.934 Y57.919 E.0008
;WIDTH:0.133664
G1 X31.811 Y58.055 E.00129
;WIDTH:0.163969
G1 X31.695 Y58.208 E.00179
G1 E-.8 F1800
G1 Z.4 F21000
G1 X31.705 Y61.477
G1 Z.2
