; HEADER_BLOCK_START
; generated by OrcaSlicer 1.7.0-beta on 2023-09-17 at 16:38:30
; total layer number: 61
; HEADER_BLOCK_END

; THUMBNAIL_BLOCK_START
; THUMBNAIL_BLOCK_END

; external perimeters extrusion width = 0.40mm
; perimeters extrusion width = 0.46mm
; infill extrusion width = 0.64mm
; solid infill extrusion width = 0.56mm
; top infill extrusion width = 0.40mm
; support material extrusion width = 0.46mm
; first layer extrusion width = 0.50mm

; EXECUTABLE_BLOCK_START
EXCLUDE_OBJECT_DEFINE NAME=Body4.stl_id_0_copy_0 CENTER=60,60 POLYGON=[[40.5289,60],[40.5532,59.6517],[40.626,59.3101],[40.7455,58.9821],[40.9097,58.6738],[41.1151,58.3915],[41.3579,58.1405],[41.6333,57.9258],[41.9359,57.7516],[42.2598,57.6212],[42.5988,57.5373],[59.2275,54.4535],[59.7418,54.4059],[60.2582,54.4059],[60.7723,54.4535],[77.4012,57.5373],[77.7401,57.6212],[78.0641,57.7516],[78.3667,57.9258],[78.6421,58.1405],[78.8849,58.3915],[79.0903,58.6738],[79.2544,58.9821],[79.374,59.3101],[79.4467,59.6517],[79.4711,60],[79.4467,60.3483],[79.374,60.6899],[79.2544,61.0179],[79.0903,61.3262],[78.8849,61.6085],[78.6421,61.8595],[78.3667,62.0742],[78.0641,62.2484],[77.7401,62.3788],[77.4012,62.4627],[60.7723,65.5464],[60.2582,65.5941],[59.7418,65.5941],[59.2275,65.5464],[42.5988,62.4627],[42.2598,62.3788],[41.9359,62.2484],[41.6333,62.0742],[41.3579,61.8595],[41.1151,61.6085],[40.9097,61.3262],[40.7455,61.0179],[40.626,60.6899],[40.5532,60.3483],[40.5289,60]]
M73 P0 R7
;TYPE:Custom
START_PRINT T_BED=110 T_EXTRUDER=260
G90
G21
M83 ; use relative distances for extrusion
; Filament gcode

    PRESSURE_ADVANCE_SELECT FILAMENT=ABS
M106 S0
;LAYER_CHANGE
;Z:0.1
;HEIGHT:0.1
;BEFORE_LAYER_CHANGE
;0.1
G92 E0

;AFTER_LAYER_CHANGE
;0.1
;_SET_FAN_SPEED_CHANGING_LAYER
SET_VELOCITY_LIMIT ACCEL=500 ACCEL_TO_DECEL=250
G1 E-.5 F3000
G1 Z.2 F21000
G1 X38.355 Y62.31
G1 Z.2
G1 Z.1
G1 E.5 F1800
;TYPE:Skirt
;WIDTH:0.5
G1 F3000
G1 X37.964 Y61.24 E.021
G1 X37.819 Y60.206 E.01924
G1 X37.899 Y59.069 E.02099
G1 X38.186 Y58.068 E.01919
G1 X38.503 Y57.411 E.01343
G1 X39.173 Y56.49 E.02099
G1 X39.949 Y55.793 E.01922
G1 X40.936 Y55.224 E.02099
G1 X42.109 Y54.864 E.0226
G1 X58.721 Y51.783 E.31127
G1 X60.262 Y51.689 E.02844
G1 X61.279 Y51.783 E.0188
G1 X77.891 Y54.864 E.31127
G1 X78.77 Y55.106 E.0168
G1 X79.435 Y55.405 E.01342
G1 X80.3 Y55.987 E.01921
G1 X80.827 Y56.49 E.01342
G1 X81.497 Y57.412 E.021
G1 X81.922 Y58.363 E.0192
G1 X82.102 Y59.07 E.01344
G1 X82.181 Y60.207 E.02099
G1 X82.036 Y61.239 E.0192
G1 X81.646 Y62.31 E.021
G1 X81.092 Y63.194 E.01922
G1 X80.3 Y64.013 E.021
G1 X79.435 Y64.595 E.01921
G1 X78.377 Y65.021 E.021
G1 X61.278 Y68.217 E.32047
G1 X60.247 Y68.312 E.01908
G1 X58.721 Y68.217 E.02816
G1 X41.623 Y65.021 E.32046
G1 X40.565 Y64.595 E.02101
G1 X39.7 Y64.013 E.01921
G1 X38.908 Y63.194 E.021
G1 X38.376 Y62.344 E.01847
G1 X38.781 Y62.091 F21000
G1 F3000
G1 X38.777 Y62.086 E.00012
G1 X38.432 Y61.14 E.01854
G1 X38.296 Y60.172 E.018
G1 X38.367 Y59.169 E.01854
G1 X38.636 Y58.231 E.01797
G1 X38.925 Y57.636 E.0122
G1 X39.517 Y56.822 E.01853
G1 X40.243 Y56.17 E.01798
G1 X41.115 Y55.668 E.01853
G1 X42.196 Y55.335 E.02084
G1 X58.809 Y52.254 E.31127
G1 X60.262 Y52.168 E.02681
G1 X61.191 Y52.254 E.0172
G1 X77.804 Y55.335 E.31127
G1 X78.884 Y55.668 E.02084
G1 X79.757 Y56.17 E.01854
G1 X80.483 Y56.822 E.01798
G1 X81.075 Y57.636 E.01855
G1 X81.472 Y58.527 E.01797
G1 X81.633 Y59.17 E.0122
G1 X81.704 Y60.173 E.01854
G1 X81.568 Y61.139 E.01797
G1 X81.223 Y62.085 E.01854
G1 X80.705 Y62.912 E.01799
G1 X80.006 Y63.636 E.01854
G1 X79.196 Y64.181 E.01798
G1 X78.262 Y64.556 E.01855
G1 X61.191 Y67.746 E.31994
G1 X60.247 Y67.833 E.01747
G1 X58.809 Y67.746 E.02655
G1 X41.738 Y64.556 E.31994
M73 P1 R7
G1 X40.804 Y64.181 E.01855
G1 X39.994 Y63.636 E.01798
G1 X39.295 Y62.912 E.01854
G1 X38.802 Y62.125 E.01711
; printing object Body4.stl id:0 copy 0
G1 E-.5
EXCLUDE_OBJECT_START NAME=Body4.stl_id_0_copy_0
G1 Z.3 F21000
G1 X44.717 Y60.161 Z.3
G1 Z.1
G1 E.5 F1800
;TYPE:Support
G1 F3000
G1 X44.717 Y59.839 E.00593
G1 X47.901 Y59.283 E.05955
G1 X48.41 Y60 E.0162
G1 X47.901 Y60.717 E.0162
G1 X44.756 Y60.168 E.05881
G1 X44.674 Y60.639 F21000
G1 F3000
G1 X43.043 Y60.354 E.0305
G3 X43.043 Y59.646 I.002 J-.354 E.02044
G1 X48.218 Y58.742 E.09678
G1 X48.222 Y58.909 E.00308
G1 X48.997 Y60 E.02465
G1 X48.222 Y61.091 E.02465
G1 X48.218 Y61.258 E.00307
G1 X44.714 Y60.646 E.06554
G1 X44.631 Y61.117 F21000
G1 F3000
G1 X42.945 Y60.823 E.03154
G3 X42.945 Y59.177 I.1 J-.823 E.04427
G1 X48.682 Y58.175 E.1073
G1 X48.697 Y58.751 E.01061
G1 X49.287 Y59.583 E.01879
G3 X49.96 Y60 I-.106 J.922 E.01507
G3 X49.287 Y60.418 I-.78 J-.506 E.01508
G1 X48.697 Y61.249 E.01879
G1 X48.682 Y61.825 E.01061
G1 X44.671 Y61.124 E.07502
G1 X44.588 Y61.596 F21000
G1 F3000
G1 X42.846 Y61.291 E.03259
G3 X42.846 Y58.709 I.202 J-1.291 E.06817
G1 X49.146 Y57.608 E.11783
G1 X49.172 Y58.593 E.01814
G1 X49.593 Y59.187 E.01342
G3 X50.599 Y60 I-.435 J1.567 E.02451
G3 X49.593 Y60.813 I-1.442 J-.756 E.02451
G1 X49.171 Y61.407 E.01342
G1 X49.146 Y62.392 E.01814
G1 X44.628 Y61.603 E.0845
G1 X44.545 Y62.074 F21000
G1 F3000
G1 X42.747 Y61.76 E.03363
G3 X42.747 Y58.24 I.305 J-1.76 E.09209
G1 X49.61 Y57.041 E.12835
G1 X49.646 Y58.434 E.02567
G2 X50.407 Y59.061 I1.444 J-.979 E.01841
G1 X50.752 Y59.45 E.00958
G1 X51.398 Y59.451 E.01191
G3 X52.275 Y61.218 I1.134 J.539 E.10347
G3 X51.398 Y60.549 I.481 J-1.541 E.02073
G1 X50.752 Y60.55 E.0119
G3 X49.899 Y61.209 I-1.347 J-.861 E.02026
G1 X49.646 Y61.566 E.00805
G1 X49.61 Y62.959 E.02567
G1 X44.585 Y62.081 E.09398
G1 X51.55 Y60 F21000
G1 F3000
G3 X52.39 Y59.25 I1.409 J.732 E.02121
G3 X52.76 Y59.25 I.185 J.75 E.00688
G3 X52.063 Y60.578 I-.189 J.748 E.05135
M73 P2 R7
G1 X51.577 Y60.03 E.01349
G1 X52.19 Y60 F21000
G1 F3000
G3 X52.645 Y59.718 I.398 J.135 E.01068
G3 X52.382 Y60.217 I-.071 J.281 E.0193
G1 X52.216 Y60.03 E.00461
G1 X51.276 Y61.11 F21000
G1 F3000
G1 X51.771 Y61.531 E.01197
G2 X51.423 Y58.7 I.801 J-1.535 E.13872
G3 X50.967 Y58.972 I-.348 J-.066 E.01105
G2 X50.121 Y58.276 I-10.073 J11.397 E.02019
G1 X50.094 Y57.265 E.01864
G1 X50.207 Y57.127 E.00328
G3 X51.289 Y56.94 I1.621 J6.148 E.02025
G1 X56.105 Y56.94 E.08873
G3 X56.993 Y56.012 I3.274 J2.243 E.02376
G1 X58.443 Y55.253 E.03015
G1 X60.566 Y55.033 E.03933
G1 X62.541 Y55.699 E.03839
G1 X63.805 Y56.761 E.03042
G3 X63.91 Y56.94 I-.414 J.362 E.00384
G1 X68.711 Y56.94 E.08846
G3 X69.793 Y57.127 I-.539 J6.336 E.02025
G1 X69.906 Y57.265 E.00328
G1 X69.879 Y58.276 E.01864
G2 X69.033 Y58.972 I9.275 J12.152 E.02019
G1 X68.817 Y58.972 E.00397
G2 X68.577 Y61.3 I-1.39 J1.033 E.15309
G3 X69.033 Y61.028 I.348 J.066 E.01105
G2 X69.879 Y61.724 I10.153 J-11.497 E.02019
G1 X69.906 Y62.735 E.01864
G1 X69.793 Y62.873 E.00328
G3 X68.711 Y63.06 I-1.621 J-6.15 E.02025
G1 X63.895 Y63.06 E.08873
G3 X63.007 Y63.988 I-3.275 J-2.244 E.02376
G1 X61.557 Y64.747 E.03015
G1 X59.485 Y64.972 E.03839
G1 X57.445 Y64.297 E.0396
G1 X56.123 Y63.06 E.03335
G1 X51.289 Y63.06 E.08907
G3 X50.207 Y62.873 I.539 J-6.336 E.02025
G1 X50.094 Y62.735 E.00328
G1 X50.121 Y61.724 E.01864
G3 X50.727 Y61.3 I1.592 J1.632 E.01368
G3 X51.183 Y61.028 I.348 J.066 E.01105
G1 X51.246 Y61.083 E.00155
G1 X50.358 Y61.803 F21000
G1 X50.239 Y62.1
G1 X50.223 Y62.35
G1 X50.756 Y63.887
G1 X50.797 Y63.652
G1 F3000
G1 X42.648 Y62.228 E.15241
G3 X42.648 Y57.772 I.408 J-2.228 E.116
G1 X51.221 Y56.274 E.16032
G1 X56.09 Y56.274 E.08971
G3 X60.257 Y54.646 I4.061 J4.248 E.08455
G3 X63.91 Y56.274 I-.376 J5.754 E.07524
G1 X68.779 Y56.274 E.08971
G1 X77.352 Y57.772 E.16033
G3 X77.352 Y62.228 I-.408 J2.228 E.116
G1 X68.779 Y63.726 E.16033
G1 X63.91 Y63.726 E.08971
G3 X56.09 Y63.726 I-3.91 J-3.878 E.1602
M73 P3 R7
G1 X51.221 Y63.726 E.08971
G1 X50.837 Y63.659 E.00718
G1 E-.5
G1 Z.3 F21000
G1 X57.675 Y63.872 Z.3
G1 X58.099 Y64.097
G1 X58.108 Y64.101
G1 X58.554 Y64.279
G1 X58.562 Y64.282
G1 X59.025 Y64.41
G1 X59.033 Y64.412
G1 X59.507 Y64.49
G1 X59.516 Y64.491
G1 X59.995 Y64.517
G1 X60.004 Y64.517
G1 X60.484 Y64.491
G1 X60.493 Y64.49
G1 X60.966 Y64.412
G1 X69.664 Y62.653
G1 X69.777 Y62.349
G1 X69.761 Y62.1
G1 X69.642 Y61.803
G1 X68.925 Y61.267
G1 X65.527 Y60.502
G1 X66.712 Y60.405
G1 X67.221 Y60.137
G1 Z.1
G1 E.5 F1800
G1 F3000
G3 X67.153 Y59.897 I.263 J-.204 E.00472
G3 X67.495 Y59.718 I.289 J.136 E.00762
G3 X67.81 Y60 I-.198 J.539 E.00798
G3 X67.248 Y60.167 I-.326 J-.067 E.01323
G1 X66.829 Y60.457 F21000
G1 F3000
G1 X66.708 Y60.272 E.00407
G3 X67.61 Y59.25 I.722 J-.272 E.0308
G3 X67.937 Y59.422 I-.185 J.75 E.00688
G1 X68.449 Y60 E.01423
G3 X67.61 Y60.75 I-1.408 J-.731 E.0212
G3 X66.915 Y60.575 I-.18 J-.75 E.01372
G1 X66.852 Y60.489 E.00197
G1 X71.59 Y60 F21000
G1 F3000
G1 X72.099 Y59.283 E.0162
G1 X75.283 Y59.839 E.05955
G1 X75.283 Y60.161 E.00593
G1 X72.099 Y60.717 E.05955
G1 X71.613 Y60.033 E.01546
G1 X71.223 Y60.309 F21000
G1 F3000
G1 X71.003 Y60 E.00699
G1 X71.778 Y58.909 E.02465
G1 X71.782 Y58.742 E.00308
G1 X76.957 Y59.646 E.09678
G3 X76.957 Y60.354 I-.002 J.354 E.02044
G1 X71.782 Y61.258 E.09677
G1 X71.778 Y61.091 E.00307
G1 X71.246 Y60.342 E.01693
G1 X70.856 Y60.619 F21000
G1 F3000
G1 X70.713 Y60.418 E.00455
G3 X70.04 Y60 I.107 J-.924 E.01508
G3 X70.713 Y59.583 I.78 J.506 E.01507
G1 X71.303 Y58.751 E.01879
G1 X71.318 Y58.175 E.01061
G1 X77.055 Y59.177 E.1073
G3 X77.055 Y60.823 I-.1 J.823 E.04427
G1 X71.318 Y61.825 E.1073
G1 X71.303 Y61.249 E.01061
G1 X70.879 Y60.652 E.0135
G1 X70.489 Y60.928 F21000
G1 F3000
G1 X70.407 Y60.813 E.0026
G3 X69.4 Y60 I.437 J-1.571 E.02452
G3 X70.407 Y59.187 I1.443 J.756 E.02452
G1 X70.828 Y58.593 E.01342
G1 X70.854 Y57.608 E.01814
G1 X77.154 Y58.709 E.11783
G3 X77.154 Y61.291 I-.202 J1.291 E.06817
G1 X70.854 Y62.392 E.11782
G1 X70.829 Y61.407 E.01814
G1 X70.512 Y60.961 E.01008
G1 X70.122 Y61.238 F21000
G1 F3000
G1 X70.071 Y61.242 E.00093
G2 X69.593 Y60.939 I-1.161 J1.301 E.01048
G1 X69.248 Y60.549 E.00959
G1 X68.602 Y60.55 E.0119
G3 X67.725 Y58.782 I-1.133 J-.539 E.10347
G3 X68.602 Y59.45 I-.48 J1.538 E.02073
M73 P4 R7
G1 X69.248 Y59.451 E.01191
G3 X70.101 Y58.791 I1.347 J.861 E.02026
G1 X70.354 Y58.434 E.00805
G1 X70.39 Y57.041 E.02567
G1 X77.253 Y58.24 E.12835
G3 X77.253 Y61.76 I-.305 J1.76 E.09208
G1 X70.39 Y62.959 E.12835
G1 X70.354 Y61.566 E.02567
G1 X70.145 Y61.271 E.00666
G1 E-.5
G1 Z.3 F21000
G1 X69.777 Y62.349 Z.3
G1 X69.664 Y62.653
G1 X68.701 Y62.821
G1 X63.043 Y63.333
G1 X62.773 Y63.016
G1 Z.1
G1 E.5 F1800
;TYPE:Outer wall
G1 F3000
G1 X62.479 Y63.262 E.00706
G3 X60.008 Y55.901 I-2.475 J-3.264 E.28612
G1 X60.443 Y55.924 E.00804
G3 X62.818 Y62.975 I-.439 J4.073 E.17186
G1 X62.803 Y62.989 E.00038
G1 E-.5
G1 Z.3 F21000
G1 X62.982 Y60.3 Z.3
G1 X62.996 Y59.9
G1 X62.957 Y59.501
G1 X62.863 Y59.112
G1 X62.719 Y58.738
G1 X62.527 Y58.387
G1 X62.294 Y58.068
G1 X62.011 Y57.777
G1 X61.696 Y57.529
G1 X61.02 Y57.072
G1 Z.1
G1 E.5 F1800
G1 F3000
G1 X61.398 Y57.233 E.00758
G3 X59.793 Y56.906 I-1.398 J2.766 E.32825
G1 X60.207 Y56.906 E.00763
G3 X60.982 Y57.059 I-.207 J3.093 E.01459
G1 X61.112 Y56.579 F21000
;TYPE:Gap infill
;WIDTH:0.542056
G1 F3000
G1 X61.149 Y56.588 E.00078
G3 X56.404 Y59.863 I-1.151 J3.408 E.3189
G3 X56.448 Y59.418 I4.118 J.178 E.00895
G1 X56.454 Y59.384 E.0007
G3 X60.734 Y56.475 I3.544 J.612 E.11576
G1 X61.073 Y56.568 E.00705
; stop printing object Body4.stl id:0 copy 0
;LAYER_CHANGE
;Z:0.2
;HEIGHT:0.1
;BEFORE_LAYER_CHANGE
;0.2
G92 E0

EXCLUDE_OBJECT_END NAME=Body4.stl_id_0_copy_0
;AFTER_LAYER_CHANGE
;0.2
;_SET_FAN_SPEED_CHANGING_LAYER
SET_VELOCITY_LIMIT ACCEL=6000 ACCEL_TO_DECEL=3000
M140 S110 ; set bed temperature
; printing object Body4.stl id:0 copy 0
SET_VELOCITY_LIMIT ACCEL=7000 ACCEL_TO_DECEL=3500
G1 E-.5 F3000
EXCLUDE_OBJECT_START NAME=Body4.stl_id_0_copy_0
G1 Z.3 F21000
G1 X64.249 Y60.23 Z.3
G1 X62.81 Y63.05
G1 Z.2
G1 E.5 F1800
SET_VELOCITY_LIMIT ACCEL=3000 ACCEL_TO_DECEL=1500
;TYPE:Outer wall
;WIDTH:0.4
G1 F1886
G1 X62.51 Y63.302 E.00571
G3 X59.551 Y55.875 I-2.51 J-3.303 E.22267
G3 X60.449 Y55.875 I.449 J4.344 E.01311
G3 X62.853 Y63.012 I-.449 J4.124 E.13756
G1 X62.84 Y63.023 E.00025
SET_VELOCITY_LIMIT ACCEL=7000 ACCEL_TO_DECEL=3500
G1 X62.545 Y62.739 F21000
SET_VELOCITY_LIMIT ACCEL=5000 ACCEL_TO_DECEL=2500
;TYPE:Inner wall
;WIDTH:0.46
G1 F1886
G1 X62.262 Y62.976 E.00624
G3 X59.594 Y56.282 I-2.262 J-2.977 E.23244
M73 P5 R7
G3 X60.404 Y56.281 I.406 J3.921 E.01371
G3 X62.574 Y62.71 I-.404 J3.717 E.14355
SET_VELOCITY_LIMIT ACCEL=7000 ACCEL_TO_DECEL=3500
G1 E-.5 F3000
G1 Z.4 F21000
G1 X62.925 Y60.294 Z.4
G1 X62.938 Y59.902
G1 X62.9 Y59.511
G1 X62.808 Y59.129
G1 X62.666 Y58.763
G1 X62.478 Y58.418
G1 X62.246 Y58.101
G1 X61.972 Y57.82
G1 X61.663 Y57.577
G1 X61.001 Y57.118
G1 Z.2
G1 E.5 F1800
SET_VELOCITY_LIMIT ACCEL=3000 ACCEL_TO_DECEL=1500
;TYPE:Outer wall
;WIDTH:0.4
G1 F1886
G1 X61.001 Y57.119 E0
G3 X59.796 Y56.956 I-1.001 J2.881 E.26141
G1 X60.204 Y56.956 E.00594
G3 X60.608 Y57.011 I-.204 J3.043 E.00594
G1 X60.962 Y57.108 E.00536
SET_VELOCITY_LIMIT ACCEL=7000 ACCEL_TO_DECEL=3500
G1 X61.16 Y56.742 F21000
SET_VELOCITY_LIMIT ACCEL=5000 ACCEL_TO_DECEL=2500
;TYPE:Inner wall
;WIDTH:0.46
G1 F1886
G1 X61.576 Y56.92 E.00765
G3 X59.769 Y56.548 I-1.576 J3.079 E.3354
G1 X60.231 Y56.548 E.0078
G3 X61.123 Y56.727 I-.231 J3.451 E.0154
; stop printing object Body4.stl id:0 copy 0
;LAYER_CHANGE
;Z:0.3
;HEIGHT:0.1
;BEFORE_LAYER_CHANGE
;0.3
G92 E0

EXCLUDE_OBJECT_END NAME=Body4.stl_id_0_copy_0
;AFTER_LAYER_CHANGE
;0.3
;_SET_FAN_SPEED_CHANGING_LAYER
; printing object Body4.stl id:0 copy 0
SET_VELOCITY_LIMIT ACCEL=7000 ACCEL_TO_DECEL=3500
G1 E-.5 F3000
EXCLUDE_OBJECT_START NAME=Body4.stl_id_0_copy_0
G1 Z.4 F21000
G1 X64.249 Y60.23 Z.4
G1 X62.815 Y63.046
G1 Z.3
G1 E.5 F1800
SET_VELOCITY_LIMIT ACCEL=3000 ACCEL_TO_DECEL=1500
;TYPE:Outer wall
;WIDTH:0.4
G1 F1885
G1 X62.507 Y63.298 E.00579
G3 X59.108 Y55.947 I-2.514 J-3.299 E.21624
G3 X60.028 Y55.852 I1.024 J5.388 E.0135
G3 X62.849 Y63.007 I-.035 J4.147 E.14348
G1 X62.841 Y63.016 E.00017
SET_VELOCITY_LIMIT ACCEL=7000 ACCEL_TO_DECEL=3500
G1 X62.55 Y62.735 F21000
SET_VELOCITY_LIMIT ACCEL=5000 ACCEL_TO_DECEL=2500
;TYPE:Inner wall
;WIDTH:0.46
G1 F1885
G1 X62.261 Y62.974 E.00634
G3 X60 Y56.259 I-2.26 J-2.977 E.23923
G1 X60.404 Y56.281 E.00684
G3 X62.577 Y62.705 I-.404 J3.716 E.14343
SET_VELOCITY_LIMIT ACCEL=7000 ACCEL_TO_DECEL=3500
G1 E-.5 F3000
G1 Z.5 F21000
G1 X62.925 Y60.294 Z.5
G1 X62.938 Y59.902
G1 X62.9 Y59.511
G1 X62.808 Y59.129
G1 X62.666 Y58.763
G1 X62.478 Y58.418
G1 X62.246 Y58.101
G1 X61.972 Y57.82
G1 X61.663 Y57.577
G1 X61 Y57.119
G1 Z.3
G1 E.5 F1800
SET_VELOCITY_LIMIT ACCEL=3000 ACCEL_TO_DECEL=1500
;TYPE:Outer wall
;WIDTH:0.4
G1 F1885
G3 X59.796 Y56.956 I-1.001 J2.878 E.26118
G1 X60.204 Y56.956 E.00594
G3 X60.963 Y57.106 I-.204 J3.04 E.0113
SET_VELOCITY_LIMIT ACCEL=7000 ACCEL_TO_DECEL=3500
G1 X61.158 Y56.741 F21000
SET_VELOCITY_LIMIT ACCEL=5000 ACCEL_TO_DECEL=2500
;TYPE:Inner wall
;WIDTH:0.46
G1 F1885
G1 X61.56 Y56.912 E.00739
G3 X59.769 Y56.548 I-1.56 J3.084 E.33538
M73 P6 R7
G1 X60.231 Y56.548 E.0078
G3 X61.12 Y56.727 I-.231 J3.448 E.01536
; stop printing object Body4.stl id:0 copy 0
M106 S89
;LAYER_CHANGE
;Z:0.4
;HEIGHT:0.1
;BEFORE_LAYER_CHANGE
;0.4
G92 E0

EXCLUDE_OBJECT_END NAME=Body4.stl_id_0_copy_0
;AFTER_LAYER_CHANGE
;0.4
;_SET_FAN_SPEED_CHANGING_LAYER
; printing object Body4.stl id:0 copy 0
SET_VELOCITY_LIMIT ACCEL=7000 ACCEL_TO_DECEL=3500
G1 E-.5 F3000
EXCLUDE_OBJECT_START NAME=Body4.stl_id_0_copy_0
G1 Z.5 F21000
G1 X60.852 Y55.891 Z.5
G1 X60.645 Y55
G1 Z.4
G1 E.5 F1800
SET_VELOCITY_LIMIT ACCEL=6000 ACCEL_TO_DECEL=3000
;TYPE:Support
;HEIGHT:0.3
G1 F6066.435
G1 X62.19 Y55.363 E.07256
G1 X63.87 Y56.64 E.09637
G3 X63.988 Y56.811 I-.386 J.394 E.00956
G1 X68.717 Y56.811 E.21607
G3 X69.863 Y57.008 I-.566 J6.71 E.05319
G3 X70.029 Y57.5 I-.202 J.342 E.02586
G1 X75.045 Y57.5 E.22922
G1 X77.325 Y57.898 E.10574
G3 X79.102 Y60 I-.426 J2.162 E.13581
G1 X65.83 Y60 E.60639
G2 X68.49 Y61.202 I1.63 J-.062 E.16516
G3 X69.36 Y61.202 I.435 J.16 E.0516
G3 X70.008 Y61.681 I-.777 J1.729 E.03708
G1 X70.024 Y62.329 E.02964
SET_VELOCITY_LIMIT ACCEL=7000 ACCEL_TO_DECEL=3500
G1 X73.481 Y62.773 F21000
