; HEADER_BLOCK_START
; generated by OrcaSlicer 1.7.0-beta on 2023-09-16 at 11:18:03
; total layer number: 275
; HEADER_BLOCK_END

; THUMBNAIL_BLOCK_START
; THUMBNAIL_BLOCK_END

; external perimeters extrusion width = 0.40mm
; perimeters extrusion width = 0.46mm
; infill extrusion width = 0.64mm
; solid infill extrusion width = 0.56mm
; top infill extrusion width = 0.40mm
; support material extrusion width = 0.46mm
; first layer extrusion width = 0.50mm

; EXECUTABLE_BLOCK_START
EXCLUDE_OBJECT_DEFINE NAME=Body3.stl_id_0_copy_0 CENTER=56.253,56.8107 POLYGON=[[24.6279,62.5107],[24.6472,62.3156],[24.662,62.2519],[24.7041,62.128],[24.7619,62.0107],[24.7965,61.9552],[24.9209,61.8036],[54.8414,25.3984],[54.9208,25.3036],[55.128,25.1447],[55.3691,25.0448],[55.628,25.0107],[86.878,25.0107],[87.1368,25.0448],[87.378,25.1447],[87.4903,25.2242],[87.5851,25.3036],[87.744,25.5107],[87.8439,25.7519],[87.878,26.0107],[87.878,87.6107],[87.8439,87.8695],[87.744,88.1107],[87.5851,88.3178],[87.4903,88.3973],[87.378,88.4768],[87.1368,88.5767],[86.878,88.6107],[25.6279,88.6107],[25.3691,88.5767],[25.1279,88.4768],[25.0156,88.3973],[24.9209,88.3178],[24.8414,88.2231],[24.7619,88.1107],[24.662,87.8695],[24.6279,87.6107],[24.6279,62.5107]]
M73 P0 R56
;TYPE:Custom
START_PRINT T_BED=110 T_EXTRUDER=260
G90
G21
M83 ; use relative distances for extrusion
; Filament gcode

    PRESSURE_ADVANCE_SELECT FILAMENT=ABS
M106 S0
;LAYER_CHANGE
;Z:0.1
;HEIGHT:0.1
;BEFORE_LAYER_CHANGE
;0.1
G92 E0

;AFTER_LAYER_CHANGE
;0.1
;_SET_FAN_SPEED_CHANGING_LAYER
SET_VELOCITY_LIMIT ACCEL=500 ACCEL_TO_DECEL=250
G1 E-.5 F3000
G1 Z.2 F21000
G1 X43.446 Y35.708
G1 Z.2
G1 Z.1
G1 E.5 F1800
;TYPE:Skirt
;WIDTH:0.5
G1 F3000
G1 X53.127 Y23.929 E.28089
G1 X53.582 Y23.483 E.01174
G1 X54.326 Y23.042 E.01594
G1 X55.197 Y22.788 E.01671
G1 X55.628 Y22.756 E.00796
G1 X86.878 Y22.756 E.57572
G1 X87.716 Y22.878 E.0156
G1 X88.248 Y23.08 E.01049
G1 X89.82 Y24.669 E.04117
G1 X90.132 Y26.011 E.02538
G1 X90.132 Y87.611 E1.13486
G1 X90.101 Y88.042 E.00797
G1 X89.907 Y88.765 E.01379
G1 X89.377 Y89.692 E.01966
G1 X88.898 Y90.162 E.01237
G1 X87.945 Y90.672 E.0199
G1 X86.878 Y90.865 E.01998
G1 X25.628 Y90.865 E1.12842
G1 X24.561 Y90.672 E.01998
G1 X23.575 Y90.135 E.02066
G1 X23.101 Y89.657 E.01242
G1 X22.659 Y88.913 E.01594
G1 X22.405 Y88.042 E.01672
G1 X22.374 Y87.611 E.00796
G1 X22.374 Y62.511 E.46242
G1 X22.586 Y61.409 E.02067
G1 X22.748 Y61.028 E.00764
G1 X23.133 Y60.423 E.01321
G1 X43.421 Y35.739 E.58865
G1 X43.79 Y36.042 F21000
G1 F3000
G1 X53.497 Y24.233 E.28162
G1 X53.884 Y23.855 E.00997
G1 X54.507 Y23.485 E.01336
G1 X55.261 Y23.262 E.01448
G1 X55.628 Y23.235 E.00678
G1 X86.878 Y23.235 E.57572
G1 X87.581 Y23.337 E.01308
G1 X88.06 Y23.521 E.00947
G1 X89.378 Y24.852 E.03451
G1 X89.654 Y26.011 E.02194
G1 X89.654 Y87.611 E1.13486
G1 X89.464 Y88.584 E.01827
G1 X89.006 Y89.39 E.01708
G1 X88.598 Y89.788 E.01049
G1 X87.8 Y90.216 E.01668
G1 X86.878 Y90.387 E.01728
G1 X25.628 Y90.387 E1.12842
G1 X24.706 Y90.216 E.01728
G1 X23.875 Y89.762 E.01744
G1 X23.472 Y89.355 E.01054
G1 X23.102 Y88.732 E.01336
G1 X22.879 Y87.978 E.01449
G1 X22.852 Y87.611 E.00678
G1 X22.852 Y62.511 E.46242
G1 X23.03 Y61.588 E.01732
G1 X23.178 Y61.239 E.00698
G1 X23.503 Y60.727 E.01117
G1 X43.765 Y36.073 E.58791
; printing object Body3.stl id:0 copy 0
G1 E-.5
EXCLUDE_OBJECT_START NAME=Body3.stl_id_0_copy_0
G1 Z.3 F21000
G1 X35.009 Y62.292 Z.3
G1 Z.1
G1 E.5 F1800
;TYPE:Outer wall
G1 F3000
G1 X35.166 Y62.21 E.00326
G2 X35.498 Y61.964 I-.941 J-1.621 E.00763
G1 X35.58 Y61.906 E.00185
G1 X55.023 Y42.463 E.50659
G2 X55.332 Y42.051 I-2.907 J-2.497 E.00948
G2 X55.581 Y41.118 I-1.876 J-1.001 E.01794
G1 X55.581 Y25.963 E.2792
G1 X86.925 Y25.963 E.57747
G1 X86.925 Y87.658 E1.13661
G1 X25.581 Y87.658 E1.13016
G1 X25.581 Y62.463 E.46416
G1 X34.235 Y62.463 E.15945
G2 X34.963 Y62.312 I-.011 J-1.875 E.01379
G1 X34.972 Y62.308 E.00018
G1 X35.121 Y62.764 F21000
;TYPE:Inner wall
G1 F3000
G1 X35.152 Y62.752 E.0006
G2 X35.89 Y62.273 I-.951 J-2.273 E.01631
G1 X55.39 Y42.773 E.50805
G2 X55.749 Y42.287 I-3.024 J-2.61 E.01114
G2 X56.059 Y41.159 I-2.342 J-1.251 E.02173
G1 X56.059 Y26.442 E.27114
G1 X86.447 Y26.442 E.55983
G1 X86.447 Y87.18 E1.11898
G1 X26.059 Y87.18 E1.11253
G1 X26.059 Y62.942 E.44653
G1 X34.277 Y62.942 E.15139
G2 X34.815 Y62.865 I-.076 J-2.463 E.01003
G1 X35.083 Y62.777 E.00522
G1 X35.276 Y63.216 F21000
G1 F3000
G1 X35.34 Y63.192 E.00127
G2 X36.2 Y62.639 I-1.147 J-2.73 E.01893
G1 X55.756 Y43.083 E.50952
G2 X56.538 Y41.201 I-2.126 J-1.986 E.03836
G1 X56.538 Y26.92 E.26309
G1 X85.968 Y26.92 E.5422
G1 X85.968 Y86.701 E1.10134
G1 X26.538 Y86.701 E1.0949
G1 X26.538 Y63.42 E.4289
G1 X34.318 Y63.42 E.14334
G2 X34.927 Y63.331 I-.125 J-2.959 E.01137
G1 X35.238 Y63.228 E.00602
G1 E-.5
G1 Z.3 F21000
G1 X55.382 Y42.766 Z.3
G1 X55.546 Y42.578
G1 X59.236 Y37.402
G1 X59.607 Y37.117
G1 Z.1
G1 E.5 F1800
;TYPE:Outer wall
G1 F3000
G1 X59.507 Y36.987 E.00302
G1 X59.312 Y36.516 E.00939
G1 X59.247 Y36.018 E.00925
G1 X59.312 Y35.506 E.00952
G1 X59.507 Y35.035 E.0094
G1 X59.818 Y34.63 E.00939
G1 X60.222 Y34.32 E.00939
G1 X60.693 Y34.125 E.00939
G1 X61.182 Y34.061 E.00908
G1 X69.214 Y34.061 E.14799
G1 X69.703 Y34.125 E.00908
G1 X70.174 Y34.32 E.00939
G1 X70.578 Y34.63 E.00939
G1 X70.889 Y35.035 E.00939
G1 X71.084 Y35.505 E.00939
G1 X71.149 Y36.003 E.00925
G1 X71.084 Y36.515 E.00952
G1 X70.889 Y36.987 E.0094
G1 X70.578 Y37.391 E.00939
G1 X70.18 Y37.697 E.00925
G1 X69.704 Y37.896 E.00952
G1 X69.214 Y37.961 E.00909
G1 X61.182 Y37.961 E.14799
G1 X60.693 Y37.896 E.00908
G1 X60.222 Y37.701 E.00939
G1 X59.818 Y37.391 E.00939
G1 X59.631 Y37.149 E.00563
G1 X59.114 Y37.261 F21000
;TYPE:Inner wall
G1 F3000
G1 X59.089 Y37.228 E.00076
G1 X58.846 Y36.641 E.01171
G1 X58.764 Y36.019 E.01155
G1 X58.846 Y35.382 E.01184
G1 X59.089 Y34.793 E.01174
G1 X59.476 Y34.289 E.01171
G1 X59.981 Y33.902 E.01171
G1 X60.568 Y33.659 E.01171
G1 X61.15 Y33.582 E.01082
G1 X69.246 Y33.582 E.14914
G1 X69.828 Y33.659 E.01082
G1 X70.415 Y33.902 E.01171
G1 X70.92 Y34.289 E.01171
G1 X71.307 Y34.793 E.01171
G1 X71.55 Y35.381 E.01171
G1 X71.632 Y36.002 E.01155
G1 X71.55 Y36.639 E.01184
G1 X71.307 Y37.228 E.01174
G1 X70.92 Y37.732 E.01171
G1 X70.422 Y38.114 E.01155
G1 X69.83 Y38.362 E.01184
G1 X69.246 Y38.439 E.01085
G1 X61.15 Y38.439 E.14914
G1 X60.568 Y38.363 E.01082
G1 X59.981 Y38.119 E.01171
G1 X59.476 Y37.732 E.01171
G1 X59.139 Y37.293 E.01021
G1 X58.728 Y37.543 F21000
G1 F3000
G1 X58.671 Y37.469 E.00171
G1 X58.38 Y36.766 E.01403
G1 X58.282 Y36.02 E.01385
G1 X58.379 Y35.258 E.01416
G1 X58.671 Y34.552 E.01408
G1 X59.135 Y33.948 E.01403
G1 X59.739 Y33.484 E.01403
G1 X60.443 Y33.193 E.01403
G1 X61.119 Y33.104 E.01256
G1 X69.277 Y33.104 E.1503
G1 X69.953 Y33.193 E.01256
G1 X70.657 Y33.484 E.01403
G1 X71.261 Y33.948 E.01403
G1 X71.725 Y34.552 E.01403
G1 X72.016 Y35.256 E.01403
G1 X72.114 Y36.001 E.01385
G1 X72.017 Y36.763 E.01416
G1 X71.725 Y37.469 E.01408
G1 X71.261 Y38.074 E.01403
G1 X70.664 Y38.531 E.01385
G1 X69.956 Y38.828 E.01416
G1 X69.277 Y38.918 E.01261
G1 X61.119 Y38.918 E.1503
G1 X60.443 Y38.829 E.01256
G1 X59.739 Y38.537 E.01403
G1 X59.135 Y38.074 E.01403
G1 X58.752 Y37.575 E.01159
G1 E-.5
G1 Z.3 F21000
G1 X76.87 Y69.357 Z.3
G1 Z.1
G1 E.5 F1800
;TYPE:Outer wall
G1 F3000
G1 X76.87 Y75.265 E.10884
G2 X71.805 Y75.263 I-2.616 J326.952 E.09333
G1 X51.351 Y75.263 E.37681
G2 X46.286 Y75.265 I-2.45 J326.953 E.09333
G1 X46.286 Y69.357 E.10884
G2 X51.351 Y69.358 I2.617 J-326.973 E.09332
G1 X73.6 Y69.367 E.4099
G1 X76.83 Y69.357 E.05951
M73 P0 R55
G1 X77.349 Y68.877 F21000
;TYPE:Inner wall
G1 F3000
G1 X77.349 Y75.745 E.12653
G2 X71.806 Y75.742 I-2.948 J357.737 E.10213
G1 X51.35 Y75.742 E.37685
G2 X45.807 Y75.745 I-2.596 J357.74 E.10213
G1 X45.807 Y68.877 E.12653
G2 X51.35 Y68.88 I2.949 J-357.778 E.10212
G1 X73.6 Y68.888 E.40993
M73 P1 R55
G1 X77.309 Y68.877 E.06832
G1 X77.827 Y68.397 F21000
G1 F3000
G1 X77.827 Y76.225 E.14421
G2 X71.807 Y76.22 I-3.279 J388.517 E.11092
G1 X51.349 Y76.22 E.37689
G2 X45.328 Y76.225 I-2.742 J388.521 E.11092
G1 X45.328 Y68.397 E.14421
G2 X51.349 Y68.401 I3.28 J-388.597 E.11091
G1 X73.601 Y68.409 E.40996
G1 X77.787 Y68.397 E.07713
G1 E-.5
G1 Z.3 F21000
G1 X60.571 Y65.652 Z.3
G1 X59.986 Y65.41
G1 X59.484 Y65.025
G1 X59.099 Y64.523
G1 X59.006 Y64.3
G1 X59.439 Y64.121
G1 Z.1
G1 E.5 F1800
;TYPE:Outer wall
G1 F3000
G1 X59.312 Y63.816 E.00608
G1 X59.247 Y63.318 E.00925
G1 X59.312 Y62.806 E.00952
G1 X59.507 Y62.335 E.0094
G1 X59.818 Y61.93 E.00939
G1 X60.222 Y61.62 E.00939
G1 X60.693 Y61.425 E.00939
G1 X61.182 Y61.361 E.00908
G1 X69.214 Y61.361 E.14799
G1 X69.703 Y61.425 E.00908
G1 X70.174 Y61.62 E.00939
G1 X70.578 Y61.93 E.00939
G1 X70.889 Y62.335 E.00939
G1 X71.084 Y62.805 E.00939
G1 X71.149 Y63.303 E.00925
G1 X71.084 Y63.815 E.00952
G1 X70.889 Y64.287 E.0094
G1 X70.578 Y64.691 E.00939
G1 X70.18 Y64.997 E.00925
G1 X69.704 Y65.196 E.00952
G1 X69.214 Y65.261 E.00909
G1 X61.182 Y65.261 E.14799
G1 X60.693 Y65.196 E.00908
G1 X60.222 Y65.001 E.00939
G1 X59.818 Y64.691 E.00939
G1 X59.507 Y64.287 E.00939
G1 X59.454 Y64.158 E.00257
G1 X59.114 Y64.561 F21000
;TYPE:Inner wall
G1 F3000
G1 X59.089 Y64.528 E.00076
G1 X58.846 Y63.941 E.01171
G1 X58.764 Y63.319 E.01155
G1 X58.846 Y62.682 E.01184
G1 X59.089 Y62.093 E.01174
G1 X59.476 Y61.589 E.01171
G1 X59.981 Y61.202 E.01171
G1 X60.568 Y60.959 E.01171
G1 X61.15 Y60.882 E.01082
G1 X69.246 Y60.882 E.14914
G1 X69.828 Y60.959 E.01082
G1 X70.415 Y61.202 E.01171
G1 X70.92 Y61.589 E.01171
G1 X71.307 Y62.093 E.01171
G1 X71.55 Y62.681 E.01171
G1 X71.632 Y63.302 E.01155
G1 X71.55 Y63.939 E.01184
G1 X71.307 Y64.528 E.01174
G1 X70.92 Y65.032 E.01171
G1 X70.422 Y65.414 E.01155
G1 X69.83 Y65.662 E.01184
G1 X69.246 Y65.739 E.01085
G1 X61.15 Y65.739 E.14914
G1 X60.568 Y65.663 E.01082
G1 X59.981 Y65.419 E.01171
G1 X59.476 Y65.032 E.01171
G1 X59.139 Y64.592 E.01022
G1 X58.728 Y64.843 F21000
G1 F3000
G1 X58.671 Y64.769 E.0017
G1 X58.38 Y64.066 E.01403
G1 X58.282 Y63.32 E.01385
G1 X58.379 Y62.558 E.01416
G1 X58.671 Y61.852 E.01408
G1 X59.135 Y61.248 E.01403
G1 X59.739 Y60.784 E.01403
G1 X60.443 Y60.493 E.01403
G1 X61.119 Y60.404 E.01256
G1 X69.277 Y60.404 E.1503
G1 X69.953 Y60.493 E.01256
G1 X70.657 Y60.784 E.01403
G1 X71.261 Y61.248 E.01403
G1 X71.725 Y61.852 E.01403
G1 X72.016 Y62.556 E.01403
G1 X72.114 Y63.301 E.01385
G1 X72.017 Y64.063 E.01416
G1 X71.725 Y64.769 E.01408
G1 X71.261 Y65.374 E.01403
G1 X70.664 Y65.831 E.01385
G1 X69.956 Y66.128 E.01416
G1 X69.277 Y66.218 E.01261
G1 X61.119 Y66.218 E.1503
G1 X60.443 Y66.129 E.01256
G1 X59.739 Y65.837 E.01403
G1 X59.135 Y65.374 E.01403
G1 X58.752 Y64.875 E.01159
G1 E-.5
G1 Z.3 F21000
G1 X58.775 Y63.319 Z.3
G1 X58.856 Y62.685
G1 X59.099 Y62.099
G1 X84.855 Y27.064
G1 Z.1
G1 E.5 F1800
;TYPE:Bottom surface
;WIDTH:0.501211
G1 F6300
G1 X85.609 Y27.819 E.01971
G1 X85.609 Y28.497 E.01253
G1 X84.392 Y27.279 E.03181
G1 X83.713 Y27.279 E.01253
G1 X85.609 Y29.176 E.04953
G1 X85.609 Y29.854 E.01253
G1 X83.035 Y27.279 E.06725
G1 X82.356 Y27.279 E.01253
G1 X85.609 Y30.532 E.08497
G1 X85.609 Y31.211 E.01253
G1 X81.678 Y27.279 E.10269
G1 X80.999 Y27.279 E.01253
G1 X85.609 Y31.889 E.12042
G1 X85.609 Y32.568 E.01253
G1 X80.321 Y27.279 E.13814
G1 X79.642 Y27.279 E.01253
G1 X85.609 Y33.246 E.15586
G1 X85.609 Y33.925 E.01253
G1 X78.964 Y27.279 E.17358
G1 X78.285 Y27.279 E.01253
G1 X85.609 Y34.603 E.1913
G1 X85.609 Y35.282 E.01253
G1 X77.607 Y27.279 E.20902
G1 X76.928 Y27.279 E.01253
G1 X85.609 Y35.96 E.22675
G1 X85.609 Y36.639 E.01253
G1 X76.25 Y27.279 E.24447
G1 X75.571 Y27.279 E.01253
G1 X85.609 Y37.317 E.26219
G1 X85.609 Y37.996 E.01253
G1 X74.893 Y27.279 E.27991
G1 X74.215 Y27.279 E.01253
G1 X85.609 Y38.674 E.29763
G1 X85.609 Y39.353 E.01253
G1 X73.536 Y27.279 E.31535
G1 X72.858 Y27.279 E.01253
G1 X85.609 Y40.031 E.33308
G1 X85.609 Y40.71 E.01253
G1 X72.179 Y27.279 E.3508
G1 X71.501 Y27.279 E.01253
G1 X85.609 Y41.388 E.36852
G1 X85.609 Y42.066 E.01253
G1 X70.822 Y27.279 E.38624
G1 X70.144 Y27.279 E.01253
G1 X85.609 Y42.745 E.40396
G1 X85.609 Y43.423 E.01253
G1 X69.465 Y27.279 E.42169
G1 X68.787 Y27.279 E.01253
G1 X85.609 Y44.102 E.43941
G1 X85.609 Y44.78 E.01253
G1 X68.108 Y27.279 E.45713
G1 X67.43 Y27.279 E.01253
G1 X85.609 Y45.459 E.47485
G1 X85.609 Y46.137 E.01253
G1 X66.751 Y27.279 E.49257
G1 X66.073 Y27.279 E.01253
G1 X85.609 Y46.816 E.51029
G1 X85.609 Y47.494 E.01253
G1 X65.394 Y27.279 E.52802
G1 X64.716 Y27.279 E.01253
G1 X70.444 Y33.008 E.14962
G1 X70.838 Y33.171 E.00787
G1 X71.517 Y33.692 E.01581
G1 X72.038 Y34.371 E.01581
G1 X72.201 Y34.764 E.00787
G1 X85.609 Y48.173 E.35023
G1 X85.609 Y48.851 E.01253
G1 X72.433 Y35.675 E.34416
G3 X72.431 Y36.352 I-1.285 J.335 E.01263
G1 X85.609 Y49.53 E.34421
G1 X85.609 Y50.208 E.01253
G1 X72.335 Y36.934 E.34673
G1 X72.136 Y37.414 E.00959
G1 X85.609 Y50.887 E.35192
G1 X85.609 Y51.565 E.01253
G1 X71.889 Y37.845 E.35838
G1 X71.594 Y38.229 E.00894
G1 X85.609 Y52.244 E.36607
G1 X85.609 Y52.922 E.01253
G1 X71.234 Y38.547 E.37549
G1 X70.85 Y38.841 E.00894
G1 X85.609 Y53.6 E.38551
G1 X85.609 Y54.279 E.01253
G1 X70.373 Y39.043 E.39797
G1 X70.05 Y39.178 E.00647
G1 X69.856 Y39.204 E.00362
G1 X85.609 Y54.957 E.41149
G1 X85.609 Y55.636 E.01253
G1 X69.25 Y39.277 E.4273
G1 X68.572 Y39.277 E.01253
G1 X85.609 Y56.314 E.44503
G1 X85.609 Y56.993 E.01253
G1 X67.893 Y39.277 E.46275
G1 X67.215 Y39.277 E.01253
G1 X85.609 Y57.671 E.48047
G1 X85.609 Y58.35 E.01253
G1 X66.536 Y39.277 E.49819
G1 X65.858 Y39.277 E.01253
G1 X85.609 Y59.028 E.51591
G1 X85.609 Y59.707 E.01253
G1 X65.179 Y39.277 E.53364
G1 X64.501 Y39.277 E.01253
G1 X85.609 Y60.385 E.55136
G1 X85.609 Y61.064 E.01253
G1 X63.822 Y39.277 E.56908
G1 X63.144 Y39.277 E.01253
G1 X85.609 Y61.742 E.5868
G1 X85.609 Y62.421 E.01253
G1 X62.465 Y39.277 E.60452
G1 X61.787 Y39.277 E.01253
G1 X85.609 Y63.099 E.62224
G1 X85.609 Y63.778 E.01253
G1 X60.86 Y39.029 E.64645
G1 E-.5 F3000
G1 Z.3 F21000
G1 X69.245 Y38.429 Z.3
G1 X69.827 Y38.352
G1 X70.417 Y38.105
G1 X70.912 Y37.725
G1 X71.297 Y37.223
G1 X71.54 Y36.637
G1 X71.621 Y36.002
G1 X71.539 Y35.383
G1 X71.297 Y34.799
G1 X70.912 Y34.297
G1 X69.784 Y33.026
G1 Z.1
G1 E.5 F1800
G1 F6300
G1 X64.037 Y27.279 E.15009
G1 X63.359 Y27.279 E.01253
G1 X68.824 Y32.745 E.14276
G1 X68.146 Y32.745 E.01253
G1 X62.681 Y27.279 E.14276
G1 X62.002 Y27.279 E.01253
G1 X67.467 Y32.745 E.14276
G1 X66.789 Y32.745 E.01253
G1 X61.324 Y27.279 E.14276
G1 X60.645 Y27.279 E.01253
G1 X66.111 Y32.745 E.14276
G1 X65.432 Y32.745 E.01253
G1 X59.967 Y27.279 E.14276
G1 X59.288 Y27.279 E.01253
G1 X64.754 Y32.745 E.14276
G1 X64.075 Y32.745 E.01253
G1 X58.61 Y27.279 E.14276
G1 X57.931 Y27.279 E.01253
G1 X63.397 Y32.745 E.14276
G1 X62.718 Y32.745 E.01253
G1 X57.253 Y27.279 E.14276
G1 X56.897 Y27.279 E.00658
G1 X56.897 Y27.602 E.00595
G1 X62.04 Y32.745 E.13434
G1 X61.361 Y32.745 E.01253
G1 X56.897 Y28.28 E.11662
G1 X56.897 Y28.959 E.01253
G1 X60.731 Y32.793 E.10015
G1 X60.349 Y32.843 E.00711
G1 X60.175 Y32.915 E.00349
G1 X56.897 Y29.637 E.08563
G1 X56.897 Y30.316 E.01253
G1 X59.695 Y33.114 E.07309
G1 X59.558 Y33.171 E.00274
G1 X59.284 Y33.381 E.00639
G1 X56.897 Y30.994 E.06235
G1 X56.897 Y31.672 E.01253
G1 X58.9 Y33.676 E.05233
G1 X58.6 Y34.055 E.00892
G1 X56.897 Y32.351 E.0445
G1 X56.897 Y33.029 E.01253
G1 X58.323 Y34.456 E.03725
G1 X58.124 Y34.935 E.00959
G1 X56.897 Y33.708 E.03206
G1 X56.897 Y34.386 E.01253
G1 X57.989 Y35.479 E.02853
G1 X57.92 Y36.021 E.0101
G1 X57.93 Y36.098 E.00144
G1 X56.897 Y35.065 E.02699
G1 X56.897 Y35.743 E.01253
G1 X58.043 Y36.889 E.02993
G1 X58.358 Y37.65 E.01522
G1 X58.879 Y38.33 E.01581
G1 X59.558 Y38.851 E.01581
G1 X60.319 Y39.166 E.01522
G1 X85.609 Y64.456 E.66058
G1 X85.609 Y65.134 E.01253
G1 X56.897 Y36.422 E.74998
G1 X56.897 Y37.1 E.01253
G1 X85.609 Y65.813 E.74998
G1 X85.609 Y66.491 E.01253
G1 X56.897 Y37.779 E.74998
G1 X56.897 Y38.457 E.01253
G1 X85.609 Y67.17 E.74998
G1 X85.609 Y67.848 E.01253
G1 X56.897 Y39.136 E.74998
M73 P2 R55
G1 X56.897 Y39.814 E.01253
G1 X85.609 Y68.527 E.74998
G1 X85.609 Y69.205 E.01253
G1 X56.897 Y40.493 E.74998
G1 X56.897 Y41.171 E.01253
G1 X85.609 Y69.884 E.74998
