; HEADER_BLOCK_START
; generated by OrcaSlicer 1.6.6 on 2023-08-31 at 22:07:46
; total layer number: 47
; HEADER_BLOCK_END

; THUMBNAIL_BLOCK_START
; THUMBNAIL_BLOCK_END

; external perimeters extrusion width = 0.15mm
; perimeters extrusion width = 0.17mm
; infill extrusion width = 0.24mm
; solid infill extrusion width = 0.21mm
; top infill extrusion width = 0.15mm
; first layer extrusion width = 0.19mm

; external perimeters extrusion width = 0.15mm
; perimeters extrusion width = 0.17mm
; infill extrusion width = 0.24mm
; solid infill extrusion width = 0.21mm
; top infill extrusion width = 0.15mm
; first layer extrusion width = 0.19mm

; external perimeters extrusion width = 0.15mm
; perimeters extrusion width = 0.17mm
; infill extrusion width = 0.24mm
; solid infill extrusion width = 0.21mm
; top infill extrusion width = 0.15mm
; first layer extrusion width = 0.19mm

; external perimeters extrusion width = 0.15mm
; perimeters extrusion width = 0.17mm
; infill extrusion width = 0.24mm
; solid infill extrusion width = 0.21mm
; top infill extrusion width = 0.15mm
; first layer extrusion width = 0.19mm

; EXECUTABLE_BLOCK_START
EXCLUDE_OBJECT_DEFINE NAME=Body1_id_0_copy_0 CENTER=81.5635,67.2567 POLYGON=[[59.9227,87.2691],[60.0168,85.8333],[62.9707,51.1742],[62.99,50.954],[63.0473,50.7404],[63.1408,50.5401],[63.2678,50.359],[63.4243,50.2027],[63.6057,50.0759],[63.8063,49.9825],[73.0942,45.8691],[96.9848,52.6923],[97.7323,52.9315],[98.4542,53.2393],[99.1442,53.6132],[99.7964,54.0497],[100.405,54.5452],[100.965,55.0953],[101.471,55.6952],[101.918,56.3397],[102.304,57.0232],[102.624,57.7397],[102.876,58.4829],[103.058,59.2463],[103.168,60.0234],[103.204,60.8074],[103.118,61.8876],[103.111,61.9463],[102.971,62.9612],[102.951,63.0777],[102.764,64.0249],[102.724,64.1977],[102.497,65.0753],[102.431,65.3023],[102.349,65.5725],[102.262,65.8414],[102.172,66.1091],[102.161,66.1402],[102.151,66.1712],[102.14,66.2023],[102.132,66.2239],[102.128,66.2359],[102.116,66.2695],[102.104,66.3031],[102.091,66.3383],[102.091,66.3404],[102.077,66.3776],[102.064,66.4147],[102.05,66.4526],[102.02,66.5328],[102.009,66.5618],[101.976,66.6505],[101.968,66.6708],[101.931,66.7679],[101.927,66.7796],[101.889,66.8745],[101.885,66.8848],[101.847,66.9808],[101.844,66.9897],[101.804,67.0869],[101.801,67.0944],[101.764,67.1845],[101.759,67.1968],[101.724,67.2819],[101.717,67.299],[101.683,67.3791],[101.673,67.4009],[101.644,67.4697],[101.63,67.5017],[101.604,67.5601],[101.586,67.6022],[101.565,67.6503],[101.541,67.7025],[101.531,67.7246],[101.526,67.7355],[101.521,67.7468],[101.511,67.7689],[101.501,67.7913],[101.491,67.8138],[101.488,67.8205],[101.481,67.8362],[101.47,67.8592],[101.46,67.8823],[101.449,67.9053],[101.438,67.9295],[101.426,67.9536],[101.415,67.9777],[101.411,67.9864],[101.403,68.0035],[101.391,68.0292],[101.379,68.0549],[101.373,68.0674],[101.366,68.0828],[101.352,68.1108],[101.339,68.1387],[101.335,68.1481],[101.324,68.1697],[101.309,68.2007],[101.297,68.2263],[101.294,68.2317],[101.277,68.2669],[101.26,68.3022],[101.259,68.3043],[101.243,68.3374],[101.222,68.3786],[101.22,68.3822],[101.202,68.4198],[101.182,68.4585],[101.172,68.4801],[101.162,68.4993],[101.152,68.5184],[101.144,68.5346],[101.136,68.5511],[101.127,68.5675],[101.12,68.5818],[101.113,68.5962],[101.105,68.6105],[63.6947,88.5354],[63.5497,88.5954],[63.3971,88.6321],[63.2407,88.6444],[60.9227,88.6444],[60.7663,88.6321],[60.6137,88.5954],[60.4687,88.5354],[60.3349,88.4534],[60.2156,88.3515],[60.1137,88.2322],[60.0317,88.0984],[59.9716,87.9534],[59.935,87.8008],[59.9227,87.6444],[59.9227,87.2691]]
EXCLUDE_OBJECT_DEFINE NAME=Body1_id_1_copy_0 CENTER=66.4337,32.1004 POLYGON=[[44.7929,52.1127],[44.887,50.6769],[47.8409,16.0178],[47.8602,15.7976],[47.9175,15.584],[48.0111,15.3837],[48.138,15.2026],[48.2946,15.0463],[48.4759,14.9195],[48.6765,14.8261],[57.9645,10.7127],[81.855,17.5359],[82.6025,17.7751],[83.3244,18.0829],[84.0144,18.4568],[84.6666,18.8933],[85.2752,19.3888],[85.8349,19.9389],[86.3408,20.5388],[86.7886,21.1833],[87.1743,21.8668],[87.4946,22.5833],[87.7466,23.3265],[87.9283,24.0899],[88.0379,24.867],[88.0745,25.651],[87.9879,26.7312],[87.9814,26.7899],[87.8408,27.8048],[87.8212,27.9213],[87.6338,28.8685],[87.5942,29.0413],[87.3673,29.9189],[87.3014,30.1459],[87.219,30.4161],[87.1326,30.6851],[87.0424,30.9527],[87.0316,30.9838],[87.0208,31.0148],[87.0099,31.0459],[87.0023,31.0675],[86.9981,31.0795],[86.9861,31.1131],[86.9742,31.1467],[86.9616,31.1819],[86.9608,31.184],[86.9474,31.2212],[86.9339,31.2584],[86.9201,31.2962],[86.8905,31.3764],[86.8796,31.4054],[86.8463,31.4941],[86.8385,31.5144],[86.8013,31.6115],[86.7968,31.6232],[86.7597,31.7181],[86.7557,31.7284],[86.7175,31.8244],[86.7139,31.8333],[86.6747,31.9305],[86.6716,31.938],[86.6346,32.0282],[86.6295,32.0404],[86.594,32.1255],[86.5868,32.1426],[86.5529,32.2227],[86.5436,32.2445],[86.5139,32.3133],[86.5001,32.3453],[86.4746,32.4037],[86.4561,32.4458],[86.4347,32.4939],[86.4114,32.5461],[86.4015,32.5682],[86.3966,32.5791],[86.3915,32.5904],[86.3815,32.6125],[86.3713,32.6349],[86.3611,32.6574],[86.358,32.6641],[86.3509,32.6798],[86.3403,32.7028],[86.3297,32.7259],[86.3191,32.7489],[86.3079,32.7731],[86.2967,32.7972],[86.2854,32.8213],[86.2814,32.83],[86.2734,32.8471],[86.2613,32.8728],[86.2492,32.8985],[86.2433,32.911],[86.236,32.9264],[86.2227,32.9544],[86.2093,32.9823],[86.2048,32.9917],[86.1945,33.0133],[86.1795,33.0443],[86.1671,33.0699],[86.1645,33.0753],[86.1474,33.1105],[86.1302,33.1458],[86.1291,33.1479],[86.1128,33.181],[86.0925,33.2222],[86.0907,33.2258],[86.072,33.2634],[86.0527,33.3021],[86.0418,33.3237],[86.0322,33.3429],[86.0225,33.362],[86.0143,33.3782],[86.0059,33.3947],[85.9976,33.4111],[85.9903,33.4254],[85.9829,33.4398],[85.9756,33.4541],[48.5649,53.379],[48.4199,53.439],[48.2673,53.4757],[48.1109,53.488],[45.7929,53.488],[45.6365,53.4757],[45.4839,53.439],[45.3389,53.379],[45.2051,53.297],[45.0858,53.1951],[44.9839,53.0758],[44.9019,52.942],[44.8419,52.797],[44.8052,52.6444],[44.7929,52.488],[44.7929,52.1127]]
EXCLUDE_OBJECT_DEFINE NAME=Pegboard_hook_v1(1).stl_id_2_copy_0 CENTER=36.1633,69.3099 POLYGON=[[24.9239,57.0535],[24.9279,56.9096],[24.9428,56.7663],[24.9682,56.6259],[25.004,56.4879],[25.05,56.3529],[25.1061,56.2218],[25.172,56.0953],[25.247,55.974],[25.331,55.8587],[25.4232,55.7501],[25.476,55.6925],[25.4909,55.6763],[25.6001,55.5666],[25.718,55.4661],[25.8437,55.3756],[25.9763,55.2956],[26.1151,55.2267],[26.259,55.1694],[26.4072,55.1241],[26.5586,55.0909],[26.7137,55.07],[26.8701,55.062],[27.1483,55.0799],[27.421,55.1381],[27.6823,55.2355],[27.9264,55.3703],[28.1028,55.5001],[28.263,55.6493],[28.6608,56.0709],[45.31,73.9904],[45.5719,74.2917],[45.8107,74.6039],[46.0269,74.9245],[46.2211,75.2512],[46.3941,75.5818],[46.5475,75.9144],[46.6842,76.2487],[46.8054,76.5846],[46.9121,76.922],[47.0055,77.2607],[47.101,77.6876],[47.1573,77.942],[47.2699,78.6277],[47.3508,79.3179],[47.4027,80.0152],[47.3971,80.2794],[47.3519,80.5397],[47.268,80.7902],[47.1473,81.0253],[47.0669,81.1374],[46.9927,81.2395],[46.8986,81.3372],[46.8075,81.428],[46.6799,81.5261],[46.5961,81.5864],[46.432,81.6771],[46.3632,81.7112],[46.2996,81.7366],[46.1626,81.7847],[46.1142,81.7996],[46.0221,81.8213],[45.8791,81.846],[45.8547,81.8494],[31.5496,83.5443],[31.3739,83.5577],[31.1977,83.5548],[31.0225,83.5357],[30.85,83.5002],[30.6814,83.4488],[30.5183,83.3822],[30.3525,83.2953],[30.1961,83.1925],[30.0721,83.0935],[29.9568,82.9845],[29.8509,82.8662],[29.7551,82.7397],[29.6703,82.6056],[29.597,82.4649],[29.5359,82.3185],[29.4872,82.1675],[29.4353,81.9158],[24.9439,57.3092],[24.9239,57.0535]]
EXCLUDE_OBJECT_DEFINE NAME=Pegboard_hook_v1(1).stl_id_3_copy_0 CENTER=28.9644,35.8319 POLYGON=[[17.725,23.5756],[17.729,23.4316],[17.7439,23.2883],[17.7693,23.148],[17.8051,23.0099],[17.8511,22.875],[17.9073,22.7439],[17.9731,22.6173],[18.0482,22.4961],[18.1321,22.3808],[18.2244,22.2721],[18.2771,22.2146],[18.292,22.1983],[18.4013,22.0886],[18.5192,21.9882],[18.6448,21.8976],[18.7775,21.8176],[18.9162,21.7487],[19.0601,21.6914],[19.2083,21.6461],[19.3597,21.613],[19.5149,21.5921],[19.6712,21.584],[19.9494,21.6019],[20.2221,21.6601],[20.4834,21.7575],[20.7276,21.8923],[20.9039,22.0221],[21.0641,22.1713],[21.4619,22.5929],[38.1111,40.5124],[38.373,40.8138],[38.6118,41.1259],[38.828,41.4465],[39.0223,41.7733],[39.1952,42.1039],[39.3486,42.4365],[39.4853,42.7707],[39.6065,43.1066],[39.7132,43.444],[39.8067,43.7827],[39.9022,44.2097],[39.9584,44.464],[40.071,45.1497],[40.1519,45.8399],[40.2038,46.5372],[40.1983,46.8014],[40.153,47.0617],[40.0691,47.3122],[39.9485,47.5473],[39.868,47.6594],[39.7938,47.7615],[39.6998,47.8592],[39.6086,47.95],[39.4811,48.0482],[39.3972,48.1084],[39.2331,48.1991],[39.1643,48.2333],[39.1007,48.2586],[38.9637,48.3067],[38.9153,48.3216],[38.8232,48.3433],[38.6802,48.3681],[38.6558,48.3714],[24.3507,50.0664],[24.175,50.0797],[23.9988,50.0769],[23.8237,50.0577],[23.6511,50.0222],[23.4826,49.9708],[23.3194,49.9042],[23.1536,49.8173],[22.9972,49.7145],[22.8732,49.6155],[22.7579,49.5065],[22.652,49.3883],[22.5562,49.2617],[22.4714,49.1276],[22.3981,48.9869],[22.337,48.8405],[22.2883,48.6896],[22.2364,48.4379],[17.745,23.8312],[17.725,23.5756]]
M73 P0 R38
;TYPE:Custom
START_PRINT T_BED=70 T_EXTRUDER=240
G90
G21
M83 ; use relative distances for extrusion
; filament start gcode
PRESSURE_ADVANCE_SELECT FILAMENT=PETG
M106 S0
;LAYER_CHANGE
;Z:0.1
;HEIGHT:0.1
;BEFORE_LAYER_CHANGE
;0.1
G92 E0

;AFTER_LAYER_CHANGE
;0.1
SET_VELOCITY_LIMIT ACCEL=500 ACCEL_TO_DECEL=250
SET_VELOCITY_LIMIT SQUARE_CORNER_VELOCITY=9
G1 E-1 F3000
G1 Z.2 F21000
G1 X29.928 Y84.669
G1 Z.2
G1 Z.1
G1 E1 F1800
;TYPE:Skirt
;WIDTH:0.1875
G1 F3000
G1 X29.331 Y84.318 E.00454
G1 X28.51 Y83.451 E.00783
G1 X28.069 Y82.426 E.00732
G1 X20.814 Y48.67 E.22643
G1 X16.344 Y24.073 E.16395
G1 X16.311 Y23.319 E.00495
G1 X16.433 Y22.595 E.00481
G1 X16.674 Y21.998 E.00422
G1 X17.053 Y21.418 E.00454
G1 X17.665 Y20.83 E.00557
G1 X18.675 Y20.307 E.00746
G1 X57.282 Y8.483 E.26479
G1 X58.605 Y8.47 E.00868
G1 X82.495 Y15.294 E.16294
G1 X84.435 Y16.032 E.01361
G1 X86.139 Y17.085 E.01313
G1 X86.91 Y17.726 E.00657
G1 X88.124 Y19.035 E.01171
G1 X89.205 Y20.721 E.01313
G1 X104.833 Y56.991 E.259
G1 X105.145 Y57.943 E.00657
G1 X105.477 Y59.698 E.01171
G1 X105.529 Y60.994 E.00851
G1 X105.428 Y62.205 E.00797
G1 X105.052 Y64.473 E.01508
G1 X104.721 Y65.777 E.00883
G1 X104.068 Y67.708 E.01337
G1 X103.194 Y69.648 E.01395
G1 X102.202 Y70.669 E.00934
G1 X64.791 Y90.594 E.27797
G1 X63.942 Y90.9 E.00592
G1 X63.241 Y90.976 E.00462
G1 X60.303 Y90.918 E.01927
G1 X30.71 Y84.918 E.19802
G1 X29.943 Y84.674 E.00528
G1 X29.999 Y84.519 F21000
G1 F3000
G1 X29.427 Y84.183 E.00434
G1 X28.65 Y83.362 E.00741
G1 X28.231 Y82.391 E.00693
G1 X20.977 Y48.638 E.22641
G1 X16.507 Y24.043 E.16393
G1 X16.477 Y23.328 E.0047
G1 X16.592 Y22.644 E.00454
G1 X16.822 Y22.072 E.00405
G1 X17.179 Y21.526 E.00428
G1 X17.767 Y20.961 E.00534
G1 X18.724 Y20.466 E.00706
G1 X57.33 Y8.642 E.26479
G1 X58.559 Y8.63 E.00806
G1 X82.45 Y15.453 E.16294
G1 X84.356 Y16.178 E.01338
G1 X86.034 Y17.214 E.01293
G1 X86.793 Y17.844 E.00647
G1 X87.997 Y19.142 E.01161
G1 X89.061 Y20.802 E.01293
G1 X104.676 Y57.044 E.25879
G1 X104.984 Y57.982 E.00647
G1 X105.312 Y59.721 E.01161
G1 X105.363 Y60.98 E.00827
G1 X105.264 Y62.182 E.00791
G1 X104.889 Y64.441 E.01501
G1 X104.563 Y65.727 E.0087
G1 X103.912 Y67.649 E.0133
G1 X103.045 Y69.574 E.01385
G1 X102.124 Y70.522 E.00867
G1 X64.713 Y90.447 E.27797
G1 X63.903 Y90.738 E.00564
G1 X63.241 Y90.81 E.00437
G1 X60.336 Y90.755 E.01905
G1 X30.743 Y84.755 E.19802
G1 X30.013 Y84.523 E.00503
; printing object Body1 id:0 copy 0
G1 E-1
EXCLUDE_OBJECT_START NAME=Body1_id_0_copy_0
G1 Z.3 F21000
G1 X73.222 Y55.556 Z.3
G1 Z.1
G1 E1 F1800
;TYPE:Outer wall
;WIDTH:0.187499
G1 F3000
G1 X73.141 Y55.492 E.00068
G1 X64.519 Y55.497 E.05655
G1 X64.015 Y55.461 E.00331
G1 X63.67 Y55.278 E.00256
G1 X63.433 Y55.001 E.00239
G3 X63.202 Y54.384 I2.259 J-1.197 E.00434
G3 X63.144 Y52.304 I7.347 J-1.246 E.01369
G1 X63.278 Y51.723 E.00391
G3 X63.669 Y51.134 I1.793 J.766 E.00466
G1 X64.033 Y50.946 E.00268
G1 X64.257 Y50.915 E.00148
G1 X73.133 Y50.915 E.05821
G1 X73.188 Y50.837 E.00063
G1 X73.188 Y46.104 E.03104
G2 X79.329 Y50.133 I11.068 J-10.175 E.04866
G2 X83.914 Y50.963 I4.968 J-14.358 E.03068
G3 X89.133 Y51.406 I.001 J30.925 E.03439
G1 X96.2 Y52.616 E.04702
G3 X103.08 Y60.146 I-1.426 J8.21 E.07198
G1 X103.11 Y60.806 E.00433
G3 X101.044 Y68.522 I-19.164 J-.997 E.05277
G3 X100.24 Y68.518 I-.39 J-2.559 E.0053
G1 X99.694 Y68.345 E.00375
G1 X99.206 Y68.062 E.0037
G1 X98.791 Y67.681 E.00369
G1 X98.481 Y67.193 E.00379
G1 X98.297 Y66.689 E.00352
G1 X98.218 Y66.105 E.00387
G1 X98.218 Y61.618 E.02943
G1 X98.192 Y60.432 E.00778
G1 X98.086 Y59.868 E.00377
G2 X95.377 Y57.439 I-3.333 J.992 E.02511
G1 X88.333 Y56.233 E.04687
G2 X84.245 Y55.855 I-4.265 J23.861 E.02695
G2 X81.364 Y55.856 I-1.354 J1289.922 E.0189
G2 X77.711 Y59.515 I.029 J3.682 E.03759
G1 X77.711 Y76.266 E.10986
G3 X73.368 Y80.843 I-4.581 J.001 E.04564
G1 X72.37 Y80.831 E.00655
G1 X72.285 Y80.886 E.00066
G1 X70.203 Y80.891 E.01366
G1 X69.703 Y80.931 E.00329
G1 X68.709 Y81.17 E.0067
G2 X67.71 Y81.59 I16.9 J41.593 E.00711
G1 X66.86 Y82.112 E.00654
G1 X66.074 Y82.785 E.00679
G1 X65.403 Y83.572 E.00679
G1 X64.869 Y84.444 E.0067
G2 X64.468 Y85.411 I99.91 J41.951 E.00687
G1 X64.229 Y86.405 E.0067
G2 X64.14 Y87.655 I45.264 J3.878 E.00822
G1 X64.047 Y88.055 E.00269
G3 X63.652 Y88.451 I-.807 J-.411 E.00373
G1 X63.237 Y88.551 E.0028
G3 X60.783 Y88.527 I-.546 J-71.927 E.0161
G3 X60.04 Y87.784 I.14 J-.883 E.00737
G1 X60.016 Y87.272 E.00336
G1 X60.11 Y85.846 E.00938
G1 X60.388 Y84.446 E.00936
G1 X60.847 Y83.096 E.00936
G1 X61.478 Y81.816 E.00936
G1 X62.27 Y80.63 E.00936
G1 X63.211 Y79.557 E.00936
G1 X64.283 Y78.617 E.00936
G1 X65.47 Y77.824 E.00936
G1 X66.749 Y77.193 E.00936
G1 X68.1 Y76.735 E.00936
G1 X69.855 Y76.386 E.01174
G1 X69.933 Y76.319 E.00067
G2 X73.161 Y76.317 I1.232 J-512.098 E.02117
G1 X73.224 Y76.236 E.00067
G1 X73.222 Y55.571 E.13552
G1 X73.357 Y55.493 F21000
;TYPE:Inner wall
G1 F3000
G1 X73.319 Y55.4 E.00066
G1 X73.141 Y55.326 E.00126
G1 X64.922 Y55.33 E.0539
G1 X64.068 Y55.301 E.0056
G1 X63.776 Y55.147 E.00217
G3 X63.454 Y54.644 I.706 J-.807 E.00396
G1 X63.366 Y54.356 E.00198
G3 X63.309 Y52.322 I7.162 J-1.218 E.01339
G3 X63.77 Y51.268 I2.113 J.296 E.00763
G1 X64.084 Y51.106 E.00232
G1 X64.268 Y51.081 E.00122
G1 X73.105 Y51.086 E.05795
G1 X73.285 Y51.01 E.00128
G1 X73.354 Y50.837 E.00122
G1 X73.354 Y46.519 E.02832
G1 X73.623 Y46.801 E.00255
G2 X83.911 Y51.129 I10.652 J-10.929 E.07493
G3 X89.106 Y51.57 I.002 J30.783 E.03424
G1 X96.169 Y52.779 E.04699
M73 P0 R37
G3 X102.914 Y60.154 I-1.394 J8.047 E.07053
G1 X102.944 Y60.803 E.00426
G3 X100.935 Y68.365 I-18.961 J-.989 E.05168
G3 X100.269 Y68.354 I-.3 J-2.072 E.00439
G1 X99.764 Y68.195 E.00347
G1 X99.301 Y67.926 E.00351
G1 X98.918 Y67.574 E.00341
G1 X98.632 Y67.123 E.0035
G1 X98.458 Y66.646 E.00333
G1 X98.384 Y66.098 E.00363
G1 X98.384 Y61.618 E.02938
G1 X98.351 Y60.324 E.00849
G2 X95.405 Y57.275 I-3.585 J.516 E.0297
G1 X88.361 Y56.069 E.04687
G2 X84.243 Y55.689 I-4.293 J24.028 E.02715
G2 X81.352 Y55.69 I-1.344 J461.822 E.01896
G2 X77.545 Y59.515 I.042 J3.85 E.03922
G1 X77.545 Y76.261 E.10982
G3 X73.359 Y80.676 I-4.418 J.004 E.04401
G1 X72.372 Y80.665 E.00648
G1 X72.236 Y80.72 E.00096
G2 X70.183 Y80.726 I-.152 J317.588 E.01346
G1 X69.664 Y80.77 E.00342
G1 X68.671 Y81.008 E.0067
G2 X67.623 Y81.448 I10.213 J25.774 E.00745
G1 X66.752 Y81.986 E.00671
G1 X65.948 Y82.677 E.00696
G1 X65.261 Y83.486 E.00696
G1 X64.727 Y84.357 E.0067
G2 X64.306 Y85.373 I37.359 J16.07 E.00721
G1 X64.068 Y86.366 E.0067
G2 X63.97 Y87.756 I28.314 J2.693 E.00914
G1 X63.83 Y88.072 E.00227
G1 X63.575 Y88.301 E.00224
G1 X63.23 Y88.385 E.00233
G1 X61.254 Y88.385 E.01296
G1 X60.695 Y88.345 E.00368
G1 X60.408 Y88.159 E.00224
G1 X60.222 Y87.872 E.00224
G1 X60.182 Y87.278 E.00391
G1 X60.275 Y85.867 E.00927
G1 X60.549 Y84.49 E.00921
G1 X61.001 Y83.159 E.00921
