; HEADER_BLOCK_START
; generated by OrcaSlicer 1.7.0-beta on 2023-09-28 at 21:00:28
; total layer number: 12
; HEADER_BLOCK_END

; THUMBNAIL_BLOCK_START
; THUMBNAIL_BLOCK_END

; external perimeters extrusion width = 0.40mm
; perimeters extrusion width = 0.46mm
; infill extrusion width = 0.64mm
; solid infill extrusion width = 0.56mm
; top infill extrusion width = 0.40mm
; first layer extrusion width = 0.50mm

; external perimeters extrusion width = 0.40mm
; perimeters extrusion width = 0.46mm
; infill extrusion width = 0.64mm
; solid infill extrusion width = 0.56mm
; top infill extrusion width = 0.40mm
; first layer extrusion width = 0.50mm

; external perimeters extrusion width = 0.40mm
; perimeters extrusion width = 0.46mm
; infill extrusion width = 0.64mm
; solid infill extrusion width = 0.56mm
; top infill extrusion width = 0.40mm
; first layer extrusion width = 0.50mm

; external perimeters extrusion width = 0.40mm
; perimeters extrusion width = 0.46mm
; infill extrusion width = 0.64mm
; solid infill extrusion width = 0.56mm
; top infill extrusion width = 0.40mm
; first layer extrusion width = 0.50mm

; EXECUTABLE_BLOCK_START
EXCLUDE_OBJECT_DEFINE NAME=bolt.stl_id_0_copy_0 CENTER=66.4,66.4 POLYGON=[[62.5,66.4],[62.5071,66.1645],[62.5284,65.9299],[62.5639,65.697],[62.6133,65.4667],[62.6766,65.2397],[62.7534,65.017],[62.8436,64.7994],[62.9467,64.5876],[63.0625,64.3824],[63.1904,64.1845],[63.33,63.9948],[63.4808,63.8138],[63.6423,63.6423],[63.8138,63.4808],[63.9948,63.33],[64.1845,63.1904],[64.3824,63.0624],[64.5876,62.9467],[64.7994,62.8436],[65.017,62.7534],[65.2397,62.6766],[65.4667,62.6133],[65.697,62.5639],[65.9299,62.5284],[66.1645,62.5071],[66.4,62.5],[66.6355,62.5071],[66.8701,62.5284],[67.103,62.5639],[67.3333,62.6133],[67.5603,62.6766],[67.783,62.7534],[68.0006,62.8436],[68.2124,62.9467],[68.4176,63.0624],[68.6155,63.1904],[68.8052,63.33],[68.9862,63.4808],[69.1577,63.6423],[69.3192,63.8138],[69.47,63.9948],[69.6096,64.1845],[69.7375,64.3824],[69.8533,64.5876],[69.9564,64.7994],[70.0466,65.017],[70.1234,65.2397],[70.1867,65.4667],[70.2361,65.697],[70.2716,65.9299],[70.2929,66.1645],[70.3,66.4],[70.2929,66.6355],[70.2716,66.8701],[70.2361,67.103],[70.1867,67.3333],[70.1234,67.5603],[70.0466,67.783],[69.9564,68.0006],[69.8533,68.2124],[69.7375,68.4176],[69.6096,68.6154],[69.47,68.8052],[69.3192,68.9862],[69.1577,69.1577],[68.9862,69.3192],[68.8052,69.47],[68.6155,69.6096],[68.4176,69.7375],[68.2124,69.8533],[68.0006,69.9564],[67.783,70.0466],[67.5603,70.1234],[67.3333,70.1867],[67.103,70.2361],[66.8701,70.2716],[66.6355,70.2929],[66.4,70.3],[66.1645,70.2929],[65.9299,70.2716],[65.697,70.2361],[65.4667,70.1867],[65.2397,70.1234],[65.017,70.0466],[64.7994,69.9564],[64.5876,69.8533],[64.3824,69.7375],[64.1845,69.6096],[63.9948,69.47],[63.8138,69.3192],[63.6423,69.1577],[63.4808,68.9862],[63.33,68.8052],[63.1904,68.6154],[63.0625,68.4176],[62.9467,68.2124],[62.8436,68.0006],[62.7534,67.783],[62.6766,67.5603],[62.6133,67.3333],[62.5639,67.103],[62.5284,66.8701],[62.5071,66.6355],[62.5,66.4]]
EXCLUDE_OBJECT_DEFINE NAME=bolt.stl_id_1_copy_0 CENTER=53.6,66.4 POLYGON=[[49.7,66.4],[49.7071,66.1645],[49.7284,65.9299],[49.7639,65.697],[49.8133,65.4667],[49.8766,65.2397],[49.9534,65.017],[50.0436,64.7994],[50.1467,64.5876],[50.2625,64.3824],[50.3904,64.1846],[50.53,63.9948],[50.6808,63.8138],[50.8423,63.6423],[51.0138,63.4808],[51.1948,63.33],[51.3845,63.1904],[51.5824,63.0625],[51.7876,62.9467],[51.9994,62.8436],[52.217,62.7534],[52.4397,62.6766],[52.6667,62.6133],[52.897,62.5639],[53.1299,62.5284],[53.3645,62.5071],[53.6,62.5],[53.8355,62.5071],[54.0701,62.5284],[54.303,62.5639],[54.5333,62.6133],[54.7603,62.6766],[54.983,62.7534],[55.2006,62.8436],[55.4124,62.9467],[55.6176,63.0625],[55.8155,63.1904],[56.0052,63.33],[56.1862,63.4808],[56.3577,63.6423],[56.5192,63.8138],[56.67,63.9948],[56.8096,64.1846],[56.9375,64.3824],[57.0533,64.5876],[57.1564,64.7994],[57.2466,65.017],[57.3234,65.2397],[57.3867,65.4667],[57.4361,65.697],[57.4716,65.9299],[57.4929,66.1645],[57.5,66.4],[57.4929,66.6355],[57.4716,66.8701],[57.4361,67.103],[57.3867,67.3333],[57.3234,67.5603],[57.2466,67.783],[57.1564,68.0006],[57.0533,68.2124],[56.9375,68.4176],[56.8096,68.6155],[56.67,68.8052],[56.5192,68.9862],[56.3577,69.1577],[56.1862,69.3192],[56.0052,69.47],[55.8155,69.6096],[55.6176,69.7376],[55.4124,69.8533],[55.2006,69.9564],[54.983,70.0466],[54.7603,70.1234],[54.5333,70.1867],[54.303,70.2361],[54.0701,70.2716],[53.8355,70.2929],[53.6,70.3],[53.3645,70.2929],[53.1299,70.2716],[52.897,70.2361],[52.6667,70.1867],[52.4397,70.1234],[52.217,70.0466],[51.9994,69.9564],[51.7876,69.8533],[51.5824,69.7376],[51.3845,69.6096],[51.1948,69.47],[51.0138,69.3192],[50.8423,69.1577],[50.6808,68.9862],[50.53,68.8052],[50.3904,68.6155],[50.2625,68.4176],[50.1467,68.2124],[50.0436,68.0006],[49.9534,67.783],[49.8766,67.5603],[49.8133,67.3333],[49.7639,67.103],[49.7284,66.8701],[49.7071,66.6355],[49.7,66.4]]
EXCLUDE_OBJECT_DEFINE NAME=bolt.stl_id_2_copy_0 CENTER=53.6,53.6 POLYGON=[[49.7,53.6],[49.7071,53.3645],[49.7284,53.1299],[49.7639,52.897],[49.8133,52.6667],[49.8766,52.4397],[49.9534,52.217],[50.0436,51.9994],[50.1467,51.7876],[50.2625,51.5824],[50.3904,51.3846],[50.53,51.1948],[50.6808,51.0138],[50.8423,50.8423],[51.0138,50.6808],[51.1948,50.53],[51.3845,50.3904],[51.5824,50.2625],[51.7876,50.1467],[51.9994,50.0436],[52.217,49.9534],[52.4397,49.8766],[52.6667,49.8133],[52.897,49.7639],[53.1299,49.7284],[53.3645,49.7071],[53.6,49.7],[53.8355,49.7071],[54.0701,49.7284],[54.303,49.7639],[54.5333,49.8133],[54.7603,49.8766],[54.983,49.9534],[55.2006,50.0436],[55.4124,50.1467],[55.6176,50.2625],[55.8155,50.3904],[56.0052,50.53],[56.1862,50.6808],[56.3577,50.8423],[56.5192,51.0138],[56.67,51.1948],[56.8096,51.3846],[56.9375,51.5824],[57.0533,51.7876],[57.1564,51.9994],[57.2466,52.217],[57.3234,52.4397],[57.3867,52.6667],[57.4361,52.897],[57.4716,53.1299],[57.4929,53.3645],[57.5,53.6],[57.4929,53.8355],[57.4716,54.0701],[57.4361,54.303],[57.3867,54.5333],[57.3234,54.7603],[57.2466,54.983],[57.1564,55.2006],[57.0533,55.4124],[56.9375,55.6176],[56.8096,55.8155],[56.67,56.0052],[56.5192,56.1862],[56.3577,56.3577],[56.1862,56.5192],[56.0052,56.67],[55.8155,56.8096],[55.6176,56.9376],[55.4124,57.0533],[55.2006,57.1564],[54.983,57.2466],[54.7603,57.3234],[54.5333,57.3867],[54.303,57.4361],[54.0701,57.4716],[53.8355,57.4929],[53.6,57.5],[53.3645,57.4929],[53.1299,57.4716],[52.897,57.4361],[52.6667,57.3867],[52.4397,57.3234],[52.217,57.2466],[51.9994,57.1564],[51.7876,57.0533],[51.5824,56.9376],[51.3845,56.8096],[51.1948,56.67],[51.0138,56.5192],[50.8423,56.3577],[50.6808,56.1862],[50.53,56.0052],[50.3904,55.8155],[50.2625,55.6176],[50.1467,55.4124],[50.0436,55.2006],[49.9534,54.983],[49.8766,54.7603],[49.8133,54.5333],[49.7639,54.303],[49.7284,54.0701],[49.7071,53.8355],[49.7,53.6]]
EXCLUDE_OBJECT_DEFINE NAME=bolt.stl_id_3_copy_0 CENTER=66.4,53.6 POLYGON=[[62.5,53.6],[62.5071,53.3645],[62.5284,53.1299],[62.5639,52.897],[62.6133,52.6667],[62.6766,52.4397],[62.7534,52.217],[62.8436,51.9994],[62.9467,51.7876],[63.0625,51.5824],[63.1904,51.3845],[63.33,51.1948],[63.4808,51.0138],[63.6423,50.8423],[63.8138,50.6808],[63.9948,50.53],[64.1845,50.3904],[64.3824,50.2624],[64.5876,50.1467],[64.7994,50.0436],[65.017,49.9534],[65.2397,49.8766],[65.4667,49.8133],[65.697,49.7639],[65.9299,49.7284],[66.1645,49.7071],[66.4,49.7],[66.6355,49.7071],[66.8701,49.7284],[67.103,49.7639],[67.3333,49.8133],[67.5603,49.8766],[67.783,49.9534],[68.0006,50.0436],[68.2124,50.1467],[68.4176,50.2624],[68.6155,50.3904],[68.8052,50.53],[68.9862,50.6808],[69.1577,50.8423],[69.3192,51.0138],[69.47,51.1948],[69.6096,51.3845],[69.7375,51.5824],[69.8533,51.7876],[69.9564,51.9994],[70.0466,52.217],[70.1234,52.4397],[70.1867,52.6667],[70.2361,52.897],[70.2716,53.1299],[70.2929,53.3645],[70.3,53.6],[70.2929,53.8355],[70.2716,54.0701],[70.2361,54.303],[70.1867,54.5333],[70.1234,54.7603],[70.0466,54.983],[69.9564,55.2006],[69.8533,55.4124],[69.7375,55.6176],[69.6096,55.8154],[69.47,56.0052],[69.3192,56.1862],[69.1577,56.3577],[68.9862,56.5192],[68.8052,56.67],[68.6155,56.8096],[68.4176,56.9375],[68.2124,57.0533],[68.0006,57.1564],[67.783,57.2466],[67.5603,57.3234],[67.3333,57.3867],[67.103,57.4361],[66.8701,57.4716],[66.6355,57.4929],[66.4,57.5],[66.1645,57.4929],[65.9299,57.4716],[65.697,57.4361],[65.4667,57.3867],[65.2397,57.3234],[65.017,57.2466],[64.7994,57.1564],[64.5876,57.0533],[64.3824,56.9375],[64.1845,56.8096],[63.9948,56.67],[63.8138,56.5192],[63.6423,56.3577],[63.4808,56.1862],[63.33,56.0052],[63.1904,55.8154],[63.0625,55.6176],[62.9467,55.4124],[62.8436,55.2006],[62.7534,54.983],[62.6766,54.7603],[62.6133,54.5333],[62.5639,54.303],[62.5284,54.0701],[62.5071,53.8355],[62.5,53.6]]
M73 P0 R1
;TYPE:Custom
START_PRINT T_BED=110 T_EXTRUDER=260
G90
G21
M83 ; use relative distances for extrusion
; Filament gcode

    PRESSURE_ADVANCE_SELECT FILAMENT=ABS
M106 S0
;LAYER_CHANGE
;Z:0.2
;HEIGHT:0.2
;BEFORE_LAYER_CHANGE
;0.2
G92 E0

;AFTER_LAYER_CHANGE
;0.2
;_SET_FAN_SPEED_CHANGING_LAYER
SET_VELOCITY_LIMIT ACCEL=1000 ACCEL_TO_DECEL=500
SET_VELOCITY_LIMIT SQUARE_CORNER_VELOCITY=9
G1 E-.5 F3000
G1 Z.2 F21000
G1 X48.845 Y48.72
G1 Z.2
G1 E.5 F1800
;TYPE:Skirt
;WIDTH:0.5
G1 F3000
G1 X49.81 Y47.938 E.04373
M73 P1 R1
G1 X51.102 Y47.261 E.05132
G1 X52.459 Y46.883 E.04957
G1 X53.609 Y46.786 E.04065
G1 X66.497 Y46.787 E.45358
G1 X67.715 Y46.915 E.04307
G1 X68.734 Y47.199 E.03723
G1 X69.849 Y47.724 E.0434
G1 X70.671 Y48.291 E.03514
G1 X71.564 Y49.155 E.04373
G1 X72.193 Y50.014 E.03746
G1 X72.651 Y50.89 E.03481
G1 X73.036 Y52.055 E.04316
G1 X73.214 Y53.6 E.05473
G1 X73.206 Y66.723 E.46187
M73 P2 R1
G1 X73.117 Y67.541 E.02896
G1 X72.878 Y68.511 E.03514
G1 X72.473 Y69.488 E.03723
G1 X72.057 Y70.198 E.02896
G1 X70.984 Y71.441 E.05781
G1 X69.841 Y72.28 E.0499
G1 X68.343 Y72.931 E.05748
G1 X66.899 Y73.195 E.05165
G1 X53.101 Y73.195 E.48562
M73 P3 R1
G1 X52.285 Y73.085 E.02896
G1 X51.266 Y72.801 E.03723
G1 X49.802 Y72.057 E.05781
G1 X48.559 Y70.984 E.05781
G1 X47.72 Y69.841 E.0499
G1 X47.069 Y68.343 E.05748
G1 X46.805 Y66.899 E.05165
G1 X46.805 Y53.101 E.48562
M73 P3 R0
G1 X46.916 Y52.279 E.02919
G1 X47.199 Y51.266 E.03699
G1 X47.943 Y49.802 E.05781
G1 X48.819 Y48.751 E.04816
M73 P4 R0
G1 X49.158 Y49.053 F21000
G1 F3000
G1 X50.058 Y48.322 E.04082
G1 X51.277 Y47.683 E.04841
G1 X52.527 Y47.335 E.04569
G1 X53.609 Y47.243 E.03822
G1 X66.484 Y47.244 E.45309
G1 X67.619 Y47.362 E.04016
G1 X68.584 Y47.631 E.03529
G1 X69.625 Y48.122 E.04049
G1 X70.378 Y48.642 E.03223
G1 X71.213 Y49.448 E.04082
G1 X71.809 Y50.261 E.03548
G1 X72.229 Y51.064 E.03189
G1 X72.589 Y52.151 E.04029
G1 X72.757 Y53.6 E.05134
M73 P5 R0
G1 X72.749 Y66.71 E.46138
G1 X72.665 Y67.473 E.02701
G1 X72.446 Y68.362 E.03223
G1 X72.062 Y69.288 E.03528
G1 X71.673 Y69.95 E.02702
G1 X70.67 Y71.108 E.05393
G1 X69.616 Y71.882 E.04602
G1 X68.22 Y72.49 E.0536
G1 X66.858 Y72.74 E.04874
G1 X53.142 Y72.74 E.48271
M73 P6 R0
G1 X52.381 Y72.638 E.02701
G1 X51.416 Y72.369 E.03529
G1 X50.05 Y71.673 E.05393
G1 X48.892 Y70.67 E.05393
G1 X48.118 Y69.616 E.04602
G1 X47.51 Y68.22 E.0536
G1 X47.26 Y66.858 E.04874
G1 X47.26 Y53.142 E.48271
G1 X47.363 Y52.376 E.02721
G1 X47.631 Y51.416 E.03509
M73 P7 R0
G1 X48.327 Y50.05 E.05393
G1 X49.133 Y49.084 E.04428
; printing object bolt.stl id:0 copy 0
G1 E-.5
EXCLUDE_OBJECT_START NAME=bolt.stl_id_0_copy_0
G1 Z.4 F21000
G1 X69.289 Y68.452 Z.4
G1 Z.2
G1 E.5 F1800
;TYPE:Outer wall
G1 F3000
G1 X69.194 Y68.589 E.00586
G1 X68.907 Y68.913 E.01522
G1 X68.757 Y69.054 E.00728
G1 X68.414 Y69.323 E.01534
G1 X68.232 Y69.44 E.00761
G1 X67.854 Y69.638 E.01502
G1 X67.654 Y69.721 E.00761
G1 X67.25 Y69.846 E.0149
G1 X66.824 Y69.924 E.01522
G1 X66.618 Y69.943 E.00728
G1 X66.186 Y69.943 E.01522
G1 X65.756 Y69.891 E.01522
G1 X65.554 Y69.847 E.00728
M73 P8 R0
G1 X65.141 Y69.719 E.01522
G1 X64.75 Y69.543 E.01508
G1 X64.381 Y69.319 E.0152
G1 X64.207 Y69.191 E.00761
G1 X63.887 Y68.907 E.01503
G1 X63.746 Y68.757 E.00728
G1 X63.477 Y68.414 E.01534
G1 X63.36 Y68.232 E.00761
G1 X63.162 Y67.854 E.01502
G1 X63.079 Y67.654 E.00761
G1 X62.954 Y67.25 E.0149
G1 X62.876 Y66.824 E.01522
G1 X62.857 Y66.618 E.00728
G1 X62.857 Y66.186 E.01522
G1 X62.909 Y65.757 E.0152
G1 X62.955 Y65.546 E.00761
G1 X63.081 Y65.141 E.0149
G1 X63.259 Y64.747 E.01522
G1 X63.36 Y64.567 E.00728
G1 X63.606 Y64.211 E.01522
G1 X63.893 Y63.887 E.01522
G1 X64.046 Y63.743 E.00741
G1 X64.208 Y63.608 E.00741
G1 X64.564 Y63.362 E.01522
G1 X64.947 Y63.161 E.01522
G1 X65.138 Y63.082 E.00728
G1 X65.551 Y62.954 E.01522
G1 X65.976 Y62.876 E.01522
G1 X66.182 Y62.857 E.00728
G1 X66.614 Y62.857 E.01522
G1 X67.044 Y62.909 E.01522
G1 X67.246 Y62.953 E.00728
G1 X67.659 Y63.081 E.01522
G1 X68.053 Y63.259 E.01522
G1 X68.233 Y63.36 E.00728
G1 X68.589 Y63.606 E.01522
G1 X68.912 Y63.892 E.0152
G1 X69.06 Y64.05 E.00761
G1 X69.321 Y64.384 E.0149
G1 X69.545 Y64.754 E.01523
G1 X69.635 Y64.94 E.00728
G1 X69.79 Y65.348 E.01536
G1 X69.846 Y65.547 E.00728
G1 X69.924 Y65.976 E.01535
G1 X69.943 Y66.182 E.00728
G1 X69.943 Y66.614 E.01522
G1 X69.891 Y67.044 E.01522
G1 X69.847 Y67.246 E.00728
G1 X69.719 Y67.659 E.01522
G1 X69.541 Y68.053 E.01522
G1 X69.44 Y68.233 E.00728
G1 X69.311 Y68.419 E.00795
G1 X68.707 Y68.059 F21000
G1 F3000
G1 X68.534 Y68.29 E.01016
G1 X68.252 Y68.566 E.01386
G1 X68.05 Y68.724 E.00905
G1 X67.718 Y68.927 E.01367
G1 X67.515 Y69.023 E.00793
G1 X67.079 Y69.169 E.01618
G1 X66.691 Y69.235 E.01384
G1 X66.467 Y69.249 E.00793
G1 X66.008 Y69.223 E.01618
G1 X65.623 Y69.142 E.01383
G1 X65.413 Y69.074 E.00777
G1 X65.179 Y68.976 E.00892
G1 X64.836 Y68.783 E.01388
G1 X64.47 Y68.497 E.01633
G1 X64.2 Y68.212 E.01382
G1 X64.064 Y68.033 E.00791
G1 X63.833 Y67.639 E.01605
G1 X63.743 Y67.433 E.00794
G1 X63.628 Y67.062 E.01367
G1 X63.579 Y66.809 E.00905
G1 X63.549 Y66.416 E.01387
G1 X63.585 Y65.954 E.01633
G1 X63.673 Y65.571 E.01382
G1 X63.747 Y65.359 E.00791
G1 X63.949 Y64.945 E.01618
G1 X64.172 Y64.622 E.01383
M73 P9 R0
G1 X64.317 Y64.455 E.00777
G1 X64.498 Y64.277 E.00893
G1 X64.809 Y64.035 E.01388
G1 X65.213 Y63.808 E.01632
G1 X65.581 Y63.67 E.01382
G1 X65.799 Y63.614 E.00792
G1 X66.255 Y63.553 E.01619
G1 X66.649 Y63.561 E.01386
G1 X66.9 Y63.594 E.00892
G1 X67.116 Y63.641 E.00777
G1 X67.489 Y63.766 E.01384
G1 X67.898 Y63.975 E.01618
G1 X68.084 Y64.101 E.00793
G1 X68.385 Y64.354 E.01384
G1 X68.688 Y64.7 E.01618
G1 X68.815 Y64.886 E.00791
G1 X69 Y65.232 E.01382
G1 X69.155 Y65.669 E.01633
G1 X69.229 Y66.056 E.01387
G1 X69.249 Y66.309 E.00892
G1 X69.247 Y66.53 E.00776
G1 X69.203 Y66.92 E.01382
G1 X69.082 Y67.364 E.01619
G1 X68.998 Y67.573 E.00794
G1 X68.812 Y67.919 E.01384
G1 X68.731 Y68.027 E.00475
G1 X69.006 Y68.231 F21000
;TYPE:Gap infill
;WIDTH:0.238137
G1 F3000
G1 X68.789 Y68.524 E.00548
G1 X68.483 Y68.821 E.00642
G1 X68.243 Y69.013 E.00462
G1 X67.707 Y69.32 E.00928
G1 X67.166 Y69.507 E.0086
G1 X66.727 Y69.579 E.00669
G1 X66.474 Y69.596 E.00381
G1 X66.207 Y69.589 E.00401
G1 X65.818 Y69.543 E.00589
G1 X65.264 Y69.391 E.00863
G1 X64.914 Y69.231 E.00578
G1 X64.637 Y69.068 E.00483
G1 X64.134 Y68.655 E.00978
G1 X63.763 Y68.212 E.00869
G1 X63.481 Y67.707 E.0087
G1 X63.291 Y67.152 E.00881
G1 X63.238 Y66.85 E.00462
G1 X63.203 Y66.409 E.00664
G1 X63.255 Y65.818 E.00891
G1 X63.409 Y65.264 E.00864
G1 X63.655 Y64.765 E.00836
G1 X63.882 Y64.427 E.00612
G1 X64.069 Y64.218 E.00422
G1 X64.278 Y64.005 E.00448
G1 X64.612 Y63.752 E.0063
G1 X65.075 Y63.494 E.00796
G1 X65.261 Y63.413 E.00305
G1 X65.635 Y63.294 E.00589
G1 X66.021 Y63.227 E.00589
G1 X66.242 Y63.21 E.00334
G1 X66.595 Y63.208 E.00529
G1 X66.964 Y63.251 E.00559
G1 X67.534 Y63.41 E.00889
G1 X68.07 Y63.671 E.00896
G1 X68.372 Y63.883 E.00554
G1 X68.624 Y64.101 E.005
G1 X69.032 Y64.583 E.0095
G1 X69.315 Y65.08 E.0086
G1 X69.504 Y65.627 E.00871
G1 X69.571 Y66.016 E.00593
G1 X69.596 Y66.293 E.00418
G1 X69.593 Y66.593 E.00451
G1 X69.547 Y66.983 E.0059
G1 X69.391 Y67.534 E.00862
M73 P10 R0
G1 X69.14 Y68.05 E.00861
G1 X69.03 Y68.199 E.00279
; stop printing object bolt.stl id:0 copy 0
