; generated by SuperSlicer 2.5.59 on 2023-02-22 at 21:01:01 UTC


;
;

;
;
; 

; external perimeters extrusion width = 0.40mm
; perimeters extrusion width = 0.46mm
; infill extrusion width = 0.64mm
; solid infill extrusion width = 0.56mm
; top infill extrusion width = 0.40mm
; first layer extrusion width = 0.50mm

; object:{"name":"Mickey_Bookmark","id":"Mickey_Bookmark.stl id:0 copy 0","object_center":[59.998922,60.000000,0.000000],"boundingbox_center":[59.998922,60.000000,0.564000],"boundingbox_size":[74.998001,91.482002,1.128000]}
; plater:{"center":[59.998922,60.000000,0.000000],"boundingbox_center":[59.998922,60.000000,0.564000],"boundingbox_size":[74.998001,91.482002,1.128000]}

M73 P0 R20
;TYPE:Custom
; custom gcode: start_gcode
START_PRINT T_BED=60 T_EXTRUDER=200
; custom gcode end: start_gcode
M107
G21 ; set units to millimeters
G90 ; use absolute coordinates
M82 ; use absolute distances for extrusion
G92 E0
; custom gcode: start_filament_gcode
; Filament gcode

    PRESSURE_ADVANCE_SELECT FILAMENT=PLA
; custom gcode end: start_filament_gcode
;_TOOLCHANGE 0
M109 S200 ; set temperature and wait for it to be reached
M190 S60 ; set bed temperature and wait for it to be reached
;LAYER_CHANGE
;Z:0.1
;HEIGHT:0.1
G1 Z0.1 F12000
M73 P0 R20
G1 E-0.8 F3000
M204 S2000
G1 X45.028 Y20.277 F12000
G1 E0 F1800
;TYPE:Skirt
;WIDTH:0.52
G1 X28.381 Y57.246 E0.84036
G1 X19.017 Y82.166 E1.39215
G1 X18.875 Y82.977 E1.4092
G1 X18.878 Y83.822 E1.42672
G1 X19.203 Y85.242 E1.45692
G1 X19.744 Y86.32 E1.48191
G1 X22.34 Y90.44 E1.58284
M73 P0 R20
G1 X23.016 Y91.324 E1.60591
G1 X37.999 Y106.933 E2.05436
G1 X38.847 Y107.666 E2.0776
G1 X39.908 Y108.372 E2.10402
G1 X41.169 Y108.98 E2.13304
G1 X41.879 Y109.208 E2.1485
G1 X42.899 Y109.365 E2.16988
G1 X43.854 Y109.387 E2.18967
G1 X78.035 Y108.406 E2.89845
G1 X79.328 Y108.22 E2.92552
G1 X80.5 Y107.833 E2.9511
G1 X81.516 Y107.371 E2.97423
G1 X93.28 Y100.29 E3.25883
G1 X94.404 Y98.926 E3.29545
G1 X100.912 Y85.393 E3.6067
G1 X101.118 Y84.422 E3.62729
G1 X101.079 Y83.106 E3.65456
G1 X98.116 Y65.965 E4.01511
G1 X97.91 Y65.231 E4.03091
G1 X76.593 Y17.626 E5.11202
G1 X75.691 Y15.942 E5.15163
G1 X74.79 Y14.728 E5.18295
G1 X73.437 Y13.375 E5.22263
G1 X72.227 Y12.478 E5.25383
G1 X70.535 Y11.572 E5.29363
G1 X69.119 Y11.065 E5.3248
G1 X67.994 Y10.801 E5.34875
G1 X66.087 Y10.616 E5.38846
G1 X56.729 Y10.616 E5.58242
G1 X54.823 Y10.801 E5.62212
G1 X53.699 Y11.065 E5.64603
G1 X52.625 Y11.43 E5.66955
G1 X51.58 Y11.904 E5.69334
G1 X50.589 Y12.478 E5.71709
G1 X49.669 Y13.137 E5.74054
G1 X48.805 Y13.896 E5.76438
G1 X48.026 Y14.728 E5.78801
G1 X47.125 Y15.942 E5.81933
G1 X46.191 Y17.694 E5.86049
G1 X45.028 Y20.277 E5.91919
G1 X45.483 Y20.481 F12000
G1 F1800
G1 X28.835 Y57.451 E6.75955
G1 X19.496 Y82.302 E7.30982
G1 X19.371 Y83.031 E7.32515
G1 X19.373 Y83.764 E7.34034
G1 X19.674 Y85.081 E7.36833
G1 X20.165 Y86.054 E7.39093
G1 X22.761 Y90.174 E7.49186
G1 X23.375 Y90.979 E7.51284
G1 X38.358 Y106.588 E7.9613
G1 X39.164 Y107.282 E7.98334
G1 X40.143 Y107.932 E8.00769
G1 X41.368 Y108.523 E8.03589
G1 X41.984 Y108.721 E8.0493
G1 X42.914 Y108.866 E8.06881
G1 X43.839 Y108.889 E8.08799
G1 X78.021 Y107.908 E8.79677
M73 P1 R20
G1 X79.196 Y107.739 E8.82136
G1 X80.311 Y107.372 E8.8457
G1 X81.26 Y106.943 E8.86728
G1 X92.981 Y99.891 E9.15081
G1 X93.956 Y98.709 E9.18256
G1 X100.442 Y85.229 E9.49262
G1 X100.623 Y84.361 E9.511
G1 X100.588 Y83.191 E9.53525
G1 X97.625 Y66.05 E9.89581
G1 X97.447 Y65.414 E9.9095
G1 X76.143 Y17.84 E10.98991
G1 X75.264 Y16.198 E11.02851
G1 X74.421 Y15.063 E11.05781
G1 X73.102 Y13.744 E11.09648
G1 X71.97 Y12.905 E11.12567
G1 X70.322 Y12.023 E11.16444
G1 X68.997 Y11.548 E11.1936
G1 X67.921 Y11.294 E11.2165
G1 X66.063 Y11.114 E11.25521
G1 X56.753 Y11.114 E11.44817
G1 X54.895 Y11.294 E11.48686
G1 X53.821 Y11.548 E11.50973
G1 X52.792 Y11.899 E11.53226
G1 X51.793 Y12.354 E11.55502
G1 X50.845 Y12.905 E11.57775
G1 X49.965 Y13.538 E11.60021
G1 X49.139 Y14.265 E11.62302
G1 X48.395 Y15.063 E11.64564
G1 X47.552 Y16.198 E11.67494
G1 X46.646 Y17.899 E11.71489
G1 X45.483 Y20.481 E11.77358
G92 E0
G1 E-0.8 F3000
; printing object Mickey_Bookmark.stl id:0 copy 0
; acceleration to travel
M204 S4000
G1 X54.994 Y56.368 F12000
; decel to extrusion
M204 S2000
G1 X59.749 Y74.311
; end travel
G1 E0 F1800
;TYPE:Internal perimeter
;WIDTH:0.5
G1 X58.772 Y74.797 E0.02172
G1 X57.858 Y75.408 E0.04359
G1 X56.862 Y76.151 E0.0683
G1 X56.343 Y76.601 E0.08198
G1 X56.09 Y76.895 E0.08969
G1 X55.862 Y77.233 E0.09781
G1 X55.555 Y77.845 E0.11142
G1 X55.394 Y78.328 E0.12155
G1 X55.326 Y78.814 E0.13132
G1 X55.392 Y79.354 E0.14213
G1 X55.547 Y79.869 E0.15284
G1 X55.752 Y80.314 E0.16259
G1 X56.02 Y80.7 E0.17193
G1 X56.299 Y80.946 E0.17934
G1 X56.598 Y81.089 E0.18593
G1 X56.978 Y81.16 E0.19363
G1 X58.602 Y81.197 E0.22594
G1 X58.684 Y81.459 E0.2314
G1 X57.018 Y82.675 E0.27243
G1 X56.722 Y82.856 E0.27934
G1 X56.56 Y82.833 E0.28259
G1 X56.463 Y82.793 E0.28467
G1 X56.302 Y82.678 E0.28863
G1 X56.068 Y82.431 E0.29539
G1 X55.742 Y81.963 E0.30675
G1 X54.963 Y80.492 E0.33987
G1 X54.594 Y79.87 E0.35425
G1 X53.819 Y78.214 E0.39062
G1 X53.567 Y77.765 E0.40087
G1 X53.359 Y77.468 E0.40807
G1 X53.139 Y77.236 E0.41445
G1 X52.898 Y77.053 E0.42047
G1 X52.582 Y76.901 E0.42743
G1 X52.213 Y76.83 E0.43491
G1 X51.835 Y76.848 E0.44245
G1 X51.39 Y76.965 E0.45159
G1 X50.736 Y77.248 E0.46576
G1 X50.202 Y77.54 E0.47787
G1 X49.823 Y77.798 E0.48701
G1 X49.788 Y77.285 E0.49724
G1 X49.753 Y77.084 E0.50131
G1 X50.825 Y76.684 E0.52406
G1 X51.689 Y76.227 E0.5435
G1 X52.555 Y75.707 E0.5636
G1 X53.209 Y75.234 E0.57967
G1 X53.47 Y75.073 E0.58577
G1 X53.957 Y74.833 E0.59657
G1 X54.523 Y74.635 E0.6085
G1 X54.997 Y74.53 E0.61816
G1 X55.441 Y74.493 E0.62703
G1 X55.789 Y74.506 E0.63396
G1 X55.974 Y74.545 E0.63772
G1 X56.228 Y74.659 E0.64325
G1 X57.084 Y75.117 E0.66258
G1 X58.622 Y74.241 E0.6978
G1 X58.889 Y74.126 E0.70358
G1 X59.017 Y74.094 E0.7062
G1 X59.095 Y74.091 E0.70776
G1 X59.757 Y74.255 E0.72132
G1 X59.763 Y74.213 E0.72216
G1 X60.028 Y74.229 E0.72745
G1 X60.557 Y73.974 E0.73914
G1 X60.659 Y74.003 E0.74125
G1 X60.734 Y74.043 E0.74293
G1 X60.856 Y74.138 E0.74602
G1 X61.105 Y74.382 E0.75294
G1 X62.363 Y75.331 E0.7843
G1 X63.866 Y74.596 E0.81758
G1 X64.028 Y74.534 E0.82103
G1 X64.206 Y74.497 E0.82465
G1 X65.823 Y74.435 E0.85685
G1 X66.163 Y74.45 E0.86362
G1 X66.233 Y74.465 E0.86504
G1 X67.119 Y74.868 E0.8844
G1 X67.501 Y74.972 E0.89228
G1 X67.733 Y74.997 E0.89692
G1 X67.777 Y75.009 E0.89784
G1 X68.021 Y75.131 E0.90326
G1 X68.841 Y75.717 E0.92331
G1 X69.261 Y75.922 E0.93261
G1 X69.884 Y75.987 E0.94508
G1 X69.556 Y76.323 E0.95442
G1 X69.326 Y76.672 E0.96274
G1 X69.213 Y76.994 E0.96953
G1 X68.803 Y76.691 E0.97966
G1 X68.469 Y76.538 E0.98697
G1 X68.103 Y76.419 E0.99463
G1 X67.574 Y76.323 E1.00533
G1 X66.569 Y76.23 E1.02541
G1 X65.695 Y77.273 E1.05248
G1 X65.485 Y77.597 E1.06017
G1 X65.201 Y78.201 E1.07345
G1 X64.669 Y79.771 E1.10642
G1 X64.376 Y80.497 E1.12199
G1 X63.663 Y82.138 E1.15759
G1 X63.584 Y82.271 E1.16067
G1 X63.545 Y82.319 E1.1619
G1 X63.46 Y82.381 E1.16399
G1 X63.372 Y82.386 E1.16574
G1 X63.129 Y82.349 E1.17064
G1 X62.605 Y82.172 E1.18164
G1 X61.122 Y81.621 E1.21311
G1 X61.188 Y81.3 E1.21963
G1 X61.419 Y81.31 E1.22423
G1 X61.838 Y81.293 E1.23258
G1 X62.189 Y81.24 E1.23964
G1 X62.601 Y81.098 E1.24832
G1 X62.919 Y80.897 E1.25579
G1 X63.241 Y80.558 E1.26511
G1 X63.534 Y80.084 E1.27618
G1 X63.723 Y79.575 E1.28699
G1 X63.811 Y79.027 E1.29804
G1 X63.789 Y78.465 E1.30921
G1 X63.662 Y77.91 E1.32055
G1 X63.435 Y77.366 E1.33227
G1 X63.073 Y76.81 E1.34548
G1 X62.616 Y76.321 E1.35879
G1 X62.092 Y75.915 E1.37197
G1 X60.787 Y75.077 E1.40283
G1 X60.214 Y74.747 E1.416
G1 X59.896 Y74.603 E1.42293
G1 X59.715 Y74.564 E1.42662
G1 X59.749 Y74.311 E1.43171
G92 E0
G1 E-0.8 F3000
; acceleration to travel
M204 S4000
G1 X67.581 Y75.123 F12000
; decel to extrusion
M204 S2000
G1 X71.497 Y75.528
; end travel
G1 E0 F1800
G1 X70.871 Y75.579 E0.0125
G1 X70.417 Y75.69 E0.0218
G1 X70.693 Y74.891 E0.03861
G1 X70.765 Y74.473 E0.04706
G1 X71.086 Y74.472 E0.05346
G1 X71.132 Y74.725 E0.05857
G1 X71.267 Y75.115 E0.06678
G1 X71.497 Y75.528 E0.0762
; acceleration to travel
M204 S4000
G1 X71.206 Y74.49 F12000
; decel to extrusion
M204 S2000
G1 X71.06 Y73.971
; end travel
G1 F1800
G1 X70.722 Y73.99 E0.08294
G1 X70.686 Y73.789 E0.08701
G1 X70.506 Y73.38 E0.0959
G1 X70.136 Y72.888 E0.10813
G1 X70.709 Y72.81 E0.11963
G1 X71.475 Y72.598 E0.13543
G1 X71.173 Y73.258 E0.14987
G1 X71.082 Y73.642 E0.15771
G1 X71.06 Y73.971 E0.16427
G92 E0
G1 E-0.8 F3000
; acceleration to travel
M204 S4000
G1 X73.327 Y71.497 F12000
; decel to extrusion
M204 S2000
G1 X74.46 Y70.261
; end travel
G1 E0 F1800
G1 X73.845 Y70.837 E0.01678
G1 X73.687 Y71.246 E0.02549
G1 X73.729 Y71.861 E0.03776
G1 X73.1 Y71.812 E0.05031
G1 X72.736 Y71.86 E0.05762
G1 X72.233 Y72.027 E0.06816
G1 X72.467 Y71.495 E0.07971
G1 X72.512 Y71.194 E0.08578
G1 X72.478 Y70.627 E0.09708
G1 X72.765 Y70.508 E0.10327
G1 X73.073 Y70.27 E0.11101
G1 X73.431 Y69.555 E0.12693
G1 X73.68 Y69.949 E0.13621
G1 X74.093 Y70.183 E0.14565
G1 X74.46 Y70.261 E0.15311
G92 E0
G1 E-0.8 F3000
; acceleration to travel
M204 S4000
G1 X75.535 Y73.691 F12000
; decel to extrusion
M204 S2000
G1 X76.073 Y75.406
; end travel
G1 E0 F1800
G1 X75.731 Y75.388 E0.00681
G1 X75.387 Y75.426 E0.0137
G1 X74.923 Y75.564 E0.02332
G1 X75.169 Y75.118 E0.03345
G1 X75.295 Y74.771 E0.0408
G1 X75.38 Y74.295 E0.05042
G1 X75.711 Y74.306 E0.05702
G1 X75.753 Y74.681 E0.06453
G1 X75.855 Y75.023 E0.07163
G1 X76.073 Y75.406 E0.0804
G92 E0
G1 E-0.8 F3000
; acceleration to travel
M204 S4000
G1 X73.963 Y76.067 F12000
; decel to extrusion
M204 S2000
G1 X72.908 Y76.397
; end travel
G1 E0 F1800
G1 X73.506 Y76.353 E0.01194
G1 X74.105 Y76.224 E0.02412
G1 X73.858 Y76.608 E0.03321
G1 X73.697 Y76.994 E0.04152
G1 X73.595 Y77.431 E0.05044
G1 X73.277 Y77.416 E0.05678
G1 X73.219 Y76.997 E0.06521
G1 X73.113 Y76.705 E0.07138
G1 X72.908 Y76.397 E0.07873
G92 E0
G1 E-0.8 F3000
; acceleration to travel
M204 S4000
G1 X75.965 Y76.321 F12000
; decel to extrusion
M204 S2000
G1 X77.494 Y76.283
; end travel
G1 E0 F1800
G1 X78.148 Y76.206 E0.01309
G1 X78.616 Y76.069 E0.02279
G1 X78.321 Y76.734 E0.03726
G1 X78.225 Y77.125 E0.04527
G1 X78.211 Y77.315 E0.04906
G1 X77.871 Y77.33 E0.05582
G1 X77.823 Y77.042 E0.06164
G1 X77.698 Y76.651 E0.06981
G1 X77.494 Y76.283 E0.07817
G92 E0
G1 E-0.8 F3000
; acceleration to travel
M204 S4000
G1 X78.228 Y78.026 F12000
; decel to extrusion
M204 S2000
G1 X78.595 Y78.898
; end travel
G1 E0 F1800
G1 X78.008 Y78.894 E0.01167
G1 X77.55 Y78.994 E0.02101
G1 X77.779 Y78.47 E0.0324
G1 X77.898 Y77.94 E0.04321
G1 X78.192 Y77.928 E0.04906
G1 X78.34 Y78.407 E0.05902
G1 X78.595 Y78.898 E0.07003
G92 E0
G1 E-0.8 F3000
; acceleration to travel
M204 S4000
G1 X83.859 Y87.935 F12000
; decel to extrusion
M204 S2000
G1 X86.492 Y92.453
; end travel
G1 E0 F1800
G1 X86.201 Y93.287 E0.01757
G1 X85.82 Y92.891 E0.0285
G1 X85.59 Y92.791 E0.03349
G1 X85.645 Y92.492 E0.03955
G1 X86.492 Y92.453 E0.05641
G92 E0
G1 E-0.8 F3000
; acceleration to travel
M204 S4000
G1 X86.766 Y94.431 F12000
; decel to extrusion
M204 S2000
G1 X86.903 Y95.419
; end travel
G1 E0 F1800
G1 X86.547 Y95.978 E0.01318
G1 X86.338 Y95.011 E0.03287
G1 X86.903 Y95.419 E0.04674
; acceleration to travel
M204 S4000
G1 X86.514 Y94.464 F12000
; decel to extrusion
M204 S2000
G1 X86.319 Y93.986
; end travel
G1 F1800
G1 X86.58 Y94.435 E0.05705
G1 X86.911 Y94.835 E0.06738
G1 X87.321 Y95.131 E0.07745
G1 X87.659 Y95.262 E0.08466
G1 X87.378 Y95.564 E0.09287
G1 X86.756 Y96.54 E0.11589
G1 X86.534 Y96.805 E0.12277
G1 X86.286 Y97.016 E0.12925
G1 X86.126 Y96.708 E0.13615
G1 X86.071 Y96.499 E0.14044
G1 X86.018 Y95.797 E0.15446
G1 X85.94 Y95.437 E0.16179
G1 X85.463 Y94.872 E0.17649
G1 X85.751 Y94.676 E0.18342
G1 X85.982 Y94.468 E0.18962
G1 X86.319 Y93.986 E0.20131
G92 E0
G1 E-0.8 F3000
; acceleration to travel
M204 S4000
G1 X87.786 Y92.434 F12000
; decel to extrusion
M204 S2000
G1 X88.52 Y91.658
; end travel
G1 E0 F1800
G1 X87.691 Y91.658 E0.01649
G1 X87.769 Y91.153 E0.02666
G1 X87.799 Y90.203 E0.04557
G1 X87.819 Y90.044 E0.04876
M73 P2 R20
G1 X88.102 Y89.998 E0.05447
G1 X88.173 Y90.147 E0.05776
G1 X88.668 Y91.658 E0.0894
G1 X88.52 Y91.658 E0.09235
; acceleration to travel
M204 S4000
G1 X89.112 Y92.051 F12000
; decel to extrusion
M204 S2000
G1 X89.408 Y92.247
; end travel
G1 F1800
G1 X90.467 Y92.297 E0.11344
G1 X90.802 Y92.341 E0.12016
G1 X91.374 Y92.46 E0.13179
G1 X91.918 Y92.629 E0.14313
G1 X89.933 Y93.636 E0.18743
G1 X89.886 Y93.184 E0.19647
G1 X89.774 Y92.871 E0.20308
G1 X89.408 Y92.247 E0.21749
G92 E0
G1 E-0.8 F3000
; acceleration to travel
M204 S4000
G1 X89.555 Y93.658 F12000
; decel to extrusion
M204 S2000
G1 X89.628 Y94.364
; end travel
G1 E0 F1800
G1 X89.776 Y94.82 E0.00953
G1 X90.147 Y95.689 E0.02833
G1 X90.261 Y96.004 E0.035
G1 X90.354 Y96.398 E0.04305
G1 X90.375 Y96.711 E0.0493
G1 X90.059 Y96.723 E0.0556
G1 X89.974 Y96.657 E0.05774
G1 X89.701 Y96.369 E0.06563
G1 X89.074 Y95.528 E0.08649
G1 X88.746 Y95.143 E0.09656
G1 X89.102 Y94.912 E0.105
G1 X89.373 Y94.671 E0.1122
G1 X89.628 Y94.364 E0.12016
G92 E0
G1 E-0.8 F3000
; acceleration to travel
M204 S4000
G1 X78.606 Y76.052 F12000
; decel to extrusion
M204 S2000
G1 X73.095 Y66.896
; end travel
G1 E0 F1800
G1 X73.091 Y67.884 E0.01965
G1 X72.811 Y67.961 E0.02543
G1 X72.515 Y67.47 E0.03684
G1 X72.11 Y67.036 E0.04866
G1 X70.962 Y66.034 E0.07897
G1 X70.459 Y65.555 E0.0928
G1 X69.939 Y64.959 E0.10853
G1 X69.321 Y64.117 E0.1293
G1 X67.865 Y61.814 E0.18351
G1 X67.259 Y60.955 E0.20444
G1 X66.623 Y60.189 E0.22424
G1 X65.881 Y59.428 E0.24538
G1 X57.572 Y59.428 E0.4107
G1 X57.738 Y61.431 E0.45067
G1 X57.879 Y62.518 E0.4725
G1 X57.903 Y62.877 E0.47965
G1 X57.903 Y63.443 E0.49091
G1 X57.863 Y63.863 E0.49931
G1 X57.787 Y64.167 E0.50554
G1 X57.619 Y64.558 E0.514
G1 X57.411 Y64.943 E0.52271
G1 X57.194 Y65.249 E0.53018
G1 X56.934 Y65.523 E0.53769
G1 X56.658 Y65.723 E0.54446
G1 X56.392 Y65.854 E0.55036
G1 X56.079 Y65.946 E0.55687
G1 X55.655 Y66.002 E0.56537
G1 X55.164 Y65.993 E0.57514
G1 X54.212 Y65.862 E0.59425
G1 X52.977 Y65.619 E0.61929
G1 X51.83 Y65.331 E0.64283
G1 X51.388 Y65.302 E0.65164
G1 X50.999 Y65.422 E0.65973
G1 X50.373 Y65.773 E0.67401
G1 X49.917 Y66.051 E0.68464
G1 X49.599 Y66.286 E0.69252
G1 X49.271 Y66.656 E0.70236
G1 X48.998 Y67.128 E0.7132
G1 X48.307 Y68.645 E0.74636
G1 X47.858 Y69.749 E0.77007
G1 X47.688 Y70.245 E0.78051
G1 X47.603 Y70.596 E0.78769
G1 X47.571 Y70.921 E0.7942
G1 X47.593 Y71.252 E0.80079
G1 X47.693 Y71.539 E0.80683
G1 X47.898 Y71.842 E0.81411
G1 X48.458 Y72.388 E0.82968
G1 X48.256 Y73.57 E0.85354
G1 X48.858 Y74.977 E0.88399
G1 X47.996 Y74.713 E0.90193
G1 X47.815 Y74.718 E0.90552
G1 X47.548 Y74.726 E0.91085
G1 X47.061 Y74.962 E0.92162
G1 X46.821 Y75.301 E0.92988
G1 X46.69 Y75.57 E0.93582
G1 X46.561 Y75.95 E0.94381
G1 X46.484 Y76.29 E0.95075
G1 X46.453 Y76.622 E0.95738
G1 X46.482 Y77.132 E0.96754
G1 X46.127 Y77.176 E0.97466
G1 X46.05 Y76.778 E0.98274
G1 X45.881 Y76.255 E0.99366
G1 X45.65 Y75.76 E1.00452
G1 X45.374 Y75.315 E1.01496
G1 X45.036 Y74.901 E1.02559
G1 X44.616 Y74.516 E1.03692
G1 X44.169 Y74.292 E1.04687
G1 X43.693 Y74.268 E1.05636
G1 X43.358 Y74.369 E1.0633
G1 X43.058 Y74.547 E1.07025
G1 X42.753 Y74.828 E1.0785
G1 X42.559 Y75.05 E1.08437
G1 X42.392 Y75.309 E1.09049
G1 X42.246 Y75.669 E1.09823
G1 X42.155 Y76.138 E1.10774
G1 X42.119 Y76.614 E1.11723
G1 X42.131 Y77.074 E1.12639
G1 X42.193 Y77.586 E1.13664
G1 X42.322 Y78.127 E1.14771
G1 X42.51 Y78.623 E1.15826
G1 X42.744 Y79.06 E1.16812
G1 X43.024 Y79.437 E1.17747
G1 X43.344 Y79.739 E1.18621
G1 X43.69 Y79.964 E1.19443
G1 X44.109 Y80.119 E1.20333
G1 X44.517 Y80.148 E1.21146
G1 X44.854 Y80.072 E1.21833
G1 X45.174 Y79.916 E1.22542
G1 X45.477 Y79.659 E1.23331
G1 X45.733 Y79.335 E1.24154
G1 X45.936 Y78.956 E1.25009
G1 X46.069 Y78.581 E1.25801
G1 X46.147 Y78.187 E1.26601
G1 X46.176 Y77.732 E1.27507
G1 X46.156 Y77.445 E1.2808
G1 X46.523 Y77.405 E1.28815
G1 X46.552 Y77.607 E1.2922
G1 X46.675 Y78.165 E1.30357
G1 X46.812 Y78.599 E1.31263
G1 X46.96 Y78.919 E1.31965
