; HEADER_BLOCK_START
; generated by OrcaSlicer 1.6.3 on 2023-06-04 at 19:35:11
; total layer number: 87
; HEADER_BLOCK_END

; THUMBNAIL_BLOCK_START
; THUMBNAIL_BLOCK_END

; external perimeters extrusion width = 0.40mm
; perimeters extrusion width = 0.45mm
; infill extrusion width = 0.45mm
; solid infill extrusion width = 0.40mm
; top infill extrusion width = 0.40mm
; first layer extrusion width = 0.50mm

; EXECUTABLE_BLOCK_START
EXCLUDE_OBJECT_DEFINE NAME=Bottom_Plate.stl_id_0_copy_0 CENTER=60,60 POLYGON=[[32.5003,40.2904],[32.5034,40.1765],[32.5216,39.9032],[32.5335,39.7899],[32.5727,39.5188],[32.5934,39.4068],[32.6535,39.1396],[32.6828,39.0295],[32.7635,38.7677],[32.8012,38.6602],[32.9019,38.4055],[32.9479,38.3013],[33.068,38.0551],[33.1219,37.9548],[33.2608,37.7186],[33.3222,37.6228],[33.479,37.3981],[33.5477,37.3073],[33.7215,37.0954],[33.797,37.0103],[33.9866,36.8125],[34.0685,36.7335],[34.2729,36.5509],[34.3606,36.4785],[34.5786,36.3123],[34.6716,36.247],[34.9019,36.0982],[34.9997,36.0402],[35.2408,35.9097],[35.3428,35.8595],[35.5933,35.7481],[35.6988,35.7059],[35.9572,35.6142],[36.0657,35.5804],[36.3304,35.509],[36.4412,35.4837],[36.7107,35.433],[36.823,35.4163],[37.0957,35.3867],[37.209,35.3788],[37.4831,35.3704],[82.5046,35.3357],[82.5966,35.3367],[82.8925,35.3512],[82.9837,35.3592],[83.278,35.3967],[83.3679,35.4117],[83.6588,35.472],[83.7469,35.4938],[84.0326,35.5765],[84.1183,35.605],[84.3972,35.7098],[84.4801,35.7447],[84.7503,35.8709],[84.8299,35.9119],[85.0899,36.059],[85.1657,36.1058],[85.4138,36.2728],[85.4855,36.3251],[85.7202,36.5111],[85.7873,36.5686],[86.0072,36.7725],[86.0693,36.8347],[86.2731,37.0553],[86.3299,37.1218],[86.5162,37.3579],[86.5674,37.4283],[86.7351,37.6784],[86.7805,37.7522],[86.9285,38.015],[86.9678,38.0918],[87.0952,38.3656],[87.1283,38.4447],[87.2341,38.728],[87.2609,38.8091],[87.3446,39.1001],[87.3649,39.1827],[87.4258,39.4797],[87.4396,39.5632],[87.4774,39.8644],[87.4846,39.9483],[87.499,40.252],[87.4997,40.3357],[87.4904,40.64],[87.4846,40.7232],[87.4518,41.0263],[82.4659,80.2452],[82.4514,80.3577],[82.406,80.6283],[82.3844,80.7321],[82.3165,81.0056],[82.2891,81.1004],[82.1981,81.3748],[82.1661,81.4604],[82.0515,81.7338],[82.0161,81.8099],[81.8775,82.0803],[81.84,82.1471],[81.6771,82.4123],[81.6387,82.4699],[81.4516,82.7277],[81.4134,82.7764],[81.2024,83.0248],[81.1655,83.065],[80.9309,83.3016],[80.8964,83.3338],[80.6387,83.5566],[80.6077,83.5814],[80.3277,83.7881],[80.3009,83.8064],[79.9997,83.9949],[79.9779,84.0074],[79.6566,84.1756],[79.6406,84.1832],[79.3006,84.3292],[79.2909,84.3329],[78.9337,84.4547],[78.9308,84.4556],[78.5624,84.5505],[78.5582,84.5514],[78.1879,84.6172],[78.1763,84.6187],[77.8094,84.6551],[77.7904,84.6563],[77.4291,84.6642],[42.5702,84.6642],[42.4027,84.6638],[42.1899,84.6551],[42.0156,84.6413],[41.8114,84.6172],[41.6314,84.5888],[41.4369,84.5505],[41.2525,84.5067],[41.0686,84.4556],[40.881,84.3955],[40.7085,84.3329],[40.5193,84.2558],[40.3588,84.1832],[40.1695,84.0886],[40.0214,84.0074],[39.8337,83.8947],[39.6985,83.8064],[39.5139,83.6754],[39.3917,83.5814],[39.2121,83.4319],[39.1029,83.3338],[38.93,83.1658],[38.8338,83.065],[38.6695,82.8787],[38.5859,82.7764],[38.4319,82.5722],[38.3607,82.4699],[38.2188,82.2482],[38.1594,82.1471],[38.0315,81.9087],[37.9832,81.8099],[37.8711,81.5557],[37.8332,81.4604],[37.7384,81.1914],[37.7102,81.1004],[37.6345,80.8178],[37.6149,80.7321],[37.5597,80.4373],[37.5479,80.3577],[32.5335,40.9508],[32.5092,40.6781],[32.5034,40.5642],[32.5003,40.2904]]
M73 P0 R26
;TYPE:Custom
START_PRINT T_BED=110 T_EXTRUDER=260
G90
G21
M83 ; use relative distances for extrusion
; Filament gcode

    PRESSURE_ADVANCE_SELECT FILAMENT=ABS
M106 S0
;LAYER_CHANGE
;Z:0.2
;HEIGHT:0.2
;BEFORE_LAYER_CHANGE
;0.2
G92 E0

;AFTER_LAYER_CHANGE
;0.2
SET_VELOCITY_LIMIT ACCEL_TO_DECEL=500
M204 S1000
G1 E-.5 F3000
G1 Z.2 F21000
G1 X32.482 Y34.252
G1 E.5 F1800
;TYPE:Skirt
;WIDTH:0.5
G1 F3000
G1 X33.826 Y33.362 E.05675
G1 X35.168 Y32.809 E.05109
G1 X36.142 Y32.575 E.03523
G1 X36.975 Y32.475 E.02954
G1 X82.622 Y32.424 E1.60649
G1 X84.226 Y32.614 E.05684
G1 X85.601 Y33.056 E.05086
G1 X87.021 Y33.842 E.05709
G1 X88.132 Y34.778 E.05114
G1 X89.143 Y36.037 E.05681
G1 X89.817 Y37.324 E.05114
G1 X90.276 Y38.872 E.05681
G1 X90.409 Y40.092 E.04321
G1 X90.342 Y41.395 E.04592
G1 X85.343 Y80.723 E1.39525
G1 X85.111 Y81.828 E.03971
G1 X84.695 Y82.958 E.04239
G1 X84.113 Y84.01 E.04232
G1 X83.625 Y84.674 E.02899
G1 X82.505 Y85.793 E.05572
G1 X81.838 Y86.282 E.02911
G1 X80.988 Y86.767 E.03445
G1 X79.658 Y87.277 E.05013
G1 X78.698 Y87.486 E.03457
G1 X77.879 Y87.568 E.02898
G1 X42.115 Y87.568 E1.25866
G1 X40.706 Y87.372 E.05006
G1 X39.558 Y87.011 E.04235
G1 X38.484 Y86.483 E.04213
G1 X37.498 Y85.796 E.04227
G1 X36.624 Y84.965 E.04245
G1 X35.688 Y83.692 E.05561
G1 X35.076 Y82.403 E.05024
G1 X34.68 Y80.873 E.05559
G1 X29.658 Y41.435 E1.3992
G1 X29.612 Y39.741 E.05962
G1 X29.858 Y38.318 E.05085
G1 X30.436 Y36.805 E.05699
G1 X30.853 Y36.077 E.02952
G1 X31.447 Y35.273 E.03519
G1 X32.439 Y34.294 E.04905
G1 X32.758 Y34.617 F21000
G1 F3000
G1 X32.763 Y34.613 E.00024
G1 X34.048 Y33.761 E.05426
G1 X35.292 Y33.249 E.04735
G1 X36.994 Y32.932 E.06093
G1 X82.604 Y32.881 E1.60517
G1 X84.137 Y33.062 E.05434
G1 X85.412 Y33.472 E.04713
G1 X86.769 Y34.223 E.05458
G1 X87.799 Y35.091 E.0474
G1 X88.765 Y36.294 E.05432
G1 X89.39 Y37.487 E.0474
G1 X89.829 Y38.967 E.05432
G1 X89.955 Y40.307 E.04738
G1 X89.889 Y41.337 E.03632
G1 X84.871 Y80.787 E1.39959
G1 X84.669 Y81.713 E.03335
G1 X84.275 Y82.778 E.03994
G1 X83.725 Y83.768 E.03988
G1 X83.03 Y84.665 E.03991
G1 X82.061 Y85.562 E.04647
G1 X80.608 Y86.442 E.0598
G1 X78.993 Y86.97 E.05979
G1 X77.436 Y87.121 E.05506
G1 X42.126 Y87.111 E1.24267
G1 X40.82 Y86.929 E.04641
G1 X39.738 Y86.59 E.03991
G1 X38.726 Y86.095 E.03968
G1 X37.507 Y85.202 E.05318
G1 X36.719 Y84.373 E.04024
G1 X35.983 Y83.288 E.04615
G1 X35.508 Y82.255 E.04
G1 X35.13 Y80.793 E.05316
G1 X30.111 Y41.377 E1.39838
G1 X30.068 Y39.767 E.05671
G1 X30.296 Y38.447 E.04713
G1 X30.849 Y37.001 E.05448
G1 X31.804 Y35.559 E.06087
G1 X32.715 Y34.66 E.04506
; printing object Bottom Plate.stl id:0 copy 0
EXCLUDE_OBJECT_START NAME=Bottom_Plate.stl_id_0_copy_0
G1 E-.5
G1 Z.4 F21000
G1 X77.382 Y41.954
M73 P0 R25
G1 Z.2
G1 E.5 F1800
;TYPE:Inner wall
;WIDTH:0.499999
G1 F3000
G1 X77.612 Y42.586 E.02367
G1 X77.899 Y43.133 E.02174
G1 X78.126 Y43.48 E.01458
G1 X78.539 Y43.993 E.02318
G1 X79.001 Y44.428 E.02232
G1 X79.413 Y44.767 E.01879
G1 X79.946 Y45.08 E.02174
G1 X80.54 Y45.366 E.02319
G1 X81.14 Y45.561 E.02221
G1 X81.974 Y45.704 E.02979
G1 X81.54 Y46.528 E.03278
G1 X81.081 Y47.548 E.03937
G1 X80.851 Y48.129 E.022
G1 X80.6 Y48.856 E.02708
G1 X80.396 Y49.54 E.02511
G1 X79.784 Y49.067 E.02724
G1 X79.248 Y48.798 E.02109
G1 X78.767 Y48.606 E.01825
G1 X78.276 Y48.498 E.0177
G1 X77.749 Y48.423 E.01871
G1 X77.11 Y48.439 E.02252
G1 X76.607 Y48.515 E.01788
G1 X76.12 Y48.648 E.01778
G1 X75.643 Y48.842 E.01814
G1 X75.199 Y49.086 E.01784
G1 X74.78 Y49.387 E.01814
G1 X74.406 Y49.729 E.01784
G1 X74.07 Y50.119 E.01814
G1 X73.784 Y50.544 E.01802
G1 X73.547 Y51.01 E.01839
G1 X73.372 Y51.482 E.01772
G1 X73.252 Y51.98 E.01802
G1 X73.194 Y52.477 E.01764
G1 X73.194 Y52.999 E.01834
G1 X73.254 Y53.496 E.01763
G1 X73.376 Y54.003 E.01834
G1 X73.551 Y54.472 E.01764
G1 X73.789 Y54.935 E.01833
G1 X74.07 Y55.351 E.01765
G1 X74.406 Y55.741 E.01814
G1 X74.78 Y56.084 E.01784
G1 X75.199 Y56.384 E.01814
G1 X75.642 Y56.629 E.01783
G1 X76.12 Y56.822 E.01814
G1 X76.607 Y56.956 E.01778
G1 X77.119 Y57.032 E.0182
G1 X77.625 Y57.047 E.01784
G1 X78.139 Y57.001 E.01814
G1 X78.625 Y56.9 E.01747
G1 X79.123 Y56.732 E.01851
G1 X79.778 Y56.389 E.02604
G1 X79.778 Y59.079 E.09468
G1 X79.584 Y58.956 E.00808
G1 X79.119 Y58.735 E.01814
G1 X78.639 Y58.572 E.01784
G1 X78.134 Y58.466 E.01814
G1 X77.668 Y58.419 E.01649
G1 X77.117 Y58.436 E.01941
G1 X76.607 Y58.513 E.01814
G1 X76.12 Y58.646 E.01778
G1 X75.642 Y58.84 E.01814
G1 X75.199 Y59.084 E.01783
G1 X74.78 Y59.385 E.01814
G1 X74.322 Y59.824 E.02232
G1 X73.997 Y59.562 E.01468
G1 X73.535 Y59.333 E.01817
G1 X72.951 Y59.153 E.0215
G1 X72.41 Y59.12 E.01906
G1 X71.874 Y59.187 E.01901
G1 X61.901 Y61.575 E.36094
G1 X61.402 Y61.807 E.01937
G1 X60.925 Y62.147 E.02063
G1 X60.562 Y62.543 E.01888
G1 X60.277 Y63.023 E.01963
G1 X60.083 Y63.647 E.023
G1 X59.909 Y63.646 E.00615
G1 X59.792 Y63.236 E.01501
G1 X59.614 Y62.818 E.01598
G1 X59.361 Y62.458 E.0155
G1 X58.886 Y61.99 E.02346
G1 X58.483 Y61.743 E.01663
G1 X57.942 Y61.535 E.02042
G1 X48.122 Y59.22 E.35507
G1 X47.586 Y59.155 E.01898
G1 X47.11 Y59.176 E.01679
G1 X46.53 Y59.327 E.02108
G1 X46.075 Y59.557 E.01796
G1 X45.697 Y59.834 E.01647
G1 X45.413 Y59.552 E.01409
G1 X45.013 Y59.227 E.01814
G1 X44.584 Y58.956 E.01784
G1 X44.119 Y58.735 E.01814
G1 X43.639 Y58.572 E.01784
G1 X43.134 Y58.466 E.01814
G1 X42.668 Y58.419 E.01649
G1 X42.117 Y58.436 E.01941
G1 X41.607 Y58.513 E.01814
G1 X41.12 Y58.646 E.01778
G1 X40.643 Y58.84 E.01814
G1 X40.221 Y59.072 E.01695
G1 X40.221 Y56.396 E.09416
G1 X40.643 Y56.629 E.01694
G1 X41.12 Y56.822 E.01814
G1 X41.607 Y56.956 E.01778
G1 X42.119 Y57.032 E.0182
G1 X42.625 Y57.047 E.01784
G1 X43.139 Y57.001 E.01814
G1 X43.635 Y56.897 E.01784
G1 X44.123 Y56.732 E.01814
G1 X44.58 Y56.514 E.01784
G1 X45.016 Y56.239 E.01814
G1 X45.413 Y55.916 E.01802
G1 X45.777 Y55.54 E.01839
G1 X46.028 Y55.224 E.01421
G1 X46.331 Y54.716 E.02083
G1 X46.541 Y54.245 E.01815
G1 X46.693 Y53.746 E.01834
G1 X46.783 Y53.253 E.01763
G1 X46.813 Y52.733 E.01835
G1 X46.784 Y52.233 E.01763
G1 X46.692 Y51.72 E.01835
G1 X46.544 Y51.235 E.01784
G1 X46.336 Y50.763 E.01813
G1 X46.079 Y50.327 E.01783
G1 X45.766 Y49.917 E.01814
G1 X45.413 Y49.554 E.01784
G1 X45.013 Y49.229 E.01814
G1 X44.584 Y48.958 E.01784
G1 X44.119 Y48.737 E.01814
G1 X43.328 Y48.509 E.02898
G1 X42.749 Y48.423 E.02057
G1 X42.11 Y48.439 E.02252
G1 X41.607 Y48.515 E.01788
G1 X41.12 Y48.648 E.01778
G1 X40.643 Y48.842 E.01814
G1 X40.145 Y49.125 E.02016
G1 X39.592 Y49.539 E.02429
G1 X39.363 Y48.778 E.02797
G1 X39.107 Y48.054 E.027
G1 X38.82 Y47.343 E.027
G1 X38.543 Y46.731 E.02364
G1 X38.006 Y45.704 E.04077
G1 X38.61 Y45.62 E.02146
G1 X39.206 Y45.458 E.02174
G1 X39.8 Y45.209 E.02267
G1 X40.511 Y44.812 E.02864
G1 X41.001 Y44.437 E.02174
G1 X41.302 Y44.157 E.01446
G1 X41.712 Y43.695 E.02174
G1 X42.126 Y43.07 E.02636
G1 X42.451 Y42.44 E.02495
G1 X42.618 Y41.964 E.01776
G1 X43.603 Y42.959 E.04926
G1 X44.741 Y43.996 E.05419
G1 X45.241 Y44.419 E.02305
G1 X49.759 Y47.964 E.20209
G1 X50.877 Y48.705 E.04723
G1 X51.557 Y49.096 E.0276
G1 X52.255 Y49.455 E.02762
G1 X52.879 Y49.734 E.02407
G1 X52.483 Y49.985 E.01648
G1 X52.086 Y50.308 E.01802
G1 X51.723 Y50.683 E.01839
G1 X51.418 Y51.084 E.01772
G1 X51.16 Y51.522 E.01788
G1 X50.958 Y51.979 E.01757
G1 X50.806 Y52.477 E.01834
G1 X50.717 Y52.97 E.01763
G1 X50.686 Y53.49 E.01835
G1 X50.715 Y53.991 E.01763
G1 X50.805 Y54.492 E.01793
G1 X50.952 Y54.981 E.01798
G1 X51.163 Y55.46 E.0184
G1 X51.421 Y55.896 E.01784
G1 X51.733 Y56.306 E.01814
G1 X52.086 Y56.67 E.01784
G1 X52.487 Y56.994 E.01814
G1 X52.915 Y57.265 E.01784
G1 X53.38 Y57.486 E.01814
G1 X53.861 Y57.649 E.01784
G1 X54.365 Y57.755 E.01814
G1 X54.87 Y57.8 E.01784
G1 X55.385 Y57.785 E.01814
G1 X55.886 Y57.71 E.01784
G1 X56.383 Y57.574 E.01814
G1 X56.853 Y57.384 E.01784
G1 X57.304 Y57.135 E.01814
G1 X57.716 Y56.839 E.01784
G1 X58.096 Y56.491 E.01814
G1 X58.427 Y56.107 E.01784
G1 X58.715 Y55.68 E.01814
G1 X58.947 Y55.229 E.01784
G1 X59.126 Y54.746 E.01814
G1 X59.245 Y54.253 E.01784
G1 X59.306 Y53.742 E.01814
G1 X59.306 Y53.235 E.01784
G1 X59.245 Y52.723 E.01814
G1 X59.126 Y52.23 E.01784
G1 X58.884 Y51.596 E.02389
G1 X58.613 Y51.145 E.01851
G1 X59.297 Y51.184 E.02409
G1 X60.429 Y51.184 E.03984
G1 X61.397 Y51.118 E.03417
G1 X61.16 Y51.522 E.01648
G1 X60.956 Y51.984 E.01777
G1 X60.806 Y52.477 E.01814
G1 X60.716 Y52.976 E.01784
G1 X60.686 Y53.49 E.01814
G1 X60.716 Y53.996 E.01784
G1 X60.807 Y54.503 E.01814
G1 X60.955 Y54.988 E.01784
G1 X61.162 Y55.46 E.01814
G1 X61.42 Y55.896 E.01784
G1 X61.733 Y56.306 E.01814
G1 X62.086 Y56.669 E.01784
G1 X62.486 Y56.994 E.01814
G1 X62.915 Y57.265 E.01784
G1 X63.38 Y57.486 E.01814
G1 X63.86 Y57.649 E.01784
G1 X64.365 Y57.755 E.01813
G1 X64.869 Y57.8 E.01783
G1 X65.384 Y57.785 E.01814
G1 X65.886 Y57.71 E.01784
G1 X66.383 Y57.574 E.01814
G1 X66.853 Y57.383 E.01784
G1 X67.304 Y57.135 E.01814
G1 X67.716 Y56.839 E.01784
G1 X68.096 Y56.491 E.01814
G1 X68.427 Y56.107 E.01784
G1 X68.715 Y55.68 E.01814
G1 X68.946 Y55.229 E.01784
G1 X69.128 Y54.741 E.01834
G1 X69.245 Y54.253 E.01764
G1 X69.306 Y53.736 E.01834
G1 X69.306 Y53.235 E.01763
G1 X69.244 Y52.717 E.01834
G1 X69.126 Y52.23 E.01764
G1 X68.946 Y51.747 E.01815
G1 X68.715 Y51.296 E.01783
G1 X68.427 Y50.869 E.01814
G1 X68.096 Y50.485 E.01784
G1 X67.448 Y49.929 E.03005
G1 X66.933 Y49.637 E.02085
G1 X67.359 Y49.442 E.01651
G1 X68.501 Y48.833 E.04553
G1 X72.098 Y46.572 E.14952
G1 X72.941 Y45.985 E.03617
G1 X73.664 Y45.445 E.03176
G1 X74.289 Y44.95 E.02805
G1 X75.272 Y44.098 E.04578
G1 X75.67 Y43.735 E.01895
G1 X76.485 Y42.931 E.04031
G1 X76.957 Y42.439 E.02399
G1 X77.343 Y41.999 E.02057
G1 E-.5
G1 Z.4 F21000
G1 X77.635 Y40.973
G1 Z.2
G1 E.5 F1800
G1 F3000
G1 X77.714 Y41.466 E.01757
G1 X77.894 Y42.072 E.02222
G1 X78.034 Y42.407 E.01281
G1 X78.483 Y43.194 E.03186
G1 X78.892 Y43.702 E.02298
G1 X79.295 Y44.079 E.01942
G1 X79.844 Y44.5 E.02435
G1 X80.553 Y44.884 E.02838
G1 X81.051 Y45.052 E.01848
G1 X81.6 Y45.198 E.02
G1 X82.214 Y45.272 E.02174
G1 X82.764 Y45.264 E.01938
G1 X82.203 Y46.231 E.03933
G1 X81.948 Y46.734 E.01988
G1 X81.505 Y47.717 E.03793
G1 X81.16 Y48.631 E.03438
G1 X80.975 Y49.198 E.021
G1 X80.825 Y49.705 E.01862
G1 X80.632 Y50.495 E.0286
G1 X80.403 Y50.195 E.01328
G1 X80.077 Y49.87 E.01619
G1 X79.545 Y49.456 E.02373
G1 X79.051 Y49.211 E.01939
G1 X78.545 Y49.022 E.01904
G1 X77.907 Y48.893 E.02288
G1 X77.378 Y48.873 E.01864
G1 X76.847 Y48.941 E.01883
G1 X76.292 Y49.071 E.02008
G1 X75.814 Y49.265 E.01814
G1 X75.465 Y49.458 E.01403
G1 X75.046 Y49.758 E.01814
G1 X74.752 Y50.027 E.01403
G1 X74.416 Y50.418 E.01814
G1 X74.191 Y50.752 E.01418
G1 X73.954 Y51.217 E.01839
G1 X73.816 Y51.589 E.01394
G1 X73.698 Y52.083 E.01788
G1 X73.651 Y52.477 E.01398
G1 X73.651 Y52.993 E.01814
G1 X73.698 Y53.389 E.01403
G1 X73.819 Y53.89 E.01814
G1 X73.958 Y54.263 E.01403
G1 X74.193 Y54.722 E.01814
G1 X74.416 Y55.053 E.01403
G1 X74.886 Y55.582 E.02492
G1 X75.375 Y55.948 E.02151
G1 X75.814 Y56.205 E.01789
G1 X76.292 Y56.399 E.01814
G1 X76.675 Y56.504 E.01398
G1 X77.177 Y56.579 E.01785
G1 X77.585 Y56.592 E.01437
G1 X78.098 Y56.546 E.01814
G1 X78.48 Y56.467 E.01374
G1 X78.976 Y56.299 E.01843
G1 X79.336 Y56.127 E.01403
G1 X79.772 Y55.852 E.01814
G1 X80.236 Y55.443 E.02176
G1 X80.236 Y60.02 E.16111
G1 X80.125 Y59.907 E.00559
G1 X79.725 Y59.582 E.01814
G1 X79.388 Y59.369 E.01403
G1 X78.922 Y59.147 E.01814
G1 X78.545 Y59.02 E.01403
G1 X77.737 Y58.878 E.02884
G1 X77.183 Y58.888 E.01951
G1 X76.678 Y58.964 E.018
G1 X76.292 Y59.069 E.01407
G1 X75.814 Y59.263 E.01814
G1 X75.465 Y59.456 E.01404
G1 X75.046 Y59.756 E.01814
G1 X74.707 Y60.078 E.01647
G1 X74.338 Y60.517 E.02017
G1 X74.107 Y60.248 E.01246
G1 X73.746 Y59.944 E.01661
G1 X73.382 Y59.763 E.0143
G1 X72.866 Y59.602 E.01903
G1 X72.473 Y59.575 E.01387
G1 X71.981 Y59.631 E.01745
G1 X62.155 Y61.979 E.35555
G1 X61.774 Y62.12 E.01428
G1 X61.35 Y62.396 E.01781
G1 X61 Y62.722 E.01685
G1 X60.69 Y63.22 E.02063
G1 X60.55 Y63.653 E.01604
G1 X60.487 Y64.153 E.01772
G1 X59.984 Y64.099 E.0178
G1 X59.513 Y64.156 E.01672
G1 X59.45 Y63.685 E.01672
G1 X59.29 Y63.193 E.01818
G1 X59.083 Y62.84 E.01441
G1 X58.742 Y62.462 E.01792
G1 X58.293 Y62.161 E.01904
G1 X57.837 Y61.98 E.01726
G1 X48.017 Y59.664 E.35507
G1 X47.556 Y59.611 E.01633
G1 X47.098 Y59.643 E.01618
G1 X46.555 Y59.811 E.01998
G1 X46.06 Y60.123 E.02061
G1 X45.671 Y60.545 E.02017
G1 X45.403 Y60.193 E.01558
G1 X45.125 Y59.907 E.01403
G1 X44.725 Y59.582 E.01814
G1 X44.388 Y59.369 E.01403
G1 X43.922 Y59.147 E.01814
G1 X43.545 Y59.02 E.01403
G1 X42.737 Y58.878 E.02884
G1 X42.183 Y58.888 E.01951
