; HEADER_BLOCK_START
; generated by OrcaSlicer 1.7.0-beta on 2023-09-16 at 21:55:42
; total layer number: 82
; HEADER_BLOCK_END

; THUMBNAIL_BLOCK_START
; THUMBNAIL_BLOCK_END

; external perimeters extrusion width = 0.40mm
; perimeters extrusion width = 0.46mm
; infill extrusion width = 0.64mm
; solid infill extrusion width = 0.56mm
; top infill extrusion width = 0.40mm
; support material extrusion width = 0.46mm
; first layer extrusion width = 0.50mm

; external perimeters extrusion width = 0.40mm
; perimeters extrusion width = 0.46mm
; infill extrusion width = 0.64mm
; solid infill extrusion width = 0.56mm
; top infill extrusion width = 0.40mm
; support material extrusion width = 0.46mm
; first layer extrusion width = 0.50mm

; external perimeters extrusion width = 0.40mm
; perimeters extrusion width = 0.46mm
; infill extrusion width = 0.64mm
; solid infill extrusion width = 0.56mm
; top infill extrusion width = 0.40mm
; support material extrusion width = 0.46mm
; first layer extrusion width = 0.50mm

; external perimeters extrusion width = 0.40mm
; perimeters extrusion width = 0.46mm
; infill extrusion width = 0.64mm
; solid infill extrusion width = 0.56mm
; top infill extrusion width = 0.40mm
; support material extrusion width = 0.46mm
; first layer extrusion width = 0.50mm

; external perimeters extrusion width = 0.40mm
; perimeters extrusion width = 0.46mm
; infill extrusion width = 0.64mm
; solid infill extrusion width = 0.56mm
; top infill extrusion width = 0.40mm
; support material extrusion width = 0.46mm
; first layer extrusion width = 0.50mm

; external perimeters extrusion width = 0.40mm
; perimeters extrusion width = 0.46mm
; infill extrusion width = 0.64mm
; solid infill extrusion width = 0.56mm
; top infill extrusion width = 0.40mm
; support material extrusion width = 0.46mm
; first layer extrusion width = 0.50mm

; external perimeters extrusion width = 0.40mm
; perimeters extrusion width = 0.46mm
; infill extrusion width = 0.64mm
; solid infill extrusion width = 0.56mm
; top infill extrusion width = 0.40mm
; support material extrusion width = 0.46mm
; first layer extrusion width = 0.50mm

; external perimeters extrusion width = 0.40mm
; perimeters extrusion width = 0.46mm
; infill extrusion width = 0.64mm
; solid infill extrusion width = 0.56mm
; top infill extrusion width = 0.40mm
; support material extrusion width = 0.46mm
; first layer extrusion width = 0.50mm

; EXECUTABLE_BLOCK_START
EXCLUDE_OBJECT_DEFINE NAME=Bowden-Cable-ZipTie-Clip.stl_id_0_copy_0 CENTER=80.0606,83.658 POLYGON=[[74.0606,77.4669],[74.0644,77.3797],[74.0652,77.3732],[74.0758,77.2932],[74.0946,77.208],[74.1209,77.1248],[74.1543,77.0442],[74.1945,76.9669],[74.2414,76.8932],[74.2945,76.8241],[74.3534,76.7597],[74.3583,76.7553],[74.4178,76.7008],[74.487,76.6477],[74.5606,76.6008],[74.6379,76.5606],[74.7185,76.5272],[74.8018,76.5009],[74.8869,76.4821],[74.9734,76.4706],[75.0606,76.4669],[76.0606,76.4669],[85.0606,76.4669],[85.1477,76.4706],[85.1564,76.4718],[85.2342,76.4821],[85.2427,76.4839],[85.3194,76.5009],[85.4026,76.5272],[85.4106,76.5305],[85.4832,76.5606],[85.5606,76.6008],[85.6341,76.6477],[85.7034,76.7008],[85.7677,76.7597],[85.8266,76.8241],[85.8319,76.831],[85.8797,76.8932],[85.9266,76.9669],[85.9306,76.9746],[85.9669,77.0442],[85.9702,77.0523],[86.0003,77.1248],[86.0029,77.1331],[86.0265,77.208],[86.0454,77.2932],[86.0568,77.3797],[86.0606,77.4669],[86.0606,85.1668],[83.0629,90.2026],[82.8034,90.5679],[82.7148,90.6602],[82.6119,90.7364],[82.4978,90.7942],[82.3756,90.8322],[82.2487,90.8492],[77.8724,90.8492],[77.7456,90.8322],[77.6234,90.7942],[77.5092,90.7364],[77.4064,90.6602],[77.3177,90.5679],[77.0583,90.2026],[74.0606,85.1668],[74.0606,77.4669]]
EXCLUDE_OBJECT_DEFINE NAME=Bowden-Cable-ZipTie-Clip.stl_id_1_copy_0 CENTER=58.0606,83.658 POLYGON=[[52.0606,77.4669],[52.0644,77.3797],[52.0652,77.3732],[52.0758,77.2932],[52.0946,77.208],[52.1209,77.1248],[52.1543,77.0442],[52.1945,76.9669],[52.2414,76.8932],[52.2945,76.8241],[52.3534,76.7597],[52.3583,76.7553],[52.4178,76.7008],[52.487,76.6477],[52.5606,76.6008],[52.6379,76.5606],[52.7185,76.5272],[52.8018,76.5009],[52.8869,76.4821],[52.9734,76.4706],[53.0606,76.4669],[54.0606,76.4669],[63.0606,76.4669],[63.1477,76.4706],[63.1564,76.4718],[63.2342,76.4821],[63.2427,76.4839],[63.3194,76.5009],[63.4026,76.5272],[63.4106,76.5305],[63.4832,76.5606],[63.5606,76.6008],[63.6341,76.6477],[63.7034,76.7008],[63.7677,76.7597],[63.8266,76.8241],[63.8319,76.831],[63.8797,76.8932],[63.9266,76.9669],[63.9306,76.9746],[63.9669,77.0442],[63.9702,77.0523],[64.0003,77.1248],[64.0029,77.1331],[64.0265,77.208],[64.0454,77.2932],[64.0567,77.3797],[64.0606,77.4669],[64.0606,85.1668],[61.0629,90.2026],[60.8034,90.5679],[60.7148,90.6602],[60.6119,90.7364],[60.4978,90.7942],[60.3756,90.8322],[60.2487,90.8492],[55.8724,90.8492],[55.7456,90.8322],[55.6234,90.7942],[55.5092,90.7364],[55.4064,90.6602],[55.3177,90.5679],[55.0582,90.2026],[52.0606,85.1668],[52.0606,77.4669]]
EXCLUDE_OBJECT_DEFINE NAME=Bowden-Cable-ZipTie-Clip.stl_id_2_copy_0 CENTER=58.0606,59.2758 POLYGON=[[52.0606,53.0846],[52.0644,52.9974],[52.0652,52.9909],[52.0758,52.9109],[52.0946,52.8258],[52.1209,52.7425],[52.1543,52.662],[52.1945,52.5846],[52.2414,52.511],[52.2945,52.4418],[52.3534,52.3775],[52.3583,52.3731],[52.4178,52.3185],[52.487,52.2654],[52.5606,52.2186],[52.6379,52.1783],[52.7185,52.1449],[52.8018,52.1187],[52.8869,52.0998],[52.9734,52.0884],[53.0606,52.0846],[54.0606,52.0846],[63.0606,52.0846],[63.1477,52.0884],[63.1564,52.0895],[63.2342,52.0998],[63.2427,52.1017],[63.3194,52.1187],[63.4026,52.1449],[63.4106,52.1482],[63.4832,52.1783],[63.5606,52.2186],[63.6341,52.2654],[63.7034,52.3185],[63.7677,52.3775],[63.8266,52.4418],[63.8319,52.4487],[63.8797,52.511],[63.9266,52.5846],[63.9306,52.5923],[63.9669,52.662],[63.9702,52.67],[64.0003,52.7425],[64.0029,52.7509],[64.0265,52.8258],[64.0454,52.9109],[64.0567,52.9974],[64.0606,53.0846],[64.0606,60.7846],[61.0629,65.8203],[60.8034,66.1856],[60.7148,66.2779],[60.6119,66.3541],[60.4978,66.412],[60.3756,66.45],[60.2487,66.4669],[55.8724,66.4669],[55.7456,66.45],[55.6234,66.412],[55.5092,66.3541],[55.4064,66.2779],[55.3177,66.1856],[55.0582,65.8203],[52.0606,60.7846],[52.0606,53.0846]]
EXCLUDE_OBJECT_DEFINE NAME=Bowden-Cable-ZipTie-Clip.stl_id_3_copy_0 CENTER=80.0606,59.2758 POLYGON=[[74.0606,53.0846],[74.0644,52.9974],[74.0652,52.9909],[74.0758,52.9109],[74.0946,52.8258],[74.1209,52.7425],[74.1543,52.662],[74.1945,52.5846],[74.2414,52.511],[74.2945,52.4418],[74.3534,52.3775],[74.3583,52.3731],[74.4178,52.3185],[74.487,52.2654],[74.5606,52.2186],[74.6379,52.1783],[74.7185,52.1449],[74.8018,52.1187],[74.8869,52.0998],[74.9734,52.0884],[75.0606,52.0846],[76.0606,52.0846],[85.0606,52.0846],[85.1477,52.0884],[85.1564,52.0895],[85.2342,52.0998],[85.2427,52.1017],[85.3194,52.1187],[85.4026,52.1449],[85.4106,52.1482],[85.4832,52.1783],[85.5606,52.2186],[85.6341,52.2654],[85.7034,52.3185],[85.7677,52.3775],[85.8266,52.4418],[85.8319,52.4487],[85.8797,52.511],[85.9266,52.5846],[85.9306,52.5923],[85.9669,52.662],[85.9702,52.67],[86.0003,52.7425],[86.0029,52.7509],[86.0265,52.8258],[86.0454,52.9109],[86.0568,52.9974],[86.0606,53.0846],[86.0606,60.7846],[83.0629,65.8203],[82.8034,66.1856],[82.7148,66.2779],[82.6119,66.3541],[82.4978,66.412],[82.3756,66.45],[82.2487,66.4669],[77.8724,66.4669],[77.7456,66.45],[77.6234,66.412],[77.5092,66.3541],[77.4064,66.2779],[77.3177,66.1856],[77.0583,65.8203],[74.0606,60.7846],[74.0606,53.0846]]
EXCLUDE_OBJECT_DEFINE NAME=CR-10_Bowden_Clip.STL_id_4_copy_0 CENTER=38.921,70.1822 POLYGON=[[34.2261,67.6345],[34.2336,67.1097],[34.2995,66.589],[34.4232,66.0789],[34.6029,65.5858],[34.8365,65.1159],[35.1211,64.6749],[35.4531,64.2683],[35.8283,63.9014],[35.9264,63.8286],[36.0349,63.7725],[36.151,63.7344],[36.2717,63.7153],[41.5703,63.7153],[41.691,63.7344],[41.8071,63.7725],[41.9156,63.8286],[42.0137,63.9014],[42.3889,64.2683],[42.7209,64.6749],[43.0055,65.1159],[43.2391,65.5858],[43.4188,66.0789],[43.5425,66.589],[43.6084,67.1097],[43.6159,67.6345],[43.5649,68.1568],[42.3988,74.7529],[42.2938,75.1885],[42.1344,75.6073],[41.9233,76.0025],[41.6638,76.3678],[41.5752,76.4601],[41.4724,76.5363],[41.3582,76.5941],[41.236,76.6321],[41.1092,76.6491],[36.7328,76.6491],[36.606,76.6321],[36.4838,76.5941],[36.3696,76.5363],[36.2668,76.4601],[36.1782,76.3678],[35.9187,76.0025],[35.7076,75.6073],[35.5482,75.1885],[35.4432,74.7529],[34.2771,68.1568],[34.2261,67.6345]]
EXCLUDE_OBJECT_DEFINE NAME=CR-10_Bowden_Clip.STL_id_5_copy_0 CENTER=38.6358,47.2484 POLYGON=[[33.9409,44.7007],[33.9484,44.1759],[34.0144,43.6552],[34.138,43.1452],[34.3178,42.6521],[34.5514,42.1821],[34.8359,41.7411],[35.1679,41.3346],[35.5431,40.9676],[35.6413,40.8948],[35.7498,40.8387],[35.8659,40.8006],[35.9865,40.7815],[41.2852,40.7815],[41.4058,40.8006],[41.5219,40.8387],[41.6304,40.8948],[41.7286,40.9676],[42.1038,41.3346],[42.4358,41.7411],[42.7203,42.1821],[42.9539,42.6521],[43.1337,43.1452],[43.2573,43.6552],[43.3233,44.1759],[43.3308,44.7007],[43.2797,45.2231],[42.1137,51.8191],[42.0086,52.2547],[41.8493,52.6735],[41.6382,53.0687],[41.3787,53.434],[41.29,53.5263],[41.1872,53.6025],[41.0731,53.6604],[40.9509,53.6983],[40.824,53.7153],[36.4477,53.7153],[36.3208,53.6983],[36.1986,53.6604],[36.0845,53.6025],[35.9816,53.5263],[35.893,53.434],[35.6335,53.0687],[35.4224,52.6735],[35.263,52.2547],[35.158,51.8191],[33.992,45.2231],[33.9409,44.7007]]
EXCLUDE_OBJECT_DEFINE NAME=CR-10_Bowden_Clip.STL_id_6_copy_0 CENTER=56.1851,35.6177 POLYGON=[[51.4902,33.07],[51.4977,32.5452],[51.5637,32.0245],[51.6873,31.5145],[51.8671,31.0214],[52.1007,30.5514],[52.3852,30.1104],[52.7172,29.7039],[53.0924,29.3369],[53.1906,29.2641],[53.2991,29.208],[53.4151,29.1699],[53.5358,29.1508],[58.8344,29.1508],[58.9551,29.1699],[59.0712,29.208],[59.1797,29.2641],[59.2778,29.3369],[59.6531,29.7039],[59.985,30.1104],[60.2696,30.5514],[60.5032,31.0214],[60.683,31.5145],[60.8066,32.0245],[60.8726,32.5452],[60.8801,33.07],[60.829,33.5924],[59.663,40.1884],[59.5579,40.624],[59.3986,41.0428],[59.1875,41.438],[58.928,41.8033],[58.8393,41.8956],[58.7365,41.9718],[58.6224,42.0297],[58.5001,42.0676],[58.3733,42.0846],[53.997,42.0846],[53.8701,42.0676],[53.7479,42.0297],[53.6338,41.9718],[53.5309,41.8956],[53.4423,41.8033],[53.1828,41.438],[52.9717,41.0428],[52.8123,40.624],[52.7073,40.1884],[51.5413,33.5924],[51.4902,33.07]]
EXCLUDE_OBJECT_DEFINE NAME=CR-10_Bowden_Clip.STL_id_7_copy_0 CENTER=75.578,35.6177 POLYGON=[[70.883,33.07],[70.8905,32.5452],[70.9565,32.0245],[71.0802,31.5145],[71.2599,31.0214],[71.4935,30.5514],[71.7781,30.1104],[72.11,29.7039],[72.4853,29.3369],[72.5834,29.2641],[72.6919,29.208],[72.808,29.1699],[72.9287,29.1508],[78.2273,29.1508],[78.348,29.1699],[78.4641,29.208],[78.5726,29.2641],[78.6707,29.3369],[79.0459,29.7039],[79.3779,30.1104],[79.6625,30.5514],[79.8961,31.0214],[80.0758,31.5145],[80.1994,32.0245],[80.2654,32.5452],[80.2729,33.07],[80.2219,33.5924],[79.0558,40.1884],[78.9508,40.624],[78.7914,41.0428],[78.5803,41.438],[78.3208,41.8033],[78.2322,41.8956],[78.1293,41.9718],[78.0152,42.0297],[77.893,42.0676],[77.7661,42.0846],[73.3898,42.0846],[73.263,42.0676],[73.1408,42.0297],[73.0266,41.9718],[72.9238,41.8956],[72.8351,41.8033],[72.5757,41.438],[72.3645,41.0428],[72.2052,40.624],[72.1002,40.1884],[70.9341,33.5924],[70.883,33.07]]
M73 P0 R29
;TYPE:Custom
START_PRINT T_BED=110 T_EXTRUDER=260
G90
G21
M83 ; use relative distances for extrusion
; Filament gcode

    PRESSURE_ADVANCE_SELECT FILAMENT=ABS
M106 S0
;LAYER_CHANGE
;Z:0.1
;HEIGHT:0.1
;BEFORE_LAYER_CHANGE
;0.1
G92 E0

;AFTER_LAYER_CHANGE
;0.1
;_SET_FAN_SPEED_CHANGING_LAYER
SET_VELOCITY_LIMIT ACCEL=500 ACCEL_TO_DECEL=250
G1 E-.5 F3000
G1 Z.2 F21000
G1 X32.944 Y76.659
G1 Z.2
G1 Z.1
G1 E.5 F1800
;TYPE:Skirt
;WIDTH:0.5
G1 F3000
G1 X32.674 Y75.882 E.01516
G1 X31.365 Y68.672 E.135
G1 X31.27 Y67.675 E.01844
G1 X30.992 Y44.136 E.43369
G1 X31.264 Y42.449 E.03149
G1 X31.903 Y40.866 E.03145
G1 X32.878 Y39.464 E.03145
G1 X33.88 Y38.52 E.02537
G1 X51.557 Y26.799 E.39075
G1 X52.493 Y26.36 E.01905
G1 X53.536 Y26.194 E.01945
G1 X78.689 Y26.23 E.46339
G1 X79.383 Y26.397 E.01315
G1 X80.334 Y26.889 E.01973
G1 X81.113 Y27.59 E.01931
G1 X81.863 Y28.507 E.02182
G1 X93.355 Y46.927 E.39998
G1 X93.802 Y48.491 E.02998
G1 X93.802 Y85.627 E.68416
G1 X93.409 Y87.101 E.0281
G1 X92.334 Y88.182 E.0281
G1 X90.845 Y88.584 E.02841
G1 X47.276 Y88.584 E.80269
G1 X45.384 Y87.9 E.03707
G1 X34.134 Y78.508 E.26998
G1 X33.31 Y77.396 E.0255
G1 X32.962 Y76.695 E.01442
G1 X33.444 Y76.49 F21000
G1 F3000
G1 X33.139 Y75.769 E.01442
G1 X31.836 Y68.588 E.13446
G1 X31.748 Y67.669 E.01701
G1 X31.47 Y44.143 E.43347
G1 X31.729 Y42.561 E.02952
G1 X32.332 Y41.079 E.02948
G1 X33.248 Y39.767 E.02948
G1 X34.165 Y38.904 E.02319
G1 X51.821 Y27.198 E.39028
G1 X52.642 Y26.815 E.01669
G1 X53.536 Y26.672 E.01667
G1 X78.614 Y26.703 E.46202
G1 X79.234 Y26.852 E.01175
G1 X80.049 Y27.273 E.0169
G1 X80.779 Y27.932 E.01811
G1 X81.461 Y28.767 E.01985
G1 X92.949 Y47.18 E.39984
G1 X93.324 Y48.491 E.02513
G1 X93.324 Y85.627 E.68416
G1 X92.932 Y86.965 E.02568
G1 X91.88 Y87.879 E.02568
G1 X90.845 Y88.106 E.01951
G1 X47.276 Y88.106 E.80269
G1 X45.69 Y87.532 E.03107
G1 X34.479 Y78.177 E.269
G1 X33.732 Y77.17 E.02309
G1 X33.46 Y76.527 E.01287
; printing object Bowden-Cable-ZipTie-Clip.stl id:1 copy 0
G1 E-.5
EXCLUDE_OBJECT_START NAME=Bowden-Cable-ZipTie-Clip.stl_id_1_copy_0
G1 Z.3 F21000
G1 X57.091 Y79.722 Z.3
G1 Z.1
G1 E.5 F1800
;TYPE:Support
G1 F3000
G3 X54.65 Y76.201 I1.043 J-3.33 E.085
G1 X54.302 Y75.867 E.00889
G2 X52.272 Y76.075 I-.624 J3.925 E.03802
G2 X51.461 Y77.459 I.789 J1.392 E.03097
G1 X51.461 Y85.415 E.14658
G1 X51.672 Y85.627 E.00552
G1 X47.276 Y85.627 E.081
G1 X47.276 Y72.873 E.23497
G1 X57.091 Y72.873 E.18083
G1 X57.091 Y79.65 E.12486
G1 X56.661 Y79.081 F21000
G1 F3000
G3 X55.073 Y76.01 I1.554 J-2.749 E.06741
G1 X54.475 Y75.436 E.01526
G2 X52.182 Y75.636 I-.713 J5.079 E.04277
G2 X51.03 Y77.454 I.889 J1.838 E.04176
G1 X51.03 Y85.197 E.14265
G1 X47.706 Y85.197 E.06123
G1 X47.706 Y73.304 E.2191
G1 X56.661 Y73.304 E.16496
G1 X56.661 Y79.081 E.10644
G1 X56.129 Y77.018 F21000
G1 F3000
G1 X55.681 Y77.046 E.00827
G3 X55.595 Y75.774 I9.953 J-1.307 E.02351
G1 X54.689 Y74.904 E.02314
G2 X52.152 Y75.071 I-.822 J6.886 E.0471
G2 X50.498 Y77.447 I.92 J2.404 E.05664
G1 X50.498 Y84.665 E.13298
G1 X48.238 Y84.665 E.04164
G1 X48.238 Y73.836 E.19951
G1 X56.129 Y73.836 E.14537
G1 X56.129 Y77.018 E.05862
G1 X51.628 Y74.712 F21000
G1 F3000
G2 X49.966 Y77.44 I1.485 J2.774 E.06172
G1 X49.966 Y84.133 E.12331
G1 X48.77 Y84.133 E.02204
G1 X48.77 Y74.367 E.17992
G1 X51.528 Y74.367 E.0508
G1 X51.628 Y74.712 E.00661
G1 X50.462 Y74.899 F21000
G1 F3000
G2 X49.677 Y76.144 I3.698 J3.203 E.02723
G1 X49.302 Y76.061 E.00708
G1 X49.302 Y74.899 E.02141
G1 X50.462 Y74.899 E.02138
G1 E-.5
G1 Z.3 F21000
G1 X53.514 Y77.151 Z.3
G1 X53.525 Y77.238
G1 X53.902 Y78.406
G1 X54.076 Y78.767
G1 X54.292 Y79.106
G1 X54.536 Y79.424
G1 X54.807 Y79.72
G1 X55.103 Y79.991
G1 X55.422 Y80.236
G1 X55.76 Y80.451
G1 X56.116 Y80.636
G1 X56.487 Y80.79
G1 X56.87 Y80.911
G1 X63.46 Y82.531
G1 X68.845 Y85.627
G1 Z.1
G1 E.5 F1800
G1 F3000
G1 X64.449 Y85.627 E.081
G1 X64.661 Y85.415 E.00552
G2 X64.66 Y77.447 I-181.857 J-3.978 E.14681
G2 X63.067 Y75.867 I-1.603 J.023 E.04579
G1 X61.819 Y75.867 E.02298
G1 X61.471 Y76.201 E.00888
G3 X59.03 Y79.722 I-3.484 J.192 E.08501
G1 X59.03 Y72.873 E.12618
G1 X68.845 Y72.873 E.18083
G1 X68.845 Y85.555 E.23365
M73 P1 R29
G1 E-.5
G1 Z.3 F21000
G1 X63.46 Y81.895 Z.3
G1 X60.905 Y80.078
G1 X59.461 Y79.081
G1 Z.1
G1 E.5 F1800
G1 F3000
G1 X59.461 Y73.304 E.10644
G1 X68.415 Y73.304 E.16496
G1 X68.415 Y85.197 E.2191
G1 X65.091 Y85.197 E.06123
G2 X65.091 Y77.433 I-177.094 J-3.87 E.14304
G2 X63.072 Y75.436 I-2.035 J.038 E.0579
G1 X61.646 Y75.436 E.02626
G1 X61.048 Y76.009 E.01526
G3 X59.461 Y79.081 I-3.142 J.322 E.06741
G1 X59.992 Y77.016 F21000
G1 F3000
G1 X59.992 Y73.836 E.0586
G1 X67.883 Y73.836 E.14537
G1 X67.883 Y84.665 E.19951
