; generated by SuperSlicer 2.5.59 on 2023-01-28 at 05:36:14 UTC


;
;

;
;
; 

; external perimeters extrusion width = 0.40mm
; perimeters extrusion width = 0.46mm
; infill extrusion width = 0.64mm
; solid infill extrusion width = 0.56mm
; top infill extrusion width = 0.40mm
; first layer extrusion width = 0.50mm

; object:{"name":"box_support_skadis(1)","id":"box_support_skadis(1).stl id:0 copy 0","object_center":[60.000000,60.000000,0.000000],"boundingbox_center":[60.000000,60.000000,2.250000],"boundingbox_size":[33.700001,90.000000,4.500000]}
; plater:{"center":[60.000000,60.000000,0.000000],"boundingbox_center":[60.000000,60.000000,2.250000],"boundingbox_size":[33.700001,90.000000,4.500000]}

M73 P0 R9
;TYPE:Custom
; custom gcode: start_gcode
START_PRINT T_BED=60 T_EXTRUDER=200
; custom gcode end: start_gcode
M107
G21 ; set units to millimeters
G90 ; use absolute coordinates
M82 ; use absolute distances for extrusion
G92 E0
; custom gcode: start_filament_gcode
; Filament gcode

    PRESSURE_ADVANCE_SELECT FILAMENT=PLA
; custom gcode end: start_filament_gcode
;_TOOLCHANGE 0
M104 S200 ; set temperature
M109 S200 ; set temperature and wait for it to be reached
M190 S60 ; set bed temperature and wait for it to be reached
;LAYER_CHANGE
;Z:0.2
;HEIGHT:0.2
G1 Z0.2 F12000
M73 P0 R9
G1 E-0.8 F3000
M204 S2000
G1 X49.372 Y15.316 F12000
G1 E0 F1800
;TYPE:Skirt
;WIDTH:0.52
G1 X42.325 Y55.538 E1.61989
M73 P0 R9
G1 X40.116 Y87.515 E2.89145
G1 X40.114 Y104.045 E3.54715
G1 X40.85 Y106.266 E3.64
G1 X42.163 Y107.366 E3.70794
G1 X43.829 Y107.761 E3.77587
G1 X63.671 Y107.761 E4.56297
G1 X65.426 Y107.321 E4.63474
G1 X66.708 Y106.186 E4.70267
G1 X67.345 Y104.596 E4.77061
G1 X79.843 Y21.231 E8.11459
M73 P1 R8
G1 X79.884 Y15.959 E8.32376
G1 X79.147 Y13.738 E8.41659
G1 X77.834 Y12.638 E8.48452
G1 X76.168 Y12.243 E8.55245
G1 X53.032 Y12.243 E9.47024
G1 X51.36 Y12.641 E9.53841
G1 X50.05 Y13.743 E9.60634
G1 X49.372 Y15.316 E9.67427
G1 X49.842 Y15.398 F12000
G1 F1800
G1 X42.801 Y55.571 E11.29218
G1 X40.593 Y87.516 E12.56244
M73 P2 R8
G1 X40.591 Y104.045 E13.21814
G1 X41.11 Y105.804 E13.29092
G1 X42.281 Y106.89 E13.35428
G1 X43.829 Y107.284 E13.41764
G1 X63.671 Y107.284 E14.20474
G1 X65.007 Y106.995 E14.25898
G1 X66.255 Y105.998 E14.32233
G1 X66.874 Y104.526 E14.38569
G1 X79.371 Y21.161 E17.72967
G1 X79.407 Y15.959 E17.93604
G1 X78.887 Y14.2 E18.00879
G1 X77.716 Y13.114 E18.07215
G1 X76.168 Y12.72 E18.13551
G1 X53.032 Y12.72 E19.0533
M73 P3 R8
G1 X51.77 Y12.976 E19.10437
G1 X50.498 Y13.942 E19.16773
G1 X49.842 Y15.398 E19.23109
G92 E0
G1 E-0.8 F3000
; printing object box_support_skadis(1).stl id:0 copy 0
; acceleration to travel
M204 S4000
G1 X56.614 Y74.33 F12000
; decel to extrusion
M204 S2000
G1 X60 Y103.795
; end travel
G1 E0 F1800
;TYPE:External perimeter
;WIDTH:0.5
G1 X44.079 Y103.795 E0.60509
M73 P4 R8
G1 X44.082 Y87.766 E1.21431
G1 X46.718 Y87.766 E1.31449
G1 X46.718 Y99.569 E1.76309
G1 X53.282 Y99.569 E2.01257
G1 X53.282 Y60.267 E3.50632
G1 X46.282 Y60.267 E3.77236
G1 X46.282 Y56.045 E3.93282
G1 X53.282 Y56.045 E4.19886
G1 X53.282 Y16.209 E5.71289
M73 P4 R8
G1 X75.918 Y16.209 E6.5732
G1 X75.918 Y20.431 E6.73366
G1 X55.918 Y20.431 E7.49378
G1 X55.918 Y99.569 E10.50156
M73 P5 R8
G1 X60.782 Y99.569 E10.68642
G1 X60.782 Y92.192 E10.96679
G1 X63.418 Y92.192 E11.06698
G1 X63.421 Y103.567 E11.49929
;TYPE:Internal perimeter
;WIDTH:0.386709
G1 X62.963 Y103.11 E11.51829
;WIDTH:0.5
G1 X62.961 Y92.649 E11.91585
G1 X61.239 Y92.649 E11.9813
G1 X61.239 Y100.026 E12.26167
G1 X55.461 Y100.026 E12.48128
G1 X55.461 Y19.974 E15.5238
G1 X75.461 Y19.974 E16.28392
M73 P6 R8
G1 X75.461 Y16.666 E16.40964
G1 X53.739 Y16.666 E17.23521
G1 X53.739 Y56.502 E18.74923
G1 X46.739 Y56.502 E19.01527
G1 X46.739 Y59.81 E19.14099
G1 X53.739 Y59.81 E19.40703
G1 X53.739 Y100.026 E20.93553
G1 X46.261 Y100.026 E21.21975
G1 X46.261 Y88.223 E21.66835
G1 X44.539 Y88.223 E21.73379
G1 X44.536 Y103.338 E22.30826
M73 P7 R8
G1 X62.278 Y103.338 E22.98255
;WIDTH:0.489163
G1 X62.049 Y102.881 E23.00156
;WIDTH:0.5
G1 X44.994 Y102.881 E23.64978
G1 X44.996 Y88.68 E24.18951
G1 X45.804 Y88.68 E24.22021
G1 X45.804 Y100.484 E24.66881
G1 X54.196 Y100.484 E24.98778
G1 X54.196 Y59.353 E26.55101
G1 X47.196 Y59.353 E26.81706
G1 X47.196 Y56.959 E26.90803
G1 X54.196 Y56.959 E27.17407
G1 X54.196 Y17.123 E28.6881
M73 P8 R8
G1 X75.004 Y17.123 E29.47892
G1 X75.004 Y19.516 E29.56989
G1 X55.004 Y19.516 E30.33002
G1 X55.004 Y100.484 E33.40728
G1 X61.696 Y100.484 E33.66163
G1 X61.696 Y93.106 E33.942
M73 P9 R8
G1 X62.504 Y93.106 E33.97271
G1 X62.506 Y102.881 E34.34422
;WIDTH:0.489163
G1 X62.735 Y103.338 E34.36322
;WIDTH:0.386709
G1 X63.192 Y103.795 E34.38222
;TYPE:External perimeter
;WIDTH:0.5
G1 X60 Y103.795 E34.50355
;WIPE_START
M204 S4000
G1 X59.8 Y103.449 F12000
;WIPE_END
G92 E0
G1 E-0.8 F3000
; acceleration to travel
G1 X61.502 Y102.275 F12000
; decel to extrusion
M204 S2000
G1 X62.369 Y101.677
; end travel
G1 E0 F1800
;TYPE:Solid infill
;WIDTH:0.513777
G1 F2400
G1 X61.313 Y100.621 E0.05835
G1 X60.666 Y100.621 F12000
G1 F2400
G1 X62.369 Y102.324 E0.15241
G1 X62.143 Y102.744 F12000
G1 F2400
G1 X60.02 Y100.621 E0.26969
G1 X59.373 Y100.621 F12000
G1 F2400
G1 X61.497 Y102.744 E0.38698
G1 X60.85 Y102.744 F12000
G1 F2400
G1 X58.727 Y100.621 E0.50426
G1 X58.081 Y100.621 F12000
G1 F2400
G1 X60.204 Y102.744 E0.62155
G1 X59.558 Y102.744 F12000
G1 F2400
G1 X57.434 Y100.621 E0.73883
G1 X56.788 Y100.621 F12000
G1 F2400
G1 X58.911 Y102.744 E0.85612
G1 X58.265 Y102.744 F12000
G1 F2400
G1 X56.141 Y100.621 E0.9734
G1 X55.495 Y100.621 F12000
G1 F2400
G1 X57.618 Y102.744 E1.09069
G1 X56.972 Y102.744 F12000
G1 F2400
G1 X54.848 Y100.621 E1.20797
G1 X54.202 Y100.621 F12000
G1 F2400
G1 X56.326 Y102.744 E1.32526
G1 X55.679 Y102.744 F12000
G1 F2400
G1 X53.556 Y100.621 E1.44255
G1 X52.909 Y100.621 F12000
G1 F2400
G1 X55.033 Y102.744 E1.55983
G1 X54.386 Y102.744 F12000
G1 F2400
G1 X52.263 Y100.621 E1.67712
G1 X51.616 Y100.621 F12000
G1 F2400
G1 X53.74 Y102.744 E1.7944
G1 X53.094 Y102.744 F12000
G1 F2400
G1 X50.97 Y100.621 E1.91169
G1 X50.324 Y100.621 F12000
G1 F2400
G1 X52.447 Y102.744 E2.02897
G1 X51.801 Y102.744 F12000
G1 F2400
G1 X49.677 Y100.621 E2.14626
G1 X49.031 Y100.621 F12000
G1 F2400
G1 X51.154 Y102.744 E2.26354
G1 X50.508 Y102.744 F12000
G1 F2400
G1 X48.384 Y100.621 E2.38083
G1 X47.738 Y100.621 F12000
G1 F2400
G1 X49.862 Y102.744 E2.49812
G1 X49.215 Y102.744 F12000
G1 F2400
G1 X47.092 Y100.621 E2.6154
G1 X46.445 Y100.621 F12000
G1 F2400
G1 X48.569 Y102.744 E2.73269
G1 X47.922 Y102.744 F12000
G1 F2400
G1 X45.799 Y100.621 E2.84997
G1 X45.285 Y100.753 F12000
G1 F2400
G1 X47.276 Y102.744 E2.95995
G1 X46.63 Y102.744 F12000
G1 F2400
G1 X45.131 Y101.246 E3.04272
G1 X45.131 Y101.892 F12000
G1 F2400
G1 X45.983 Y102.744 E3.08979
G92 E0
G1 E-0.8 F3000
; acceleration to travel
M204 S4000
G1 X45.591 Y101.393 F12000
; decel to extrusion
M204 S2000
G1 X45.399 Y100.73
; end travel
G1 E0 F1800
;TYPE:Gap fill
;WIDTH:0.431723
G1 X45.399 Y100.536 E0.00628
G1 X45.399 Y94.81 E0.19139
G1 X45.4 Y89.084 E0.3765
G1 X45.4 Y88.891 E0.38275
G92 E0
G1 E-0.8 F3000
; acceleration to travel
M204 S4000
G1 X51.533 Y96.784 F12000
; decel to extrusion
M204 S2000
G1 X54.6 Y100.73
; end travel
G1 E0 F1800
;WIDTH:0.429484
G1 X54.6 Y59.106 E1.33792
; acceleration to travel
M204 S4000
M73 P10 R8
G1 X54.777 Y58.474 F12000
; decel to extrusion
M204 S2000
G1 X54.867 Y58.152
; end travel
;TYPE:Solid infill
;WIDTH:0.521985
G1 F2400
G1 X53.81 Y57.096 E1.39719
G1 X53.164 Y57.096 F12000
G1 F2400
G1 X54.867 Y58.799 E1.49272
G1 X54.505 Y59.083 F12000
G1 F2400
G1 X52.518 Y57.096 E1.60423
G1 X51.871 Y57.096 F12000
G1 F2400
G1 X53.991 Y59.215 E1.72315
G1 X53.344 Y59.215 F12000
G1 F2400
G1 X51.225 Y57.096 E1.84208
G1 X50.578 Y57.096 F12000
G1 F2400
G1 X52.698 Y59.215 E1.961
G1 X52.051 Y59.215 F12000
G1 F2400
G1 X49.932 Y57.096 E2.07993
G1 X49.286 Y57.096 F12000
G1 F2400
G1 X51.405 Y59.215 E2.19885
G1 X50.759 Y59.215 F12000
G1 F2400
G1 X48.639 Y57.096 E2.31778
G1 X47.993 Y57.096 F12000
G1 F2400
G1 X50.112 Y59.215 E2.4367
G1 X49.466 Y59.215 F12000
G1 F2400
G1 X47.346 Y57.096 E2.55563
G1 X47.333 Y57.729 F12000
G1 F2400
G1 X48.819 Y59.215 E2.63902
G1 X48.173 Y59.215 F12000
G1 F2400
G1 X47.333 Y58.376 E2.68614
G92 E0
G1 E-0.8 F3000
; acceleration to travel
M204 S4000
G1 X52.207 Y57.591 F12000
; decel to extrusion
M204 S2000
G1 X54.6 Y57.205
; end travel
G1 E0 F1800
;TYPE:Gap fill
;WIDTH:0.429483
G1 X54.6 Y57.012 E0.00621
G1 X54.6 Y19.463 E1.21314
G1 X54.6 Y19.27 E1.21935
G92 E0
G1 E-0.8 F3000
; acceleration to travel
M204 S4000
G1 X68.03 Y18.55 F12000
; decel to extrusion
M204 S2000
G1 X74.867 Y18.184
; end travel
G1 E0 F1800
;TYPE:Solid infill
;WIDTH:0.512476
G1 F2400
G1 X73.943 Y17.26 E0.0509
G1 X73.296 Y17.26 F12000
G1 F2400
G1 X74.867 Y18.83 E0.13741
G1 X74.769 Y19.379 F12000
G1 F2400
G1 X72.65 Y17.26 E0.25417
G1 X72.004 Y17.26 F12000
G1 F2400
G1 X74.123 Y19.379 E0.37093
G1 X73.477 Y19.379 F12000
G1 F2400
G1 X71.357 Y17.26 E0.48769
G1 X70.711 Y17.26 F12000
G1 F2400
G1 X72.83 Y19.379 E0.60445
G1 X72.184 Y19.379 F12000
G1 F2400
G1 X70.064 Y17.26 E0.72121
G1 X69.418 Y17.26 F12000
G1 F2400
G1 X71.537 Y19.379 E0.83796
G1 X70.891 Y19.379 F12000
G1 F2400
G1 X68.771 Y17.26 E0.95472
G1 X68.125 Y17.26 F12000
G1 F2400
G1 X70.244 Y19.379 E1.07148
G1 X69.598 Y19.379 F12000
G1 F2400
G1 X67.479 Y17.26 E1.18824
G1 X66.832 Y17.26 F12000
G1 F2400
G1 X68.952 Y19.379 E1.305
M73 P11 R8
G1 X68.305 Y19.379 F12000
G1 F2400
G1 X66.186 Y17.26 E1.42176
G1 X65.539 Y17.26 F12000
G1 F2400
G1 X67.659 Y19.379 E1.53851
G1 X67.012 Y19.379 F12000
G1 F2400
G1 X64.893 Y17.26 E1.65527
G1 X64.247 Y17.26 F12000
G1 F2400
G1 X66.366 Y19.379 E1.77203
G1 X65.72 Y19.379 F12000
G1 F2400
G1 X63.6 Y17.26 E1.88879
G1 X62.954 Y17.26 F12000
G1 F2400
G1 X65.073 Y19.379 E2.00555
G1 X64.427 Y19.379 F12000
G1 F2400
G1 X62.307 Y17.26 E2.12231
G1 X61.661 Y17.26 F12000
G1 F2400
G1 X63.78 Y19.379 E2.23906
G1 X63.134 Y19.379 F12000
G1 F2400
G1 X61.015 Y17.26 E2.35582
G1 X60.368 Y17.26 F12000
G1 F2400
G1 X62.488 Y19.379 E2.47258
G1 X61.841 Y19.379 F12000
G1 F2400
G1 X59.722 Y17.26 E2.58934
G1 X59.075 Y17.26 F12000
G1 F2400
G1 X61.195 Y19.379 E2.7061
G1 X60.548 Y19.379 F12000
G1 F2400
G1 X58.429 Y17.26 E2.82286
G1 X57.783 Y17.26 F12000
G1 F2400
G1 X59.902 Y19.379 E2.93962
G1 X59.256 Y19.379 F12000
G1 F2400
G1 X57.136 Y17.26 E3.05637
G1 X56.49 Y17.26 F12000
G1 F2400
G1 X58.609 Y19.379 E3.17313
G1 X57.963 Y19.379 F12000
G1 F2400
G1 X55.843 Y17.26 E3.28989
G1 X55.197 Y17.26 F12000
G1 F2400
G1 X57.316 Y19.379 E3.40665
G1 X56.67 Y19.379 F12000
G1 F2400
G1 X54.551 Y17.26 E3.52341
G1 X54.333 Y17.689 F12000
G1 F2400
G1 X56.024 Y19.379 E3.61652
G1 X55.377 Y19.379 F12000
G1 F2400
G1 X54.333 Y18.336 E3.67403
G92 E0
G1 E-0.8 F3000
; acceleration to travel
M204 S4000
G1 X59.542 Y68.623 F12000
; decel to extrusion
M204 S2000
G1 X62.1 Y93.317
; end travel
G1 E0 F1800
;TYPE:Gap fill
;WIDTH:0.431508
G1 X62.1 Y93.51 E0.00625
G1 X62.101 Y97.023 E0.11975
G1 X62.101 Y100.536 E0.23325
G1 X62.101 Y100.73 E0.23952
;LAYER_CHANGE
;Z:0.4
;HEIGHT:0.2
; stop printing object box_support_skadis(1).stl id:0 copy 0
M204 S4000
G1 Z0.4 F12000
; printing object box_support_skadis(1).stl id:0 copy 0
G1 X62.772 Y103.878
G1 X62.78 Y103.917
;TYPE:Internal perimeter
;WIDTH:0.453828
G1 F9000
G1 X62.571 Y103.5 E0.25548
;WIDTH:0.46
G1 X44.512 Y103.5 E0.8818
G1 X44.508 Y88.052 E1.41753
G1 X46.292 Y88.052 E1.47938
G1 X46.292 Y99.855 E1.88872
G1 X53.708 Y99.855 E2.14592
G1 X53.708 Y59.981 E3.52879
G1 X46.708 Y59.981 E3.77155
G1 X46.708 Y56.331 E3.89813
G1 X53.708 Y56.331 E4.14089
G1 X53.708 Y16.495 E5.52242
G1 X75.492 Y16.495 E6.27789
G1 X75.492 Y20.145 E6.40447
G1 X55.492 Y20.145 E7.09808
G1 X55.492 Y99.855 E9.86247
M73 P12 R8
G1 X61.208 Y99.855 E10.06071
G1 X61.208 Y92.478 E10.31655
G1 X62.992 Y92.478 E10.3784
G1 X62.988 Y103.5 E10.76063
;WIDTH:0.453828
G1 X63.197 Y103.917 E10.77658
;WIDTH:0.323409
G1 X63.614 Y104.304 E10.79024
;TYPE:External perimeter
;WIDTH:0.4
G1 F6000
M204 S2000
G1 X43.708 Y104.304 E11.38128
G1 X43.704 Y87.248 E11.8877
G1 X47.096 Y87.248 E11.98841
G1 X47.096 Y99.051 E12.33887
G1 X52.904 Y99.051 E12.51131
G1 X52.904 Y60.785 E13.64749
G1 X45.904 Y60.785 E13.85533
G1 X45.904 Y55.527 E14.01145
G1 X52.904 Y55.527 E14.21929
G1 X52.904 Y15.691 E15.40208
G1 X76.296 Y15.691 E16.09662
G1 X76.296 Y20.949 E16.25274
G1 X56.296 Y20.949 E16.84657
G1 X56.296 Y99.051 E19.16553
G1 X60.404 Y99.051 E19.2875
G1 X60.404 Y91.674 E19.50653
G1 X63.796 Y91.674 E19.60725
G1 X63.792 Y104.125 E19.97694
;TYPE:Internal perimeter
;WIDTH:0.323408
G1 F9000
M204 S4000
G1 X63.405 Y103.708 E19.9906
;WIDTH:0.46
G1 X63.409 Y92.061 E20.39453
G1 X60.791 Y92.061 E20.48531
G1 X60.791 Y99.438 E20.74115
G1 X55.909 Y99.438 E20.91046
G1 X55.909 Y20.562 E23.64592
M73 P13 R7
G1 X75.909 Y20.562 E24.33953
G1 X75.909 Y16.078 E24.49504
G1 X53.291 Y16.078 E25.27944
G1 X53.291 Y55.914 E26.66096
G1 X46.291 Y55.914 E26.90373
G1 X46.291 Y60.398 E27.05924
G1 X53.291 Y60.398 E27.302
G1 X53.291 Y99.438 E28.65594
G1 X46.709 Y99.438 E28.8842
G1 X46.709 Y87.635 E29.29354
G1 X44.091 Y87.635 E29.38433
G1 X44.095 Y103.917 E29.94899
G1 X62.78 Y103.917 E30.597
; acceleration to travel
G1 X62.782 Y103.878 F12000
G1 X63.325 Y102.712
; decel to extrusion
M204 S3000
G1 X63.367 Y102.62
G1 X63.367 Y102.337
G1 X62.871 Y102.337
; end travel
;TYPE:Solid infill
;WIDTH:0.570803
G1 F8538.0216
G1 X61.826 Y103.382 E30.6618
; acceleration to travel
M204 S4000
G1 X61.408 Y103.382 F12000
; decel to extrusion
M204 S3000
G1 X61.094 Y103.382
; end travel
G1 F8538.0216
G1 X62.871 Y101.605 E30.77194
; acceleration to travel
M204 S4000
G1 X62.872 Y101.187 F12000
; decel to extrusion
M204 S3000
G1 X62.872 Y100.874
; end travel
G1 F8538.0216
G1 X60.363 Y103.382 E30.92741
; acceleration to travel
M204 S4000
G1 X59.945 Y103.382 F12000
; decel to extrusion
M204 S3000
G1 X59.632 Y103.382
; end travel
G1 F8538.0216
G1 X62.872 Y100.142 E31.12821
; acceleration to travel
M204 S4000
G1 X62.872 Y99.724 F12000
; decel to extrusion
M204 S3000
G1 X62.872 Y99.411
; end travel
G1 F8538.0216
G1 X58.901 Y103.382 E31.37435
; acceleration to travel
M204 S4000
G1 X58.483 Y103.382 F12000
; decel to extrusion
M204 S3000
G1 X58.169 Y103.382
; end travel
G1 F8538.0216
G1 X62.872 Y98.679 E31.66582
; acceleration to travel
M204 S4000
G1 X62.872 Y98.261 F12000
; decel to extrusion
M204 S3000
G1 X62.872 Y97.948
; end travel
G1 F8538.0216
G1 X61.326 Y99.495 E31.76169
; acceleration to travel
M204 S4000
G1 X61.326 Y99.077 F12000
; decel to extrusion
M204 S3000
G1 X61.326 Y98.763
; end travel
G1 F8538.0216
G1 X62.873 Y97.216 E31.85756
; acceleration to travel
M204 S4000
G1 X62.873 Y96.798 F12000
; decel to extrusion
M204 S3000
G1 X62.873 Y96.485
; end travel
G1 F8538.0216
G1 X61.326 Y98.032 E31.95345
; acceleration to travel
M204 S4000
G1 X61.326 Y97.614 F12000
; decel to extrusion
M204 S3000
G1 X61.326 Y97.301
; end travel
G1 F8538.0216
G1 X62.873 Y95.753 E32.04935
; acceleration to travel
M204 S4000
G1 X62.873 Y95.335 F12000
; decel to extrusion
M204 S3000
G1 X62.873 Y95.022
; end travel
G1 F8538.0216
G1 X61.326 Y96.57 E32.14526
; acceleration to travel
M204 S4000
G1 X61.326 Y96.152 F12000
; decel to extrusion
M204 S3000
G1 X61.326 Y95.838
; end travel
G1 F8538.0216
G1 X62.873 Y94.291 E32.24119
; acceleration to travel
M204 S4000
G1 X62.874 Y93.873 F12000
; decel to extrusion
M204 S3000
G1 X62.874 Y93.559
; end travel
G1 F8538.0216
G1 X61.326 Y95.107 E32.33713
; acceleration to travel
M204 S4000
G1 X61.326 Y94.689 F12000
; decel to extrusion
M204 S3000
G1 X61.326 Y94.376
; end travel
G1 F8538.0216
G1 X62.874 Y92.828 E32.43308
; acceleration to travel
M204 S4000
G1 X62.588 Y92.695 F12000
; decel to extrusion
M204 S3000
G1 X62.374 Y92.596
; end travel
G1 F8538.0216
G1 X61.326 Y93.645 E32.49807
; acceleration to travel
M204 S4000
G1 X61.052 Y97.261 F12000
; decel to extrusion
M204 S3000
G1 X60.847 Y99.973
; end travel
G1 F8538.0216
G1 X57.438 Y103.382 E32.70937
; acceleration to travel
M204 S4000
G1 X57.02 Y103.382 F12000
; decel to extrusion
M204 S3000
