; HEADER_BLOCK_START
; generated by OrcaSlicer 1.7.0-beta on 2023-09-21 at 17:45:58
; total layer number: 195
; HEADER_BLOCK_END

; THUMBNAIL_BLOCK_START
; THUMBNAIL_BLOCK_END

; external perimeters extrusion width = 0.40mm
; perimeters extrusion width = 0.46mm
; infill extrusion width = 0.64mm
; solid infill extrusion width = 0.56mm
; top infill extrusion width = 0.40mm
; first layer extrusion width = 0.50mm

; external perimeters extrusion width = 0.40mm
; perimeters extrusion width = 0.46mm
; infill extrusion width = 0.64mm
; solid infill extrusion width = 0.56mm
; top infill extrusion width = 0.40mm
; first layer extrusion width = 0.50mm

; EXECUTABLE_BLOCK_START
EXCLUDE_OBJECT_DEFINE NAME=Brush_Holder_id_0_copy_0 CENTER=60,71 POLYGON=[[38.5,64.5],[38.5146,64.2589],[38.5581,64.0214],[38.63,63.7908],[38.7291,63.5706],[38.854,63.3639],[39.003,63.1738],[39.1738,63.003],[39.3639,62.854],[39.5706,62.7291],[39.7908,62.63],[40.0214,62.5581],[40.2589,62.5146],[40.5,62.5],[79.5,62.5],[79.7411,62.5146],[79.9786,62.5581],[80.2092,62.63],[80.4294,62.7291],[80.6361,62.854],[80.8262,63.003],[80.997,63.1738],[81.146,63.3639],[81.2709,63.5706],[81.37,63.7908],[81.4419,64.0214],[81.4854,64.2589],[81.5,64.5],[81.5,77.5],[81.4854,77.7411],[81.4419,77.9786],[81.37,78.2092],[81.2709,78.4294],[81.146,78.6361],[80.997,78.8262],[80.8262,78.997],[80.6361,79.146],[80.4294,79.2709],[80.2092,79.37],[79.9786,79.4419],[79.7411,79.4854],[79.5,79.5],[38.5,79.5],[38.5,64.5]]
EXCLUDE_OBJECT_DEFINE NAME=Purge_id_1_copy_0 CENTER=60,49 POLYGON=[[49,42.5],[49.0171,42.2389],[49.0204,42.2154],[49.0681,41.9824],[49.081,41.9365],[49.1522,41.7346],[49.1807,41.6692],[49.2679,41.5],[49.3175,41.4187],[49.4133,41.2825],[49.4885,41.1903],[49.5858,41.0858],[49.6903,40.9885],[49.7825,40.9133],[49.9187,40.8175],[50,40.7679],[50.1692,40.6807],[50.2346,40.6522],[50.4365,40.581],[50.4824,40.5681],[50.7154,40.5204],[50.7389,40.5171],[51,40.5],[71,40.5],[71,57.5],[51,57.5],[50.7389,57.4829],[50.7154,57.4796],[50.4824,57.4319],[50.4365,57.419],[50.2346,57.3478],[50.1692,57.3193],[50,57.232],[49.9187,57.1825],[49.7825,57.0867],[49.6903,57.0115],[49.5858,56.9142],[49.4885,56.8097],[49.4133,56.7175],[49.3175,56.5813],[49.2679,56.5],[49.1807,56.3308],[49.1522,56.2654],[49.081,56.0635],[49.0681,56.0176],[49.0204,55.7846],[49.0171,55.7611],[49,55.5],[49,42.5]]
M73 P0 R39
;TYPE:Custom
START_PRINT T_BED=110 T_EXTRUDER=260
G90
G21
M83 ; use relative distances for extrusion
; Filament gcode

    PRESSURE_ADVANCE_SELECT FILAMENT=ABS
M106 S0
;LAYER_CHANGE
;Z:0.2
;HEIGHT:0.2
;BEFORE_LAYER_CHANGE
;0.2
G92 E0

;AFTER_LAYER_CHANGE
;0.2
;_SET_FAN_SPEED_CHANGING_LAYER
SET_VELOCITY_LIMIT ACCEL=1000 ACCEL_TO_DECEL=500
SET_VELOCITY_LIMIT SQUARE_CORNER_VELOCITY=9
G1 E-.5 F3000
G1 Z.2 F21000
G1 X47.227 Y39.356
G1 Z.2
G1 E.5 F1800
;TYPE:Skirt
;WIDTH:0.5
G1 F3000
G1 X48.159 Y38.494 E.0447
G1 X48.942 Y38.04 E.03185
G1 X49.918 Y37.709 E.03629
G1 X50.809 Y37.592 E.03161
G1 X71 Y37.586 E.7106
G1 X72.462 Y37.979 E.05327
G1 X73.662 Y39.315 E.0632
G1 X84.224 Y63.154 E.91767
G1 X84.414 Y64.5 E.04783
G1 X84.409 Y77.676 E.46371
G1 X84.352 Y78.267 E.02091
G1 X84.152 Y79.076 E.02932
G1 X83.765 Y79.937 E.03322
G1 X83.291 Y80.623 E.02935
G1 X82.433 Y81.44 E.04168
G1 X81.625 Y81.928 E.03322
G1 X80.846 Y82.224 E.02935
G1 X79.676 Y82.409 E.04168
G1 X38.5 Y82.414 E1.44914
G1 X37.038 Y82.021 E.05327
G1 X35.971 Y80.948 E.05327
G1 X35.586 Y79.5 E.05272
G1 X35.586 Y64.5 E.52791
G1 X35.692 Y63.496 E.03553
G1 X36.099 Y62.315 E.04396
G1 X46.521 Y40.483 E.8514
G1 X47.205 Y39.39 E.04539
G1 X47.57 Y39.658 F21000
G1 F3000
G1 X48.413 Y38.873 E.04054
G1 X49.145 Y38.45 E.02974
G1 X50.008 Y38.157 E.03207
G1 X50.839 Y38.048 E.02951
G1 X71 Y38.043 E.70954
G1 X72.331 Y38.435 E.04884
G1 X73.245 Y39.501 E.0494
G1 X83.788 Y63.29 E.91579
G1 X83.957 Y64.5 E.04299
G1 X83.953 Y77.648 E.46274
G1 X83.716 Y78.94 E.04622
G1 X83.374 Y79.701 E.02935
G1 X82.931 Y80.342 E.02741
G1 X82.151 Y81.08 E.0378
G1 X81.438 Y81.512 E.02935
G1 X80.422 Y81.859 E.0378
G1 X79.5 Y81.957 E.03262
G1 X38.5 Y81.957 E1.44295
G1 X37.169 Y81.565 E.04884
G1 X36.262 Y80.515 E.04884
G1 X36.043 Y79.5 E.03653
G1 X36.043 Y64.5 E.52791
G1 X36.213 Y63.289 E.04302
G1 X36.512 Y62.512 E.02932
G1 X46.933 Y40.68 E.8514
G1 X47.549 Y39.692 E.04097
; printing object Brush Holder id:0 copy 0
G1 E-.5
EXCLUDE_OBJECT_START NAME=Brush_Holder_id_0_copy_0
G1 Z.4 F21000
G1 X38.85 Y79.15 Z.4
G1 Z.2
G1 E.5 F1800
;TYPE:Outer wall
G1 F3000
G1 X38.85 Y64.511 E.51522
G1 X38.863 Y64.301 E.00738
G1 X38.899 Y64.105 E.00701
G1 X38.958 Y63.914 E.00704
G1 X39.143 Y63.563 E.01397
G1 X39.265 Y63.406 E.00701
G1 X39.406 Y63.265 E.00701
G1 X39.563 Y63.143 E.00701
G1 X39.733 Y63.04 E.00701
G1 X39.915 Y62.958 E.00701
G1 X40.295 Y62.864 E.01378
G1 X41.489 Y62.85 E.04201
G1 X79.49 Y62.85 E1.33742
G1 X79.699 Y62.863 E.00736
G1 X79.895 Y62.899 E.00701
G1 X80.085 Y62.958 E.00701
G1 X80.266 Y63.04 E.00701
G1 X80.437 Y63.143 E.00701
G1 X80.594 Y63.265 E.00701
G1 X80.735 Y63.406 E.00701
G1 X80.857 Y63.563 E.00701
G1 X80.96 Y63.734 E.00701
G1 X81.042 Y63.915 E.00701
G1 X81.101 Y64.105 E.00701
G1 X81.137 Y64.301 E.00701
G1 X81.15 Y64.511 E.00738
G1 X81.15 Y77.489 E.45677
G1 X81.137 Y77.699 E.00738
G1 X81.042 Y78.085 E.014
G1 X80.96 Y78.266 E.00701
G1 X80.857 Y78.437 E.00701
G1 X80.735 Y78.594 E.00701
G1 X80.594 Y78.735 E.00701
G1 X80.437 Y78.857 E.00701
G1 X80.266 Y78.96 E.00701
G1 X80.085 Y79.042 E.00701
G1 X79.895 Y79.101 E.00701
G1 X79.699 Y79.137 E.00701
G1 X79.489 Y79.15 E.00738
G1 X38.89 Y79.15 E1.42885
G1 X39.35 Y78.65 F21000
;TYPE:Inner wall
G1 F3000
G1 X39.35 Y64.526 E.49709
G1 X39.385 Y64.225 E.01064
G1 X39.426 Y64.092 E.00491
G1 X39.555 Y63.848 E.00972
G1 X39.64 Y63.738 E.00488
G1 X39.848 Y63.555 E.00974
G1 X40.093 Y63.426 E.00974
G1 X40.343 Y63.363 E.0091
G1 X41.492 Y63.35 E.04041
G1 X79.475 Y63.35 E1.33678
G1 X79.638 Y63.36 E.00576
G1 X79.907 Y63.426 E.00974
G1 X80.152 Y63.555 E.00974
G1 X80.36 Y63.738 E.00974
G1 X80.517 Y63.966 E.00974
G1 X80.574 Y64.093 E.00488
G1 X80.64 Y64.362 E.00974
G1 X80.65 Y64.526 E.00579
G1 X80.65 Y77.474 E.45571
G1 X80.615 Y77.775 E.01067
G1 X80.517 Y78.034 E.00973
G1 X80.445 Y78.152 E.00488
G1 X80.36 Y78.262 E.00488
G1 X80.152 Y78.445 E.00974
G1 X79.907 Y78.574 E.00974
G1 X79.638 Y78.64 E.00974
G1 X79.474 Y78.65 E.00579
G1 X39.39 Y78.65 E1.41072
G1 X39.807 Y78.193 F21000
G1 F3000
G1 X39.807 Y64.54 E.48052
G1 X39.829 Y64.335 E.00724
G1 X39.932 Y64.108 E.00877
G1 X40.108 Y63.932 E.00876
G1 X40.255 Y63.854 E.00586
G1 X40.388 Y63.82 E.00482
G1 X41.494 Y63.807 E.03895
G1 X79.461 Y63.807 E1.3362
G1 X79.583 Y63.815 E.0043
G1 X79.745 Y63.854 E.00586
G1 X79.892 Y63.932 E.00586
G1 X80.017 Y64.042 E.00586
G1 X80.146 Y64.255 E.00876
G1 X80.185 Y64.417 E.00586
G1 X80.193 Y64.54 E.00433
G1 X80.193 Y77.46 E.45474
G1 X80.17 Y77.666 E.00727
G1 X80.068 Y77.892 E.00875
G1 X79.892 Y78.068 E.00876
G1 X79.745 Y78.146 E.00586
G1 X79.583 Y78.185 E.00586
G1 X79.46 Y78.193 E.00433
G1 X39.847 Y78.193 E1.39415
G1 X40.264 Y77.736 F21000
G1 F3000
G1 X40.264 Y64.553 E.46394
G1 X40.294 Y64.392 E.00578
G1 X40.346 Y64.326 E.00295
G1 X40.431 Y64.276 E.00347
G1 X79.447 Y64.264 E1.37314
G1 X79.582 Y64.282 E.0048
G1 X79.674 Y64.346 E.00392
G1 X79.726 Y64.444 E.00392
G1 X79.736 Y64.553 E.00385
G1 X79.736 Y77.447 E.45376
G1 X79.706 Y77.608 E.00578
G1 X79.654 Y77.674 E.00295
G1 X79.582 Y77.718 E.00295
G1 X79.447 Y77.736 E.00482
G1 X40.304 Y77.736 E1.37758
G1 X40.721 Y77.279 F21000
G1 F3000
G1 X40.721 Y64.73 E.44163
G1 X79.279 Y64.721 E1.35699
G1 X79.279 Y77.279 E.44195
G1 X40.761 Y77.279 E1.35558
G1 E-.5
G1 Z.4 F21000
G1 X79.142 Y65.787 Z.4
G1 Z.2
G1 E.5 F1800
;TYPE:Bottom surface
;WIDTH:0.502158
G1 F6300
G1 X78.419 Y65.064 E.03614
G1 X77.77 Y65.064 E.02296
G1 X78.936 Y66.231 E.05832
G1 X78.936 Y66.88 E.02296
G1 X77.12 Y65.065 E.09079
G1 X76.471 Y65.065 E.02296
G1 X78.936 Y67.53 E.12326
G1 X78.936 Y68.179 E.02296
G1 X75.822 Y65.065 E.15573
G1 X75.172 Y65.065 E.02296
G1 X78.936 Y68.829 E.1882
G1 X78.936 Y69.478 E.02296
G1 X74.523 Y65.065 E.22067
G1 X73.874 Y65.065 E.02296
G1 X78.936 Y70.128 E.25314
G1 X78.936 Y70.777 E.02296
G1 X73.224 Y65.065 E.28561
G1 X72.575 Y65.066 E.02296
G1 X78.936 Y71.426 E.31808
G1 X78.936 Y72.076 E.02296
G1 X71.926 Y65.066 E.35055
G1 X71.277 Y65.066 E.02296
G1 X78.936 Y72.725 E.38302
G1 X78.936 Y73.375 E.02296
G1 X70.627 Y65.066 E.41549
G1 X69.978 Y65.066 E.02296
G1 X78.936 Y74.024 E.44796
G1 X78.936 Y74.674 E.02296
G1 X69.329 Y65.066 E.48043
G1 X68.679 Y65.067 E.02296
G1 X78.936 Y75.323 E.5129
G1 X78.936 Y75.973 E.02296
G1 X68.03 Y65.067 E.54537
G1 X67.381 Y65.067 E.02296
G1 X78.936 Y76.622 E.57784
G1 X78.936 Y76.936 E.0111
G1 X78.6 Y76.936 E.01187
G1 X66.731 Y65.067 E.59353
M73 P1 R39
G1 X66.082 Y65.067 E.02296
G1 X77.951 Y76.936 E.59352
G1 X77.301 Y76.936 E.02296
G1 X65.433 Y65.067 E.59351
G1 X64.783 Y65.067 E.02296
G1 X76.652 Y76.936 E.59351
G1 X76.003 Y76.936 E.02296
G1 X64.134 Y65.068 E.5935
G1 X63.485 Y65.068 E.02296
G1 X75.353 Y76.936 E.59349
G1 X74.704 Y76.936 E.02296
G1 X62.836 Y65.068 E.59348
G1 X62.186 Y65.068 E.02296
G1 X74.054 Y76.936 E.59348
G1 X73.405 Y76.936 E.02296
G1 X61.537 Y65.068 E.59347
G1 X60.888 Y65.068 E.02296
G1 X72.755 Y76.936 E.59346
G1 X72.106 Y76.936 E.02296
G1 X60.238 Y65.068 E.59345
G1 X59.589 Y65.069 E.02296
G1 X71.456 Y76.936 E.59345
G1 X70.807 Y76.936 E.02296
G1 X58.94 Y65.069 E.59344
G1 X58.29 Y65.069 E.02296
G1 X70.157 Y76.936 E.59343
G1 X69.508 Y76.936 E.02296
G1 X57.641 Y65.069 E.59342
G1 X56.992 Y65.069 E.02296
G1 X68.858 Y76.936 E.59341
G1 X68.209 Y76.936 E.02296
G1 X56.342 Y65.069 E.59341
G1 X55.693 Y65.07 E.02296
G1 X67.56 Y76.936 E.5934
G1 X66.91 Y76.936 E.02296
G1 X55.044 Y65.07 E.59339
G1 X54.394 Y65.07 E.02296
G1 X66.261 Y76.936 E.59338
G1 X65.611 Y76.936 E.02296
G1 X53.745 Y65.07 E.59338
G1 X53.096 Y65.07 E.02296
G1 X64.962 Y76.936 E.59337
G1 X64.312 Y76.936 E.02296
G1 X52.447 Y65.07 E.59336
G1 X51.797 Y65.07 E.02296
G1 X63.663 Y76.936 E.59335
G1 X63.013 Y76.936 E.02296
G1 X51.148 Y65.071 E.59335
G1 X50.499 Y65.071 E.02296
G1 X62.364 Y76.936 E.59334
G1 X61.714 Y76.936 E.02296
G1 X49.849 Y65.071 E.59333
G1 X49.2 Y65.071 E.02296
G1 X61.065 Y76.936 E.59332
G1 X60.415 Y76.936 E.02296
G1 X48.551 Y65.071 E.59332
G1 X47.901 Y65.071 E.02296
G1 X59.766 Y76.936 E.59331
G1 X59.117 Y76.936 E.02296
G1 X47.252 Y65.072 E.5933
G1 X46.603 Y65.072 E.02296
G1 X58.467 Y76.936 E.59329
G1 X57.818 Y76.936 E.02296
G1 X45.953 Y65.072 E.59329
G1 X45.304 Y65.072 E.02296
G1 X57.168 Y76.936 E.59328
G1 X56.519 Y76.936 E.02296
G1 X44.655 Y65.072 E.59327
G1 X44.006 Y65.072 E.02296
G1 X55.869 Y76.936 E.59326
G1 X55.22 Y76.936 E.02296
G1 X43.356 Y65.072 E.59326
G1 X42.707 Y65.073 E.02296
G1 X54.57 Y76.936 E.59325
G1 X53.921 Y76.936 E.02296
G1 X42.058 Y65.073 E.59324
G1 X41.408 Y65.073 E.02296
G1 X53.271 Y76.936 E.59323
G1 X52.622 Y76.936 E.02296
G1 X41.064 Y65.378 E.57797
G1 X41.064 Y66.028 E.02296
G1 X51.972 Y76.936 E.54549
G1 X51.323 Y76.936 E.02296
G1 X41.064 Y66.677 E.51302
G1 X41.064 Y67.326 E.02296
G1 X50.674 Y76.936 E.48054
G1 X50.024 Y76.936 E.02296
G1 X41.064 Y67.976 E.44806
G1 X41.064 Y68.625 E.02296
G1 X49.375 Y76.936 E.41558
G1 X48.725 Y76.936 E.02296
G1 X41.064 Y69.275 E.38311
G1 X41.064 Y69.924 E.02296
G1 X48.076 Y76.936 E.35063
G1 X47.426 Y76.936 E.02296
G1 X41.064 Y70.574 E.31815
G1 X41.064 Y71.223 E.02296
G1 X46.777 Y76.936 E.28568
G1 X46.127 Y76.936 E.02296
G1 X41.064 Y71.873 E.2532
G1 X41.064 Y72.522 E.02296
G1 X45.478 Y76.936 E.22072
G1 X44.828 Y76.936 E.02296
G1 X41.064 Y73.172 E.18824
G1 X41.064 Y73.821 E.02296
G1 X44.179 Y76.936 E.15577
G1 X43.529 Y76.936 E.02296
G1 X41.064 Y74.471 E.12329
G1 X41.064 Y75.12 E.02296
G1 X42.88 Y76.936 E.09081
G1 X42.231 Y76.936 E.02296
G1 X41.064 Y75.769 E.05833
G1 X41.064 Y76.419 E.02296
G1 X41.787 Y77.142 E.03614
; stop printing object Brush Holder id:0 copy 0
; printing object Purge id:1 copy 0
G1 E-.5 F3000
EXCLUDE_OBJECT_END NAME=Brush_Holder_id_0_copy_0
EXCLUDE_OBJECT_START NAME=Purge_id_1_copy_0
G1 Z.4 F21000
G1 X70.65 Y57.15 Z.4
G1 Z.2
G1 E.5 F1800
;TYPE:Outer wall
;WIDTH:0.5
G1 F3000
G1 X51.011 Y57.15 E.69116
G1 X50.784 Y57.135 E.00801
G1 X50.572 Y57.093 E.00761
G1 X50.373 Y57.025 E.00742
G1 X50.174 Y56.927 E.0078
G1 X49.994 Y56.807 E.0076
G1 X49.836 Y56.668 E.00742
G1 X49.693 Y56.505 E.00762
G1 X49.573 Y56.326 E.00761
G1 X49.477 Y56.133 E.00759
G1 X49.406 Y55.922 E.00781
G1 X49.365 Y55.716 E.00742
G1 X49.35 Y55.489 E.00801
G1 X49.35 Y42.511 E.45671
G1 X49.365 Y42.284 E.00801
G1 X49.407 Y42.072 E.00761
G1 X49.475 Y41.873 E.00742
G1 X49.573 Y41.674 E.0078
G1 X49.693 Y41.495 E.00759
G1 X49.836 Y41.332 E.00762
G1 X49.994 Y41.193 E.00742
G1 X50.174 Y41.073 E.00762
G1 X50.367 Y40.977 E.00759
G1 X50.577 Y40.906 E.0078
G1 X50.784 Y40.865 E.00742
G1 X51.011 Y40.85 E.00801
G1 X70.65 Y40.85 E.69116
G1 X70.65 Y57.11 E.57225
G1 X70.15 Y56.65 F21000
;TYPE:Inner wall
G1 F3000
G1 X51.028 Y56.65 E.67298
G1 X50.702 Y56.609 E.01156
G1 X50.424 Y56.493 E.01059
G1 X50.3 Y56.41 E.00528
G1 X50.09 Y56.2 E.01044
G1 X49.94 Y55.941 E.01053
G1 X49.862 Y55.65 E.0106
G1 X49.85 Y55.472 E.00628
G1 X49.85 Y42.528 E.45556
M73 P1 R38
G1 X49.891 Y42.202 E.01156
G1 X50.007 Y41.924 E.01059
G1 X50.09 Y41.8 E.00526
G1 X50.3 Y41.59 E.01044
G1 X50.559 Y41.44 E.01055
G1 X50.85 Y41.362 E.0106
G1 X51.028 Y41.35 E.00628
G1 X70.15 Y41.35 E.67298
G1 X70.15 Y56.61 E.53706
G1 X69.693 Y56.193 F21000
G1 F3000
G1 X51.043 Y56.193 E.65637
G1 X50.821 Y56.166 E.00787
G1 X50.579 Y56.047 E.00951
G1 X50.453 Y55.921 E.00626
G1 X50.363 Y55.766 E.00629
G1 X50.316 Y55.59 E.0064
G1 X50.307 Y55.457 E.0047
G1 X50.307 Y42.543 E.4545
G1 X50.334 Y42.321 E.00787
G1 X50.453 Y42.079 E.00947
G1 X50.579 Y41.953 E.00626
G1 X50.734 Y41.863 E.00633
G1 X50.91 Y41.816 E.0064
G1 X51.043 Y41.807 E.0047
G1 X69.693 Y41.807 E.65637
G1 X69.693 Y56.153 E.50489
G1 X69.236 Y55.736 F21000
G1 F3000
G1 X51.058 Y55.736 E.63975
G1 X50.939 Y55.724 E.00419
G1 X50.858 Y55.683 E.00321
G1 X50.787 Y55.591 E.0041
G1 X50.764 Y55.442 E.00529
G1 X50.764 Y42.558 E.45345
G1 X50.776 Y42.439 E.00419
G1 X50.816 Y42.359 E.00317
G1 X50.909 Y42.287 E.00415
G1 X51.058 Y42.264 E.00529
G1 X69.236 Y42.264 E.63975
G1 X69.236 Y55.696 E.47271
G1 X68.779 Y55.279 F21000
G1 F3000
G1 X51.221 Y55.279 E.61792
G1 X51.221 Y42.721 E.44195
G1 X68.779 Y42.721 E.61792
G1 X68.779 Y55.239 E.44054
G1 E-.5
G1 Z.4 F21000
G1 X67.699 Y42.858 Z.4
G1 Z.2
G1 E.5 F1800
;TYPE:Bottom surface
;WIDTH:0.508951
G1 F6300
G1 X68.436 Y43.596 E.03741
G1 X68.436 Y44.255 E.02365
G1 X67.245 Y43.064 E.06042
G1 X66.586 Y43.064 E.02365
G1 X68.436 Y44.914 E.09387
G1 X68.436 Y45.573 E.02365
G1 X65.927 Y43.064 E.12731
G1 X65.268 Y43.064 E.02365
G1 X68.436 Y46.232 E.16076
G1 X68.436 Y46.891 E.02365
G1 X64.609 Y43.064 E.1942
G1 X63.95 Y43.064 E.02365
G1 X68.436 Y47.55 E.22765
M73 P2 R38
G1 X68.436 Y48.209 E.02365
G1 X63.291 Y43.064 E.26109
G1 X62.632 Y43.064 E.02365
G1 X68.436 Y48.868 E.29454
G1 X68.436 Y49.527 E.02365
G1 X61.973 Y43.064 E.32798
G1 X61.314 Y43.064 E.02365
G1 X68.436 Y50.186 E.36143
G1 X68.436 Y50.845 E.02365
G1 X60.655 Y43.064 E.39487
G1 X59.996 Y43.064 E.02365
G1 X68.436 Y51.504 E.42832
G1 X68.436 Y52.163 E.02365
G1 X59.337 Y43.064 E.46176
G1 X58.677 Y43.064 E.02365
G1 X68.436 Y52.823 E.49521
G1 X68.436 Y53.482 E.02365
G1 X58.018 Y43.064 E.52866
G1 X57.359 Y43.064 E.02365
G1 X68.436 Y54.141 E.5621
G1 X68.436 Y54.8 E.02365
G1 X56.7 Y43.064 E.59555
G1 X56.041 Y43.064 E.02365
G1 X67.913 Y54.936 E.60246
G1 X67.254 Y54.936 E.02365
G1 X55.382 Y43.064 E.60246
G1 X54.723 Y43.064 E.02365
G1 X66.595 Y54.936 E.60246
G1 X65.936 Y54.936 E.02365
G1 X54.064 Y43.064 E.60246
G1 X53.405 Y43.064 E.02365
G1 X65.277 Y54.936 E.60246
G1 X64.618 Y54.936 E.02365
G1 X52.746 Y43.064 E.60246
G1 X52.087 Y43.064 E.02365
G1 X63.959 Y54.936 E.60246
G1 X63.3 Y54.936 E.02365
G1 X51.564 Y43.2 E.59554
G1 X51.564 Y43.859 E.02365
G1 X62.641 Y54.936 E.56209
G1 X61.981 Y54.936 E.02365
G1 X51.564 Y44.519 E.52865
G1 X51.564 Y45.178 E.02365
G1 X61.322 Y54.936 E.4952
G1 X60.663 Y54.936 E.02365
G1 X51.564 Y45.837 E.46176
G1 X51.564 Y46.496 E.02365
G1 X60.004 Y54.936 E.42831
