; generated by SuperSlicer 2.5.59 on 2023-06-08 at 20:27:47 UTC


;
;

;
;
; 

; external perimeters extrusion width = 0.40mm
; perimeters extrusion width = 0.46mm
; infill extrusion width = 0.64mm
; solid infill extrusion width = 0.56mm
; top infill extrusion width = 0.40mm
; first layer extrusion width = 0.50mm

; external perimeters extrusion width = 0.40mm
; perimeters extrusion width = 0.46mm
; infill extrusion width = 0.64mm
; solid infill extrusion width = 0.56mm
; top infill extrusion width = 0.40mm
; first layer extrusion width = 0.50mm

; object:{"name":"cable holder","id":"cable holder.stl id:0 copy 0","object_center":[38.546474,71.645473,0.000000],"boundingbox_center":[38.546474,71.645473,9.720341],"boundingbox_size":[21.969022,12.000000,19.440681]}
EXCLUDE_OBJECT_DEFINE NAME=cable_holder_stl_id_0_copy_0 CENTER=38.546474,71.645473 POLYGON=[[27.561964,77.145704],[27.562110,77.142640],[27.562194,77.140896],[27.562718,77.130072],[27.562900,77.126368],[27.563826,77.107688],[27.564400,77.096368],[27.564758,77.089360],[27.565448,77.076080],[27.565884,77.067792],[27.566680,77.052888],[27.567192,77.043440],[27.568086,77.027216],[27.568672,77.016720],[27.569650,76.999520],[27.570150,76.990880],[27.573038,76.942512],[27.577200,76.876952],[27.577532,76.871888],[27.577868,76.866832],[27.578542,76.856696],[27.588266,76.720920],[27.594700,76.639392],[27.599402,76.583160],[27.625272,76.309960],[27.626612,76.297032],[27.627500,76.288568],[27.656144,76.037208],[27.668532,75.938616],[27.676966,75.874416],[27.692002,75.765048],[27.717772,75.589712],[27.720466,75.572184],[27.725216,75.541616],[27.730676,75.506976],[27.736848,75.468456],[27.739288,75.453392],[27.743726,75.426256],[27.751514,75.379368],[27.759782,75.330584],[27.764108,75.305392],[27.767602,75.285160],[27.769328,75.275240],[27.771762,75.261328],[27.774926,75.243448],[27.778828,75.221568],[27.783484,75.195696],[27.788908,75.165816],[27.795118,75.132000],[27.802108,75.094496],[27.809844,75.053608],[27.818292,75.009632],[27.827424,74.962856],[27.829320,74.953240],[27.837204,74.913576],[27.847602,74.862096],[27.858588,74.808712],[27.870786,74.750584],[27.877714,74.718144],[27.883954,74.689152],[27.884942,74.684600],[27.894476,74.640896],[27.898060,74.624688],[27.905022,74.593288],[27.913078,74.557464],[27.916052,74.544240],[27.927366,74.494704],[27.938814,74.445360],[27.945748,74.415864],[27.950952,74.393864],[27.963340,74.342048],[27.973984,74.298288],[27.981740,74.266592],[27.987980,74.241520],[28.000910,74.189816],[28.013042,74.142144],[28.020778,74.112080],[28.037208,74.048936],[28.041246,74.033744],[28.062220,73.955152],[28.082272,73.881352],[28.105294,73.798656],[28.127202,73.721448],[28.149230,73.645424],[28.172020,73.568416],[28.195502,73.490648],[28.202484,73.467712],[28.207464,73.451488],[28.219566,73.412472],[28.244106,73.334216],[28.269016,73.256216],[28.294190,73.178808],[28.319514,73.102336],[28.334762,73.056992],[28.344886,73.027112],[28.371760,72.948896],[28.398408,72.872680],[28.424678,72.798768],[28.450430,72.727488],[28.472912,72.666168],[28.478284,72.651632],[28.504568,72.581192],[28.620352,72.282968],[28.621810,72.279304],[28.633646,72.249864],[28.742532,71.987136],[28.781338,71.896712],[28.800480,71.852720],[28.871036,71.693896],[28.951378,71.518672],[28.978648,71.460544],[29.005784,71.403416],[29.131800,71.145472],[29.146690,71.115872],[29.168004,71.073632],[29.188450,71.033520],[29.246908,70.920352],[29.293666,70.831456],[29.306654,70.807032],[29.367162,70.694584],[29.368392,70.692320],[29.406520,70.622680],[29.446000,70.551472],[29.446626,70.550344],[29.484684,70.482560],[29.522970,70.415192],[29.560780,70.349440],[29.579646,70.316928],[29.597974,70.285504],[29.605472,70.272704],[29.634968,70.222640],[29.669238,70.165000],[29.672228,70.160024],[29.709508,70.098056],[29.729374,70.065256],[29.749870,70.031656],[29.770198,69.998528],[29.776210,69.988776],[29.801590,69.947744],[29.805418,69.941584],[29.820682,69.917080],[29.833704,69.896256],[29.860596,69.853496],[29.867048,69.843288],[29.885938,69.813488],[29.908872,69.777520],[29.909562,69.776440],[29.931276,69.742592],[29.945600,69.720392],[29.951032,69.711976],[29.965418,69.689800],[29.969378,69.683696],[29.982792,69.663104],[29.985552,69.658872],[29.997680,69.640336],[30.010020,69.621528],[30.011192,69.619744],[30.020460,69.605656],[30.027214,69.595424],[30.034046,69.585088],[30.053970,69.555048],[30.276820,69.229264],[30.294624,69.204008],[30.529708,68.880552],[30.545142,68.859936],[30.683842,68.679856],[30.792508,68.539248],[30.805320,68.523112],[31.064998,68.205624],[31.074950,68.193808],[31.215020,68.030584],[31.346956,67.879968],[31.353814,67.872288],[31.400228,67.820784],[31.589444,67.614448],[31.638150,67.562544],[31.641686,67.558800],[31.782622,67.411648],[31.834266,67.358712],[31.886172,67.306032],[31.938336,67.253608],[33.286666,65.905272],[33.334344,65.857596],[33.846472,65.645468],[43.246476,65.645468],[43.758608,65.857596],[43.806284,65.905272],[45.154612,67.253608],[45.206780,67.306032],[45.258684,67.358712],[45.310328,67.411648],[45.451264,67.558800],[45.454804,67.562544],[45.503504,67.614448],[45.692724,67.820784],[45.739140,67.872288],[45.745996,67.879968],[45.877932,68.030584],[46.018000,68.193808],[46.027956,68.205624],[46.287632,68.523112],[46.300440,68.539248],[46.409112,68.679856],[46.547808,68.859936],[46.563240,68.880552],[46.798324,69.204008],[46.816132,69.229264],[47.038980,69.555048],[47.058908,69.585088],[47.065736,69.595424],[47.072492,69.605656],[47.081756,69.619744],[47.093020,69.636904],[47.106972,69.658216],[47.107400,69.658872],[47.123572,69.683696],[47.141920,69.711976],[47.161676,69.742592],[47.179292,69.770040],[47.183388,69.776440],[47.200176,69.802752],[47.207012,69.813488],[47.222300,69.837592],[47.232352,69.853496],[47.259248,69.896256],[47.270292,69.913912],[47.287532,69.941584],[47.291360,69.947744],[47.316740,69.988776],[47.322756,69.998528],[47.334540,70.017712],[47.346388,70.037064],[47.379820,70.092016],[47.414584,70.149744],[47.420724,70.160024],[47.450524,70.210040],[47.457984,70.222640],[47.487476,70.272704],[47.494976,70.285504],[47.513304,70.316928],[47.532172,70.349440],[47.569980,70.415192],[47.608264,70.482552],[47.646324,70.550344],[47.646952,70.551472],[47.686432,70.622680],[47.724560,70.692320],[47.725788,70.694584],[47.786296,70.807032],[47.799284,70.831456],[47.846044,70.920352],[47.904504,71.033520],[47.924944,71.073632],[47.946264,71.115872],[47.961152,71.145472],[48.087164,71.403416],[48.114304,71.460544],[48.141572,71.518672],[48.221912,71.693896],[48.292472,71.852720],[48.311612,71.896712],[48.350420,71.987136],[48.459304,72.249864],[48.471140,72.279304],[48.472600,72.282968],[48.588384,72.581192],[48.614668,72.651632],[48.620036,72.666168],[48.642520,72.727488],[48.668272,72.798768],[48.694544,72.872680],[48.721192,72.948896],[48.748064,73.027112],[48.758188,73.056992],[48.773436,73.102336],[48.798760,73.178808],[48.823932,73.256216],[48.848844,73.334216],[48.873388,73.412472],[48.885488,73.451488],[48.890464,73.467712],[48.897448,73.490648],[48.920928,73.568416],[48.943720,73.645424],[48.965748,73.721448],[48.987656,73.798656],[49.010680,73.881352],[49.030732,73.955152],[49.051704,74.033744],[49.055740,74.048936],[49.072176,74.112080],[49.079912,74.142144],[49.092040,74.189816],[49.105384,74.243168],[49.111212,74.266592],[49.118964,74.298288],[49.129608,74.342048],[49.142104,74.394304],[49.147200,74.415864],[49.154136,74.445360],[49.165580,74.494704],[49.176900,74.544232],[49.187928,74.593288],[49.194892,74.624688],[49.198476,74.640896],[49.208008,74.684600],[49.208996,74.689152],[49.215236,74.718144],[49.222164,74.750584],[49.234364,74.808712],[49.245348,74.862096],[49.255744,74.913576],[49.263632,74.953240],[49.265524,74.962856],[49.274660,75.009632],[49.283108,75.053608],[49.290840,75.094496],[49.297832,75.132000],[49.304044,75.165816],[49.309468,75.195696],[49.314124,75.221568],[49.318024,75.243448],[49.321192,75.261328],[49.323624,75.275240],[49.325348,75.285160],[49.326372,75.291104],[49.333208,75.330824],[49.341496,75.379720],[49.349296,75.426696],[49.353660,75.453392],[49.356168,75.468856],[49.362324,75.507288],[49.367760,75.541792],[49.372484,75.572184],[49.375180,75.589712],[49.400948,75.765048],[49.415984,75.874416],[49.424420,75.938616],[49.436804,76.037208],[49.465452,76.288568],[49.466340,76.297032],[49.467680,76.309960],[49.493548,76.583160],[49.498248,76.639392],[49.504684,76.720920],[49.514408,76.856696],[49.514748,76.861760],[49.515420,76.871888],[49.515752,76.876952],[49.519912,76.942488],[49.522800,76.990880],[49.523296,76.999480],[49.524324,77.017488],[49.524880,77.027432],[49.525788,77.043968],[49.526292,77.053280],[49.527084,77.068104],[49.527532,77.076600],[49.528200,77.089496],[49.528580,77.096952],[49.529124,77.107696],[49.530052,77.126352],[49.530756,77.140896],[49.530988,77.145704],[49.288732,77.395592],[49.046476,77.645472],[28.046474,77.645472],[27.804220,77.395592],[27.561964,77.145704]]
; object:{"name":"Back Plate","id":"Back Plate.stl id:1 copy 0","object_center":[69.957381,60.000000,0.000000],"boundingbox_center":[69.957381,60.000000,5.252693],"boundingbox_size":[45.014236,82.500004,10.505386]}
EXCLUDE_OBJECT_DEFINE NAME=Back_Plate_stl_id_1_copy_0 CENTER=69.957381,60.000000 POLYGON=[[47.450264,18.749996],[92.464504,18.749996],[92.464504,52.250000],[75.805144,97.186936],[75.689432,97.421568],[75.544088,97.639088],[75.371600,97.835784],[72.250272,100.957104],[72.130952,101.059016],[71.997160,101.141008],[71.852192,101.201048],[71.699600,101.237688],[71.543168,101.250000],[68.371600,101.250000],[68.215168,101.237688],[68.062576,101.201048],[67.917600,101.141008],[67.783816,101.059016],[67.664488,100.957104],[64.543168,97.835784],[64.370676,97.639088],[64.225336,97.421568],[64.109620,97.186936],[47.450264,52.250000],[47.450264,18.749996]]
; plater:{"center":[60.013231,60.000000,0.000000],"boundingbox_center":[60.013231,60.000000,9.720341],"boundingbox_size":[64.902536,82.500004,19.440681]}

M73 P0 R48
;TYPE:Custom
; custom gcode: start_gcode
START_PRINT T_BED=110 T_EXTRUDER=260
; custom gcode end: start_gcode
M107
G21 ; set units to millimeters
G90 ; use absolute coordinates
M82 ; use absolute distances for extrusion
G92 E0
; custom gcode: start_filament_gcode
; Filament gcode

    PRESSURE_ADVANCE_SELECT FILAMENT=ABS
; custom gcode end: start_filament_gcode
;_TOOLCHANGE 0
M104 S260 ; set temperature
M109 S260 ; set temperature and wait for it to be reached
M190 S110 ; set bed temperature and wait for it to be reached
;LAYER_CHANGE
;Z:0.2
;HEIGHT:0.2
G1 Z0.2 F9000
G1 E-0.5 F3000
M204 S1000
G1 X46.941 Y20.092 F9000
G1 E0 F1800
;TYPE:Skirt
;WIDTH:0.52
G1 X25.243 Y70.787 E2.02564
G1 X24.492 Y73.018 E2.11212
G1 X24.155 Y74.53 E2.16903
G1 X24.082 Y75.255 E2.19578
G1 X24.168 Y76.309 E2.23465
G1 X24.747 Y77.8 E2.29339
G1 X26.028 Y79.093 E2.36026
G1 X65.701 Y104.581 E4.09241
G1 X66.486 Y104.978 E4.12472
G1 X67.434 Y105.245 E4.16091
G1 X68.379 Y105.343 E4.19583
G1 X72.009 Y105.319 E4.32916
G1 X73.247 Y105.038 E4.37578
G1 X74.416 Y104.443 E4.42397
G1 X75.15 Y103.846 E4.45874
G1 X78.451 Y100.532 E4.63055
G1 X78.951 Y99.907 E4.65993
G1 X79.473 Y99.003 E4.6983
G1 X79.84 Y98.006 E4.73731
G1 X91.929 Y53.243 E6.44054
M73 P0 R47
G1 X92.074 Y52.15 E6.48105
G1 X92.074 Y18.85 E7.70428
G1 X91.935 Y17.781 E7.74387
G1 X91.1 Y16.164 E7.81074
G1 X89.658 Y15.053 E7.87762
G1 X87.881 Y14.657 E7.94449
G1 X52.034 Y14.657 E9.2613
G1 X50.831 Y14.834 E9.30596
G1 X49.242 Y15.722 E9.37284
G1 X48.179 Y17.2 E9.43971
G1 X46.941 Y20.092 E9.55525
G1 X47.38 Y20.28 F9000
G1 F1800
G1 X25.682 Y70.975 E11.58089
G1 X24.955 Y73.132 E11.66449
G1 X24.623 Y74.619 E11.72048
G1 X24.557 Y75.391 E11.74892
G1 X24.638 Y76.225 E11.77971
G1 X25.098 Y77.459 E11.82809
G1 X26.286 Y78.692 E11.891
G1 X65.958 Y104.179 E13.62314
G1 X66.668 Y104.537 E13.65234
G1 X67.509 Y104.774 E13.68441
G1 X68.379 Y104.866 E13.71658
G1 X71.971 Y104.843 E13.84853
G1 X73.099 Y104.585 E13.89104
G1 X74.135 Y104.057 E13.93374
G1 X74.812 Y103.508 E13.96576
G1 X78.092 Y100.217 E14.13643
G1 X78.554 Y99.642 E14.16352
G1 X79.045 Y98.792 E14.19959
G1 X79.38 Y97.882 E14.2352
G1 X91.468 Y53.119 E15.93843
G1 X91.597 Y52.15 E15.97433
G1 X91.597 Y18.85 E17.19757
G1 X90.86 Y16.629 E17.28352
G1 X89.547 Y15.529 E17.34643
G1 X87.881 Y15.134 E17.40933
G1 X52.034 Y15.134 E18.72615
G1 X51.164 Y15.238 E18.75832
G1 X49.636 Y16.011 E18.82122
G1 X48.618 Y17.388 E18.88413
G1 X47.38 Y20.28 E18.99967
G1 X47.819 Y20.467 F9000
G1 F1800
G1 X26.12 Y71.163 E21.02531
G1 X25.418 Y73.245 E21.10603
G1 X25.092 Y74.708 E21.1611
G1 X25.034 Y75.397 E21.1865
G1 X25.107 Y76.14 E21.21393
G1 X25.455 Y77.123 E21.25221
G1 X26.544 Y78.291 E21.31087
G1 X66.216 Y103.778 E23.04302
G1 X66.851 Y104.096 E23.06909
G1 X67.583 Y104.303 E23.09705
G1 X68.379 Y104.389 E23.12646
G1 X71.934 Y104.367 E23.25704
G1 X72.952 Y104.131 E23.29543
G1 X73.855 Y103.671 E23.33265
G1 X74.475 Y103.171 E23.36192
G1 X77.733 Y99.903 E23.53144
G1 X78.157 Y99.377 E23.55624
G1 X78.617 Y98.581 E23.59002
G1 X78.919 Y97.758 E23.62223
G1 X91.008 Y52.994 E25.32546
G1 X91.12 Y52.15 E25.35675
G1 X91.12 Y18.85 E26.57999
G1 X90.6 Y17.091 E26.64736
G1 X89.429 Y16.005 E26.70603
G1 X87.881 Y15.611 E26.7647
G1 X52.034 Y15.611 E28.08151
G1 X50.027 Y16.308 E28.15952
G1 X49.056 Y17.576 E28.21819
G1 X47.819 Y20.467 E28.33373
G92 E0
G1 E-0.5 F3000
; printing object cable holder.stl id:0 copy 0
EXCLUDE_OBJECT_START NAME=cable_holder_stl_id_0_copy_0
; acceleration to travel
M204 S1500
G1 X40.441 Y48.642 F9000
; decel to extrusion
M204 S1000
G1 X35.522 Y67.425
; end travel
G1 E0 F1800
;TYPE:Internal perimeter
;WIDTH:0.5
G1 X35.266 Y67.497 E0.00936
G1 X34.529 Y67.766 E0.03699
G1 X33.944 Y68.03 E0.05958
G1 X33.77 Y67.779 E0.07029
G1 X34.437 Y67.11 E0.10356
G1 X35.478 Y67.11 E0.14021
G1 X35.522 Y67.425 E0.15141
G92 E0
G1 E-0.5 F3000
; acceleration to travel
M204 S1500
G1 X39.165 Y67.326 F9000
; decel to extrusion
M204 S1000
G1 X41.594 Y67.259
; end travel
G1 E0 F1800
G1 X41.614 Y67.11 E0.00532
G1 X42.656 Y67.11 E0.04197
G1 X43.323 Y67.779 E0.07524
G1 X43.149 Y68.03 E0.08595
G1 X42.564 Y67.766 E0.10854
G1 X41.827 Y67.497 E0.13616
G1 X41.571 Y67.425 E0.14553
G1 X41.594 Y67.259 E0.15141
G92 E0
G1 E-0.5 F3000
; acceleration to travel
M204 S1500
G1 X44.117 Y69.19 F9000
; decel to extrusion
M204 S1000
G1 X45.799 Y70.477
; end travel
G1 E0 F1800
G1 X45.262 Y69.958 E0.02631
G1 X44.612 Y69.435 E0.05566
G1 X43.743 Y68.859 E0.09235
G1 X43.077 Y68.498 E0.119
G1 X42.392 Y68.19 E0.14544
G1 X41.686 Y67.933 E0.17188
G1 X40.962 Y67.728 E0.19835
G1 X40.182 Y67.57 E0.22638
G1 X39.385 Y67.472 E0.25461
G1 X38.549 Y67.438 E0.28408
G1 X37.711 Y67.472 E0.31358
G1 X36.912 Y67.57 E0.34191
G1 X36.131 Y67.728 E0.36997
G1 X35.407 Y67.933 E0.39645
G1 X34.701 Y68.19 E0.42289
G1 X34.016 Y68.498 E0.44933
G1 X33.35 Y68.859 E0.47598
G1 X32.481 Y69.435 E0.51267
G1 X31.831 Y69.958 E0.54202
G1 X31.294 Y70.477 E0.56833
G1 X31.042 Y70.271 E0.57978
G1 X31.265 Y69.924 E0.59429
G1 X31.993 Y68.978 E0.6363
G1 X32.517 Y68.391 E0.66401
G1 X34.247 Y66.653 E0.75033
G1 X42.846 Y66.653 E1.05294
G1 X44.576 Y68.391 E1.13927
G1 X45.1 Y68.978 E1.16697
G1 X45.828 Y69.924 E1.20898
G1 X46.051 Y70.271 E1.22349
G1 X45.799 Y70.477 E1.23495
G92 E0
G1 E-0.5 F3000
; acceleration to travel
M204 S1500
G1 X47.146 Y73.379 F9000
; decel to extrusion
M204 S1000
G1 X48.045 Y75.314
; end travel
G1 E0 F1800
;TYPE:External perimeter
G1 X48.002 Y75.234 E0.00318
G1 X47.722 Y74.347 E0.03593
G1 X47.454 Y73.68 E0.0612
G1 X47.137 Y73.034 E0.08655
G1 X46.618 Y72.177 E0.12178
G1 X46.15 Y71.542 E0.14956
G1 X45.678 Y70.997 E0.17493
G1 X44.959 Y70.301 E0.21017
G1 X44.342 Y69.805 E0.23804
G1 X43.507 Y69.252 E0.27327
G1 X42.874 Y68.908 E0.29862
G1 X42.22 Y68.614 E0.32388
G1 X41.545 Y68.368 E0.34913
G1 X40.854 Y68.172 E0.3744
G1 X40.109 Y68.021 E0.40119
G1 X39.348 Y67.928 E0.42815
G1 X38.549 Y67.895 E0.4563
G1 X37.749 Y67.928 E0.48449
G1 X36.985 Y68.021 E0.51155
G1 X36.238 Y68.172 E0.53837
G1 X35.548 Y68.368 E0.56364
