; HEADER_BLOCK_START
; generated by OrcaSlicer 1.6.3-beta on 2023-05-31 at 09:02:36
; total layer number: 11
; HEADER_BLOCK_END

; THUMBNAIL_BLOCK_START
; THUMBNAIL_BLOCK_END

; external perimeters extrusion width = 0.40mm
; perimeters extrusion width = 0.45mm
; infill extrusion width = 0.45mm
; solid infill extrusion width = 0.40mm
; top infill extrusion width = 0.40mm
; first layer extrusion width = 0.40mm

; external perimeters extrusion width = 0.40mm
; perimeters extrusion width = 0.45mm
; infill extrusion width = 0.45mm
; solid infill extrusion width = 0.40mm
; top infill extrusion width = 0.40mm
; first layer extrusion width = 0.40mm

; external perimeters extrusion width = 0.40mm
; perimeters extrusion width = 0.45mm
; infill extrusion width = 0.45mm
; solid infill extrusion width = 0.40mm
; top infill extrusion width = 0.40mm
; first layer extrusion width = 0.40mm

; external perimeters extrusion width = 0.40mm
; perimeters extrusion width = 0.45mm
; infill extrusion width = 0.45mm
; solid infill extrusion width = 0.40mm
; top infill extrusion width = 0.40mm
; first layer extrusion width = 0.40mm

; external perimeters extrusion width = 0.40mm
; perimeters extrusion width = 0.45mm
; infill extrusion width = 0.45mm
; solid infill extrusion width = 0.40mm
; top infill extrusion width = 0.40mm
; first layer extrusion width = 0.40mm

; external perimeters extrusion width = 0.40mm
; perimeters extrusion width = 0.45mm
; infill extrusion width = 0.45mm
; solid infill extrusion width = 0.40mm
; top infill extrusion width = 0.40mm
; first layer extrusion width = 0.40mm

; external perimeters extrusion width = 0.40mm
; perimeters extrusion width = 0.45mm
; infill extrusion width = 0.45mm
; solid infill extrusion width = 0.40mm
; top infill extrusion width = 0.40mm
; first layer extrusion width = 0.40mm

; EXECUTABLE_BLOCK_START
EXCLUDE_OBJECT_DEFINE NAME=cable_label.stl_id_0_copy_0 CENTER=73.2,75 POLYGON=[[71.6,72.5],[74.8,72.5],[74.8,77.5],[71.6,77.5],[71.6,72.5]]
EXCLUDE_OBJECT_DEFINE NAME=cable_label.stl_id_1_copy_0 CENTER=60,75 POLYGON=[[58.4,72.5],[61.6,72.5],[61.6,77.5],[58.4,77.5],[58.4,72.5]]
EXCLUDE_OBJECT_DEFINE NAME=cable_label.stl_id_2_copy_0 CENTER=73.2,60 POLYGON=[[71.6,57.5],[74.8,57.5],[74.8,62.5],[71.6,62.5],[71.6,57.5]]
EXCLUDE_OBJECT_DEFINE NAME=cable_label.stl_id_3_copy_0 CENTER=60,60 POLYGON=[[58.4,57.5],[61.6,57.5],[61.6,62.5],[58.4,62.5],[58.4,57.5]]
EXCLUDE_OBJECT_DEFINE NAME=cable_label.stl_id_4_copy_0 CENTER=46.8,60 POLYGON=[[45.2,57.5],[48.4,57.5],[48.4,62.5],[45.2,62.5],[45.2,57.5]]
EXCLUDE_OBJECT_DEFINE NAME=cable_label.stl_id_5_copy_0 CENTER=46.8,75 POLYGON=[[45.2,72.5],[48.4,72.5],[48.4,77.5],[45.2,77.5],[45.2,72.5]]
EXCLUDE_OBJECT_DEFINE NAME=cable_label.stl_id_6_copy_0 CENTER=60,45 POLYGON=[[58.4,42.5],[61.6,42.5],[61.6,47.5],[58.4,47.5],[58.4,42.5]]
M73 P0 R1
;TYPE:Custom
START_PRINT T_BED=110 T_EXTRUDER=260
G90
G21
M83 ; use relative distances for extrusion
; Filament gcode

    PRESSURE_ADVANCE_SELECT FILAMENT=ABS
M106 S0
;LAYER_CHANGE
;Z:0.2
;HEIGHT:0.2
;BEFORE_LAYER_CHANGE
;0.2
G92 E0

;AFTER_LAYER_CHANGE
;0.2
SET_VELOCITY_LIMIT ACCEL_TO_DECEL=500
M204 S1000
G1 E-.5 F3000
G1 Z.2 F21000
G1 X51.953 Y45.718
G1 E.5 F1800
;TYPE:Skirt
;WIDTH:0.4
G1 F3000
G1 X56.362 Y40.707 E.18353
G1 X57.586 Y39.911 E.04014
G1 X58.4 Y39.786 E.02264
G1 X61.6 Y39.786 E.08798
M73 P1 R1
G1 X63.006 Y40.178 E.04014
G1 X63.638 Y40.707 E.02264
G1 X76.838 Y55.707 E.54936
G1 X77.514 Y57.5 E.05269
G1 X77.514 Y77.5 E.54988
M73 P2 R1
G1 X77.121 Y78.906 E.04014
G1 X76.057 Y79.905 E.04014
G1 X74.8 Y80.214 E.03559
G1 X45.2 Y80.214 E.81382
G1 X43.794 Y79.822 E.04014
M73 P3 R1
G1 X42.795 Y78.757 E.04014
G1 X42.486 Y77.5 E.03559
G1 X42.486 Y57.5 E.54988
G1 X43.162 Y55.707 E.05269
G1 X51.913 Y45.763 E.36418
G1 X52.181 Y45.999 F21000
M73 P4 R1
G1 F3000
G1 X56.631 Y40.943 E.18518
G1 X58.4 Y40.143 E.05339
G1 X61.6 Y40.143 E.08798
G1 X63.369 Y40.943 E.05339
G1 X76.569 Y55.943 E.54936
G1 X77.157 Y57.5 E.04576
G1 X77.157 Y77.5 E.54988
M73 P5 R1
G1 X76.766 Y78.801 E.03735
G1 X75.721 Y79.67 E.03735
G1 X74.8 Y79.857 E.02584
G1 X45.2 Y79.857 E.81382
M73 P6 R1
G1 X43.899 Y79.466 E.03735
G1 X43.03 Y78.421 E.03735
G1 X42.843 Y77.5 E.02584
G1 X42.843 Y57.5 E.54988
G1 X43.431 Y55.943 E.04576
G1 X52.141 Y46.044 E.36253
; printing object cable_label.stl id:6 copy 0
EXCLUDE_OBJECT_START NAME=cable_label.stl_id_6_copy_0
M73 P7 R1
G1 E-.5
G1 Z.4 F21000
G1 X59.814 Y43.914
G1 Z.2
G1 E.5 F1800
;TYPE:Inner wall
G1 F3000
G1 X60.186 Y43.914 E.01022
G1 X60.186 Y46.086 E.05971
G1 X59.814 Y46.086 E.01022
G1 X59.814 Y43.974 E.05806
G1 X59.457 Y43.557 F21000
G1 F3000
G1 X60.543 Y43.557 E.02985
G1 X60.543 Y46.443 E.07934
M73 P8 R1
G1 X59.457 Y46.443 E.02985
G1 X59.457 Y43.617 E.07769
G1 X59.1 Y43.2 F21000
G1 F3000
G1 X60.9 Y43.2 E.04949
G1 X60.9 Y46.8 E.09898
G1 X59.1 Y46.8 E.04949
G1 X59.1 Y43.26 E.09733
G1 X58.7 Y42.8 F21000
;TYPE:Outer wall
G1 F3000
G1 X61.3 Y42.8 E.07148
G1 X61.3 Y47.2 E.12097
G1 X58.7 Y47.2 E.07148
M73 P9 R1
G1 X58.7 Y42.86 E.11932
G1 X58.775 Y42.827
; stop printing object cable_label.stl id:6 copy 0
EXCLUDE_OBJECT_END NAME=cable_label.stl_id_6_copy_0
; printing object cable_label.stl id:2 copy 0
EXCLUDE_OBJECT_START NAME=cable_label.stl_id_2_copy_0
G1 E-.5
G1 Z.4 F21000
G1 X73.014 Y58.914
G1 Z.2
G1 E.5 F1800
;TYPE:Inner wall
G1 F3000
G1 X73.386 Y58.914 E.01022
G1 X73.386 Y61.086 E.05971
G1 X73.014 Y61.086 E.01022
G1 X73.014 Y58.974 E.05806
G1 X72.657 Y58.557 F21000
G1 F3000
G1 X73.743 Y58.557 E.02985
M73 P10 R1
G1 X73.743 Y61.443 E.07934
G1 X72.657 Y61.443 E.02985
G1 X72.657 Y58.617 E.07769
G1 X72.3 Y58.2 F21000
G1 F3000
G1 X74.1 Y58.2 E.04949
G1 X74.1 Y61.8 E.09898
G1 X72.3 Y61.8 E.04949
G1 X72.3 Y58.26 E.09733
G1 X71.9 Y57.8 F21000
;TYPE:Outer wall
G1 F3000
G1 X74.5 Y57.8 E.07148
G1 X74.5 Y62.2 E.12097
M73 P11 R1
G1 X71.9 Y62.2 E.07148
G1 X71.9 Y57.86 E.11932
G1 X71.975 Y57.827
; stop printing object cable_label.stl id:2 copy 0
EXCLUDE_OBJECT_END NAME=cable_label.stl_id_2_copy_0
; printing object cable_label.stl id:3 copy 0
EXCLUDE_OBJECT_START NAME=cable_label.stl_id_3_copy_0
G1 E-.5
G1 Z.4 F21000
G1 X59.814 Y58.914
G1 Z.2
G1 E.5 F1800
;TYPE:Inner wall
G1 F3000
G1 X60.186 Y58.914 E.01022
G1 X60.186 Y61.086 E.05971
G1 X59.814 Y61.086 E.01022
G1 X59.814 Y58.974 E.05806
G1 X59.457 Y58.557 F21000
G1 F3000
G1 X60.543 Y58.557 E.02985
M73 P12 R1
G1 X60.543 Y61.443 E.07934
G1 X59.457 Y61.443 E.02985
G1 X59.457 Y58.617 E.07769
G1 X59.1 Y58.2 F21000
G1 F3000
G1 X60.9 Y58.2 E.04949
G1 X60.9 Y61.8 E.09898
G1 X59.1 Y61.8 E.04949
G1 X59.1 Y58.26 E.09733
G1 X58.7 Y57.8 F21000
;TYPE:Outer wall
G1 F3000
G1 X61.3 Y57.8 E.07148
G1 X61.3 Y62.2 E.12097
M73 P13 R1
G1 X58.7 Y62.2 E.07148
G1 X58.7 Y57.86 E.11932
G1 X58.775 Y57.827
; stop printing object cable_label.stl id:3 copy 0
EXCLUDE_OBJECT_END NAME=cable_label.stl_id_3_copy_0
; printing object cable_label.stl id:4 copy 0
EXCLUDE_OBJECT_START NAME=cable_label.stl_id_4_copy_0
G1 E-.5
G1 Z.4 F21000
G1 X46.614 Y58.914
G1 Z.2
G1 E.5 F1800
;TYPE:Inner wall
G1 F3000
G1 X46.986 Y58.914 E.01022
G1 X46.986 Y61.086 E.05971
G1 X46.614 Y61.086 E.01022
G1 X46.614 Y58.974 E.05806
G1 X46.257 Y58.557 F21000
G1 F3000
G1 X47.343 Y58.557 E.02985
M73 P14 R1
G1 X47.343 Y61.443 E.07934
G1 X46.257 Y61.443 E.02985
G1 X46.257 Y58.617 E.07769
G1 X45.9 Y58.2 F21000
G1 F3000
G1 X47.7 Y58.2 E.04949
G1 X47.7 Y61.8 E.09898
G1 X45.9 Y61.8 E.04949
G1 X45.9 Y58.26 E.09733
G1 X45.5 Y57.8 F21000
;TYPE:Outer wall
G1 F3000
G1 X48.1 Y57.8 E.07148
G1 X48.1 Y62.2 E.12097
M73 P15 R1
G1 X45.5 Y62.2 E.07148
G1 X45.5 Y57.86 E.11932
G1 X45.575 Y57.827
; stop printing object cable_label.stl id:4 copy 0
EXCLUDE_OBJECT_END NAME=cable_label.stl_id_4_copy_0
; printing object cable_label.stl id:5 copy 0
EXCLUDE_OBJECT_START NAME=cable_label.stl_id_5_copy_0
G1 E-.5
G1 Z.4 F21000
G1 X46.614 Y73.914
G1 Z.2
G1 E.5 F1800
;TYPE:Inner wall
G1 F3000
G1 X46.986 Y73.914 E.01022
G1 X46.986 Y76.086 E.05971
G1 X46.614 Y76.086 E.01022
G1 X46.614 Y73.974 E.05806
G1 X46.257 Y73.557 F21000
G1 F3000
G1 X47.343 Y73.557 E.02985
M73 P16 R1
G1 X47.343 Y76.443 E.07934
G1 X46.257 Y76.443 E.02985
G1 X46.257 Y73.617 E.07769
G1 X45.9 Y73.2 F21000
G1 F3000
G1 X47.7 Y73.2 E.04949
G1 X47.7 Y76.8 E.09898
G1 X45.9 Y76.8 E.04949
G1 X45.9 Y73.26 E.09733
G1 X45.5 Y72.8 F21000
;TYPE:Outer wall
G1 F3000
G1 X48.1 Y72.8 E.07148
G1 X48.1 Y77.2 E.12097
M73 P17 R1
G1 X45.5 Y77.2 E.07148
G1 X45.5 Y72.86 E.11932
G1 X45.575 Y72.827
; stop printing object cable_label.stl id:5 copy 0
EXCLUDE_OBJECT_END NAME=cable_label.stl_id_5_copy_0
; printing object cable_label.stl id:1 copy 0
EXCLUDE_OBJECT_START NAME=cable_label.stl_id_1_copy_0
G1 E-.5
G1 Z.4 F21000
G1 X59.814 Y73.914
G1 Z.2
G1 E.5 F1800
;TYPE:Inner wall
G1 F3000
G1 X60.186 Y73.914 E.01022
G1 X60.186 Y76.086 E.05971
G1 X59.814 Y76.086 E.01022
G1 X59.814 Y73.974 E.05806
G1 X59.457 Y73.557 F21000
G1 F3000
G1 X60.543 Y73.557 E.02985
M73 P18 R1
G1 X60.543 Y76.443 E.07934
G1 X59.457 Y76.443 E.02985
G1 X59.457 Y73.617 E.07769
G1 X59.1 Y73.2 F21000
G1 F3000
G1 X60.9 Y73.2 E.04949
G1 X60.9 Y76.8 E.09898
G1 X59.1 Y76.8 E.04949
G1 X59.1 Y73.26 E.09733
G1 X58.7 Y72.8 F21000
;TYPE:Outer wall
G1 F3000
G1 X61.3 Y72.8 E.07148
G1 X61.3 Y77.2 E.12097
M73 P19 R1
G1 X58.7 Y77.2 E.07148
G1 X58.7 Y72.86 E.11932
G1 X58.775 Y72.827
; stop printing object cable_label.stl id:1 copy 0
EXCLUDE_OBJECT_END NAME=cable_label.stl_id_1_copy_0
; printing object cable_label.stl id:0 copy 0
EXCLUDE_OBJECT_START NAME=cable_label.stl_id_0_copy_0
G1 E-.5
G1 Z.4 F21000
G1 X73.014 Y73.914
G1 Z.2
G1 E.5 F1800
;TYPE:Inner wall
G1 F3000
G1 X73.386 Y73.914 E.01022
G1 X73.386 Y76.086 E.05971
G1 X73.014 Y76.086 E.01022
G1 X73.014 Y73.974 E.05806
G1 X72.657 Y73.557 F21000
G1 F3000
G1 X73.743 Y73.557 E.02985
M73 P20 R1
G1 X73.743 Y76.443 E.07934
G1 X72.657 Y76.443 E.02985
G1 X72.657 Y73.617 E.07769
G1 X72.3 Y73.2 F21000
G1 F3000
G1 X74.1 Y73.2 E.04949
G1 X74.1 Y76.8 E.09898
G1 X72.3 Y76.8 E.04949
G1 X72.3 Y73.26 E.09733
G1 X71.9 Y72.8 F21000
;TYPE:Outer wall
G1 F3000
G1 X74.5 Y72.8 E.07148
G1 X74.5 Y77.2 E.12097
M73 P21 R1
G1 X71.9 Y77.2 E.07148
G1 X71.9 Y72.86 E.11932
G1 X71.975 Y72.827
; stop printing object cable_label.stl id:0 copy 0
EXCLUDE_OBJECT_END NAME=cable_label.stl_id_0_copy_0
;LAYER_CHANGE
;Z:0.4
;HEIGHT:0.2
;BEFORE_LAYER_CHANGE
;0.4
G92 E0

;AFTER_LAYER_CHANGE
;0.4
SET_VELOCITY_LIMIT ACCEL_TO_DECEL=3000
M204 S6000
; printing object cable_label.stl id:6 copy 0
EXCLUDE_OBJECT_START NAME=cable_label.stl_id_6_copy_0
SET_VELOCITY_LIMIT ACCEL_TO_DECEL=2000
M204 S4000
G1 E-.5 F3000
G1 Z.4 F21000
G1 X59.839 Y43.939
G1 E.5 F1800
SET_VELOCITY_LIMIT ACCEL_TO_DECEL=3000
M204 S6000
;TYPE:Inner wall
;WIDTH:0.45
G1 F7582
G1 X60.161 Y43.939 E.01008
G1 X60.161 Y46.061 E.0665
G1 X59.839 Y46.061 E.01008
G1 X59.839 Y43.999 E.06462
SET_VELOCITY_LIMIT ACCEL_TO_DECEL=2000
M204 S4000
G1 X59.432 Y43.532 F21000
SET_VELOCITY_LIMIT ACCEL_TO_DECEL=3000
M204 S6000
G1 F7582
G1 X60.568 Y43.532 E.0356
G1 X60.568 Y46.468 E.09202
G1 X59.432 Y46.468 E.0356
G1 X59.432 Y43.592 E.09014
SET_VELOCITY_LIMIT ACCEL_TO_DECEL=2000
M204 S4000
G1 X59.025 Y43.125 F21000
SET_VELOCITY_LIMIT ACCEL_TO_DECEL=3000
M204 S6000
G1 F7582
G1 X60.975 Y43.125 E.06112
G1 X60.975 Y46.875 E.11754
M73 P22 R1
G1 X59.025 Y46.875 E.06112
G1 X59.025 Y43.185 E.11566
SET_VELOCITY_LIMIT ACCEL_TO_DECEL=2000
M204 S4000
G1 X58.6 Y42.7 F21000
;TYPE:Outer wall
;WIDTH:0.4
G1 F6000
G1 X61.4 Y42.7 E.07698
G1 X61.4 Y47.3 E.12647
G1 X58.6 Y47.3 E.07698
G1 X58.6 Y42.76 E.12482
G1 X58.675 Y42.727
SET_VELOCITY_LIMIT ACCEL_TO_DECEL=3000
M204 S6000
; stop printing object cable_label.stl id:6 copy 0
EXCLUDE_OBJECT_END NAME=cable_label.stl_id_6_copy_0
; printing object cable_label.stl id:2 copy 0
EXCLUDE_OBJECT_START NAME=cable_label.stl_id_2_copy_0
SET_VELOCITY_LIMIT ACCEL_TO_DECEL=2000
M204 S4000
G1 E-.5 F3000
G1 Z.6 F21000
G1 X73.039 Y58.939 Z.4
G1 E.5 F1800
SET_VELOCITY_LIMIT ACCEL_TO_DECEL=3000
M204 S6000
;TYPE:Inner wall
;WIDTH:0.45
G1 F7582
G1 X73.361 Y58.939 E.01008
G1 X73.361 Y61.061 E.0665
G1 X73.039 Y61.061 E.01008
G1 X73.039 Y58.999 E.06462
SET_VELOCITY_LIMIT ACCEL_TO_DECEL=2000
M204 S4000
G1 X72.632 Y58.532 F21000
SET_VELOCITY_LIMIT ACCEL_TO_DECEL=3000
M204 S6000
G1 F7582
G1 X73.768 Y58.532 E.0356
G1 X73.768 Y61.468 E.09202
G1 X72.632 Y61.468 E.0356
G1 X72.632 Y58.592 E.09014
SET_VELOCITY_LIMIT ACCEL_TO_DECEL=2000
M204 S4000
M73 P23 R1
G1 X72.225 Y58.125 F21000
SET_VELOCITY_LIMIT ACCEL_TO_DECEL=3000
M204 S6000
G1 F7582
G1 X74.175 Y58.125 E.06112
G1 X74.175 Y61.875 E.11754
G1 X72.225 Y61.875 E.06112
G1 X72.225 Y58.185 E.11566
SET_VELOCITY_LIMIT ACCEL_TO_DECEL=2000
M204 S4000
G1 X71.8 Y57.7 F21000
;TYPE:Outer wall
;WIDTH:0.4
G1 F6000
G1 X74.6 Y57.7 E.07698
G1 X74.6 Y62.3 E.12647
G1 X71.8 Y62.3 E.07698
G1 X71.8 Y57.76 E.12482
G1 X71.875 Y57.727
SET_VELOCITY_LIMIT ACCEL_TO_DECEL=3000
M204 S6000
; stop printing object cable_label.stl id:2 copy 0
EXCLUDE_OBJECT_END NAME=cable_label.stl_id_2_copy_0
; printing object cable_label.stl id:3 copy 0
EXCLUDE_OBJECT_START NAME=cable_label.stl_id_3_copy_0
SET_VELOCITY_LIMIT ACCEL_TO_DECEL=2000
M204 S4000
G1 E-.5 F3000
G1 Z.6 F21000
G1 X59.839 Y58.939 Z.4
G1 E.5 F1800
SET_VELOCITY_LIMIT ACCEL_TO_DECEL=3000
M204 S6000
;TYPE:Inner wall
;WIDTH:0.45
G1 F7582
G1 X60.161 Y58.939 E.01008
G1 X60.161 Y61.061 E.0665
G1 X59.839 Y61.061 E.01008
G1 X59.839 Y58.999 E.06462
SET_VELOCITY_LIMIT ACCEL_TO_DECEL=2000
M204 S4000
G1 X59.432 Y58.532 F21000
SET_VELOCITY_LIMIT ACCEL_TO_DECEL=3000
M204 S6000
G1 F7582
G1 X60.568 Y58.532 E.0356
G1 X60.568 Y61.468 E.09202
G1 X59.432 Y61.468 E.0356
M73 P24 R1
G1 X59.432 Y58.592 E.09014
SET_VELOCITY_LIMIT ACCEL_TO_DECEL=2000
M204 S4000
G1 X59.025 Y58.125 F21000
SET_VELOCITY_LIMIT ACCEL_TO_DECEL=3000
M204 S6000
G1 F7582
G1 X60.975 Y58.125 E.06112
G1 X60.975 Y61.875 E.11754
G1 X59.025 Y61.875 E.06112
G1 X59.025 Y58.185 E.11566
SET_VELOCITY_LIMIT ACCEL_TO_DECEL=2000
M204 S4000
G1 X58.6 Y57.7 F21000
;TYPE:Outer wall
;WIDTH:0.4
G1 F6000
G1 X61.4 Y57.7 E.07698
G1 X61.4 Y62.3 E.12647
G1 X58.6 Y62.3 E.07698
G1 X58.6 Y57.76 E.12482
G1 X58.675 Y57.727
SET_VELOCITY_LIMIT ACCEL_TO_DECEL=3000
M204 S6000
; stop printing object cable_label.stl id:3 copy 0
EXCLUDE_OBJECT_END NAME=cable_label.stl_id_3_copy_0
; printing object cable_label.stl id:4 copy 0
EXCLUDE_OBJECT_START NAME=cable_label.stl_id_4_copy_0
SET_VELOCITY_LIMIT ACCEL_TO_DECEL=2000
M204 S4000
G1 E-.5 F3000
G1 Z.6 F21000
G1 X46.639 Y58.939 Z.4
G1 E.5 F1800
SET_VELOCITY_LIMIT ACCEL_TO_DECEL=3000
M204 S6000
;TYPE:Inner wall
;WIDTH:0.45
G1 F7582
G1 X46.961 Y58.939 E.01008
G1 X46.961 Y61.061 E.0665
G1 X46.639 Y61.061 E.01008
G1 X46.639 Y58.999 E.06462
SET_VELOCITY_LIMIT ACCEL_TO_DECEL=2000
M204 S4000
G1 X46.232 Y58.532 F21000
SET_VELOCITY_LIMIT ACCEL_TO_DECEL=3000
M204 S6000
G1 F7582
G1 X47.368 Y58.532 E.0356
G1 X47.368 Y61.468 E.09202
M73 P25 R1
G1 X46.232 Y61.468 E.0356
G1 X46.232 Y58.592 E.09014
SET_VELOCITY_LIMIT ACCEL_TO_DECEL=2000
M204 S4000
G1 X45.825 Y58.125 F21000
SET_VELOCITY_LIMIT ACCEL_TO_DECEL=3000
M204 S6000
G1 F7582
G1 X47.775 Y58.125 E.06112
G1 X47.775 Y61.875 E.11754
G1 X45.825 Y61.875 E.06112
G1 X45.825 Y58.185 E.11566
SET_VELOCITY_LIMIT ACCEL_TO_DECEL=2000
M204 S4000
G1 X45.4 Y57.7 F21000
;TYPE:Outer wall
;WIDTH:0.4
G1 F6000
G1 X48.2 Y57.7 E.07698
G1 X48.2 Y62.3 E.12647
G1 X45.4 Y62.3 E.07698
G1 X45.4 Y57.76 E.12482
G1 X45.475 Y57.727
SET_VELOCITY_LIMIT ACCEL_TO_DECEL=3000
M204 S6000
; stop printing object cable_label.stl id:4 copy 0
EXCLUDE_OBJECT_END NAME=cable_label.stl_id_4_copy_0
; printing object cable_label.stl id:5 copy 0
EXCLUDE_OBJECT_START NAME=cable_label.stl_id_5_copy_0
SET_VELOCITY_LIMIT ACCEL_TO_DECEL=2000
M204 S4000
G1 E-.5 F3000
G1 Z.6 F21000
G1 X46.639 Y73.939 Z.4
G1 E.5 F1800
SET_VELOCITY_LIMIT ACCEL_TO_DECEL=3000
M204 S6000
;TYPE:Inner wall
;WIDTH:0.45
G1 F7582
G1 X46.961 Y73.939 E.01008
G1 X46.961 Y76.061 E.0665
G1 X46.639 Y76.061 E.01008
G1 X46.639 Y73.999 E.06462
SET_VELOCITY_LIMIT ACCEL_TO_DECEL=2000
M204 S4000
M73 P26 R1
G1 X46.232 Y73.532 F21000
SET_VELOCITY_LIMIT ACCEL_TO_DECEL=3000
