; HEADER_BLOCK_START
; generated by OrcaSlicer 1.6.3 on 2023-06-14 at 19:45:52
; total layer number: 88
; HEADER_BLOCK_END

; THUMBNAIL_BLOCK_START
; THUMBNAIL_BLOCK_END

; external perimeters extrusion width = 0.40mm
; perimeters extrusion width = 0.45mm
; infill extrusion width = 0.45mm
; solid infill extrusion width = 0.40mm
; top infill extrusion width = 0.40mm
; first layer extrusion width = 0.50mm

; external perimeters extrusion width = 0.40mm
; perimeters extrusion width = 0.45mm
; infill extrusion width = 0.45mm
; solid infill extrusion width = 0.40mm
; top infill extrusion width = 0.40mm
; first layer extrusion width = 0.50mm

; EXECUTABLE_BLOCK_START
EXCLUDE_OBJECT_DEFINE NAME=cf_tube_end.stl_id_0_copy_0 CENTER=60,71.25 POLYGON=[[48.5,62.5],[71.5,62.5],[71.5,80],[48.5,80],[48.5,62.5]]
EXCLUDE_OBJECT_DEFINE NAME=cf_tube_end.stl_id_1_copy_0 CENTER=60,48.75 POLYGON=[[48.5,40],[71.5,40],[71.5,57.5],[48.5,57.5],[48.5,40]]
M73 P0 R20
;TYPE:Custom
START_PRINT T_BED=110 T_EXTRUDER=260
G90
G21
M83 ; use relative distances for extrusion
; Filament gcode

    PRESSURE_ADVANCE_SELECT FILAMENT=ABS
M106 S0
;LAYER_CHANGE
;Z:0.2
;HEIGHT:0.2
;BEFORE_LAYER_CHANGE
;0.2
G92 E0

;AFTER_LAYER_CHANGE
;0.2
M204 S500
; printing object cf tube end.stl id:0 copy 0
EXCLUDE_OBJECT_START NAME=cf_tube_end.stl_id_0_copy_0
G1 E-.5 F3000
G1 Z.2 F21000
G1 X70.336 Y78.635
G1 E.5 F1800
;TYPE:Inner wall
;WIDTH:0.499999
G1 F3000
G1 X49.664 Y78.635 E.72752
G1 X49.664 Y63.865 E.51981
G1 X70.336 Y63.865 E.72752
G1 X70.336 Y67.889 E.14162
G1 X70.336 Y78.575 E.37608
G1 X70.793 Y79.092 F21000
G1 F3000
G1 X49.207 Y79.092 E.75969
G1 X49.207 Y63.408 E.55199
G1 X70.793 Y63.408 E.75969
G1 X70.793 Y67.889 E.15771
G1 X70.793 Y79.032 E.39217
G1 X71.25 Y79.549 F21000
;TYPE:Outer wall
G1 F3000
G1 X48.75 Y79.549 E.79186
G1 X48.75 Y62.951 E.58416
G1 X71.25 Y62.951 E.79186
G1 X71.25 Y67.889 E.17379
G1 X71.25 Y79.489 E.40826
G1 X71.181 Y79.509
G1 E-.5
G1 Z.4 F21000
G1 X59.044 Y68.701
G1 Z.2
G1 E.5 F1800
;TYPE:Inner wall
G1 F3000
G1 X59.225 Y68.598 E.00732
G1 X59.709 Y68.45 E.0178
G1 X60.211 Y68.39 E.0178
G1 X60.716 Y68.419 E.0178
G1 X61.208 Y68.536 E.0178
G1 X61.713 Y68.766 E.01953
G1 X62.283 Y69.186 E.02491
G1 X62.615 Y69.568 E.0178
G1 X62.893 Y70.047 E.01949
G1 X63.111 Y70.713 E.02468
G1 X63.163 Y71.174 E.01631
G1 X63.132 Y71.675 E.01768
G1 X62.993 Y72.218 E.01971
G1 X62.78 Y72.677 E.0178
G1 X62.456 Y73.127 E.01953
G1 X61.931 Y73.602 E.02491
G1 X61.444 Y73.869 E.01953
G1 X60.838 Y74.063 E.0224
G1 X60.338 Y74.114 E.01768
G1 X59.712 Y74.047 E.02215
G1 X59.048 Y73.823 E.02468
G1 X58.608 Y73.558 E.01807
G1 X58.228 Y73.224 E.0178
G1 X57.889 Y72.786 E.01949
G1 X57.598 Y72.196 E.02314
;WIDTH:0.534587
G1 X57.537 Y72.017 E.00716
;WIDTH:0.569175
G1 X57.476 Y71.838 E.00767
;WIDTH:0.603763
G1 X57.415 Y71.659 E.00817
;WIDTH:0.611468
G1 X57.385 Y71.144 E.02257
G1 X57.424 Y70.978 E.00745
;WIDTH:0.574312
G1 X57.463 Y70.813 E.00697
;WIDTH:0.537156
G1 X57.503 Y70.647 E.00648
;WIDTH:0.499999
G1 X57.653 Y70.164 E.0178
G1 X57.885 Y69.715 E.0178
G1 X58.193 Y69.314 E.0178
G1 X58.582 Y68.963 E.01842
G1 X58.992 Y68.73 E.0166
G1 X59.26 Y69.097 F21000
G1 F3000
G1 X59.374 Y69.03 E.00466
G1 X59.779 Y68.902 E.01496
G1 X60.201 Y68.847 E.01496
G1 X60.626 Y68.867 E.01496
G1 X61.04 Y68.961 E.01496
G1 X61.456 Y69.144 E.01599
G1 X61.949 Y69.499 E.02136
G1 X62.231 Y69.816 E.01496
G1 X62.464 Y70.206 E.01597
G1 X62.658 Y70.775 E.02115
G1 X62.705 Y71.174 E.01414
G1 X62.675 Y71.628 E.01603
G1 X62.572 Y72.041 E.01496
G1 X62.397 Y72.428 E.01496
G1 X62.136 Y72.8 E.01599
G1 X61.69 Y73.213 E.02136
G1 X61.295 Y73.437 E.01599
G1 X60.759 Y73.613 E.01986
G1 X60.293 Y73.655 E.01648
G1 X59.841 Y73.609 E.01597
G1 X59.27 Y73.423 E.02115
G1 X58.898 Y73.204 E.0152
G1 X58.575 Y72.927 E.01496
G1 X58.258 Y72.506 E.01854
G1 X58.034 Y72.058 E.01762
G1 X57.915 Y71.533 E.01896
G1 X57.908 Y71.044 E.01721
G1 X58.003 Y70.549 E.01775
G1 X58.196 Y70.085 E.01769
G1 X58.513 Y69.64 E.01921
G1 X58.849 Y69.335 E.01599
G1 X59.208 Y69.127 E.01459
G1 X59.503 Y69.475 F21000
;TYPE:Outer wall
G1 F3000
G1 X59.85 Y69.353 E.01294
G1 X60.191 Y69.304 E.01213
G1 X60.535 Y69.315 E.01213
G1 X60.872 Y69.387 E.01213
G1 X61.199 Y69.522 E.01246
G1 X61.615 Y69.811 E.01782
G1 X61.848 Y70.065 E.01213
G1 X62.036 Y70.365 E.01245
G1 X62.205 Y70.836 E.01763
G1 X62.248 Y71.174 E.01197
G1 X62.229 Y71.528 E.01248
G1 X62.15 Y71.863 E.01213
G1 X62.013 Y72.18 E.01213
G1 X61.816 Y72.473 E.01246
G1 X61.45 Y72.824 E.01782
G1 X61.146 Y73.005 E.01246
G1 X60.666 Y73.165 E.01782
G1 X60.323 Y73.199 E.01213
G1 X59.97 Y73.17 E.01245
G1 X59.491 Y73.023 E.01763
G1 X59.019 Y72.712 E.01992
G1 X58.697 Y72.357 E.01687
G1 X58.467 Y71.912 E.01763
G1 X58.365 Y71.432 E.01728
G1 X58.378 Y70.927 E.01777
G1 X58.509 Y70.49 E.01604
G1 X58.707 Y70.137 E.01423
G1 X59.05 Y69.755 E.01808
G1 X59.45 Y69.502 E.01666
G1 X59.508 Y69.402
G1 E-.5
G1 Z.4 F21000
G1 X51.079 Y70.898
G1 Z.2
G1 E.5 F1800
;TYPE:Inner wall
G1 F3000
G1 X51.17 Y70.403 E.01771
G1 X51.383 Y69.889 E.01957
G1 X51.662 Y69.467 E.0178
G1 X52.01 Y69.101 E.01778
G1 X52.597 Y68.706 E.02489
G1 X53.113 Y68.499 E.01957
G1 X53.61 Y68.403 E.0178
G1 X54.115 Y68.397 E.01778
G1 X54.807 Y68.54 E.02489
G1 X55.316 Y68.764 E.01957
G1 X55.732 Y69.052 E.0178
G1 X56.09 Y69.409 E.0178
G1 X56.38 Y69.823 E.01778
G1 X56.622 Y70.397 E.02192
;WIDTH:0.535339
G1 X56.705 Y70.706 E.01214
;WIDTH:0.570678
G1 X56.787 Y71.015 E.01301
;WIDTH:0.598138
G1 X56.799 Y71.273 E.01103
;WIDTH:0.625597
G1 X56.811 Y71.531 E.01157
G1 X56.743 Y71.739 E.00982
;WIDTH:0.583731
G1 X56.675 Y71.947 E.00912
;WIDTH:0.541865
G1 X56.606 Y72.155 E.00841
;WIDTH:0.499999
G1 X56.497 Y72.452 E.01114
G1 X56.245 Y72.891 E.0178
G1 X55.919 Y73.278 E.0178
G1 X55.531 Y73.602 E.0178
G1 X55.092 Y73.852 E.01777
G1 X54.591 Y74.024 E.01865
G1 X53.938 Y74.114 E.0232
G1 X53.359 Y74.06 E.02047
G1 X52.873 Y73.921 E.0178
G1 X52.419 Y73.698 E.0178
G1 X52.011 Y73.399 E.0178
G1 X51.662 Y73.033 E.0178
G1 X51.383 Y72.611 E.0178
G1 X51.171 Y72.098 E.01953
G1 X51.06 Y71.6 E.01798
G1 X51.042 Y71.098 E.01765
G1 X51.069 Y70.957 E.00507
G1 X51.514 Y71.021 F21000
G1 F3000
G1 X51.516 Y70.948 E.00256
G1 X51.666 Y70.36 E.02136
G1 X51.857 Y69.98 E.01496
G1 X52.113 Y69.64 E.01496
G1 X52.449 Y69.335 E.01599
G1 X52.974 Y69.03 E.02136
G1 X53.379 Y68.902 E.01496
G1 X53.801 Y68.847 E.01496
G1 X54.255 Y68.874 E.01599
G1 X54.84 Y69.036 E.02136
G1 X55.215 Y69.236 E.01496
G1 X55.621 Y69.576 E.01867
G1 X55.904 Y69.928 E.01587
G1 X56.089 Y70.273 E.01379
G1 X56.258 Y70.775 E.01862
G1 X56.299 Y71.346 E.02015
G1 X56.246 Y71.737 E.01387
G1 X56.093 Y72.238 E.01847
G1 X55.885 Y72.609 E.01496
G1 X55.614 Y72.937 E.01496
G1 X55.29 Y73.213 E.01496
G1 X54.924 Y73.427 E.01494
G1 X54.501 Y73.576 E.01578
G1 X53.938 Y73.657 E.02001
G1 X53.469 Y73.616 E.01656
G1 X53.059 Y73.504 E.01496
G1 X52.676 Y73.32 E.01496
G1 X52.33 Y73.072 E.01496
G1 X52.034 Y72.768 E.01496
G1 X51.796 Y72.415 E.01496
G1 X51.617 Y71.998 E.01599
G1 X51.5 Y71.402 E.02136
G1 X51.511 Y71.081 E.01132
G1 X51.958 Y71.305 F21000
;TYPE:Outer wall
G1 F3000
G1 X51.962 Y71.048 E.00905
G1 X52.079 Y70.555 E.01782
G1 X52.229 Y70.246 E.01213
G1 X52.432 Y69.967 E.01213
G1 X52.689 Y69.724 E.01246
G1 X53.123 Y69.462 E.01782
G1 X53.45 Y69.353 E.01213
G1 X53.791 Y69.304 E.01213
G1 X54.145 Y69.317 E.01246
G1 X54.635 Y69.444 E.01782
G1 X54.941 Y69.602 E.01213
G1 X55.288 Y69.889 E.01583
G1 X55.613 Y70.32 E.01902
G1 X55.792 Y70.788 E.01763
G1 X55.848 Y71.184 E.01408
G1 X55.805 Y71.617 E.01531
G1 X55.689 Y72.024 E.01492
G1 X55.412 Y72.472 E.01852
G1 X55.05 Y72.824 E.01775
G1 X54.755 Y73.002 E.01212
G1 X54.429 Y73.125 E.01227
G1 X53.923 Y73.199 E.01802
G1 X53.579 Y73.173 E.01213
G1 X53.246 Y73.086 E.01213
G1 X52.933 Y72.942 E.01213
G1 X52.65 Y72.746 E.01213
G1 X52.406 Y72.502 E.01213
G1 X52.209 Y72.22 E.01213
G1 X52.062 Y71.897 E.01246
G1 X51.957 Y71.402 E.01782
G1 X51.957 Y71.365 E.0013
G1 X51.912 Y71.282
G1 E-.5
G1 Z.4 F21000
G1 X70.199 Y64.928
G1 Z.2
G1 E.5 F1800
;TYPE:Bottom surface
;WIDTH:0.501029
G1 F6300
G1 X69.478 Y64.208 E.03594
G1 X68.83 Y64.208 E.02285
G1 X69.993 Y65.37 E.058
G1 X69.993 Y66.018 E.02285
G1 X68.183 Y64.208 E.09032
G1 X67.535 Y64.208 E.02285
G1 X69.993 Y66.666 E.12263
G1 X69.993 Y67.314 E.02285
G1 X66.887 Y64.208 E.15495
G1 X66.239 Y64.208 E.02285
G1 X69.993 Y67.962 E.18727
G1 X69.993 Y68.61 E.02285
G1 X65.591 Y64.208 E.21959
G1 X64.943 Y64.208 E.02285
G1 X69.993 Y69.258 E.2519
G1 X69.993 Y69.905 E.02285
G1 X64.295 Y64.208 E.28422
M73 P1 R20
G1 X63.647 Y64.208 E.02285
G1 X69.993 Y70.553 E.31654
G1 X69.993 Y71.201 E.02285
G1 X63 Y64.208 E.34886
G1 X62.352 Y64.208 E.02285
G1 X69.993 Y71.849 E.38118
G1 X69.993 Y72.497 E.02285
G1 X61.704 Y64.208 E.41349
G1 X61.056 Y64.208 E.02285
G1 X69.993 Y73.145 E.44581
G1 X69.993 Y73.793 E.02285
G1 X60.408 Y64.208 E.47813
G1 X59.76 Y64.208 E.02285
G1 X69.993 Y74.441 E.51045
G1 X69.993 Y75.088 E.02285
G1 X59.112 Y64.208 E.54277
G1 X58.465 Y64.208 E.02285
G1 X69.993 Y75.736 E.57508
G1 X69.993 Y76.384 E.02285
G1 X57.817 Y64.208 E.6074
G1 X57.169 Y64.208 E.02285
G1 X61.114 Y68.153 E.19681
G1 X61.62 Y68.33 E.01892
G1 X61.901 Y68.479 E.01119
G1 X62.289 Y68.742 E.01654
G1 X62.529 Y68.948 E.01114
G1 X62.744 Y69.178 E.01114
G1 X62.9 Y69.377 E.00892
G1 X63.113 Y69.711 E.01397
G1 X63.213 Y69.923 E.00827
G1 X63.392 Y70.431 E.01898
G1 X69.993 Y77.032 E.3293
G1 X69.993 Y77.68 E.02285
G1 X63.502 Y71.189 E.32379
G1 X63.457 Y71.792 E.02132
G1 X69.958 Y78.292 E.32427
G1 X69.31 Y78.292 E.02285
G1 X63.324 Y72.306 E.29861
G1 X63.128 Y72.758 E.01737
G1 X68.662 Y78.292 E.27607
G1 X68.014 Y78.292 E.02285
G1 X62.875 Y73.153 E.25635
G1 X62.7 Y73.367 E.00976
G1 X62.569 Y73.495 E.00645
G1 X67.366 Y78.292 E.23929
G1 X66.718 Y78.292 E.02285
G1 X62.228 Y73.802 E.22398
G1 X61.838 Y74.06 E.01649
G1 X66.07 Y78.292 E.21111
G1 X65.422 Y78.292 E.02285
G1 X61.383 Y74.253 E.2015
G1 X60.885 Y74.402 E.01835
G1 X64.775 Y78.292 E.19405
G1 X64.127 Y78.292 E.02285
G1 X60.288 Y74.454 E.19147
G1 X59.931 Y74.433 E.01265
G1 X59.541 Y74.354 E.01403
G1 X63.685 Y78.498 E.20671
G1 E-.5 F3000
G1 Z.4 F21000
G1 X60.584 Y68.271
G1 Z.2
G1 E.5 F1800
G1 F6300
G1 X56.521 Y64.208 E.20269
G1 X55.873 Y64.208 E.02285
G1 X59.761 Y68.095 E.19392
G1 X59.405 Y68.173 E.01283
G1 X59.246 Y68.228 E.00596
G1 X55.225 Y64.208 E.20056
G1 X54.577 Y64.208 E.02285
G1 X58.797 Y68.427 E.21048
G1 X58.401 Y68.679 E.01655
G1 X53.93 Y64.208 E.22306
G1 X53.282 Y64.208 E.02285
G1 X58.051 Y68.977 E.2379
G1 X57.95 Y69.071 E.00486
G1 X57.746 Y69.32 E.01136
G1 X52.634 Y64.208 E.25503
G1 X51.986 Y64.208 E.02285
G1 X57.492 Y69.714 E.27465
G1 X57.29 Y70.159 E.01726
G1 X51.338 Y64.208 E.29689
G1 X50.69 Y64.208 E.02285
G1 X54.623 Y68.141 E.19619
G1 X54.441 Y68.096 E.00662
G1 X54.129 Y68.054 E.01111
G1 X53.883 Y68.049 E.00867
G1 X50.042 Y64.208 E.19159
G1 X50.007 Y64.208 E.00125
G1 X50.007 Y64.82 E.0216
G1 X53.294 Y68.107 E.16395
G1 X53.006 Y68.173 E.01041
G1 X52.787 Y68.248 E.00816
G1 X50.007 Y65.468 E.13869
G1 X50.007 Y66.116 E.02285
G1 X52.348 Y68.457 E.11678
G1 X51.954 Y68.711 E.01653
G1 X50.007 Y66.764 E.09715
G1 X50.007 Y67.412 E.02285
G1 X51.615 Y69.02 E.08024
G1 X51.386 Y69.263 E.0118
G1 X51.316 Y69.369 E.00446
G1 X50.007 Y68.06 E.06532
G1 X50.007 Y68.707 E.02285
G1 X51.063 Y69.763 E.05268
G1 X50.94 Y70.023 E.01013
G1 X50.872 Y70.22 E.00737
G1 X50.007 Y69.355 E.04315
G1 X50.007 Y70.003 E.02285
G1 X50.743 Y70.74 E.03673
G1 X50.699 Y71.094 E.01261
G1 X50.709 Y71.353 E.00915
G1 X49.801 Y70.445 E.0453
G1 E-.5 F3000
G1 Z.4 F21000
G1 X56.704 Y70.221
G1 Z.2
G1 E.5 F1800
G1 F6300
G1 X57.307 Y70.824 E.03009
G1 X56.922 Y71.735 F21000
G1 F6300
G1 X57.499 Y72.312 E.02879
G1 X56.732 Y72.194 F21000
G1 F6300
G1 X62.831 Y78.292 E.30422
G1 X62.183 Y78.292 E.02285
M73 P2 R20
G1 X56.697 Y72.806 E.27367
G1 X56.439 Y73.196 E.01649
G1 X61.535 Y78.292 E.25421
G1 X60.887 Y78.292 E.02285
G1 X56.133 Y73.538 E.23716
G1 X55.786 Y73.838 E.0162
G1 X60.24 Y78.292 E.22218
G1 X59.592 Y78.292 E.02285
G1 X55.384 Y74.084 E.20991
G1 X54.934 Y74.283 E.01733
G1 X58.944 Y78.292 E.20002
G1 X58.296 Y78.292 E.02285
G1 X54.405 Y74.401 E.1941
G1 X54.164 Y74.439 E.0086
G1 X53.806 Y74.45 E.01265
G1 X57.648 Y78.292 E.19167
G1 X57 Y78.292 E.02285
G1 X53.029 Y74.321 E.19811
G1 X52.738 Y74.236 E.01069
G1 X52.23 Y73.985 E.01998
G1 X51.775 Y73.648 E.01998
G1 X51.386 Y73.237 E.01998
G1 X51.076 Y72.765 E.0199
G1 X50.94 Y72.478 E.01122
G1 X50.823 Y72.115 E.01343
G1 X50.007 Y71.299 E.04072
G1 X50.007 Y71.947 E.02285
G1 X56.352 Y78.292 E.31653
G1 X55.705 Y78.292 E.02285
G1 X50.007 Y72.595 E.28422
G1 X50.007 Y73.242 E.02285
G1 X55.057 Y78.292 E.2519
G1 X54.409 Y78.292 E.02285
G1 X50.007 Y73.89 E.21958
G1 X50.007 Y74.538 E.02285
G1 X53.761 Y78.292 E.18726
G1 X53.113 Y78.292 E.02285
G1 X50.007 Y75.186 E.15495
G1 X50.007 Y75.834 E.02285
G1 X52.465 Y78.292 E.12263
G1 X51.817 Y78.292 E.02285
G1 X50.007 Y76.482 E.09031
G1 X50.007 Y77.13 E.02285
G1 X51.169 Y78.292 E.05799
G1 X50.522 Y78.292 E.02285
G1 X49.801 Y77.572 E.03593
; stop printing object cf tube end.stl id:0 copy 0
EXCLUDE_OBJECT_END NAME=cf_tube_end.stl_id_0_copy_0
; printing object cf tube end.stl id:1 copy 0
EXCLUDE_OBJECT_START NAME=cf_tube_end.stl_id_1_copy_0
G1 E-.5 F3000
G1 Z.4 F21000
G1 X70.336 Y56.135
G1 Z.2
G1 E.5 F1800
;TYPE:Inner wall
;WIDTH:0.499999
G1 F3000
G1 X49.664 Y56.135 E.72752
G1 X49.664 Y41.365 E.51981
G1 X70.336 Y41.365 E.72752
G1 X70.336 Y45.389 E.14162
G1 X70.336 Y56.075 E.37608
G1 X70.793 Y56.592 F21000
G1 F3000
G1 X49.207 Y56.592 E.75969
G1 X49.207 Y40.908 E.55199
G1 X70.793 Y40.908 E.75969
G1 X70.793 Y45.389 E.15771
G1 X70.793 Y56.532 E.39217
G1 X71.25 Y57.049 F21000
;TYPE:Outer wall
G1 F3000
G1 X48.75 Y57.049 E.79186
G1 X48.75 Y40.451 E.58416
G1 X71.25 Y40.451 E.79186
G1 X71.25 Y45.389 E.17379
G1 X71.25 Y56.989 E.40826
G1 X71.181 Y57.009
G1 E-.5
G1 Z.4 F21000
G1 X59.044 Y46.201
G1 Z.2
G1 E.5 F1800
;TYPE:Inner wall
G1 F3000
G1 X59.225 Y46.098 E.00732
G1 X59.709 Y45.95 E.0178
G1 X60.211 Y45.89 E.0178
G1 X60.716 Y45.919 E.0178
G1 X61.208 Y46.036 E.0178
G1 X61.713 Y46.266 E.01953
G1 X62.283 Y46.686 E.02491
G1 X62.615 Y47.068 E.0178
G1 X62.893 Y47.547 E.01949
G1 X63.111 Y48.213 E.02468
G1 X63.163 Y48.674 E.01631
G1 X63.132 Y49.175 E.01768
G1 X62.993 Y49.718 E.01971
G1 X62.78 Y50.177 E.0178
G1 X62.456 Y50.627 E.01953
G1 X61.931 Y51.102 E.02491
G1 X61.444 Y51.369 E.01953
G1 X60.838 Y51.563 E.0224
G1 X60.338 Y51.614 E.01768
G1 X59.712 Y51.547 E.02215
G1 X59.048 Y51.323 E.02468
G1 X58.608 Y51.058 E.01807
G1 X58.228 Y50.724 E.0178
G1 X57.889 Y50.286 E.01949
G1 X57.598 Y49.696 E.02314
;WIDTH:0.534587
G1 X57.537 Y49.517 E.00716
;WIDTH:0.569175
G1 X57.476 Y49.338 E.00767
;WIDTH:0.603763
G1 X57.415 Y49.159 E.00817
;WIDTH:0.611468
G1 X57.385 Y48.644 E.02257
G1 X57.424 Y48.478 E.00745
;WIDTH:0.574312
G1 X57.463 Y48.313 E.00697
;WIDTH:0.537156
G1 X57.503 Y48.147 E.00648
;WIDTH:0.499999
G1 X57.653 Y47.664 E.0178
G1 X57.885 Y47.215 E.0178
G1 X58.193 Y46.814 E.0178
G1 X58.582 Y46.463 E.01842
G1 X58.992 Y46.23 E.0166
G1 X59.26 Y46.597 F21000
G1 F3000
G1 X59.374 Y46.53 E.00466
G1 X59.779 Y46.402 E.01496
G1 X60.201 Y46.347 E.01496
G1 X60.626 Y46.367 E.01496
G1 X61.04 Y46.461 E.01496
G1 X61.456 Y46.644 E.01599
G1 X61.949 Y46.999 E.02136
G1 X62.231 Y47.316 E.01496
G1 X62.464 Y47.706 E.01597
G1 X62.658 Y48.275 E.02115
G1 X62.705 Y48.674 E.01414
G1 X62.675 Y49.128 E.01603
G1 X62.572 Y49.541 E.01496
G1 X62.397 Y49.928 E.01496
G1 X62.136 Y50.3 E.01599
G1 X61.69 Y50.713 E.02136
G1 X61.295 Y50.937 E.01599
G1 X60.759 Y51.113 E.01986
G1 X60.293 Y51.155 E.01648
G1 X59.841 Y51.109 E.01597
G1 X59.27 Y50.923 E.02115
G1 X58.898 Y50.704 E.0152
G1 X58.575 Y50.427 E.01496
G1 X58.258 Y50.006 E.01854
G1 X58.034 Y49.558 E.01762
G1 X57.915 Y49.033 E.01896
G1 X57.908 Y48.544 E.01721
G1 X58.003 Y48.049 E.01775
G1 X58.196 Y47.585 E.01769
G1 X58.513 Y47.14 E.01921
G1 X58.849 Y46.835 E.01599
G1 X59.208 Y46.627 E.01459
G1 X59.503 Y46.975 F21000
;TYPE:Outer wall
G1 F3000
G1 X59.85 Y46.853 E.01294
G1 X60.191 Y46.804 E.01213
G1 X60.535 Y46.815 E.01213
G1 X60.872 Y46.887 E.01213
G1 X61.199 Y47.022 E.01246
G1 X61.615 Y47.311 E.01782
