; generated by SuperSlicer 2.5.59 on 2023-01-11 at 01:26:24 UTC


;
;

;
;
; 

; external perimeters extrusion width = 0.40mm
; perimeters extrusion width = 0.46mm
; infill extrusion width = 0.64mm
; solid infill extrusion width = 0.56mm
; top infill extrusion width = 0.40mm
; first layer extrusion width = 0.50mm

; external perimeters extrusion width = 0.40mm
; perimeters extrusion width = 0.46mm
; infill extrusion width = 0.64mm
; solid infill extrusion width = 0.56mm
; top infill extrusion width = 0.40mm
; first layer extrusion width = 0.50mm

; object:{"name":"clamp1","id":"clamp1.stl id:0 copy 0","object_center":[66.000000,60.000000,0.000000],"boundingbox_center":[66.000000,60.000000,5.800003],"boundingbox_size":[5.999999,20.500434,11.600006]}
; object:{"name":"clamp2","id":"clamp2.stl id:1 copy 0","object_center":[54.000002,60.000001,0.000000],"boundingbox_center":[54.000002,60.000001,5.800003],"boundingbox_size":[5.999999,20.500434,11.600006]}
; plater:{"center":[60.000001,60.000000,0.000000],"boundingbox_center":[60.000001,60.000000,5.800003],"boundingbox_size":[17.999997,20.500435,11.600006]}

M73 P0 R33
;TYPE:Custom
; custom gcode: start_gcode
START_PRINT T_BED=110 T_EXTRUDER=240
; custom gcode end: start_gcode
M107
G21 ; set units to millimeters
G90 ; use absolute coordinates
M83 ; use relative distances for extrusion
; custom gcode: start_filament_gcode
; Filament gcode

    PRESSURE_ADVANCE_SELECT FILAMENT=ABS
; custom gcode end: start_filament_gcode
;_TOOLCHANGE 0
M104 S240 ; set temperature
M109 S240 ; set temperature and wait for it to be reached
M190 S110 ; set bed temperature and wait for it to be reached
;LAYER_CHANGE
;Z:0.1
;HEIGHT:0.1
G1 Z0.1 F12000
G92 E0
M73 P0 R33
G1 E-0.5 F3000
M204 S2000
G1 X48.848 Y47.557 F12000
G1 E0.5 F1800
;TYPE:Skirt
;WIDTH:0.52
G1 X47.747 Y48.878 E0.03565
G1 X47.352 Y50.552 E0.03565
G1 X47.352 Y69.448 E0.39164
G1 X48.104 Y71.7 E0.04922
G1 X49.426 Y72.801 E0.03565
G1 X51.1 Y73.195 E0.03565
G1 X66.99 Y73.195 E0.32934
G1 X67.926 Y73.08 E0.01956
G1 X69.238 Y72.52 E0.02956
G1 X69.605 Y72.251 E0.00942
G1 X70.634 Y70.991 E0.03372
G1 X71.074 Y69.226 E0.03772
G1 X71.069 Y50.773 E0.38247
G1 X70.618 Y48.987 E0.03818
G1 X69.387 Y47.579 E0.03876
G1 X67.921 Y46.919 E0.03333
G1 X66.99 Y46.805 E0.01945
G1 X51.1 Y46.805 E0.32934
G1 X48.848 Y47.557 E0.04922
G1 X49.243 Y47.922 F12000
G1 F1800
G1 X48.245 Y49.002 E0.03048
G1 X47.851 Y50.552 E0.03316
G1 X47.851 Y69.448 E0.39164
G1 X48.375 Y71.217 E0.03825
G1 X49.549 Y72.303 E0.03316
G1 X51.1 Y72.697 E0.03316
G1 X66.99 Y72.697 E0.32934
G1 X67.821 Y72.592 E0.01738
G1 X68.959 Y72.107 E0.02563
G1 X69.296 Y71.86 E0.00867
G1 X70.189 Y70.767 E0.02923
G1 X70.576 Y69.226 E0.03295
G1 X70.571 Y50.773 E0.38247
G1 X70.173 Y49.211 E0.03341
G1 X69.106 Y47.99 E0.0336
G1 X67.818 Y47.407 E0.0293
G1 X66.99 Y47.304 E0.0173
G1 X51.1 Y47.303 E0.32934
G1 X49.331 Y47.827 E0.03825
G1 X49.243 Y47.922 E0.00268
G1 E-0.5 F3000
; printing object clamp1.stl id:0 copy 0
; acceleration to travel
M204 S4000
G1 X58.648 Y49.843 F12000
; decel to extrusion
M204 S2000
G1 X63.35 Y50.803
; end travel
G1 E0.5 F1800
;TYPE:External perimeter
;WIDTH:0.5
G1 X66.985 Y50.807 E0.07231
;TYPE:Internal perimeter
;WIDTH:0.404605
G1 X66.593 Y51.285 E0.00995
;WIDTH:0.5
G1 X63.829 Y51.282 E0.055
G1 X63.829 Y68.719 E0.34691
G1 X66.598 Y68.719 E0.05509
G1 X66.593 Y52.242 E0.32781
G1 X66.115 Y52.242 E0.00952
G1 X66.119 Y68.24 E0.3183
G1 X64.307 Y68.241 E0.03605
G1 X64.307 Y51.761 E0.32786
G1 X66.115 Y51.763 E0.03597
G1 X66.593 Y51.764 E0.00952
;WIDTH:0.343445
G1 X67.072 Y51.215 E0.00995
;TYPE:External perimeter
;WIDTH:0.5
G1 X67.076 Y69.151 E0.35684
G1 X67.034 Y69.182 E0.00104
G1 X66.963 Y69.197 E0.00145
G1 X63.35 Y69.198 E0.07188
G1 X63.35 Y50.803 E0.36596
;WIPE_START
M204 S4000
G1 X63.696 Y51.004 F12000
;WIPE_END
; acceleration to travel
G1 X64.562 Y51.601
; decel to extrusion
M204 S2000
G1 X65.003 Y51.906
; end travel
;TYPE:Solid infill
;WIDTH:0.511301
G1 F2400
G1 X65.972 Y52.874 E0.02787
G1 X65.972 Y53.551 F12000
G1 F2400
G1 X64.451 Y52.03 E0.04377
G1 X64.451 Y52.707 F12000
G1 F2400
G1 X65.972 Y54.228 E0.04377
G1 X65.972 Y54.905 F12000
G1 F2400
G1 X64.451 Y53.384 E0.04378
G1 X64.451 Y54.061 F12000
G1 F2400
G1 X65.972 Y55.582 E0.04378
G1 X65.972 Y56.259 F12000
G1 F2400
G1 X64.451 Y54.737 E0.04379
G1 X64.451 Y55.414 F12000
G1 F2400
G1 X65.973 Y56.936 E0.04379
G1 X65.973 Y57.613 F12000
G1 F2400
G1 X64.451 Y56.091 E0.0438
G1 X64.451 Y56.768 F12000
G1 F2400
G1 X65.973 Y58.29 E0.0438
G1 X65.973 Y58.967 F12000
G1 F2400
G1 X64.451 Y57.444 E0.04381
G1 X64.451 Y58.121 F12000
G1 F2400
G1 X65.973 Y59.644 E0.04381
G1 X65.974 Y60.321 F12000
G1 F2400
G1 X64.451 Y58.798 E0.04382
G1 X64.451 Y59.475 F12000
G1 F2400
G1 X65.974 Y60.998 E0.04382
G1 X65.974 Y61.675 F12000
G1 F2400
G1 X64.451 Y60.151 E0.04383
G1 X64.451 Y60.828 F12000
G1 F2400
G1 X65.974 Y62.351 E0.04383
G1 X65.974 Y63.028 F12000
G1 F2400
G1 X64.451 Y61.505 E0.04384
G1 X64.451 Y62.182 F12000
G1 F2400
G1 X65.974 Y63.705 E0.04384
G1 X65.975 Y64.382 F12000
G1 F2400
G1 X64.451 Y62.858 E0.04385
G1 X64.451 Y63.535 F12000
G1 F2400
G1 X65.975 Y65.059 E0.04385
G1 X65.975 Y65.736 F12000
G1 F2400
G1 X64.451 Y64.212 E0.04386
G1 X64.451 Y64.889 F12000
G1 F2400
G1 X65.975 Y66.413 E0.04386
G1 X65.975 Y67.09 F12000
G1 F2400
G1 X64.451 Y65.565 E0.04387
G1 X64.451 Y66.242 F12000
G1 F2400
G1 X65.975 Y67.767 E0.04387
G1 X65.629 Y68.097 F12000
G1 F2400
G1 X64.451 Y66.919 E0.03389
G1 X64.451 Y67.596 F12000
G1 F2400
G1 X64.952 Y68.097 E0.01442
G1 E-0.5 F3000
; stop printing object clamp1.stl id:0 copy 0
; printing object clamp2.stl id:1 copy 0
; acceleration to travel
M204 S4000
G1 X58.326 Y68.819 F12000
; decel to extrusion
M204 S2000
G1 X55.072 Y69.174
; end travel
G1 E0.5 F1800
;TYPE:External perimeter
;WIDTH:0.5
G1 X54.963 Y69.197 E0.0022
G1 X51.35 Y69.198 E0.07189
G1 X51.35 Y50.802 E0.36598
G1 X52 Y50.802 E0.01293
;TYPE:Internal perimeter
;WIDTH:0.491815
G1 X51.829 Y51.281 E0.00995
;WIDTH:0.5
G1 X51.829 Y68.719 E0.34694
G1 X54.593 Y68.719 E0.055
G1 X54.592 Y51.281 E0.34693
G1 X52.786 Y51.281 E0.03594
G1 X52.786 Y51.76 E0.00952
G1 X54.114 Y51.76 E0.02642
G1 X54.115 Y68.24 E0.32789
G1 X52.307 Y68.24 E0.03596
G1 X52.307 Y51.76 E0.32789
G1 X52.307 Y51.281 E0.00952
;WIDTH:0.491815
G1 X52.479 Y50.802 E0.00995
;TYPE:External perimeter
;WIDTH:0.5
G1 X54.963 Y50.803 E0.04944
G1 X55.071 Y50.825 E0.00218
G1 X55.072 Y69.174 E0.36506
;WIPE_START
M204 S4000
G1 X54.701 Y69.024 F12000
;WIPE_END
G1 E-0.5 F3000
; acceleration to travel
G1 X53.576 Y57.679 F12000
; decel to extrusion
M204 S2000
G1 X53.003 Y51.903
; end travel
G1 E0.5 F1800
;TYPE:Solid infill
;WIDTH:0.511322
G1 F2400
G1 X53.97 Y52.871 E0.02784
G1 X53.97 Y53.547 F12000
G1 F2400
G1 X52.451 Y52.028 E0.04372
G1 X52.451 Y52.704 F12000
G1 F2400
G1 X53.97 Y54.224 E0.04372
G1 X53.97 Y54.901 F12000
G1 F2400
G1 X52.451 Y53.381 E0.04373
G1 X52.451 Y54.058 F12000
G1 F2400
G1 X53.97 Y55.578 E0.04373
G1 X53.97 Y56.254 F12000
M73 P1 R32
G1 F2400
G1 X52.451 Y54.735 E0.04373
G1 X52.451 Y55.412 F12000
G1 F2400
G1 X53.97 Y56.931 E0.04373
G1 X53.97 Y57.608 F12000
G1 F2400
G1 X52.451 Y56.088 E0.04373
G1 X52.451 Y56.765 F12000
G1 F2400
G1 X53.97 Y58.285 E0.04373
G1 X53.97 Y58.962 F12000
G1 F2400
G1 X52.451 Y57.442 E0.04373
G1 X52.451 Y58.119 F12000
G1 F2400
G1 X53.971 Y59.638 E0.04373
G1 X53.971 Y60.315 F12000
G1 F2400
G1 X52.451 Y58.795 E0.04373
G1 X52.451 Y59.472 F12000
G1 F2400
G1 X53.971 Y60.992 E0.04374
G1 X53.971 Y61.669 F12000
G1 F2400
G1 X52.451 Y60.149 E0.04374
G1 X52.451 Y60.826 F12000
G1 F2400
G1 X53.971 Y62.346 E0.04374
G1 X53.971 Y63.022 F12000
G1 F2400
G1 X52.451 Y61.502 E0.04374
G1 X52.451 Y62.179 F12000
G1 F2400
G1 X53.971 Y63.699 E0.04374
G1 X53.971 Y64.376 F12000
G1 F2400
G1 X52.451 Y62.856 E0.04374
G1 X52.451 Y63.533 F12000
G1 F2400
G1 X53.971 Y65.053 E0.04374
G1 X53.971 Y65.73 F12000
G1 F2400
G1 X52.451 Y64.209 E0.04374
G1 X52.451 Y64.886 F12000
G1 F2400
G1 X53.971 Y66.406 E0.04374
G1 X53.971 Y67.083 F12000
G1 F2400
G1 X52.451 Y65.563 E0.04374
G1 X52.451 Y66.24 F12000
G1 F2400
G1 X53.971 Y67.76 E0.04375
G1 X53.631 Y68.097 F12000
G1 F2400
G1 X52.451 Y66.916 E0.03396
G1 X52.451 Y67.593 F12000
G1 F2400
G1 X52.954 Y68.097 E0.01449
M106 S255
;LAYER_CHANGE
;Z:0.2
;HEIGHT:0.1
; stop printing object clamp2.stl id:1 copy 0
M204 S4000
G1 Z0.2 F12000
G92 E0
G1 E-0.5 F3000
; printing object clamp1.stl id:0 copy 0
; acceleration to travel
G1 X59.232 Y68.097 F12000
; decel to extrusion
M204 S2000
G1 X63.25 Y68.097
; end travel
G1 E0.5 F1800
;TYPE:External perimeter
;WIDTH:0.4
G1 F3302
G1 X63.25 Y50.481 E0.27724
G1 X66.981 Y50.479 E0.05871
G1 X67.066 Y50.492 E0.00136
;TYPE:Internal perimeter
M204 S4000
G1 X67.091 Y50.888 E0.00623
;WIDTH:0.46
G1 X63.659 Y50.889 E0.06258
G1 X63.659 Y69.113 E0.33226
G1 X67.098 Y69.113 E0.0627
G1 X67.096 Y64.966 E0.07561
M106 S252.45
G1 X67.091 Y51.765 E0.24068
G1 X66.653 Y51.765 E0.008
G1 X66.659 Y68.674 E0.3083
G1 X64.097 Y68.674 E0.04671
G1 X64.097 Y51.327 E0.31627
G1 X66.653 Y51.326 E0.0466
G1 X67.091 Y51.326 E0.008
;WIDTH:0.4
G1 X67.187 Y51.117 E0.00362
;TYPE:Unknown
G1 X67.315 Y50.838
;TYPE:Internal perimeter
G1 X67.411 Y50.628 E0.00362
;TYPE:External perimeter
M204 S2000
G1 X67.455 Y50.656 E0.00081
G1 X67.5 Y50.79 E0.00223
G1 X67.506 Y69.205 E0.2898
G1 X67.454 Y69.344 E0.00234
G1 X67.256 Y69.472 E0.00371
G1 X66.978 Y69.521 E0.00444
G1 X63.25 Y69.521 E0.05867
G1 X63.25 Y68.097 E0.02242
;WIPE_START
M204 S4000
G1 X63.596 Y67.897 F12000
;WIPE_END
; acceleration to travel
G1 X63.708 Y67.936
G1 X63.708 Y67.936
G1 X64.539 Y68.662
; decel to extrusion
M204 S3000
G1 X65 Y69.063
G1 X65.446 Y69.063
G1 X65.446 Y68.55
; end travel
;TYPE:Solid infill
;WIDTH:0.569949
G1 F3302
G1 X66.535 Y67.462 E0.03507
; acceleration to travel
M204 S4000
G1 X66.534 Y67.027 F12000
; decel to extrusion
M204 S3000
G1 X66.534 Y66.7
; end travel
G1 F3302
G1 X64.685 Y68.55 E0.05961
; acceleration to travel
M204 S4000
G1 X64.42 Y68.38 F12000
; decel to extrusion
M204 S3000
G1 X64.221 Y68.252
; end travel
G1 F3302
G1 X66.534 Y65.939 E0.07454
; acceleration to travel
M204 S4000
G1 X66.534 Y65.504 F12000
; decel to extrusion
M204 S3000
G1 X66.534 Y65.178
; end travel
G1 F3302
G1 X64.221 Y67.49 E0.07453
; acceleration to travel
M204 S4000
G1 X64.221 Y67.055 F12000
; decel to extrusion
M204 S3000
G1 X64.221 Y66.729
; end travel
G1 F3302
G1 X66.533 Y64.416 E0.07452
; acceleration to travel
M204 S4000
G1 X66.533 Y63.981 F12000
; decel to extrusion
M204 S3000
G1 X66.533 Y63.655
; end travel
G1 F3302
G1 X64.221 Y65.967 E0.07451
; acceleration to travel
M204 S4000
G1 X64.221 Y65.532 F12000
; decel to extrusion
M204 S3000
G1 X64.221 Y65.206
; end travel
G1 F3302
G1 X66.533 Y62.894 E0.0745
; acceleration to travel
M204 S4000
G1 X66.533 Y62.459 F12000
; decel to extrusion
M204 S3000
G1 X66.533 Y62.132
; end travel
G1 F3302
G1 X64.221 Y64.444 E0.07449
; acceleration to travel
M204 S4000
G1 X64.221 Y64.009 F12000
; decel to extrusion
M204 S3000
G1 X64.221 Y63.682
; end travel
G1 F3302
G1 X66.532 Y61.371 E0.07448
; acceleration to travel
M204 S4000
G1 X66.532 Y60.936 F12000
; decel to extrusion
M204 S3000
G1 X66.532 Y60.61
; end travel
G1 F3302
G1 X64.221 Y62.921 E0.07447
; acceleration to travel
M204 S4000
G1 X64.221 Y62.486 F12000
; decel to extrusion
M204 S3000
G1 X64.221 Y62.159
; end travel
G1 F3302
G1 X66.532 Y59.848 E0.07447
; acceleration to travel
M204 S4000
G1 X66.532 Y59.413 F12000
; decel to extrusion
M204 S3000
G1 X66.532 Y59.087
; end travel
G1 F3302
G1 X64.221 Y61.398 E0.07446
; acceleration to travel
M204 S4000
G1 X64.221 Y60.962 F12000
; decel to extrusion
M204 S3000
G1 X64.221 Y60.636
; end travel
G1 F3302
G1 X66.531 Y58.326 E0.07445
; acceleration to travel
M204 S4000
G1 X66.531 Y57.891 F12000
; decel to extrusion
M204 S3000
G1 X66.531 Y57.564
; end travel
G1 F3302
G1 X64.221 Y59.874 E0.07444
; acceleration to travel
M204 S4000
G1 X64.221 Y59.439 F12000
; decel to extrusion
M204 S3000
G1 X64.221 Y59.113
; end travel
G1 F3302
G1 X66.531 Y56.803 E0.07443
; acceleration to travel
M204 S4000
G1 X66.531 Y56.368 F12000
; decel to extrusion
M204 S3000
G1 X66.53 Y56.042
; end travel
G1 F3302
G1 X64.221 Y58.351 E0.07442
; acceleration to travel
M204 S4000
G1 X64.221 Y57.916 F12000
; decel to extrusion
M204 S3000
G1 X64.221 Y57.59
; end travel
G1 F3302
G1 X66.53 Y55.28 E0.07441
; acceleration to travel
M204 S4000
G1 X66.53 Y54.845 F12000
; decel to extrusion
M204 S3000
G1 X66.53 Y54.519
; end travel
G1 F3302
G1 X64.221 Y56.828 E0.0744
; acceleration to travel
M204 S4000
G1 X64.221 Y56.393 F12000
; decel to extrusion
M204 S3000
G1 X64.221 Y56.066
; end travel
G1 F3302
G1 X66.53 Y53.758 E0.07439
; acceleration to travel
M204 S4000
G1 X66.529 Y53.323 F12000
; decel to extrusion
M204 S3000
G1 X66.529 Y52.996
; end travel
G1 F3302
G1 X64.221 Y55.305 E0.07438
; acceleration to travel
M204 S4000
G1 X64.221 Y54.869 F12000
; decel to extrusion
M204 S3000
G1 X64.221 Y54.543
; end travel
G1 F3302
G1 X66.529 Y52.235 E0.07438
; acceleration to travel
M204 S4000
G1 X66.529 Y51.8 F12000
; decel to extrusion
M204 S3000
G1 X66.529 Y51.474
; end travel
G1 F3302
G1 X64.221 Y53.781 E0.07437
; acceleration to travel
M204 S4000
G1 X64.221 Y53.346 F12000
; decel to extrusion
M204 S3000
G1 X64.221 Y53.02
; end travel
G1 F3302
G1 X65.79 Y51.451 E0.05057
; acceleration to travel
M204 S4000
G1 X65.355 Y51.451 F12000
; decel to extrusion
M204 S3000
G1 X65.028 Y51.451
; end travel
G1 F3302
G1 X64.221 Y52.258 E0.02602
G1 E-0.5 F3000
; stop printing object clamp1.stl id:0 copy 0
; printing object clamp2.stl id:1 copy 0
; acceleration to travel
M204 S4000
G1 X57.467 Y52.259 F12000
; decel to extrusion
M204 S2000
G1 X55.497 Y52.26
; end travel
G1 E0.5 F1800
;TYPE:External perimeter
;WIDTH:0.4
G1 F3302
G1 X55.5 Y69.21 E0.26676
G1 X55.455 Y69.344 E0.00223
G1 X55.237 Y69.481 E0.00405
G1 X54.981 Y69.521 E0.00408
G1 X51.25 Y69.521 E0.05871
G1 X51.25 Y50.479 E0.29969
G1 X51.5 Y50.479 E0.00393
;TYPE:Internal perimeter
M204 S4000
G1 X51.659 Y50.887 E0.0069
;WIDTH:0.46
G1 X51.659 Y69.113 E0.33229
G1 X55.091 Y69.112 E0.06258
G1 X55.088 Y50.887 E0.33229
G1 X52.536 Y50.887 E0.04654
G1 X52.536 Y51.326 E0.008
G1 X54.65 Y51.326 E0.03854
G1 X54.652 Y68.674 E0.31629
G1 X52.097 Y68.674 E0.04659
G1 X52.097 Y51.326 E0.3163
G1 X52.097 Y50.887 E0.008
;WIDTH:0.397136
G1 X51.879 Y50.479 E0.00724
;TYPE:External perimeter
;WIDTH:0.4
M204 S2000
G1 X54.98 Y50.479 E0.04882
G1 X55.237 Y50.519 E0.00408
G1 X55.453 Y50.655 E0.00401
G1 X55.497 Y50.789 E0.00223
G1 X55.497 Y52.26 E0.02314
;WIPE_START
M204 S4000
G1 X55.15 Y52.46 F12000
;WIPE_END
; acceleration to travel
G1 X55.039 Y53.481
G1 X55.039 Y53.481
G1 X53.883 Y66.604
; decel to extrusion
M204 S3000
G1 X53.667 Y69.063
G1 X53.44 Y69.063
G1 X53.44 Y68.55
; end travel
;TYPE:Solid infill
;WIDTH:0.569927
G1 F3302
G1 X54.528 Y67.461 E0.03508
; acceleration to travel
M204 S4000
G1 X54.528 Y67.026 F12000
; decel to extrusion
M204 S3000
G1 X54.528 Y66.7
; end travel
G1 F3302
G1 X52.678 Y68.55 E0.05962
; acceleration to travel
M204 S4000
G1 X52.417 Y68.376 F12000
; decel to extrusion
M204 S3000
G1 X52.221 Y68.245
; end travel
G1 F3302
G1 X54.528 Y65.938 E0.07434
; acceleration to travel
M204 S4000
G1 X54.528 Y65.503 F12000
; decel to extrusion
M204 S3000
G1 X54.528 Y65.177
; end travel
G1 F3302
G1 X52.221 Y67.484 E0.07433
; acceleration to travel
M204 S4000
G1 X52.221 Y67.048 F12000
; decel to extrusion
M204 S3000
G1 X52.221 Y66.722
; end travel
G1 F3302
G1 X54.528 Y64.415 E0.07433
; acceleration to travel
M204 S4000
G1 X54.528 Y63.98 F12000
; decel to extrusion
M204 S3000
G1 X54.528 Y63.654
; end travel
G1 F3302
G1 X52.221 Y65.96 E0.07433
; acceleration to travel
M204 S4000
G1 X52.221 Y65.525 F12000
; decel to extrusion
M204 S3000
G1 X52.221 Y65.199
; end travel
G1 F3302
G1 X54.527 Y62.892 E0.07432
; acceleration to travel
M204 S4000
G1 X54.527 Y62.457 F12000
; decel to extrusion
M204 S3000
G1 X54.527 Y62.131
; end travel
G1 F3302
G1 X52.221 Y64.437 E0.07432
; acceleration to travel
M204 S4000
G1 X52.221 Y64.002 F12000
