; HEADER_BLOCK_START
; generated by OrcaSlicer 1.7.0-beta on 2023-09-16 at 17:41:12
; total layer number: 120
; HEADER_BLOCK_END

; THUMBNAIL_BLOCK_START
; THUMBNAIL_BLOCK_END

; external perimeters extrusion width = 0.40mm
; perimeters extrusion width = 0.46mm
; infill extrusion width = 0.64mm
; solid infill extrusion width = 0.56mm
; top infill extrusion width = 0.40mm
; support material extrusion width = 0.46mm
; first layer extrusion width = 0.50mm

; external perimeters extrusion width = 0.40mm
; perimeters extrusion width = 0.46mm
; infill extrusion width = 0.64mm
; solid infill extrusion width = 0.56mm
; top infill extrusion width = 0.40mm
; support material extrusion width = 0.46mm
; first layer extrusion width = 0.50mm

; external perimeters extrusion width = 0.40mm
; perimeters extrusion width = 0.46mm
; infill extrusion width = 0.64mm
; solid infill extrusion width = 0.56mm
; top infill extrusion width = 0.40mm
; support material extrusion width = 0.46mm
; first layer extrusion width = 0.50mm

; external perimeters extrusion width = 0.40mm
; perimeters extrusion width = 0.46mm
; infill extrusion width = 0.64mm
; solid infill extrusion width = 0.56mm
; top infill extrusion width = 0.40mm
; support material extrusion width = 0.46mm
; first layer extrusion width = 0.50mm

; external perimeters extrusion width = 0.40mm
; perimeters extrusion width = 0.46mm
; infill extrusion width = 0.64mm
; solid infill extrusion width = 0.56mm
; top infill extrusion width = 0.40mm
; support material extrusion width = 0.46mm
; first layer extrusion width = 0.50mm

; external perimeters extrusion width = 0.40mm
; perimeters extrusion width = 0.46mm
; infill extrusion width = 0.64mm
; solid infill extrusion width = 0.56mm
; top infill extrusion width = 0.40mm
; support material extrusion width = 0.46mm
; first layer extrusion width = 0.50mm

; EXECUTABLE_BLOCK_START
EXCLUDE_OBJECT_DEFINE NAME=clip1.3.stl_id_0_copy_0 CENTER=87.8832,88.6 POLYGON=[[75.1332,78.6],[100.633,78.6],[100.633,97.1],[100.625,97.2568],[100.6,97.4119],[100.56,97.5635],[100.504,97.7101],[100.432,97.85],[100.347,97.9817],[100.248,98.1037],[100.137,98.2147],[100.015,98.3135],[99.8832,98.399],[99.7433,98.4703],[99.5967,98.5266],[99.4451,98.5672],[99.29,98.5918],[99.1332,98.6],[76.6332,98.6],[76.4764,98.5918],[76.3213,98.5672],[76.1697,98.5266],[76.0231,98.4703],[75.8832,98.399],[75.7515,98.3135],[75.6295,98.2147],[75.5185,98.1037],[75.4197,97.9817],[75.3342,97.85],[75.2629,97.7101],[75.2066,97.5635],[75.166,97.4119],[75.1414,97.2568],[75.1332,97.1],[75.1332,78.6]]
EXCLUDE_OBJECT_DEFINE NAME=clip1.3.stl_id_1_copy_0 CENTER=87.8832,58.6 POLYGON=[[75.1332,48.6],[100.633,48.6],[100.633,67.1],[100.625,67.2568],[100.6,67.4119],[100.56,67.5635],[100.504,67.7101],[100.432,67.85],[100.347,67.9817],[100.248,68.1037],[100.137,68.2147],[100.015,68.3135],[99.8832,68.399],[99.7433,68.4703],[99.5967,68.5266],[99.4451,68.5672],[99.29,68.5918],[99.1332,68.6],[76.6332,68.6],[76.4764,68.5918],[76.3213,68.5672],[76.1697,68.5266],[76.0231,68.4703],[75.8832,68.399],[75.7515,68.3135],[75.6295,68.2147],[75.5185,68.1037],[75.4197,67.9817],[75.3342,67.85],[75.2629,67.7101],[75.2066,67.5635],[75.166,67.4119],[75.1414,67.2568],[75.1332,67.1],[75.1332,48.6]]
EXCLUDE_OBJECT_DEFINE NAME=clip1.3.stl_id_2_copy_0 CENTER=52.3832,58.6 POLYGON=[[39.6332,48.6],[65.1332,48.6],[65.1332,67.1],[65.125,67.2568],[65.1004,67.4119],[65.0598,67.5635],[65.0035,67.7101],[64.9323,67.85],[64.8467,67.9817],[64.7479,68.1037],[64.6369,68.2147],[64.5149,68.3135],[64.3832,68.399],[64.2433,68.4703],[64.0967,68.5266],[63.9451,68.5672],[63.79,68.5918],[63.6332,68.6],[41.1332,68.6],[40.9764,68.5918],[40.8213,68.5672],[40.6697,68.5266],[40.5231,68.4703],[40.3832,68.399],[40.2515,68.3135],[40.1295,68.2147],[40.0185,68.1037],[39.9197,67.9817],[39.8342,67.85],[39.7629,67.7101],[39.7066,67.5635],[39.666,67.4119],[39.6414,67.2568],[39.6332,67.1],[39.6332,48.6]]
EXCLUDE_OBJECT_DEFINE NAME=Anycubic_3D_Printer_Cable_Clip.stl_id_3_copy_0 CENTER=53.1332,90 POLYGON=[[41.1332,81.4],[65.1332,81.4],[65.1332,92.6],[65.1313,92.6872],[65.1256,92.7743],[65.1161,92.8611],[65.1028,92.9473],[65.0858,93.0329],[65.0651,93.1176],[65.0406,93.2014],[65.0126,93.284],[64.981,93.3654],[64.9458,93.4452],[64.9072,93.5235],[64.8653,93.6],[64.82,93.6746],[64.7715,93.7472],[64.7199,93.8175],[64.6653,93.8856],[64.6078,93.9512],[64.5474,94.0142],[64.4844,94.0746],[64.4188,94.1321],[64.3507,94.1867],[64.2804,94.2383],[64.2078,94.2868],[64.1332,94.3321],[64.0567,94.374],[57.084,98.0921],[56.934,98.1717],[56.7808,98.2449],[56.6246,98.3116],[56.4658,98.3715],[56.3045,98.4247],[56.1411,98.4709],[55.9759,98.5102],[55.8092,98.5425],[55.6413,98.5676],[55.4724,98.5856],[55.303,98.5964],[55.1332,98.6],[51.1332,98.6],[50.9587,98.5962],[50.7846,98.5848],[50.6111,98.5658],[50.4386,98.5392],[50.2675,98.5052],[50.0979,98.4637],[49.9304,98.4149],[49.7651,98.3588],[49.6025,98.2955],[49.4427,98.2252],[49.2862,98.148],[42.2097,94.374],[42.1332,94.3321],[42.0586,94.2868],[41.9861,94.2383],[41.9157,94.1867],[41.8476,94.1321],[41.782,94.0746],[41.719,94.0142],[41.6587,93.9512],[41.6011,93.8856],[41.5465,93.8175],[41.4949,93.7472],[41.4464,93.6746],[41.4012,93.6],[41.3592,93.5235],[41.3206,93.4452],[41.2855,93.3654],[41.2538,93.284],[41.2258,93.2014],[41.2014,93.1176],[41.1806,93.0329],[41.1636,92.9473],[41.1503,92.8611],[41.1408,92.7743],[41.1351,92.6872],[41.1332,92.6],[41.1332,81.4]]
EXCLUDE_OBJECT_DEFINE NAME=Anycubic_3D_Printer_Cable_Clip.stl_id_4_copy_0 CENTER=65.3668,30 POLYGON=[[53.3668,21.4],[77.3668,21.4],[77.3668,32.6],[77.3649,32.6872],[77.3592,32.7743],[77.3497,32.861],[77.3364,32.9473],[77.3194,33.0329],[77.2986,33.1176],[77.2742,33.2014],[77.2462,33.284],[77.2145,33.3654],[77.1794,33.4452],[77.1408,33.5235],[77.0988,33.6],[77.0536,33.6746],[77.0051,33.7471],[76.9535,33.8175],[76.8989,33.8856],[76.8413,33.9512],[76.781,34.0142],[76.718,34.0745],[76.6524,34.1321],[76.5843,34.1867],[76.5139,34.2383],[76.4414,34.2868],[76.3668,34.332],[76.2903,34.374],[69.3176,38.0921],[69.1676,38.1717],[69.0144,38.2449],[68.8582,38.3116],[68.6993,38.3715],[68.5381,38.4247],[68.3747,38.4709],[68.2095,38.5102],[68.0428,38.5425],[67.8749,38.5676],[67.706,38.5856],[67.5365,38.5964],[67.3668,38.6],[63.3668,38.6],[63.1923,38.5962],[63.0182,38.5848],[62.8447,38.5658],[62.6722,38.5392],[62.501,38.5052],[62.3315,38.4637],[62.164,38.4149],[61.9987,38.3588],[61.8361,38.2955],[61.6763,38.2252],[61.5198,38.148],[54.4433,34.374],[54.3668,34.332],[54.2922,34.2868],[54.2196,34.2383],[54.1493,34.1867],[54.0812,34.1321],[54.0156,34.0745],[53.9526,34.0142],[53.8922,33.9512],[53.8347,33.8856],[53.7801,33.8175],[53.7285,33.7471],[53.68,33.6746],[53.6347,33.6],[53.5928,33.5235],[53.5542,33.4452],[53.519,33.3654],[53.4874,33.284],[53.4594,33.2014],[53.4349,33.1176],[53.4142,33.0329],[53.3972,32.9473],[53.3839,32.861],[53.3744,32.7743],[53.3687,32.6872],[53.3668,32.6],[53.3668,21.4]]
EXCLUDE_OBJECT_DEFINE NAME=Anycubic_3D_Printer_Cable_Clip.stl_id_5_copy_0 CENTER=31.3668,31.0386 POLYGON=[[19.3668,22.4386],[43.3668,22.4386],[43.3668,33.6386],[43.3649,33.7259],[43.3592,33.8129],[43.3497,33.8997],[43.3364,33.9859],[43.3194,34.0715],[43.2986,34.1563],[43.2742,34.24],[43.2462,34.3227],[43.2145,34.404],[43.1794,34.4839],[43.1408,34.5621],[43.0988,34.6386],[43.0536,34.7132],[43.0051,34.7858],[42.9535,34.8561],[42.8989,34.9242],[42.8413,34.9898],[42.781,35.0528],[42.718,35.1132],[42.6524,35.1707],[42.5843,35.2253],[42.5139,35.2769],[42.4414,35.3254],[42.3668,35.3707],[42.2903,35.4126],[35.3176,39.1307],[35.1676,39.2103],[35.0144,39.2835],[34.8582,39.3502],[34.6993,39.4101],[34.5381,39.4633],[34.3747,39.5095],[34.2095,39.5488],[34.0428,39.5811],[33.8749,39.6062],[33.706,39.6242],[33.5366,39.635],[33.3668,39.6386],[29.3668,39.6386],[29.1923,39.6348],[29.0182,39.6234],[28.8447,39.6044],[28.6722,39.5778],[28.501,39.5438],[28.3315,39.5023],[28.164,39.4535],[27.9987,39.3974],[27.8361,39.3341],[27.6763,39.2638],[27.5198,39.1867],[20.4433,35.4126],[20.3668,35.3707],[20.2922,35.3254],[20.2196,35.2769],[20.1493,35.2253],[20.0812,35.1707],[20.0156,35.1132],[19.9526,35.0528],[19.8922,34.9898],[19.8347,34.9242],[19.7801,34.8561],[19.7285,34.7858],[19.68,34.7132],[19.6347,34.6386],[19.5928,34.5621],[19.5542,34.4839],[19.519,34.404],[19.4874,34.3227],[19.4594,34.24],[19.4349,34.1563],[19.4142,34.0715],[19.3972,33.9859],[19.3839,33.8997],[19.3744,33.8129],[19.3687,33.7259],[19.3668,33.6386],[19.3668,22.4386]]
M73 P0 R40
;TYPE:Custom
START_PRINT T_BED=110 T_EXTRUDER=260
G90
G21
M83 ; use relative distances for extrusion
; Filament gcode

    PRESSURE_ADVANCE_SELECT FILAMENT=ABS
M106 S0
;LAYER_CHANGE
;Z:0.1
;HEIGHT:0.1
;BEFORE_LAYER_CHANGE
;0.1
G92 E0

;AFTER_LAYER_CHANGE
;0.1
;_SET_FAN_SPEED_CHANGING_LAYER
SET_VELOCITY_LIMIT ACCEL=500 ACCEL_TO_DECEL=250
G1 E-.5 F3000
G1 Z.2 F21000
G1 X32.752 Y78.78
G1 Z.2
G1 Z.1
G1 E.5 F1800
;TYPE:Skirt
;WIDTH:0.5
G1 F3000
G1 X16.615 Y35.046 E.85882
G1 X16.465 Y34.372 E.01271
G1 X16.41 Y33.639 E.01355
G1 X16.41 Y22.439 E.20634
G1 X16.803 Y20.965 E.0281
G1 X17.878 Y19.884 E.0281
G1 X19.276 Y19.483 E.0268
G1 X53.367 Y18.443 E.62834
G1 X77.367 Y18.443 E.44215
G1 X78.84 Y18.836 E.0281
G1 X79.614 Y19.478 E.01852
G1 X102.88 Y46.678 E.65943
G1 X103.59 Y48.6 E.03775
G1 X103.59 Y97.1 E.89352
G1 X103.521 Y97.874 E.01432
G1 X103.32 Y98.623 E.01428
G1 X102.827 Y99.592 E.02003
G1 X102.339 Y100.195 E.01428
G1 X101.876 Y100.612 E.01148
G1 X101.226 Y101.034 E.01428
G1 X100.656 Y101.287 E.01148
G1 X99.908 Y101.488 E.01428
G1 X99.291 Y101.553 E.01142
G1 X51.133 Y101.557 E.88722
G1 X49.862 Y101.439 E.02352
G1 X48.693 Y101.115 E.02234
G1 X47.894 Y100.757 E.01613
G1 X40.362 Y96.709 E.15753
G1 X39.737 Y96.211 E.01473
G1 X39.24 Y95.668 E.01355
G1 X38.873 Y95.134 E.01194
G1 X38.522 Y94.416 E.01473
G1 X32.766 Y78.817 E.30631
G1 X33.215 Y78.652 F21000
G1 F3000
G1 X17.071 Y34.902 E.85914
G1 X16.888 Y33.639 E.02351
G1 X16.888 Y22.439 E.20634
G1 X17.28 Y21.101 E.02568
G1 X18.332 Y20.186 E.02568
G1 X19.291 Y19.961 E.01815
G1 X53.291 Y18.923 E.62668
G1 X77.367 Y18.921 E.44355
G1 X78.704 Y19.313 E.02568
G1 X79.25 Y19.789 E.01334
G1 X102.517 Y46.989 E.65943
G1 X103.112 Y48.6 E.03164
G1 X103.112 Y97.1 E.89352
G1 X103.048 Y97.8 E.01294
G1 X102.874 Y98.452 E.01244
G1 X102.273 Y99.541 E.02292
G1 X101.575 Y100.24 E.01819
G1 X100.485 Y100.84 E.02293
G1 X99.266 Y101.075 E.02287
G1 X51.133 Y101.079 E.88675
G1 X49.955 Y100.97 E.0218
G1 X48.867 Y100.669 E.0208
G1 X48.12 Y100.335 E.01508
G1 X40.773 Y96.406 E.15349
G1 X40.189 Y95.973 E.01339
G1 X39.668 Y95.437 E.01377
G1 X39.282 Y94.886 E.0124
G1 X38.964 Y94.233 E.01339
G1 X33.229 Y78.689 E.30523
; printing object clip1.3.stl id:1 copy 0
G1 E-.5
EXCLUDE_OBJECT_START NAME=clip1.3.stl_id_1_copy_0
G1 Z.3 F21000
G1 X77.383 Y57.45 Z.3
G1 Z.1
G1 E.5 F1800
;TYPE:Outer wall
G1 F3000
G1 X77.383 Y64.107 E.12263
G2 X79.127 Y65.85 I1.755 J-.012 E.05036
G1 X96.64 Y65.85 E.32265
G2 X98.383 Y64.107 I-.012 J-1.755 E.05036
G1 X98.383 Y57.45 E.12263
G1 X96.317 Y57.45 E.03806
G1 X96.836 Y55.016 E.04585
G1 X98.336 Y55.016 E.02764
G1 X99.634 Y48.85 E.11608
G1 X100.383 Y48.85 E.01381
G1 X100.383 Y67.093 E.3361
G3 X99.127 Y68.35 I-1.255 J.002 E.03638
G1 X76.64 Y68.35 E.41428
G3 X75.383 Y67.093 I-.002 J-1.255 E.03638
G1 X75.383 Y48.85 E.3361
G1 X76.133 Y48.85 E.01381
G1 X77.374 Y54.749 E.11106
G1 X77.43 Y55.016 E.00503
G1 X78.931 Y55.016 E.02764
G1 X79.449 Y57.45 E.04585
G1 X77.423 Y57.45 E.03733
G1 X76.905 Y56.971 F21000
;TYPE:Inner wall
G1 F3000
G1 X76.905 Y64.119 E.13168
G2 X79.114 Y66.329 I2.234 J-.024 E.06375
G1 X96.652 Y66.329 E.32311
G2 X98.862 Y64.119 I-.024 J-2.234 E.06375
G1 X98.862 Y56.971 E.13168
G1 X96.908 Y56.971 E.03599
G1 X97.223 Y55.494 E.02782
G1 X98.724 Y55.494 E.02766
G1 X99.647 Y51.109 E.08255
G1 X99.905 Y51.136 E.00477
G1 X99.905 Y67.081 E.29375
G3 X99.114 Y67.871 I-.777 J.014 E.023
G1 X76.652 Y67.871 E.41381
G3 X75.862 Y67.08 I-.014 J-.777 E.023
G1 X75.862 Y51.136 E.29374
G1 X76.119 Y51.11 E.00477
G1 X77.042 Y55.494 E.08255
G1 X78.544 Y55.494 E.02766
G1 X78.858 Y56.971 E.02782
G1 X76.945 Y56.971 E.03525
G1 E-.5
G1 Z.3 F21000
G1 X77.101 Y64.114 Z.3
G1 X77.107 Y64.313
G1 X77.129 Y64.526
G1 X77.165 Y64.74
G1 X77.217 Y64.953
G1 X77.285 Y65.167
G1 X77.372 Y65.379
G1 X77.484 Y65.585
G1 X77.648 Y65.749
G1 X77.829 Y65.895
G1 X78.024 Y66.022
G1 X78.231 Y66.127
G1 X78.448 Y66.21
G1 X78.672 Y66.27
G1 X78.901 Y66.307
G1 X79.114 Y66.318
G1 X96.652 Y66.318
G1 X96.865 Y66.307
G1 X97.095 Y66.27
G1 X97.319 Y66.21
G1 X97.536 Y66.127
G1 X97.743 Y66.022
G1 X97.937 Y65.895
G1 X98.118 Y65.749
G1 X98.282 Y65.585
G1 X98.394 Y65.379
G1 X98.481 Y65.167
G1 X98.55 Y64.953
G1 X98.602 Y64.74
G1 X98.638 Y64.526
G1 X98.659 Y64.313
G1 X98.665 Y64.114
G1 X98.665 Y57.168
G1 X97.61 Y55.973
G1 Z.1
G1 E.5 F1800
G1 F3000
G1 X99.113 Y55.973 E.02768
G1 X99.169 Y55.707 E.00502
G1 X99.426 Y55.733 E.00477
G1 X99.426 Y56.493 E.01399
G1 X97.499 Y56.493 E.03549
G1 X97.602 Y56.012 E.00906
G1 E-.5
G1 Z.3 F21000
G1 X100.101 Y57.85 Z.3
G1 X99.114 Y67.882
G1 X75.851 Y66.247
G1 X76.34 Y65.028
G1 Z.1
G1 E.5 F1800
G1 F3000
G1 X76.575 Y64.984 E.0044
G1 X76.659 Y65.202 E.0043
G2 X79.102 Y66.807 I2.484 J-1.118 E.05685
G1 X96.665 Y66.807 E.32357
G2 X99.191 Y64.984 I-.026 J-2.699 E.06119
G1 X99.426 Y65.028 E.0044
G1 X99.426 Y67.068 E.0376
G3 X99.101 Y67.393 I-.3 J.024 E.00963
G1 X76.665 Y67.393 E.41334
G3 X76.34 Y67.068 I-.024 J-.3 E.00963
G1 X76.34 Y65.068 E.03685
G1 E-.5
G1 Z.3 F21000
G1 X76.426 Y56.493 Z.3
M73 P1 R40
G1 Z.1
G1 E.5 F1800
G1 F3000
G1 X76.34 Y56.493 E.00158
G1 X76.34 Y55.733 E.014
G1 X76.598 Y55.706 E.00477
G1 X76.654 Y55.973 E.00502
G1 X78.156 Y55.973 E.02768
G1 X78.267 Y56.493 E.0098
G1 X76.466 Y56.493 E.03318
G1 X76.383 Y56.732 F21000
;TYPE:Gap infill
;WIDTH:0.587491
G1 F3000
G1 X76.383 Y64.125 E.16111
G2 X76.42 Y64.769 I8.505 J-.161 E.01406
G1 X76.58 Y65.719 F21000
;WIDTH:0.120287
G1 F3000
G1 X76.707 Y65.86 E.00072
;WIDTH:0.0823654
G1 X76.858 Y66.012 E.0005
G1 X76.916 Y66.156 F21000
;TYPE:Bottom surface
;WIDTH:0.595707
G1 F6300
G1 X77.377 Y66.617 E.01441
G1 X77.207 Y66.879 E.00689
G1 X77.405 Y67.007 E.00521
G1 X77.391 Y67.031 E.00061
G1 X76.979 Y67.031 E.00912
G1 X76.486 Y66.538 E.0154
G1 E-.5 F3000
G1 Z.3 F21000
G1 X77.736 Y66.723 Z.3
G1 Z.1
G1 E.5 F1800
;TYPE:Gap infill
;WIDTH:0.118968
G1 F3000
G1 X77.916 Y66.84 E.0008
;WIDTH:0.169166
G1 X78.052 Y66.918 E.00089
;WIDTH:0.218043
G1 X78.187 Y66.996 E.00118
;WIDTH:0.221896
G1 X78.478 Y67.154 E.00255
G1 X78.498 Y67.067 F21000
;WIDTH:0.194156
G1 F3000
G1 X78.272 Y67.038 E.00152
;WIDTH:0.224551
G1 X78.045 Y67.008 E.00178
G1 X78.498 Y67.067 F21000
;WIDTH:0.192266
G1 F3000
G1 X78.507 Y67.068 E.00006
;WIDTH:0.14369
G1 X78.815 Y67.093 E.00146
;WIDTH:0.128983
G1 X96.945 Y67.093 E.07505
;WIDTH:0.191278
G1 X97.26 Y67.068 E.00207
;WIDTH:0.223393
G1 X97.495 Y67.038 E.00184
;WIDTH:0.254952
G1 X97.721 Y67.008 E.00205
G1 X97.715 Y66.918 F21000
;WIDTH:0.169186
G1 F3000
G1 X97.58 Y66.996 E.00089
;WIDTH:0.218062
G1 X97.289 Y67.154 E.0025
G1 X97.715 Y66.918 F21000
;WIDTH:0.12031
G1 F3000
G1 X97.85 Y66.84 E.00059
;WIDTH:0.0823667
G1 X98.03 Y66.723 E.0005
G1 X98.576 Y66.186 F21000
;TYPE:Bottom surface
;WIDTH:0.510719
G1 F6300
G1 X99.065 Y66.675 E.01302
G1 X99.064 Y67.034 E.00676
G1 X98.732 Y67.034 E.00626
G1 X98.186 Y66.488 E.01454
G1 X98.908 Y66.012 F21000
;TYPE:Gap infill
;WIDTH:0.118925
G1 F3000
G1 X99.056 Y65.864 E.00079
;WIDTH:0.148889
G1 X99.187 Y65.719 E.00096
G1 X99.347 Y64.769 F21000
;WIDTH:0.587489
G1 F3000
G2 X99.383 Y64.125 I-8.467 J-.805 E.01406
G1 X99.383 Y56.732 E.16111
G1 E-.5
G1 Z.3 F21000
G1 X99.322 Y55.482 Z.3
G1 Z.1
G1 E.5 F1800
;WIDTH:0.643444
G1 F3000
G1 X99.349 Y55.229 E.0061
;WIDTH:0.596612
G1 X99.375 Y54.976 E.00564
;WIDTH:0.54978
G1 X99.401 Y54.722 E.00518
;WIDTH:0.502948
G1 X99.428 Y54.469 E.00472
;WIDTH:0.456116
G1 X99.454 Y54.216 E.00426
;WIDTH:0.409284
G1 X99.48 Y53.963 E.0038
;WIDTH:0.362452
G1 X99.507 Y53.709 E.00334
;WIDTH:0.31562
G1 X99.533 Y53.456 E.00288
;WIDTH:0.268788
G1 X99.559 Y53.203 E.00242
;WIDTH:0.221956
G1 X99.586 Y52.95 E.00197
