; generated by SuperSlicer 2.5.59 on 2023-03-18 at 16:07:15 UTC


;
;

;
;
; 

; external perimeters extrusion width = 0.40mm
; perimeters extrusion width = 0.46mm
; infill extrusion width = 0.64mm
; solid infill extrusion width = 0.56mm
; top infill extrusion width = 0.40mm
; first layer extrusion width = 0.50mm

; object:{"name":"combined-1679155369468","id":"combined-1679155369468.stl id:0 copy 0","object_center":[60.000000,60.000000,0.000000],"boundingbox_center":[60.000000,60.000000,2.000000],"boundingbox_size":[99.998001,99.998001,3.998000]}
EXCLUDE_OBJECT_DEFINE NAME=combined_1679155369468_stl_id_0_copy_0 CENTER=60.000000,60.000000 POLYGON=[[10.000999,14.999001],[10.035000,14.201000],[10.139000,13.471001],[10.313000,12.813000],[10.556999,12.223000],[10.869000,11.701000],[11.250999,11.250999],[11.701000,10.869000],[12.223000,10.556999],[12.813000,10.313000],[13.095001,10.237000],[13.471001,10.139000],[13.660999,10.111000],[14.201000,10.035000],[14.314999,10.028999],[14.999001,10.000999],[104.999000,10.000999],[105.799000,10.035000],[106.527000,10.139000],[107.187000,10.313000],[107.779000,10.556999],[108.299000,10.869000],[108.751000,11.250999],[109.132992,11.701000],[109.445000,12.223000],[109.688992,12.813000],[109.861000,13.471001],[109.965000,14.201000],[109.999000,14.999001],[109.999000,104.999000],[109.965000,105.799000],[109.861000,106.527000],[109.688992,107.187000],[109.445000,107.779000],[109.132992,108.299000],[108.751000,108.751000],[108.299000,109.132992],[107.779000,109.445000],[107.391000,109.605000],[107.187000,109.688992],[106.527000,109.861000],[105.799000,109.965000],[104.999000,109.999000],[14.999001,109.999000],[14.201000,109.965000],[13.471001,109.861000],[12.813000,109.688992],[12.223000,109.445000],[11.701000,109.132992],[11.250999,108.751000],[10.869000,108.299000],[10.688999,108.001000],[10.577000,107.815000],[10.556999,107.779000],[10.396999,107.391000],[10.313000,107.187000],[10.237000,106.905000],[10.139000,106.527000],[10.111000,106.341000],[10.035000,105.799000],[10.028999,105.685000],[10.000999,104.999000],[10.000999,14.999001]]
; plater:{"center":[60.000000,60.000000,0.000000],"boundingbox_center":[60.000000,60.000000,2.000000],"boundingbox_size":[99.998001,99.998001,3.998000]}

M73 P0 R63
M73 P0 R63
;TYPE:Custom
; custom gcode: start_gcode
START_PRINT T_BED=60 T_EXTRUDER=200
; custom gcode end: start_gcode
M107
G21 ; set units to millimeters
G90 ; use absolute coordinates
M82 ; use absolute distances for extrusion
G92 E0
; custom gcode: start_filament_gcode
; Filament gcode

    PRESSURE_ADVANCE_SELECT FILAMENT=PLA
; custom gcode end: start_filament_gcode
;_TOOLCHANGE 0
M109 S200 ; set temperature and wait for it to be reached
M190 S60 ; set bed temperature and wait for it to be reached
;LAYER_CHANGE
;Z:0.2
;HEIGHT:0.2
G1 Z0.2 F12000
M73 P0 R63
G1 E-0.8 F3000
M204 S2000
G1 X8.489 Y8.917 F12000
G1 E0 F1800
;TYPE:Skirt
;WIDTH:0.52
G1 X7.761 Y9.853 E0.04703
G1 X6.974 Y11.425 E0.11677
G1 X6.559 Y12.967 E0.18011
G1 X6.389 Y14.843 E0.25484
G1 X6.385 Y104.997 E3.83119
G1 X6.559 Y107.033 E3.91224
G1 X6.973 Y108.571 E3.97543
G1 X7.764 Y110.152 E4.04558
G1 X8.917 Y111.513 E4.11633
G1 X9.853 Y112.241 E4.16336
G1 X11.425 Y113.028 E4.23308
G1 X12.967 Y113.441 E4.29641
G1 X14.843 Y113.611 E4.37115
G1 X104.997 Y113.615 E7.94749
M73 P0 R63
G1 X107.033 Y113.441 E8.02854
G1 X108.571 Y113.029 E8.09172
G1 X110.152 Y112.238 E8.16187
G1 X111.518 Y111.078 E8.23292
G1 X112.238 Y110.152 E8.27945
G1 X113.029 Y108.571 E8.3496
G1 X113.441 Y107.033 E8.41277
G1 X113.615 Y104.997 E8.49383
G1 X113.578 Y14.052 E12.10155
G1 X113.358 Y12.551 E12.16173
G1 X112.789 Y10.848 E12.23295
G1 X111.884 Y9.355 E12.30221
G1 X111.079 Y8.484 E12.34927
G1 X110.152 Y7.764 E12.3958
G1 X108.571 Y6.973 E12.46595
G1 X107.033 Y6.559 E12.52915
G1 X105.155 Y6.389 E12.60395
G1 X14.843 Y6.389 E16.18655
G1 X12.967 Y6.559 E16.26128
G1 X11.425 Y6.974 E16.32463
G1 X9.853 Y7.761 E16.39436
G1 X8.489 Y8.917 E16.46529
G1 X8.853 Y9.226 F12000
G1 F1800
G1 X8.171 Y10.098 E16.5092
G1 X7.415 Y11.607 E16.57616
G1 X7.031 Y13.034 E16.63478
G1 X6.862 Y15.001 E16.71309
G1 X6.862 Y104.997 E20.28317
M73 P0 R63
G1 X7.031 Y106.965 E20.36153
G1 X7.414 Y108.389 E20.42002
G1 X8.174 Y109.907 E20.48735
G1 X9.226 Y111.149 E20.55194
G1 X10.098 Y111.831 E20.59585
G1 X11.607 Y112.587 E20.66281
G1 X13.034 Y112.969 E20.7214
G1 X15.001 Y113.138 E20.79973
G1 X104.997 Y113.138 E24.3698
G1 X106.965 Y112.969 E24.44817
G1 X108.389 Y112.588 E24.50664
G1 X109.907 Y111.828 E24.57396
G1 X111.154 Y110.77 E24.63883
G1 X111.828 Y109.907 E24.68231
G1 X112.588 Y108.389 E24.74963
G1 X112.969 Y106.965 E24.8081
G1 X113.138 Y104.997 E24.88647
G1 X113.101 Y14.072 E28.49339
G1 X112.896 Y12.672 E28.54954
G1 X112.348 Y11.03 E28.61819
G1 X111.52 Y9.664 E28.68157
G1 X110.771 Y8.849 E28.72551
G1 X109.907 Y8.174 E28.76899
G1 X108.389 Y7.414 E28.83632
G1 X106.965 Y7.031 E28.89481
G1 X105.134 Y6.865 E28.96773
G1 X14.863 Y6.865 E32.54873
G1 X13.034 Y7.031 E32.62159
G1 X11.607 Y7.415 E32.6802
G1 X10.098 Y8.171 E32.74716
G1 X8.853 Y9.226 E32.8119
G92 E0
G1 E-0.8 F3000
; printing object combined-1679155369468.stl id:0 copy 0
EXCLUDE_OBJECT_START NAME=combined_1679155369468_stl_id_0_copy_0
; acceleration to travel
M204 S4000
G1 X74.937 Y11.272 F12000
; decel to extrusion
M204 S2000
G1 X107.978 Y12.294
; end travel
G1 E0 F1800
;TYPE:Internal perimeter
;WIDTH:0.499999
G1 X108.312 Y12.792 E0.02278
G1 X108.535 Y13.399 E0.04734
G1 X108.645 Y13.898 E0.06677
G1 X108.712 Y14.483 E0.08916
G1 X108.735 Y15.108 E0.11292
G1 X108.735 Y104.972 E3.52833
G1 X108.705 Y105.683 E3.55535
G1 X108.62 Y106.277 E3.57819
G1 X108.487 Y106.785 E3.59812
G1 X108.198 Y107.4 E3.62394
G1 X107.854 Y107.854 E3.64561
G1 X107.369 Y108.217 E3.66864
G1 X106.785 Y108.487 E3.69309
G1 X106.277 Y108.62 E3.71302
G1 X105.683 Y108.705 E3.73586
G1 X104.972 Y108.735 E3.76289
G1 X15.026 Y108.735 E7.18141
G1 X14.317 Y108.705 E7.20836
G1 X13.721 Y108.62 E7.23126
G1 X13.216 Y108.488 E7.25108
G1 X12.603 Y108.199 E7.27685
G1 X12.149 Y107.855 E7.2985
G1 X11.785 Y107.369 E7.32158
G1 X11.514 Y106.783 E7.34611
G1 X11.38 Y106.276 E7.36606
G1 X11.295 Y105.683 E7.38883
G1 X11.265 Y104.972 E7.41585
G1 X11.265 Y15.026 E10.83437
G1 X11.295 Y14.317 E10.86133
G1 X11.38 Y13.723 E10.88416
G1 X11.514 Y13.218 E10.904
G1 X11.802 Y12.604 E10.92976
G1 X12.148 Y12.148 E10.95153
G1 X12.636 Y11.783 E10.97471
G1 X13.218 Y11.514 E10.99907
G1 X13.723 Y11.38 E11.01891
G1 X14.317 Y11.295 E11.04174
G1 X15.026 Y11.265 E11.0687
G1 X105.055 Y11.269 E14.49038
G1 X105.848 Y11.319 E14.52056
G1 X106.452 Y11.426 E14.54386
G1 X107.038 Y11.619 E14.56734
G1 X107.561 Y11.9 E14.5899
G1 X107.978 Y12.294 E14.61171
G1 X108.327 Y11.998 F12000
G1 F1800
G1 X108.475 Y12.172 E14.62038
G1 X108.805 Y12.787 E14.64689
G1 X108.978 Y13.283 E14.66686
G1 X109.097 Y13.833 E14.68826
G1 X109.168 Y14.464 E14.71238
G1 X109.192 Y15.108 E14.73687
G1 X109.192 Y104.982 E18.15265
G1 X109.16 Y105.725 E18.18091
G1 X109.068 Y106.368 E18.20559
G1 X108.922 Y106.93 E18.22769
G1 X108.722 Y107.416 E18.24764
G1 X108.329 Y108 E18.27439
G1 X108 Y108.329 E18.2921
G1 X107.416 Y108.722 E18.31885
G1 X106.93 Y108.922 E18.3388
G1 X106.368 Y109.068 E18.3609
G1 X105.725 Y109.16 E18.38558
G1 X104.982 Y109.192 E18.41384
G1 X15.11 Y109.192 E21.82955
G1 X14.089 Y109.134 E21.86839
G1 X13.44 Y109.019 E21.89344
G1 X12.871 Y108.84 E21.91611
G1 X12.402 Y108.612 E21.93595
G1 X11.998 Y108.327 E21.95472
G1 X11.673 Y108 E21.97224
G1 X11.28 Y107.416 E21.99901
G1 X11.08 Y106.929 E22.019
G1 X10.931 Y106.367 E22.04112
G1 X10.84 Y105.725 E22.06576
G1 X10.808 Y104.982 E22.09402
G1 X10.808 Y15.108 E25.5098
G1 X10.866 Y14.089 E25.54857
G1 X10.983 Y13.436 E25.57378
G1 X11.16 Y12.876 E25.59613
G1 X11.39 Y12.402 E25.61616
G1 X11.676 Y11.997 E25.63499
G1 X12.172 Y11.528 E25.66094
G1 X12.586 Y11.28 E25.67927
G1 X13.072 Y11.079 E25.69923
G1 X13.632 Y10.931 E25.72125
G1 X14.275 Y10.84 E25.74595
G1 X15.016 Y10.808 E25.77414
G1 X105.075 Y10.812 E29.19694
M73 P1 R62
G1 X105.912 Y10.866 E29.22883
G1 X106.568 Y10.984 E29.25415
G1 X107.128 Y11.162 E29.27647
G1 X107.634 Y11.411 E29.29794
G1 X108.179 Y11.824 E29.32391
G1 X108.327 Y11.998 E29.33259
G1 X108.675 Y11.703 F12000
;TYPE:External perimeter
G1 F1800
G1 X108.987 Y12.139 E29.35296
G1 X109.227 Y12.612 E29.37314
G1 X109.42 Y13.167 E29.39547
G1 X109.55 Y13.769 E29.41886
G1 X109.625 Y14.444 E29.44469
G1 X109.649 Y15.108 E29.46993
G1 X109.649 Y104.992 E32.88607
G1 X109.616 Y105.767 E32.91556
G1 X109.517 Y106.458 E32.9421
G1 X109.356 Y107.076 E32.96636
G1 X109.131 Y107.621 E32.98879
G1 X108.847 Y108.095 E33.00977
G1 X108.503 Y108.503 E33.03007
G1 X108.095 Y108.847 E33.05037
G1 X107.621 Y109.131 E33.07135
G1 X107.076 Y109.356 E33.09378
G1 X106.458 Y109.517 E33.11805
G1 X105.767 Y109.616 E33.14458
G1 X104.992 Y109.649 E33.17407
G1 X15.006 Y109.649 E36.59407
G1 X14.233 Y109.616 E36.62348
G1 X13.54 Y109.517 E36.65009
G1 X12.925 Y109.356 E36.67427
G1 X12.381 Y109.131 E36.69665
G1 X11.905 Y108.847 E36.71768
G1 X11.5 Y108.503 E36.73792
G1 X11.155 Y108.095 E36.75823
G1 X10.871 Y107.621 E36.77921
G1 X10.645 Y107.075 E36.80166
G1 X10.483 Y106.457 E36.82594
G1 X10.384 Y105.767 E36.85246
G1 X10.351 Y104.992 E36.88195
G1 X10.351 Y15.006 E40.30195
G1 X10.384 Y14.233 E40.33136
G1 X10.483 Y13.541 E40.35795
G1 X10.645 Y12.925 E40.38215
G1 X10.871 Y12.381 E40.40455
G1 X11.155 Y11.905 E40.42558
G1 X11.499 Y11.499 E40.44583
G1 X11.905 Y11.155 E40.46607
G1 X12.381 Y10.871 E40.48711
G1 X12.925 Y10.645 E40.50951
G1 X13.541 Y10.483 E40.53371
G1 X14.233 Y10.384 E40.56029
G1 X15.006 Y10.351 E40.58971
G1 X104.992 Y10.351 E44.00971
M73 P2 R62
G1 X105.555 Y10.375 E44.03115
G1 X106.233 Y10.451 E44.05707
G1 X106.842 Y10.584 E44.08076
G1 X107.387 Y10.774 E44.10269
G1 X107.87 Y11.02 E44.12328
G1 X108.3 Y11.328 E44.14338
G1 X108.675 Y11.703 E44.16356
;WIPE_START
M204 S4000
G1 X108.53 Y12.075 F12000
;WIPE_END
; acceleration to travel
G1 X108.359 Y12.723
; decel to extrusion
M204 S2000
G1 X108.272 Y13.053
; end travel
;TYPE:Solid infill
;WIDTH:0.500329
G1 F2400
G1 X106.95 Y11.731 E44.23466
G1 X106.088 Y11.516 F12000
G1 F2400
G1 X108.485 Y13.913 E44.36358
G1 X108.582 Y14.656 F12000
G1 F2400
G1 X105.344 Y11.418 E44.53771
G1 X104.685 Y11.406 F12000
G1 F2400
G1 X108.598 Y15.318 E44.74813
G1 X108.598 Y15.964 F12000
G1 F2400
G1 X104.039 Y11.406 E44.99332
G1 X103.393 Y11.406 F12000
G1 F2400
G1 X108.598 Y16.611 E45.27327
G1 X108.598 Y17.257 F12000
G1 F2400
G1 X102.746 Y11.406 E45.588
G1 X102.1 Y11.406 F12000
G1 F2400
G1 X108.598 Y17.904 E45.93749
G1 X108.598 Y18.55 F12000
G1 F2400
G1 X101.453 Y11.406 E46.32175
G1 X100.807 Y11.406 F12000
G1 F2400
G1 X108.598 Y19.196 E46.74078
G1 X108.598 Y19.843 F12000
G1 F2400
G1 X100.16 Y11.406 E47.19457
G1 X99.514 Y11.406 F12000
G1 F2400
G1 X108.598 Y20.489 E47.68314
G1 X108.598 Y21.136 F12000
G1 F2400
G1 X98.868 Y11.405 E48.20647
G1 X98.221 Y11.405 F12000
G1 F2400
G1 X108.598 Y21.782 E48.76457
G1 X108.598 Y22.428 F12000
G1 F2400
G1 X97.575 Y11.405 E49.35744
G1 X96.928 Y11.405 F12000
G1 F2400
G1 X108.598 Y23.075 E49.98507
G1 X108.598 Y23.721 F12000
G1 F2400
G1 X96.282 Y11.405 E50.64748
G1 X95.635 Y11.405 F12000
G1 F2400
G1 X108.598 Y24.368 E51.34465
G1 X108.598 Y25.014 F12000
G1 F2400
G1 X94.989 Y11.405 E52.07659
G1 X94.343 Y11.405 F12000
G1 F2400
G1 X108.598 Y25.661 E52.8433
G1 X108.598 Y26.307 F12000
G1 F2400
G1 X93.696 Y11.405 E53.64478
G1 X93.05 Y11.405 F12000
G1 F2400
G1 X108.598 Y26.953 E54.48102
G1 X108.598 Y27.6 F12000
G1 F2400
G1 X92.403 Y11.405 E55.35203
G1 X91.757 Y11.405 F12000
G1 F2400
G1 X108.598 Y28.246 E56.25781
G1 X108.598 Y28.893 F12000
G1 F2400
G1 X91.11 Y11.405 E57.19836
G1 X90.464 Y11.405 F12000
G1 F2400
G1 X108.598 Y29.539 E58.17368
G1 X108.598 Y30.185 F12000
G1 F2400
G1 X89.818 Y11.405 E59.18376
G1 X89.171 Y11.405 F12000
G1 F2400
G1 X108.598 Y30.832 E60.22862
G1 X108.598 Y31.478 F12000
G1 F2400
G1 X88.525 Y11.405 E61.30824
G1 X87.878 Y11.405 F12000
G1 F2400
G1 X108.598 Y32.125 E62.42262
G1 X108.598 Y32.771 F12000
G1 F2400
G1 X87.232 Y11.405 E63.57178
G1 X86.585 Y11.405 F12000
G1 F2400
G1 X108.598 Y33.417 E64.7557
G1 X108.598 Y34.064 F12000
G1 F2400
G1 X85.939 Y11.405 E65.9744
G1 X85.292 Y11.405 F12000
G1 F2400
G1 X108.598 Y34.71 E67.22786
G1 X108.598 Y35.357 F12000
G1 F2400
G1 X84.646 Y11.405 E68.51609
G1 X84 Y11.405 F12000
G1 F2400
G1 X108.598 Y36.003 E69.83908
G1 X108.598 Y36.649 F12000
G1 F2400
G1 X83.353 Y11.405 E71.19685
G1 X82.707 Y11.405 F12000
G1 F2400
G1 X108.598 Y37.296 E72.58938
G1 X108.598 Y37.942 F12000
G1 F2400
G1 X82.06 Y11.405 E74.01668
G1 X81.414 Y11.405 F12000
G1 F2400
G1 X108.598 Y38.589 E75.47875
G1 X108.598 Y39.235 F12000
G1 F2400
G1 X80.767 Y11.405 E76.97558
G1 X80.121 Y11.405 F12000
G1 F2400
G1 X108.598 Y39.881 E78.50719
M73 P2 R61
G1 X108.598 Y40.528 F12000
G1 F2400
G1 X79.475 Y11.405 E80.07356
G1 X78.828 Y11.405 F12000
G1 F2400
G1 X108.598 Y41.174 E81.6747
G1 X108.598 Y41.821 F12000
G1 F2400
G1 X78.182 Y11.405 E83.31061
G1 X77.535 Y11.405 F12000
G1 F2400
G1 X108.598 Y42.467 E84.98129
G1 X108.598 Y43.114 F12000
G1 F2400
G1 X76.889 Y11.405 E86.68673
G1 X76.242 Y11.405 F12000
G1 F2400
G1 X108.598 Y43.76 E88.42694
G1 X108.598 Y44.406 F12000
G1 F2400
G1 X75.596 Y11.405 E90.20192
G1 X74.95 Y11.405 F12000
G1 F2400
G1 X108.598 Y45.053 E92.01167
G1 X108.598 Y45.699 F12000
G1 F2400
G1 X74.303 Y11.405 E93.85619
G1 X73.657 Y11.405 F12000
G1 F2400
G1 X108.598 Y46.346 E95.73547
G1 X108.598 Y46.992 F12000
G1 F2400
G1 X73.01 Y11.404 E97.64953
G1 X72.364 Y11.404 F12000
G1 F2400
G1 X108.598 Y47.638 E99.59835
G1 X108.598 Y48.285 F12000
G1 F2400
G1 X71.717 Y11.404 E101.58194
G1 X71.071 Y11.404 F12000
G1 F2400
G1 X108.598 Y48.931 E103.60029
G1 X108.598 Y49.578 F12000
G1 F2400
G1 X70.425 Y11.404 E105.65342
G1 X69.778 Y11.404 F12000
G1 F2400
G1 X108.598 Y50.224 E107.74131
G1 X108.598 Y50.87 F12000
G1 F2400
G1 X69.132 Y11.404 E109.86397
G1 X68.485 Y11.404 F12000
G1 F2400
G1 X108.598 Y51.517 E112.0214
G1 X108.598 Y52.163 F12000
G1 F2400
G1 X67.839 Y11.404 E114.2136
G1 X67.192 Y11.404 F12000
G1 F2400
G1 X108.598 Y52.81 E116.44056
G1 X108.598 Y53.456 F12000
G1 F2400
G1 X66.546 Y11.404 E118.70229
G1 X65.9 Y11.404 F12000
G1 F2400
G1 X108.598 Y54.102 E120.99879
G1 X108.598 Y54.749 F12000
G1 F2400
G1 X65.253 Y11.404 E123.33006
G1 X64.607 Y11.404 F12000
G1 F2400
G1 X108.598 Y55.395 E125.6961
G1 X108.598 Y56.042 F12000
G1 F2400
G1 X63.96 Y11.404 E128.0969
G1 X63.314 Y11.404 F12000
G1 F2400
G1 X108.598 Y56.688 E130.53248
M73 P3 R61
G1 X108.598 Y57.334 F12000
G1 F2400
G1 X62.667 Y11.404 E133.00282
M73 P3 R61
G1 X62.021 Y11.404 F12000
G1 F2400
G1 X108.598 Y57.981 E135.50792
G1 X108.598 Y58.627 F12000
G1 F2400
G1 X61.374 Y11.404 E138.0478
G1 X60.728 Y11.404 F12000
G1 F2400
G1 X108.598 Y59.274 E140.62245
G1 X108.598 Y59.92 F12000
G1 F2400
G1 X60.082 Y11.404 E143.23186
G1 X59.435 Y11.404 F12000
G1 F2400
G1 X108.598 Y60.567 E145.87604
G1 X108.598 Y61.213 F12000
G1 F2400
G1 X58.789 Y11.404 E148.55499
G1 X58.142 Y11.404 F12000
G1 F2400
G1 X108.598 Y61.859 E151.2687
G1 X108.598 Y62.506 F12000
G1 F2400
G1 X57.496 Y11.404 E154.01719
G1 X56.849 Y11.404 F12000
G1 F2400
G1 X108.598 Y63.152 E156.80044
G1 X108.598 Y63.799 F12000
G1 F2400
G1 X56.203 Y11.404 E159.61846
G1 X55.557 Y11.404 F12000
G1 F2400
G1 X108.598 Y64.445 E162.47125
G1 X108.598 Y65.091 F12000
G1 F2400
G1 X54.91 Y11.404 E165.35881
G1 X54.264 Y11.404 F12000
G1 F2400
G1 X108.598 Y65.738 E168.28113
G1 X108.598 Y66.384 F12000
G1 F2400
G1 X53.617 Y11.404 E171.23823
G1 X52.971 Y11.404 F12000
G1 F2400
G1 X108.598 Y67.031 E174.23009
G1 X108.598 Y67.677 F12000
G1 F2400
G1 X52.324 Y11.404 E177.25672
G1 X51.678 Y11.404 F12000
G1 F2400
G1 X108.598 Y68.323 E180.31811
G1 X108.598 Y68.97 F12000
G1 F2400
G1 X51.032 Y11.404 E183.41428
G1 X50.385 Y11.404 F12000
G1 F2400
G1 X108.598 Y69.616 E186.54521
M73 P4 R60
G1 X108.598 Y70.263 F12000
G1 F2400
G1 X49.739 Y11.404 E189.71091
G1 X49.092 Y11.404 F12000
G1 F2400
G1 X108.598 Y70.909 E192.91138
G1 X108.598 Y71.555 F12000
G1 F2400
G1 X48.446 Y11.404 E196.14662
G1 X47.799 Y11.404 F12000
G1 F2400
