; generated by SuperSlicer 2.5.59 on 2023-03-18 at 16:13:27 UTC


;
;

;
;
; 

; external perimeters extrusion width = 0.40mm
; perimeters extrusion width = 0.46mm
; infill extrusion width = 0.64mm
; solid infill extrusion width = 0.56mm
; top infill extrusion width = 0.40mm
; first layer extrusion width = 0.50mm

; object:{"name":"combined-1679155369468","id":"combined-1679155369468.stl id:0 copy 0","object_center":[60.000000,60.000000,0.000000],"boundingbox_center":[60.000000,60.000000,2.000000],"boundingbox_size":[99.998001,99.998001,3.998000]}
EXCLUDE_OBJECT_DEFINE NAME=combined_1679155369468_stl_id_0_copy_0 CENTER=60.000000,60.000000 POLYGON=[[10.000999,14.999001],[10.035000,14.201000],[10.139000,13.471001],[10.313000,12.813000],[10.556999,12.223000],[10.869000,11.701000],[11.250999,11.250999],[11.701000,10.869000],[12.223000,10.556999],[12.813000,10.313000],[13.095001,10.237000],[13.471001,10.139000],[13.660999,10.111000],[14.201000,10.035000],[14.314999,10.028999],[14.999001,10.000999],[104.999000,10.000999],[105.799000,10.035000],[106.527000,10.139000],[107.187000,10.313000],[107.779000,10.556999],[108.299000,10.869000],[108.751000,11.250999],[109.132992,11.701000],[109.445000,12.223000],[109.688992,12.813000],[109.861000,13.471001],[109.965000,14.201000],[109.999000,14.999001],[109.999000,104.999000],[109.965000,105.799000],[109.861000,106.527000],[109.688992,107.187000],[109.445000,107.779000],[109.132992,108.299000],[108.751000,108.751000],[108.299000,109.132992],[107.779000,109.445000],[107.391000,109.605000],[107.187000,109.688992],[106.527000,109.861000],[105.799000,109.965000],[104.999000,109.999000],[14.999001,109.999000],[14.201000,109.965000],[13.471001,109.861000],[12.813000,109.688992],[12.223000,109.445000],[11.701000,109.132992],[11.250999,108.751000],[10.869000,108.299000],[10.688999,108.001000],[10.577000,107.815000],[10.556999,107.779000],[10.396999,107.391000],[10.313000,107.187000],[10.237000,106.905000],[10.139000,106.527000],[10.111000,106.341000],[10.035000,105.799000],[10.028999,105.685000],[10.000999,104.999000],[10.000999,14.999001]]
; plater:{"center":[60.000000,60.000000,0.000000],"boundingbox_center":[60.000000,60.000000,2.000000],"boundingbox_size":[99.998001,99.998001,3.998000]}

M73 P0 R63
M73 P0 R63
;TYPE:Custom
; custom gcode: start_gcode
START_PRINT T_BED=70 T_EXTRUDER=235
; custom gcode end: start_gcode
M107
G21 ; set units to millimeters
G90 ; use absolute coordinates
M82 ; use absolute distances for extrusion
G92 E0
; custom gcode: start_filament_gcode
; Filament gcode
PRESSURE_ADVANCE_SELECT FILAMENT=PETG
; custom gcode end: start_filament_gcode
;_TOOLCHANGE 0
M109 S235 ; set temperature and wait for it to be reached
M190 S70 ; set bed temperature and wait for it to be reached
;LAYER_CHANGE
;Z:0.2
;HEIGHT:0.2
G1 Z0.2 F12000
M73 P0 R63
G1 E-1 F3000
M204 S2000
G1 X8.489 Y8.917 F12000
G1 E0 F1800
;TYPE:Skirt
;WIDTH:0.52
G1 X7.761 Y9.853 E0.04562
G1 X6.974 Y11.425 E0.11326
G1 X6.559 Y12.967 E0.17471
G1 X6.389 Y14.843 E0.2472
G1 X6.385 Y104.997 E3.71625
G1 X6.559 Y107.033 E3.79487
G1 X6.973 Y108.571 E3.85617
G1 X7.764 Y110.152 E3.92422
G1 X8.917 Y111.513 E3.99284
G1 X9.853 Y112.241 E4.03846
G1 X11.425 Y113.028 E4.10609
G1 X12.967 Y113.441 E4.16752
G1 X14.843 Y113.611 E4.24001
G1 X104.997 Y113.615 E7.70907
G1 X107.033 Y113.441 E7.78769
G1 X108.571 Y113.029 E7.84897
G1 X110.152 Y112.238 E7.91701
G1 X111.518 Y111.078 E7.98594
G1 X112.238 Y110.152 E8.03107
G1 X113.029 Y108.571 E8.09911
G1 X113.441 Y107.033 E8.16039
G1 X113.615 Y104.997 E8.23901
G1 X113.578 Y14.052 E11.7385
G1 X113.358 Y12.551 E11.79687
G1 X112.789 Y10.848 E11.86596
G1 X111.884 Y9.355 E11.93315
G1 X111.079 Y8.484 E11.97879
G1 X110.152 Y7.764 E12.02393
G1 X108.571 Y6.973 E12.09197
G1 X107.033 Y6.559 E12.15327
G1 X105.155 Y6.389 E12.22583
G1 X14.843 Y6.389 E15.70096
G1 X12.967 Y6.559 E15.77344
G1 X11.425 Y6.974 E15.83489
G1 X9.853 Y7.761 E15.90253
G1 X8.489 Y8.917 E15.97133
G1 X8.853 Y9.226 F12000
G1 F1800
G1 X8.171 Y10.098 E16.01393
G1 X7.415 Y11.607 E16.07888
G1 X7.031 Y13.034 E16.13574
G1 X6.862 Y15.001 E16.2117
G1 X6.862 Y104.997 E19.67467
M73 P0 R63
G1 X7.031 Y106.965 E19.75068
G1 X7.414 Y108.389 E19.80742
G1 X8.174 Y109.907 E19.87273
G1 X9.226 Y111.149 E19.93538
G1 X10.098 Y111.831 E19.97798
G1 X11.607 Y112.587 E20.04293
G1 X13.034 Y112.969 E20.09976
G1 X15.001 Y113.138 E20.17573
G1 X104.997 Y113.138 E23.6387
M73 P1 R63
G1 X106.965 Y112.969 E23.71472
G1 X108.389 Y112.588 E23.77144
G1 X109.907 Y111.828 E23.83674
G1 X111.154 Y110.77 E23.89966
G1 X111.828 Y109.907 E23.94184
G1 X112.588 Y108.389 E24.00714
G1 X112.969 Y106.965 E24.06386
G1 X113.138 Y104.997 E24.13988
G1 X113.101 Y14.072 E27.63859
G1 X112.896 Y12.672 E27.69306
G1 X112.348 Y11.03 E27.75964
G1 X111.52 Y9.664 E27.82113
G1 X110.771 Y8.849 E27.86374
G1 X109.907 Y8.174 E27.90592
G1 X108.389 Y7.414 E27.97123
G1 X106.965 Y7.031 E28.02797
G1 X105.134 Y6.865 E28.0987
G1 X14.863 Y6.865 E31.57227
G1 X13.034 Y7.031 E31.64294
G1 X11.607 Y7.415 E31.6998
G1 X10.098 Y8.171 E31.76475
G1 X8.853 Y9.226 E31.82755
G92 E0
G1 E-1 F3000
; printing object combined-1679155369468.stl id:0 copy 0
EXCLUDE_OBJECT_START NAME=combined_1679155369468_stl_id_0_copy_0
; acceleration to travel
M204 S4000
G1 X74.937 Y11.272 F12000
; decel to extrusion
M204 S2000
G1 X107.978 Y12.294
; end travel
G1 E0 F1800
;TYPE:Internal perimeter
;WIDTH:0.499999
G1 X108.312 Y12.792 E0.02209
G1 X108.535 Y13.399 E0.04592
G1 X108.645 Y13.898 E0.06476
G1 X108.712 Y14.483 E0.08649
G1 X108.735 Y15.108 E0.10953
G1 X108.735 Y104.972 E3.42248
G1 X108.705 Y105.683 E3.44869
G1 X108.62 Y106.277 E3.47084
G1 X108.487 Y106.785 E3.49018
G1 X108.198 Y107.4 E3.51522
G1 X107.854 Y107.854 E3.53624
G1 X107.369 Y108.217 E3.55858
G1 X106.785 Y108.487 E3.5823
G1 X106.277 Y108.62 E3.60163
G1 X105.683 Y108.705 E3.62379
G1 X104.972 Y108.735 E3.65
G1 X15.026 Y108.735 E6.96596
G1 X14.317 Y108.705 E6.99211
G1 X13.721 Y108.62 E7.01432
G1 X13.216 Y108.488 E7.03355
G1 X12.603 Y108.199 E7.05854
G1 X12.149 Y107.855 E7.07954
G1 X11.785 Y107.369 E7.10194
G1 X11.514 Y106.783 E7.12572
G1 X11.38 Y106.276 E7.14507
G1 X11.295 Y105.683 E7.16716
G1 X11.265 Y104.972 E7.19338
G1 X11.265 Y15.026 E10.50934
G1 X11.295 Y14.317 E10.53549
G1 X11.38 Y13.723 E10.55763
G1 X11.514 Y13.218 E10.57688
G1 X11.802 Y12.604 E10.60187
G1 X12.148 Y12.148 E10.62299
G1 X12.636 Y11.783 E10.64546
G1 X13.218 Y11.514 E10.6691
G1 X13.723 Y11.38 E10.68834
G1 X14.317 Y11.295 E10.71049
G1 X15.026 Y11.265 E10.73664
G1 X105.055 Y11.269 E14.05567
G1 X105.848 Y11.319 E14.08494
G1 X106.452 Y11.426 E14.10755
G1 X107.038 Y11.619 E14.13032
G1 X107.561 Y11.9 E14.1522
G1 X107.978 Y12.294 E14.17335
G1 X108.327 Y11.998 F12000
G1 F1800
G1 X108.475 Y12.172 E14.18177
G1 X108.805 Y12.787 E14.20748
G1 X108.978 Y13.283 E14.22685
G1 X109.097 Y13.833 E14.24761
G1 X109.168 Y14.464 E14.27101
G1 X109.192 Y15.108 E14.29477
G1 X109.192 Y104.982 E17.60807
G1 X109.16 Y105.725 E17.63548
G1 X109.068 Y106.368 E17.65943
G1 X108.922 Y106.93 E17.68086
G1 X108.722 Y107.416 E17.70021
G1 X108.329 Y108 E17.72616
G1 X108 Y108.329 E17.74334
G1 X107.416 Y108.722 E17.76928
G1 X106.93 Y108.922 E17.78864
G1 X106.368 Y109.068 E17.81007
G1 X105.725 Y109.16 E17.83402
G1 X104.982 Y109.192 E17.86143
G1 X15.11 Y109.192 E21.17467
G1 X14.089 Y109.134 E21.21234
G1 X13.44 Y109.019 E21.23664
G1 X12.871 Y108.84 E21.25862
G1 X12.402 Y108.612 E21.27787
G1 X11.998 Y108.327 E21.29608
G1 X11.673 Y108 E21.31307
G1 X11.28 Y107.416 E21.33904
G1 X11.08 Y106.929 E21.35843
G1 X10.931 Y106.367 E21.37989
G1 X10.84 Y105.725 E21.40379
G1 X10.808 Y104.982 E21.4312
G1 X10.808 Y15.108 E24.7445
G1 X10.866 Y14.089 E24.78212
G1 X10.983 Y13.436 E24.80657
G1 X11.16 Y12.876 E24.82824
G1 X11.39 Y12.402 E24.84767
G1 X11.676 Y11.997 E24.86594
G1 X12.172 Y11.528 E24.89112
G1 X12.586 Y11.28 E24.90889
G1 X13.072 Y11.079 E24.92825
G1 X13.632 Y10.931 E24.94961
G1 X14.275 Y10.84 E24.97358
G1 X15.016 Y10.808 E25.00092
G1 X105.075 Y10.812 E28.32103
M73 P1 R62
G1 X105.912 Y10.866 E28.35197
G1 X106.568 Y10.984 E28.37653
G1 X107.128 Y11.162 E28.39818
G1 X107.634 Y11.411 E28.419
G1 X108.179 Y11.824 E28.44419
G1 X108.327 Y11.998 E28.45261
G1 X108.675 Y11.703 F12000
;TYPE:External perimeter
G1 F1800
G1 X108.987 Y12.139 E28.47237
G1 X109.227 Y12.612 E28.49194
G1 X109.42 Y13.167 E28.51361
G1 X109.55 Y13.769 E28.53629
G1 X109.625 Y14.444 E28.56135
G1 X109.649 Y15.108 E28.58583
G1 X109.649 Y104.992 E31.89949
G1 X109.616 Y105.767 E31.9281
G1 X109.517 Y106.458 E31.95383
G1 X109.356 Y107.076 E31.97737
G1 X109.131 Y107.621 E31.99913
G1 X108.847 Y108.095 E32.01948
G1 X108.503 Y108.503 E32.03917
G1 X108.095 Y108.847 E32.05886
G1 X107.621 Y109.131 E32.07921
G1 X107.076 Y109.356 E32.10097
G1 X106.458 Y109.517 E32.12451
G1 X105.767 Y109.616 E32.15024
G1 X104.992 Y109.649 E32.17885
G1 X15.006 Y109.649 E35.49625
G1 X14.233 Y109.616 E35.52478
G1 X13.54 Y109.517 E35.55059
G1 X12.925 Y109.356 E35.57404
G1 X12.381 Y109.131 E35.59575
G1 X11.905 Y108.847 E35.61615
G1 X11.5 Y108.503 E35.63578
G1 X11.155 Y108.095 E35.65548
G1 X10.871 Y107.621 E35.67583
G1 X10.645 Y107.075 E35.69761
G1 X10.483 Y106.457 E35.72117
G1 X10.384 Y105.767 E35.74689
G1 X10.351 Y104.992 E35.77549
G1 X10.351 Y15.006 E39.09289
G1 X10.384 Y14.233 E39.12142
G1 X10.483 Y13.541 E39.14721
G1 X10.645 Y12.925 E39.17068
G1 X10.871 Y12.381 E39.19241
G1 X11.155 Y11.905 E39.21281
G1 X11.499 Y11.499 E39.23245
G1 X11.905 Y11.155 E39.25209
G1 X12.381 Y10.871 E39.2725
G1 X12.925 Y10.645 E39.29422
G1 X13.541 Y10.483 E39.3177
G1 X14.233 Y10.384 E39.34348
G1 X15.006 Y10.351 E39.37202
G1 X104.992 Y10.351 E42.68941
G1 X105.555 Y10.375 E42.71022
G1 X106.233 Y10.451 E42.73535
G1 X106.842 Y10.584 E42.75834
G1 X107.387 Y10.774 E42.77961
G1 X107.87 Y11.02 E42.79958
G1 X108.3 Y11.328 E42.81908
G1 X108.675 Y11.703 E42.83865
;WIPE_START
M204 S4000
G1 X108.53 Y12.075 F12000
;WIPE_END
; acceleration to travel
G1 X108.359 Y12.723
; decel to extrusion
M204 S2000
G1 X108.272 Y13.053
; end travel
;TYPE:Solid infill
;WIDTH:0.500329
G1 F2400
G1 X106.95 Y11.731 E42.90762
G1 X106.088 Y11.516 F12000
G1 F2400
G1 X108.485 Y13.913 E43.03267
G1 X108.582 Y14.656 F12000
G1 F2400
G1 X105.344 Y11.418 E43.20158
G1 X104.685 Y11.406 F12000
G1 F2400
G1 X108.598 Y15.318 E43.40568
G1 X108.598 Y15.964 F12000
G1 F2400
G1 X104.039 Y11.406 E43.64352
G1 X103.393 Y11.406 F12000
G1 F2400
G1 X108.598 Y16.611 E43.91507
G1 X108.598 Y17.257 F12000
G1 F2400
G1 X102.746 Y11.406 E44.22036
G1 X102.1 Y11.406 F12000
G1 F2400
G1 X108.598 Y17.904 E44.55936
G1 X108.598 Y18.55 F12000
G1 F2400
G1 X101.453 Y11.406 E44.9321
G1 X100.807 Y11.406 F12000
G1 F2400
G1 X108.598 Y19.196 E45.33855
G1 X108.598 Y19.843 F12000
G1 F2400
G1 X100.16 Y11.406 E45.77874
G1 X99.514 Y11.406 F12000
G1 F2400
G1 X108.598 Y20.489 E46.25264
G1 X108.598 Y21.136 F12000
G1 F2400
G1 X98.868 Y11.405 E46.76028
G1 X98.221 Y11.405 F12000
G1 F2400
G1 X108.598 Y21.782 E47.30163
G1 X108.598 Y22.428 F12000
G1 F2400
G1 X97.575 Y11.405 E47.87672
G1 X96.928 Y11.405 F12000
G1 F2400
G1 X108.598 Y23.075 E48.48552
G1 X108.598 Y23.721 F12000
G1 F2400
G1 X96.282 Y11.405 E49.12805
G1 X95.635 Y11.405 F12000
G1 F2400
G1 X108.598 Y24.368 E49.80431
G1 X108.598 Y25.014 F12000
G1 F2400
G1 X94.989 Y11.405 E50.51429
G1 X94.343 Y11.405 F12000
G1 F2400
G1 X108.598 Y25.661 E51.258
G1 X108.598 Y26.307 F12000
G1 F2400
G1 X93.696 Y11.405 E52.03543
G1 X93.05 Y11.405 F12000
G1 F2400
G1 X108.598 Y26.953 E52.84659
G1 X108.598 Y27.6 F12000
G1 F2400
G1 X92.403 Y11.405 E53.69147
G1 X91.757 Y11.405 F12000
G1 F2400
G1 X108.598 Y28.246 E54.57008
G1 X108.598 Y28.893 F12000
G1 F2400
G1 X91.11 Y11.405 E55.48241
G1 X90.464 Y11.405 F12000
G1 F2400
G1 X108.598 Y29.539 E56.42847
G1 X108.598 Y30.185 F12000
G1 F2400
G1 X89.818 Y11.405 E57.40825
G1 X89.171 Y11.405 F12000
G1 F2400
G1 X108.598 Y30.832 E58.42176
M73 P2 R62
G1 X108.598 Y31.478 F12000
G1 F2400
G1 X88.525 Y11.405 E59.46899
G1 X87.878 Y11.405 F12000
G1 F2400
G1 X108.598 Y32.125 E60.54995
G1 X108.598 Y32.771 F12000
G1 F2400
G1 X87.232 Y11.405 E61.66463
G1 X86.585 Y11.405 F12000
G1 F2400
G1 X108.598 Y33.417 E62.81303
G1 X108.598 Y34.064 F12000
G1 F2400
G1 X85.939 Y11.405 E63.99517
G1 X85.292 Y11.405 F12000
G1 F2400
G1 X108.598 Y34.71 E65.21102
G1 X108.598 Y35.357 F12000
G1 F2400
G1 X84.646 Y11.405 E66.4606
G1 X84 Y11.405 F12000
G1 F2400
G1 X108.598 Y36.003 E67.74391
G1 X108.598 Y36.649 F12000
G1 F2400
G1 X83.353 Y11.405 E69.06094
G1 X82.707 Y11.405 F12000
G1 F2400
G1 X108.598 Y37.296 E70.4117
G1 X108.598 Y37.942 F12000
G1 F2400
G1 X82.06 Y11.405 E71.79618
G1 X81.414 Y11.405 F12000
G1 F2400
G1 X108.598 Y38.589 E73.21439
G1 X108.598 Y39.235 F12000
G1 F2400
G1 X80.767 Y11.405 E74.66632
G1 X80.121 Y11.405 F12000
G1 F2400
G1 X108.598 Y39.881 E76.15197
M73 P2 R62
G1 X108.598 Y40.528 F12000
G1 F2400
G1 X79.475 Y11.405 E77.67135
G1 X78.828 Y11.405 F12000
G1 F2400
G1 X108.598 Y41.174 E79.22446
G1 X108.598 Y41.821 F12000
G1 F2400
G1 X78.182 Y11.405 E80.81129
G1 X77.535 Y11.405 F12000
G1 F2400
G1 X108.598 Y42.467 E82.43185
G1 X108.598 Y43.114 F12000
G1 F2400
G1 X76.889 Y11.405 E84.08613
G1 X76.242 Y11.405 F12000
G1 F2400
G1 X108.598 Y43.76 E85.77414
G1 X108.598 Y44.406 F12000
G1 F2400
G1 X75.596 Y11.405 E87.49587
G1 X74.95 Y11.405 F12000
G1 F2400
G1 X108.598 Y45.053 E89.25132
G1 X108.598 Y45.699 F12000
G1 F2400
G1 X74.303 Y11.405 E91.0405
G1 X73.657 Y11.405 F12000
G1 F2400
G1 X108.598 Y46.346 E92.86341
G1 X108.598 Y46.992 F12000
G1 F2400
G1 X73.01 Y11.404 E94.72004
G1 X72.364 Y11.404 F12000
G1 F2400
G1 X108.598 Y47.638 E96.6104
G1 X108.598 Y48.285 F12000
G1 F2400
G1 X71.717 Y11.404 E98.53448
G1 X71.071 Y11.404 F12000
G1 F2400
G1 X108.598 Y48.931 E100.49228
G1 X108.598 Y49.578 F12000
G1 F2400
G1 X70.425 Y11.404 E102.48381
G1 X69.778 Y11.404 F12000
G1 F2400
G1 X108.598 Y50.224 E104.50907
G1 X108.598 Y50.87 F12000
G1 F2400
G1 X69.132 Y11.404 E106.56805
G1 X68.485 Y11.404 F12000
G1 F2400
G1 X108.598 Y51.517 E108.66076
G1 X108.598 Y52.163 F12000
G1 F2400
G1 X67.839 Y11.404 E110.78719
G1 X67.192 Y11.404 F12000
G1 F2400
G1 X108.598 Y52.81 E112.94734
G1 X108.598 Y53.456 F12000
G1 F2400
G1 X66.546 Y11.404 E115.14122
G1 X65.9 Y11.404 F12000
G1 F2400
G1 X108.598 Y54.102 E117.36883
G1 X108.598 Y54.749 F12000
G1 F2400
G1 X65.253 Y11.404 E119.63016
G1 X64.607 Y11.404 F12000
G1 F2400
G1 X108.598 Y55.395 E121.92522
G1 X108.598 Y56.042 F12000
G1 F2400
G1 X63.96 Y11.404 E124.254
G1 X63.314 Y11.404 F12000
G1 F2400
G1 X108.598 Y56.688 E126.6165
G1 X108.598 Y57.334 F12000
G1 F2400
G1 X62.667 Y11.404 E129.01273
M73 P3 R61
G1 X62.021 Y11.404 F12000
G1 F2400
G1 X108.598 Y57.981 E131.44269
G1 X108.598 Y58.627 F12000
G1 F2400
G1 X61.374 Y11.404 E133.90637
G1 X60.728 Y11.404 F12000
G1 F2400
G1 X108.598 Y59.274 E136.40377
G1 X108.598 Y59.92 F12000
G1 F2400
G1 X60.082 Y11.404 E138.9349
G1 X59.435 Y11.404 F12000
G1 F2400
G1 X108.598 Y60.567 E141.49976
G1 X108.598 Y61.213 F12000
G1 F2400
G1 X58.789 Y11.404 E144.09834
M73 P4 R61
G1 X58.142 Y11.404 F12000
G1 F2400
G1 X108.598 Y61.859 E146.73064
G1 X108.598 Y62.506 F12000
G1 F2400
G1 X57.496 Y11.404 E149.39667
G1 X56.849 Y11.404 F12000
G1 F2400
G1 X108.598 Y63.152 E152.09643
G1 X108.598 Y63.799 F12000
G1 F2400
G1 X56.203 Y11.404 E154.82991
G1 X55.557 Y11.404 F12000
G1 F2400
G1 X108.598 Y64.445 E157.59711
G1 X108.598 Y65.091 F12000
G1 F2400
G1 X54.91 Y11.404 E160.39804
G1 X54.264 Y11.404 F12000
G1 F2400
G1 X108.598 Y65.738 E163.2327
G1 X108.598 Y66.384 F12000
G1 F2400
G1 X53.617 Y11.404 E166.10108
G1 X52.971 Y11.404 F12000
G1 F2400
G1 X108.598 Y67.031 E169.00318
G1 X108.598 Y67.677 F12000
G1 F2400
G1 X52.324 Y11.404 E171.93901
G1 X51.678 Y11.404 F12000
G1 F2400
G1 X108.598 Y68.323 E174.90857
G1 X108.598 Y68.97 F12000
G1 F2400
G1 X51.032 Y11.404 E177.91185
G1 X50.385 Y11.404 F12000
G1 F2400
G1 X108.598 Y69.616 E180.94885
G1 X108.598 Y70.263 F12000
G1 F2400
G1 X49.739 Y11.404 E184.01958
M73 P4 R60
G1 X49.092 Y11.404 F12000
G1 F2400
G1 X108.598 Y70.909 E187.12404
G1 X108.598 Y71.555 F12000
G1 F2400
G1 X48.446 Y11.404 E190.26222
G1 X47.799 Y11.404 F12000
G1 F2400
