; generated by SuperSlicer 2.5.59 on 2023-03-19 at 00:30:54 UTC


;
;

;
;
; 

; external perimeters extrusion width = 0.40mm
; perimeters extrusion width = 0.46mm
; infill extrusion width = 0.64mm
; solid infill extrusion width = 0.56mm
; top infill extrusion width = 0.40mm
; first layer extrusion width = 0.50mm

; object:{"name":"Copy of WiFi QR Code Sign - Embedded Magnet Version","id":"Copy of WiFi QR Code Sign - Embedded Magnet Version.stl id:0 copy 0","object_center":[60.000000,60.000000,0.000000],"boundingbox_center":[60.000000,60.000000,2.160000],"boundingbox_size":[64.000000,73.440002,4.320000]}
EXCLUDE_OBJECT_DEFINE NAME=Copy_of_WiFi_QR_Code_Sign_Embedded_Magnet_Version_stl_id_0_copy_0 CENTER=60.000000,60.000000 POLYGON=[[28.000000,23.279998],[92.000000,23.279998],[92.000000,96.720000],[28.000000,96.720000],[28.000000,23.279998]]
; plater:{"center":[60.000000,60.000000,0.000000],"boundingbox_center":[60.000000,60.000000,2.160000],"boundingbox_size":[64.000000,73.440002,4.320000]}

M73 P0 R30
M73 P0 R30
;TYPE:Custom
; custom gcode: start_gcode
START_PRINT T_BED=70 T_EXTRUDER=235
; custom gcode end: start_gcode
M107
G21 ; set units to millimeters
G90 ; use absolute coordinates
M82 ; use absolute distances for extrusion
G92 E0
; custom gcode: start_filament_gcode
; Filament gcode
PRESSURE_ADVANCE_SELECT FILAMENT=PETG
; custom gcode end: start_filament_gcode
;_TOOLCHANGE 0
M109 S235 ; set temperature and wait for it to be reached
M190 S70 ; set bed temperature and wait for it to be reached
;LAYER_CHANGE
;Z:0.2
;HEIGHT:0.2
G1 Z0.2 F12000
M73 P0 R30
M73 P0 R30
G1 E-1 F3000
M204 S2000
G1 X25.244 Y21.159 F12000
G1 E0 F1800
;TYPE:Skirt
;WIDTH:0.52
G1 X24.779 Y21.714 E0.02871
G1 X24.384 Y23.38 E0.09665
G1 X24.384 Y96.62 E3.00203
G1 X25.121 Y98.841 E3.09486
G1 X26.434 Y99.941 E3.16279
G1 X28.1 Y100.336 E3.23072
G1 X91.9 Y100.336 E5.76162
M73 P0 R30
G1 X94.121 Y99.599 E5.85445
G1 X95.221 Y98.286 E5.92238
G1 X95.616 Y96.62 E5.99031
G1 X95.616 Y23.38 E8.89569
G1 X94.879 Y21.159 E8.98852
G1 X93.566 Y20.059 E9.05645
G1 X91.9 Y19.664 E9.12438
G1 X28.1 Y19.664 E11.65529
G1 X25.879 Y20.401 E11.74811
G1 X25.244 Y21.159 E11.78733
G1 X25.586 Y21.476 F12000
G1 F1800
G1 X25.255 Y21.832 E11.80662
G1 X24.861 Y23.38 E11.86997
G1 X24.861 Y96.62 E14.77536
G1 X25.381 Y98.379 E14.84811
G1 X26.552 Y99.465 E14.91147
G1 X28.1 Y99.859 E14.97483
G1 X91.9 Y99.859 E17.50573
G1 X93.659 Y99.339 E17.57849
G1 X94.745 Y98.168 E17.64184
M73 P1 R30
G1 X95.139 Y96.62 E17.7052
G1 X95.139 Y23.38 E20.61058
G1 X94.619 Y21.621 E20.68334
G1 X93.448 Y20.535 E20.7467
G1 X91.9 Y20.141 E20.81006
G1 X28.1 Y20.141 E23.34096
G1 X26.341 Y20.661 E23.41372
G1 X25.586 Y21.476 E23.45779
G92 E0
G1 E-1 F3000
; printing object Copy of WiFi QR Code Sign - Embedded Magnet Version.stl id:0 copy 0
EXCLUDE_OBJECT_START NAME=Copy_of_WiFi_QR_Code_Sign_Embedded_Magnet_Version_stl_id_0_copy_0
; acceleration to travel
M204 S4000
G1 X68.714 Y70.796 F12000
; decel to extrusion
M204 S2000
G1 X90.279 Y95.456
; end travel
G1 E0 F1800
;TYPE:Internal perimeter
;WIDTH:0.5
G1 X29.264 Y95.456 E2.31894
G1 X29.264 Y24.544 E5.01403
G1 X90.736 Y24.544 E7.35035
G1 X90.736 Y95.456 E10.04544
G1 X90.736 Y95.913 E10.06281
;WIDTH:0.386754
G1 X91.193 Y96.37 E10.08181
;TYPE:External perimeter
;WIDTH:0.5
G1 X28.35 Y96.37 E12.47024
G1 X28.35 Y23.63 E15.23482
M73 P2 R29
G1 X91.65 Y23.63 E17.64062
G1 X91.65 Y96.37 E20.4052
;TYPE:Internal perimeter
;WIDTH:0.386754
G1 X91.193 Y95.913 E20.42421
;WIDTH:0.5
G1 X91.193 Y24.087 E23.15404
G1 X28.807 Y24.087 E25.5251
G1 X28.807 Y95.913 E28.25494
G1 X90.279 Y95.913 E30.59125
G1 X90.279 Y95.456 E30.60862
G92 E0
G1 E-1 F3000
; acceleration to travel
M204 S4000
G1 X89.879 Y48.558 F12000
; decel to extrusion
M204 S2000
G1 X89.675 Y24.681
; end travel
G1 E0 F1800
;TYPE:Solid infill
;WIDTH:0.50052
G1 F2400
G1 X90.599 Y25.605 E0.04971
G1 X90.599 Y26.252 F12000
G1 F2400
G1 X89.028 Y24.681 E0.13421
G1 X88.382 Y24.681 F12000
G1 F2400
G1 X90.599 Y26.898 E0.25348
G1 X90.599 Y27.544 F12000
G1 F2400
G1 X87.736 Y24.681 E0.40754
G1 X87.089 Y24.681 F12000
G1 F2400
G1 X90.599 Y28.191 E0.59637
G1 X90.599 Y28.837 F12000
G1 F2400
G1 X86.443 Y24.681 E0.81998
G1 X85.796 Y24.681 F12000
G1 F2400
G1 X90.599 Y29.484 E1.07838
G1 X90.599 Y30.13 F12000
G1 F2400
G1 X85.15 Y24.681 E1.37155
G1 X84.504 Y24.681 F12000
G1 F2400
G1 X90.599 Y30.776 E1.6995
G1 X90.599 Y31.423 F12000
G1 F2400
G1 X83.857 Y24.681 E2.06224
G1 X83.211 Y24.681 F12000
G1 F2400
G1 X90.599 Y32.069 E2.45975
G1 X90.599 Y32.716 F12000
G1 F2400
G1 X82.564 Y24.681 E2.89204
M73 P3 R29
G1 X81.918 Y24.681 F12000
G1 F2400
G1 X90.599 Y33.362 E3.35912
G1 X90.599 Y34.009 F12000
G1 F2400
G1 X81.271 Y24.681 E3.86097
G1 X80.625 Y24.681 F12000
G1 F2400
G1 X90.599 Y34.655 E4.3976
G1 X90.599 Y35.301 F12000
G1 F2400
G1 X79.979 Y24.681 E4.96902
G1 X79.332 Y24.681 F12000
G1 F2400
G1 X90.599 Y35.948 E5.57521
G1 X90.599 Y36.594 F12000
G1 F2400
G1 X78.686 Y24.681 E6.21618
G1 X78.039 Y24.681 F12000
G1 F2400
G1 X90.599 Y37.241 E6.89193
G1 X90.599 Y37.887 F12000
G1 F2400
G1 X77.393 Y24.681 E7.60247
G1 X76.747 Y24.681 F12000
G1 F2400
G1 X90.599 Y38.533 E8.34778
G1 X90.599 Y39.18 F12000
G1 F2400
G1 X76.1 Y24.681 E9.12787
G1 X75.454 Y24.681 F12000
G1 F2400
G1 X90.599 Y39.826 E9.94274
G1 X90.599 Y40.473 F12000
G1 F2400
G1 X74.807 Y24.681 E10.79239
G1 X74.161 Y24.681 F12000
G1 F2400
G1 X90.599 Y41.119 E11.67682
G1 X90.599 Y41.765 F12000
G1 F2400
G1 X73.515 Y24.681 E12.59604
G1 X72.868 Y24.681 F12000
G1 F2400
G1 X90.599 Y42.412 E13.55003
G1 X90.599 Y43.058 F12000
G1 F2400
G1 X72.222 Y24.681 E14.5388
G1 X71.575 Y24.681 F12000
G1 F2400
G1 X90.599 Y43.705 E15.56235
G1 X90.599 Y44.351 F12000
G1 F2400
G1 X70.929 Y24.681 E16.62068
G1 X70.283 Y24.681 F12000
G1 F2400
G1 X90.599 Y44.997 E17.71379
G1 X90.599 Y45.644 F12000
G1 F2400
G1 X69.636 Y24.681 E18.84168
G1 X68.99 Y24.681 F12000
G1 F2400
G1 X90.599 Y46.29 E20.00435
G1 X90.599 Y46.937 F12000
G1 F2400
G1 X68.343 Y24.681 E21.2018
G1 X67.697 Y24.681 F12000
G1 F2400
G1 X90.599 Y47.583 E22.43404
G1 X90.599 Y48.229 F12000
G1 F2400
G1 X67.051 Y24.681 E23.70105
M73 P4 R29
G1 X66.404 Y24.681 F12000
G1 F2400
G1 X90.599 Y48.876 E25.00284
G1 X90.599 Y49.522 F12000
G1 F2400
G1 X65.758 Y24.681 E26.33941
G1 X65.111 Y24.681 F12000
G1 F2400
G1 X90.599 Y50.169 E27.71076
G1 X90.599 Y50.815 F12000
G1 F2400
G1 X64.465 Y24.681 E29.11689
M73 P4 R29
G1 X63.818 Y24.681 F12000
G1 F2400
G1 X90.599 Y51.462 E30.5578
G1 X90.599 Y52.108 F12000
G1 F2400
G1 X63.172 Y24.681 E32.03349
G1 X62.526 Y24.681 F12000
G1 F2400
G1 X90.599 Y52.754 E33.54396
G1 X90.599 Y53.401 F12000
G1 F2400
G1 X61.879 Y24.681 E35.08921
G1 X61.233 Y24.681 F12000
G1 F2400
G1 X90.599 Y54.047 E36.66923
G1 X90.599 Y54.694 F12000
G1 F2400
G1 X60.586 Y24.681 E38.28404
G1 X59.94 Y24.681 F12000
G1 F2400
G1 X90.599 Y55.34 E39.93363
G1 X90.599 Y55.986 F12000
G1 F2400
G1 X59.294 Y24.681 E41.618
G1 X58.647 Y24.681 F12000
G1 F2400
G1 X90.599 Y56.633 E43.33715
G1 X90.599 Y57.279 F12000
G1 F2400
G1 X58.001 Y24.681 E45.09108
G1 X57.354 Y24.681 F12000
G1 F2400
G1 X90.599 Y57.926 E46.87979
G1 X90.599 Y58.572 F12000
G1 F2400
G1 X56.708 Y24.681 E48.70328
G1 X56.062 Y24.681 F12000
G1 F2400
G1 X90.599 Y59.218 E50.56155
G1 X90.599 Y59.865 F12000
G1 F2400
G1 X55.415 Y24.681 E52.4546
G1 X54.769 Y24.681 F12000
G1 F2400
G1 X90.599 Y60.511 E54.38242
M73 P5 R28
G1 X90.599 Y61.158 F12000
G1 F2400
G1 X54.122 Y24.681 E56.34503
G1 X53.476 Y24.681 F12000
G1 F2400
G1 X90.599 Y61.804 E58.34242
G1 X90.599 Y62.45 F12000
G1 F2400
G1 X52.83 Y24.681 E60.37459
G1 X52.183 Y24.681 F12000
G1 F2400
G1 X90.599 Y63.097 E62.44154
G1 X90.599 Y63.743 F12000
G1 F2400
G1 X51.537 Y24.681 E64.54326
G1 X50.89 Y24.681 F12000
G1 F2400
G1 X90.599 Y64.39 E66.67977
G1 X90.599 Y65.036 F12000
G1 F2400
G1 X50.244 Y24.681 E68.85106
G1 X49.598 Y24.681 F12000
G1 F2400
G1 X90.599 Y65.682 E71.05713
G1 X90.599 Y66.329 F12000
G1 F2400
G1 X48.951 Y24.681 E73.29797
G1 X48.305 Y24.681 F12000
G1 F2400
G1 X90.599 Y66.975 E75.5736
G1 X90.599 Y67.622 F12000
G1 F2400
G1 X47.658 Y24.681 E77.88401
G1 X47.012 Y24.681 F12000
G1 F2400
G1 X90.599 Y68.268 E80.2292
M73 P6 R28
G1 X90.599 Y68.915 F12000
G1 F2400
G1 X46.365 Y24.681 E82.60916
G1 X45.719 Y24.681 F12000
G1 F2400
G1 X90.599 Y69.561 E85.02391
G1 X90.599 Y70.207 F12000
G1 F2400
G1 X45.073 Y24.681 E87.47344
G1 X44.426 Y24.681 F12000
G1 F2400
G1 X90.599 Y70.854 E89.95774
G1 X90.599 Y71.5 F12000
G1 F2400
G1 X43.78 Y24.681 E92.47683
G1 X43.133 Y24.681 F12000
G1 F2400
G1 X90.599 Y72.147 E95.0307
G1 X90.599 Y72.793 F12000
G1 F2400
G1 X42.487 Y24.681 E97.61934
G1 X41.841 Y24.681 F12000
G1 F2400
G1 X90.599 Y73.439 E100.24277
G1 X90.599 Y74.086 F12000
G1 F2400
G1 X41.194 Y24.681 E102.90097
G1 X40.548 Y24.681 F12000
G1 F2400
G1 X90.599 Y74.732 E105.59396
G1 X90.599 Y75.379 F12000
G1 F2400
G1 X39.901 Y24.681 E108.32173
M73 P7 R28
G1 X39.255 Y24.681 F12000
G1 F2400
G1 X90.599 Y76.025 E111.08427
G1 X90.599 Y76.671 F12000
G1 F2400
G1 X38.609 Y24.681 E113.8816
M73 P7 R28
G1 X37.962 Y24.681 F12000
G1 F2400
G1 X90.599 Y77.318 E116.7137
G1 X90.599 Y77.964 F12000
G1 F2400
G1 X37.316 Y24.681 E119.58059
G1 X36.669 Y24.681 F12000
G1 F2400
G1 X90.599 Y78.611 E122.48225
G1 X90.599 Y79.257 F12000
G1 F2400
G1 X36.023 Y24.681 E125.4187
G1 X35.377 Y24.681 F12000
G1 F2400
G1 X90.599 Y79.903 E128.38992
G1 X90.599 Y80.55 F12000
G1 F2400
G1 X34.73 Y24.681 E131.39593
G1 X34.084 Y24.681 F12000
G1 F2400
G1 X90.599 Y81.196 E134.43671
M73 P8 R28
G1 X90.599 Y81.843 F12000
G1 F2400
G1 X33.437 Y24.681 E137.51228
G1 X32.791 Y24.681 F12000
G1 F2400
G1 X90.599 Y82.489 E140.62262
G1 X90.599 Y83.135 F12000
G1 F2400
G1 X32.145 Y24.681 E143.76775
G1 X31.498 Y24.681 F12000
G1 F2400
G1 X90.599 Y83.782 E146.94765
G1 X90.599 Y84.428 F12000
G1 F2400
G1 X30.852 Y24.681 E150.16234
G1 X30.205 Y24.681 F12000
G1 F2400
G1 X90.599 Y85.075 E153.4118
G1 X90.599 Y85.721 F12000
G1 F2400
G1 X29.559 Y24.681 E156.69604
G1 X29.401 Y25.17 F12000
G1 F2400
G1 X90.599 Y86.368 E159.98877
M73 P9 R27
G1 X90.599 Y87.014 F12000
G1 F2400
G1 X29.401 Y25.816 E163.28149
G1 X29.401 Y26.463 F12000
G1 F2400
G1 X90.599 Y87.66 E166.57422
G1 X90.599 Y88.307 F12000
G1 F2400
G1 X29.401 Y27.109 E169.86694
G1 X29.401 Y27.756 F12000
G1 F2400
G1 X90.599 Y88.953 E173.15967
G1 X90.599 Y89.6 F12000
G1 F2400
G1 X29.401 Y28.402 E176.45239
G1 X29.401 Y29.048 F12000
G1 F2400
G1 X90.599 Y90.246 E179.74512
G1 X90.599 Y90.892 F12000
G1 F2400
G1 X29.401 Y29.695 E183.03784
G1 X29.401 Y30.341 F12000
G1 F2400
G1 X90.599 Y91.539 E186.33057
M73 P10 R27
G1 X90.599 Y92.185 F12000
G1 F2400
G1 X29.401 Y30.988 E189.62329
G1 X29.401 Y31.634 F12000
G1 F2400
G1 X90.599 Y92.832 E192.91602
G1 X90.599 Y93.478 F12000
G1 F2400
G1 X29.401 Y32.281 E196.20874
G1 X29.401 Y32.927 F12000
G1 F2400
G1 X90.599 Y94.124 E199.50147
G1 X90.599 Y94.771 F12000
G1 F2400
G1 X29.401 Y33.573 E202.79419
M73 P10 R27
G1 X29.401 Y34.22 F12000
G1 F2400
G1 X90.5 Y95.319 E206.08162
G1 X89.854 Y95.319 F12000
G1 F2400
G1 X29.401 Y34.866 E209.33427
G1 X29.401 Y35.513 F12000
G1 F2400
G1 X89.207 Y95.319 E212.55213
M73 P11 R27
G1 X88.561 Y95.319 F12000
G1 F2400
G1 X29.401 Y36.159 E215.73522
G1 X29.401 Y36.805 F12000
G1 F2400
G1 X87.915 Y95.319 E218.88353
G1 X87.268 Y95.319 F12000
G1 F2400
G1 X29.401 Y37.452 E221.99705
G1 X29.401 Y38.098 F12000
G1 F2400
G1 X86.622 Y95.319 E225.0758
G1 X85.975 Y95.319 F12000
G1 F2400
G1 X29.401 Y38.745 E228.11977
G1 X29.401 Y39.391 F12000
G1 F2400
G1 X85.329 Y95.319 E231.12895
G1 X84.683 Y95.319 F12000
G1 F2400
G1 X29.401 Y40.037 E234.10336
G1 X29.401 Y40.684 F12000
G1 F2400
G1 X84.036 Y95.319 E237.04299
G1 X83.39 Y95.319 F12000
G1 F2400
G1 X29.401 Y41.33 E239.94783
M73 P12 R26
G1 X29.401 Y41.977 F12000
G1 F2400
G1 X82.743 Y95.319 E242.8179
G1 X82.097 Y95.319 F12000
G1 F2400
G1 X29.401 Y42.623 E245.65319
G1 X29.401 Y43.269 F12000
G1 F2400
G1 X81.451 Y95.319 E248.4537
G1 X80.804 Y95.319 F12000
G1 F2400
G1 X29.401 Y43.916 E251.21942
G1 X29.401 Y44.562 F12000
G1 F2400
G1 X80.158 Y95.319 E253.95037
G1 X79.511 Y95.319 F12000
G1 F2400
G1 X29.401 Y45.209 E256.64654
G1 X29.401 Y45.855 F12000
G1 F2400
G1 X78.865 Y95.319 E259.30793
G1 X78.219 Y95.319 F12000
G1 F2400
G1 X29.401 Y46.501 E261.93454
G1 X29.401 Y47.148 F12000
G1 F2400
G1 X77.572 Y95.319 E264.52636
G1 X76.926 Y95.319 F12000
M73 P13 R26
G1 F2400
G1 X29.401 Y47.794 E267.08341
G1 X29.401 Y48.441 F12000
G1 F2400
G1 X76.279 Y95.319 E269.60568
G1 X75.633 Y95.319 F12000
G1 F2400
G1 X29.401 Y49.087 E272.09317
G1 X29.401 Y49.734 F12000
G1 F2400
G1 X74.986 Y95.319 E274.54588
G1 X74.34 Y95.319 F12000
G1 F2400
G1 X29.401 Y50.38 E276.96381
G1 X29.401 Y51.026 F12000
G1 F2400
G1 X73.694 Y95.319 E279.34696
G1 X73.047 Y95.319 F12000
G1 F2400
G1 X29.401 Y51.673 E281.69532
G1 X29.401 Y52.319 F12000
G1 F2400
G1 X72.401 Y95.319 E284.00891
G1 X71.754 Y95.319 F12000
G1 F2400
G1 X29.401 Y52.966 E286.28772
G1 X29.401 Y53.612 F12000
G1 F2400
G1 X71.108 Y95.319 E288.53175
G1 X70.462 Y95.319 F12000
G1 F2400
G1 X29.401 Y54.258 E290.741
G1 X29.401 Y54.905 F12000
G1 F2400
G1 X69.815 Y95.319 E292.91547
M73 P14 R26
G1 X69.169 Y95.319 F12000
G1 F2400
G1 X29.401 Y55.551 E295.05516
G1 X29.401 Y56.198 F12000
G1 F2400
G1 X68.522 Y95.319 E297.16007
G1 X67.876 Y95.319 F12000
G1 F2400
G1 X29.401 Y56.844 E299.2302
G1 X29.401 Y57.49 F12000
G1 F2400
G1 X67.23 Y95.319 E301.26555
G1 X66.583 Y95.319 F12000
G1 F2400
G1 X29.401 Y58.137 E303.26612
G1 X29.401 Y58.783 F12000
G1 F2400
G1 X65.937 Y95.319 E305.23191
G1 X65.29 Y95.319 F12000
G1 F2400
G1 X29.401 Y59.43 E307.16292
G1 X29.401 Y60.076 F12000
G1 F2400
G1 X64.644 Y95.319 E309.05915
G1 X63.998 Y95.319 F12000
G1 F2400
G1 X29.401 Y60.722 E310.9206
G1 X29.401 Y61.369 F12000
G1 F2400
G1 X63.351 Y95.319 E312.74727
G1 X62.705 Y95.319 F12000
G1 F2400
G1 X29.401 Y62.015 E314.53916
G1 X29.401 Y62.662 F12000
G1 F2400
G1 X62.058 Y95.319 E316.29627
G1 X61.412 Y95.319 F12000
G1 F2400
G1 X29.401 Y63.308 E318.0186
M73 P15 R26
G1 X29.401 Y63.954 F12000
G1 F2400
G1 X60.766 Y95.319 E319.70616
G1 X60.119 Y95.319 F12000
G1 F2400
G1 X29.401 Y64.601 E321.35893
G1 X29.401 Y65.247 F12000
G1 F2400
G1 X59.473 Y95.319 E322.97692
G1 X58.826 Y95.319 F12000
G1 F2400
G1 X29.401 Y65.894 E324.56013
G1 X29.401 Y66.54 F12000
G1 F2400
G1 X58.18 Y95.319 E326.10856
G1 X57.533 Y95.319 F12000
G1 F2400
G1 X29.401 Y67.187 E327.62221
G1 X29.401 Y67.833 F12000
G1 F2400
G1 X56.887 Y95.319 E329.10108
G1 X56.241 Y95.319 F12000
G1 F2400
G1 X29.401 Y68.479 E330.54518
G1 X29.401 Y69.126 F12000
G1 F2400
G1 X55.594 Y95.319 E331.95449
G1 X54.948 Y95.319 F12000
G1 F2400
G1 X29.401 Y69.772 E333.32902
G1 X29.401 Y70.419 F12000
G1 F2400
G1 X54.301 Y95.319 E334.66877
G1 X53.655 Y95.319 F12000
G1 F2400
G1 X29.401 Y71.065 E335.97374
G1 X29.401 Y71.711 F12000
G1 F2400
G1 X53.009 Y95.319 E337.24394
G1 X52.362 Y95.319 F12000
G1 F2400
G1 X29.401 Y72.358 E338.47935
G1 X29.401 Y73.004 F12000
G1 F2400
G1 X51.716 Y95.319 E339.67998
G1 X51.069 Y95.319 F12000
G1 F2400
G1 X29.401 Y73.651 E340.84583
G1 X29.401 Y74.297 F12000
G1 F2400
G1 X50.423 Y95.319 E341.97691
G1 X49.777 Y95.319 F12000
G1 F2400
G1 X29.401 Y74.943 E343.0732
M73 P16 R25
G1 X29.401 Y75.59 F12000
G1 F2400
G1 X49.13 Y95.319 E344.13471
G1 X48.484 Y95.319 F12000
G1 F2400
G1 X29.401 Y76.236 E345.16145
G1 X29.401 Y76.883 F12000
G1 F2400
G1 X47.837 Y95.319 E346.1534
G1 X47.191 Y95.319 F12000
G1 F2400
G1 X29.401 Y77.529 E347.11057
G1 X29.401 Y78.175 F12000
G1 F2400
G1 X46.545 Y95.319 E348.03297
G1 X45.898 Y95.319 F12000
G1 F2400
G1 X29.401 Y78.822 E348.92058
G1 X29.401 Y79.468 F12000
G1 F2400
G1 X45.252 Y95.319 E349.77341
G1 X44.605 Y95.319 F12000
G1 F2400
G1 X29.401 Y80.115 E350.59147
G1 X29.401 Y80.761 F12000
G1 F2400
G1 X43.959 Y95.319 E351.37474
G1 X43.313 Y95.319 F12000
G1 F2400
G1 X29.401 Y81.407 E352.12324
G1 X29.401 Y82.054 F12000
G1 F2400
G1 X42.666 Y95.319 E352.83695
G1 X42.02 Y95.319 F12000
G1 F2400
G1 X29.401 Y82.7 E353.51588
G1 X29.401 Y83.347 F12000
G1 F2400
G1 X41.373 Y95.319 E354.16004
G1 X40.727 Y95.319 F12000
G1 F2400
G1 X29.401 Y83.993 E354.76941
G1 X29.401 Y84.64 F12000
G1 F2400
G1 X40.08 Y95.319 E355.34401
G1 X39.434 Y95.319 F12000
