; HEADER_BLOCK_START
; generated by OrcaSlicer 1.6.3 on 2023-06-21 at 09:33:35
; total layer number: 43
; HEADER_BLOCK_END

; THUMBNAIL_BLOCK_START
; THUMBNAIL_BLOCK_END

; external perimeters extrusion width = 0.40mm
; perimeters extrusion width = 0.45mm
; infill extrusion width = 0.45mm
; solid infill extrusion width = 0.40mm
; top infill extrusion width = 0.40mm
; support material extrusion width = 0.40mm
; first layer extrusion width = 0.50mm

; EXECUTABLE_BLOCK_START
EXCLUDE_OBJECT_DEFINE NAME=Corpo13_verticale_5_carte.stl_id_0_copy_0 CENTER=60,60 POLYGON=[[30.1,15.9],[89.9,15.9],[89.9,98.1],[89.8795,98.5955],[89.8182,99.0876],[89.7164,99.5729],[89.5749,100.048],[89.3946,100.51],[89.1768,100.956],[88.923,101.382],[88.6348,101.785],[88.3143,102.164],[87.9637,102.514],[87.5853,102.835],[87.1817,103.123],[86.7557,103.377],[86.3102,103.595],[85.8482,103.775],[85.3729,103.916],[84.8876,104.018],[84.3955,104.08],[83.9,104.1],[36.1,104.1],[35.6045,104.08],[35.1124,104.018],[34.6271,103.916],[34.1518,103.775],[33.6898,103.595],[33.2443,103.377],[32.8183,103.123],[32.4147,102.835],[32.0363,102.514],[31.6857,102.164],[31.3652,101.785],[31.077,101.382],[30.8232,100.956],[30.6054,100.51],[30.4251,100.048],[30.2836,99.5729],[30.1818,99.0876],[30.1205,98.5955],[30.1,98.1],[30.1,15.9]]
M73 P0 R19
;TYPE:Custom
START_PRINT T_BED=110 T_EXTRUDER=260
G90
G21
M83 ; use relative distances for extrusion
; Filament gcode

    PRESSURE_ADVANCE_SELECT FILAMENT=ABS
M106 S0
;LAYER_CHANGE
;Z:0.2
;HEIGHT:0.2
;BEFORE_LAYER_CHANGE
;0.2
G92 E0

;AFTER_LAYER_CHANGE
;0.2
SET_VELOCITY_LIMIT ACCEL_TO_DECEL=500
M204 S1000
G1 E-.5 F3000
G1 Z.2 F21000
G1 X28.406 Y14.438
G1 E.5 F1800
;TYPE:Skirt
;WIDTH:0.5
G1 F3000
G1 X29.48 Y13.371 E.05327
G1 X30.927 Y12.986 E.05272
G1 X89.073 Y12.986 E2.04635
G1 X90.534 Y13.379 E.05327
G1 X91.602 Y14.452 E.05327
G1 X91.987 Y15.9 E.05272
G1 X91.987 Y98.1 E2.89294
G1 X91.894 Y99.312 E.04277
G1 X91.706 Y100.205 E.03211
G1 X91.255 Y101.458 E.04687
G1 X90.734 Y102.421 E.03854
G1 X90.206 Y103.16 E.03199
G1 X89.464 Y103.966 E.03854
G1 X88.218 Y104.936 E.05556
G1 X87.258 Y105.455 E.03841
G1 X86.408 Y105.786 E.03211
G1 X85.349 Y106.054 E.03841
G1 X84.448 Y106.167 E.03198
G1 X35.98 Y106.184 E1.70578
G1 X34.651 Y106.054 E.04699
G1 X33.589 Y105.785 E.03854
G1 X32.742 Y105.455 E.03199
G1 X31.774 Y104.931 E.03874
G1 X31.04 Y104.406 E.03179
G1 X30.234 Y103.664 E.03854
G1 X29.646 Y102.97 E.03199
G1 X29.047 Y102.054 E.03854
G1 X28.648 Y101.235 E.03206
G1 X28.293 Y100.201 E.03847
G1 X28.106 Y99.312 E.03198
G1 X28.016 Y98.22 E.03854
G1 X28.013 Y15.9 E2.89717
G1 X28.391 Y14.496 E.05116
G1 X28.844 Y14.63 F21000
G1 F3000
G1 X28.862 Y14.569 E.00223
G1 X29.913 Y13.662 E.04884
G1 X30.927 Y13.443 E.03653
G1 X89.073 Y13.443 E2.04635
G1 X90.404 Y13.835 E.04884
G1 X91.31 Y14.885 E.04884
G1 X91.53 Y15.9 E.03653
G1 X91.53 Y98.1 E2.89294
G1 X91.44 Y99.255 E.04078
G1 X91.268 Y100.074 E.02945
G1 X90.844 Y101.257 E.04421
G1 X90.341 Y102.187 E.03721
G1 X89.857 Y102.865 E.02933
G1 X89.141 Y103.643 E.03721
G1 X88.503 Y104.183 E.02939
G1 X87.62 Y104.76 E.03715
G1 X86.869 Y105.127 E.02939
G1 X85.871 Y105.469 E.03715
G1 X85.055 Y105.64 E.02933
G1 X84.002 Y105.728 E.03721
G1 X35.998 Y105.728 E1.68941
G1 X34.744 Y105.607 E.04434
G1 X33.719 Y105.347 E.03721
G1 X32.943 Y105.044 E.02933
G1 X32.009 Y104.538 E.0374
G1 X31.335 Y104.057 E.02914
G1 X30.557 Y103.341 E.03721
G1 X30.018 Y102.705 E.02933
G1 X29.44 Y101.82 E.03721
G1 X29.073 Y101.069 E.02939
G1 X28.731 Y100.071 E.03715
G1 X28.56 Y99.255 E.02933
G1 X28.472 Y98.202 E.03721
G1 X28.47 Y15.9 E2.89651
M73 P1 R19
G1 X28.827 Y14.687 E.04449
; printing object Corpo13 verticale 5 carte.stl id:0 copy 0
EXCLUDE_OBJECT_START NAME=Corpo13_verticale_5_carte.stl_id_0_copy_0
G1 E-.5
G1 Z.4 F21000
G1 X53.967 Y29.85
G1 Z.2
G1 E.5 F1800
;TYPE:Inner wall
G1 F3000
G1 X53.923 Y29.912 E.00267
G1 X53.566 Y30.517 E.02472
G1 X53.28 Y31.101 E.0229
G1 X53.033 Y31.734 E.02389
G1 X52.84 Y32.384 E.02389
G1 X52.7 Y33.048 E.02389
G1 X52.616 Y33.722 E.02389
G1 X52.59 Y34.354 E.02227
G1 X52.59 Y84.446 E1.76292
G1 X52.617 Y85.082 E.02242
G1 X52.706 Y85.779 E.02472
G1 X52.84 Y86.416 E.0229
G1 X53.033 Y87.066 E.02388
G1 X53.28 Y87.699 E.02389
G1 X53.58 Y88.312 E.02403
G1 X53.942 Y88.914 E.02472
G1 X54.32 Y89.444 E.0229
G1 X54.759 Y89.962 E.02389
G1 X55.238 Y90.442 E.02388
G1 X55.756 Y90.88 E.02389
G1 X56.312 Y91.277 E.02404
G1 X56.917 Y91.634 E.02472
G1 X57.501 Y91.92 E.0229
G1 X58.134 Y92.167 E.02389
G1 X58.784 Y92.36 E.02389
G1 X59.448 Y92.5 E.02388
G1 X60.122 Y92.584 E.02389
G1 X60.8 Y92.612 E.02388
G1 X61.478 Y92.584 E.02388
G1 X62.152 Y92.5 E.02389
G1 X62.816 Y92.36 E.02388
G1 X63.466 Y92.167 E.02389
G1 X64.103 Y91.919 E.02403
G1 X64.732 Y91.608 E.02472
G1 X65.291 Y91.275 E.0229
G1 X65.844 Y90.88 E.02389
G1 X66.362 Y90.442 E.02389
G1 X66.841 Y89.962 E.02388
G1 X67.28 Y89.444 E.02389
G1 X67.675 Y88.891 E.02388
G1 X68.022 Y88.308 E.02389
G1 X68.32 Y87.699 E.02389
G1 X68.567 Y87.066 E.02389
G1 X68.76 Y86.416 E.02389
G1 X68.9 Y85.752 E.02389
G1 X68.984 Y85.078 E.02389
G1 X69.01 Y84.446 E.02227
G1 X69.01 Y34.35 E1.76307
G1 X68.98 Y33.694 E.0231
G1 X68.9 Y33.048 E.0229
G1 X68.76 Y32.384 E.02389
G1 X68.567 Y31.734 E.02389
G1 X68.32 Y31.101 E.02389
G1 X68.022 Y30.492 E.02389
G1 X67.675 Y29.909 E.02389
G1 X67.28 Y29.356 E.02389
G1 X66.842 Y28.838 E.02388
G1 X66.359 Y28.355 E.02403
G1 X65.821 Y27.904 E.02472
G1 X65.291 Y27.525 E.0229
G1 X64.944 Y27.318 E.01423
G1 X65.055 Y27.091 E.0089
G1 X65.707 Y27.382 E.02512
G1 X66.111 Y27.609 E.01629
G1 X66.498 Y27.863 E.01629
G1 X66.866 Y28.143 E.01629
G1 X67.215 Y28.447 E.01629
G1 X67.542 Y28.774 E.01629
G1 X67.846 Y29.123 E.01629
G1 X68.126 Y29.492 E.01629
G1 X68.38 Y29.879 E.01629
G1 X68.607 Y30.282 E.01629
G1 X68.805 Y30.7 E.01629
G1 X68.975 Y31.13 E.01629
G1 X69.115 Y31.571 E.01629
G1 X69.225 Y32.021 E.01629
G1 X69.303 Y32.477 E.01629
G1 X69.351 Y32.937 E.01629
G1 X69.368 Y33.438 E.01762
G1 X69.368 Y93.201 E2.1033
G1 X69.392 Y93.83 E.02215
G1 X69.47 Y94.498 E.02366
G1 X69.598 Y95.158 E.02366
G1 X69.778 Y95.806 E.02366
G1 X70.006 Y96.438 E.02366
G1 X70.283 Y97.051 E.02366
G1 X70.606 Y97.64 E.02366
G1 X70.973 Y98.203 E.02366
G1 X71.382 Y98.736 E.02366
G1 X71.832 Y99.236 E.02366
G1 X72.318 Y99.7 E.02366
G1 X72.839 Y100.125 E.02366
G1 X73.391 Y100.508 E.02366
G1 X73.972 Y100.849 E.0237
G1 X73.917 Y101.051 E.00738
G1 X47.61 Y101.051 E.92586
G1 X47.556 Y100.846 E.00746
G1 X48.069 Y100.559 E.02066
G1 X48.638 Y100.179 E.0241
G1 X49.176 Y99.755 E.02411
G1 X49.679 Y99.29 E.0241
G1 X50.144 Y98.787 E.0241
G1 X50.568 Y98.249 E.02411
G1 X50.948 Y97.68 E.0241
G1 X51.283 Y97.082 E.02411
G1 X51.57 Y96.46 E.02411
G1 X51.807 Y95.817 E.0241
G1 X51.993 Y95.158 E.0241
G1 X52.126 Y94.486 E.02411
G1 X52.207 Y93.806 E.0241
G1 X52.232 Y93.166 E.02257
G1 X52.232 Y33.438 E2.10204
G1 X52.249 Y32.937 E.01762
G1 X52.297 Y32.477 E.01629
G1 X52.375 Y32.021 E.01629
G1 X52.485 Y31.571 E.01629
G1 X52.625 Y31.13 E.01629
G1 X52.795 Y30.7 E.01629
G1 X52.993 Y30.282 E.01629
G1 X53.22 Y29.879 E.01629
G1 X53.474 Y29.492 E.01629
G1 X53.754 Y29.123 E.01629
G1 X54.058 Y28.774 E.01629
G1 X54.385 Y28.447 E.01629
G1 X54.734 Y28.143 E.01629
G1 X55.102 Y27.863 E.01629
G1 X55.489 Y27.609 E.01629
G1 X55.893 Y27.382 E.01629
G1 X56.545 Y27.091 E.02512
G1 X56.656 Y27.318 E.0089
G1 X56.309 Y27.525 E.01423
G1 X55.756 Y27.92 E.02389
G1 X55.238 Y28.358 E.02389
G1 X54.758 Y28.838 E.02389
G1 X54.32 Y29.356 E.02388
G1 X54.002 Y29.802 E.01926
G1 X54.34 Y30.115 F21000
G1 F3000
G1 X54.681 Y29.637 E.02066
G1 X55.095 Y29.148 E.02255
G1 X55.548 Y28.695 E.02255
G1 X56.037 Y28.281 E.02256
G1 X56.559 Y27.908 E.02255
G1 X57.109 Y27.58 E.02256
G1 X57.685 Y27.299 E.02255
G1 X58.282 Y27.066 E.02255
G1 X58.896 Y26.883 E.02256
G1 X59.524 Y26.752 E.02256
G1 X60.16 Y26.672 E.02256
G1 X60.773 Y26.647 E.0216
G1 X61.437 Y26.672 E.02339
G1 X62.076 Y26.752 E.02267
G1 X62.704 Y26.883 E.02256
G1 X63.318 Y27.066 E.02255
G1 X63.915 Y27.299 E.02255
G1 X64.491 Y27.58 E.02256
G1 X65.041 Y27.908 E.02256
G1 X65.541 Y28.265 E.0216
G1 X66.049 Y28.693 E.02339
G1 X66.505 Y29.148 E.02267
G1 X66.919 Y29.637 E.02255
G1 X67.292 Y30.159 E.02256
G1 X67.62 Y30.709 E.02256
G1 X67.901 Y31.285 E.02255
G1 X68.134 Y31.882 E.02256
G1 X68.317 Y32.496 E.02256
G1 X68.448 Y33.124 E.02256
G1 X68.524 Y33.733 E.0216
G1 X68.553 Y34.36 E.02211
G1 X68.553 Y84.436 E1.76238
G1 X68.528 Y85.04 E.02127
G1 X68.448 Y85.676 E.02256
G1 X68.317 Y86.304 E.02255
G1 X68.134 Y86.918 E.02255
G1 X67.901 Y87.515 E.02256
G1 X67.62 Y88.091 E.02256
G1 X67.292 Y88.641 E.02256
G1 X66.919 Y89.163 E.02255
G1 X66.505 Y89.652 E.02256
G1 X66.052 Y90.105 E.02255
G1 X65.563 Y90.519 E.02256
G1 X65.041 Y90.892 E.02256
G1 X64.514 Y91.206 E.0216
G1 X63.918 Y91.5 E.02339
G1 X63.318 Y91.734 E.02267
G1 X62.704 Y91.917 E.02256
G1 X62.076 Y92.048 E.02255
G1 X61.44 Y92.128 E.02256
G1 X60.8 Y92.154 E.02255
G1 X60.16 Y92.128 E.02255
G1 X59.524 Y92.048 E.02256
G1 X58.896 Y91.917 E.02255
G1 X58.282 Y91.734 E.02256
G1 X57.685 Y91.501 E.02256
G1 X57.134 Y91.232 E.0216
G1 X56.562 Y90.894 E.02339
G1 X56.037 Y90.519 E.02267
G1 X55.548 Y90.105 E.02256
G1 X55.095 Y89.652 E.02255
G1 X54.681 Y89.163 E.02256
G1 X54.324 Y88.663 E.0216
G1 X53.982 Y88.094 E.02339
G1 X53.699 Y87.515 E.02267
G1 X53.466 Y86.918 E.02256
G1 X53.283 Y86.304 E.02255
G1 X53.157 Y85.703 E.0216
G1 X53.072 Y85.044 E.02339
G1 X53.047 Y84.436 E.02139
G1 X53.047 Y34.364 E1.76226
G1 X53.072 Y33.76 E.02127
G1 X53.152 Y33.124 E.02255
G1 X53.283 Y32.496 E.02256
G1 X53.466 Y31.882 E.02255
G1 X53.699 Y31.285 E.02256
G1 X53.968 Y30.734 E.0216
G1 X54.305 Y30.164 E.02329
G1 X54.712 Y30.38 F21000
G1 F3000
G1 X55.042 Y29.918 E.01995
G1 X55.432 Y29.458 E.02122
G1 X55.858 Y29.032 E.02122
G1 X56.318 Y28.642 E.02122
G1 X56.809 Y28.291 E.02122
G1 X57.327 Y27.983 E.02123
G1 X57.869 Y27.718 E.02122
G1 X58.431 Y27.499 E.02122
G1 X59.009 Y27.327 E.02122
G1 X59.599 Y27.203 E.02122
G1 X60.197 Y27.128 E.02123
G1 X60.774 Y27.104 E.0203
G1 X61.4 Y27.128 E.02206
G1 X62.001 Y27.203 E.02131
G1 X62.591 Y27.327 E.02122
G1 X63.169 Y27.499 E.02122
G1 X63.731 Y27.718 E.02122
G1 X64.273 Y27.983 E.02123
G1 X64.791 Y28.291 E.02122
G1 X65.26 Y28.627 E.0203
G1 X65.74 Y29.03 E.02206
G1 X66.168 Y29.458 E.02131
G1 X66.558 Y29.918 E.02122
G1 X66.909 Y30.409 E.02123
G1 X67.217 Y30.927 E.02122
G1 X67.482 Y31.469 E.02122
G1 X67.701 Y32.031 E.02123
G1 X67.873 Y32.609 E.02122
G1 X67.997 Y33.199 E.02122
G1 X68.069 Y33.771 E.0203
G1 X68.096 Y34.371 E.02111
G1 X68.096 Y84.427 E1.76168
M73 P2 R19
G1 X68.072 Y85.003 E.02027
G1 X67.997 Y85.601 E.02122
G1 X67.873 Y86.191 E.02122
G1 X67.701 Y86.769 E.02122
G1 X67.482 Y87.331 E.02122
G1 X67.217 Y87.873 E.02122
G1 X66.909 Y88.391 E.02123
G1 X66.558 Y88.882 E.02122
G1 X66.168 Y89.342 E.02123
G1 X65.742 Y89.768 E.02122
G1 X65.282 Y90.158 E.02122
G1 X64.791 Y90.509 E.02122
G1 X64.295 Y90.804 E.0203
G1 X63.733 Y91.081 E.02206
G1 X63.169 Y91.301 E.02131
G1 X62.591 Y91.473 E.02122
G1 X62.001 Y91.597 E.02122
G1 X61.403 Y91.672 E.02123
G1 X60.8 Y91.697 E.02122
G1 X60.197 Y91.672 E.02122
G1 X59.599 Y91.597 E.02122
G1 X59.009 Y91.473 E.02122
G1 X58.431 Y91.301 E.02122
G1 X57.869 Y91.082 E.02122
G1 X57.351 Y90.829 E.0203
G1 X56.811 Y90.51 E.02206
G1 X56.318 Y90.158 E.02131
G1 X55.858 Y89.768 E.02122
G1 X55.432 Y89.342 E.02122
G1 X55.042 Y88.882 E.02123
G1 X54.707 Y88.412 E.0203
G1 X54.384 Y87.875 E.02206
G1 X54.118 Y87.331 E.02131
G1 X53.899 Y86.769 E.02122
G1 X53.727 Y86.191 E.02122
G1 X53.608 Y85.627 E.0203
G1 X53.528 Y85.005 E.02206
G1 X53.504 Y84.427 E.02036
G1 X53.504 Y34.373 E1.76159
G1 X53.528 Y33.797 E.02027
G1 X53.603 Y33.199 E.02122
G1 X53.727 Y32.609 E.02122
G1 X53.899 Y32.031 E.02122
G1 X54.118 Y31.469 E.02122
G1 X54.371 Y30.951 E.0203
G1 X54.679 Y30.429 E.0213
G1 X55.085 Y30.644 F21000
G1 F3000
G1 X55.403 Y30.199 E.01925
G1 X55.768 Y29.768 E.01989
G1 X56.168 Y29.368 E.01989
G1 X56.599 Y29.003 E.01989
G1 X57.059 Y28.674 E.01989
G1 X57.545 Y28.385 E.01989
G1 X58.053 Y28.137 E.01989
G1 X58.579 Y27.931 E.01989
G1 X59.121 Y27.77 E.01989
G1 X59.674 Y27.654 E.01989
G1 X60.235 Y27.584 E.01989
G1 X60.775 Y27.562 E.019
G1 X61.363 Y27.584 E.02073
G1 X61.926 Y27.654 E.01995
G1 X62.479 Y27.77 E.01989
G1 X63.021 Y27.931 E.01989
G1 X63.547 Y28.137 E.01989
G1 X64.055 Y28.385 E.01989
G1 X64.541 Y28.674 E.01989
G1 X64.98 Y28.988 E.019
G1 X65.431 Y29.367 E.02073
G1 X65.832 Y29.768 E.01995
G1 X66.197 Y30.199 E.01989
G1 X66.526 Y30.659 E.01989
G1 X66.815 Y31.145 E.01989
G1 X67.063 Y31.653 E.01989
G1 X67.269 Y32.179 E.01989
G1 X67.43 Y32.721 E.01989
G1 X67.546 Y33.274 E.01989
G1 X67.613 Y33.81 E.019
G1 X67.639 Y34.381 E.02011
G1 X67.639 Y84.418 E1.76099
G1 X67.616 Y84.965 E.01927
G1 X67.546 Y85.526 E.01989
G1 X67.43 Y86.079 E.01989
G1 X67.269 Y86.621 E.01989
G1 X67.063 Y87.147 E.01989
G1 X66.815 Y87.655 E.01989
G1 X66.526 Y88.141 E.01989
G1 X66.197 Y88.601 E.01989
G1 X65.832 Y89.032 E.01989
G1 X65.432 Y89.432 E.01989
G1 X65.001 Y89.797 E.01989
G1 X64.541 Y90.126 E.01989
G1 X64.077 Y90.402 E.019
G1 X63.549 Y90.663 E.02073
G1 X63.021 Y90.869 E.01995
G1 X62.479 Y91.03 E.01989
G1 X61.926 Y91.146 E.01989
G1 X61.365 Y91.216 E.01989
G1 X60.8 Y91.239 E.01989
G1 X60.235 Y91.216 E.01989
G1 X59.674 Y91.146 E.01989
G1 X59.121 Y91.03 E.01989
G1 X58.579 Y90.869 E.01989
G1 X58.053 Y90.663 E.01989
G1 X57.568 Y90.426 E.019
G1 X57.061 Y90.127 E.02073
G1 X56.599 Y89.797 E.01995
G1 X56.168 Y89.432 E.01989
G1 X55.768 Y89.032 E.01989
G1 X55.403 Y88.601 E.01989
G1 X55.089 Y88.161 E.019
G1 X54.786 Y87.657 E.02073
G1 X54.537 Y87.147 E.01995
G1 X54.331 Y86.621 E.01989
G1 X54.17 Y86.079 E.01989
G1 X54.059 Y85.551 E.019
G1 X53.984 Y84.966 E.02073
G1 X53.961 Y84.418 E.01933
G1 X53.961 Y34.382 E1.76093
G1 X53.984 Y33.835 E.01927
G1 X54.054 Y33.274 E.01989
G1 X54.17 Y32.721 E.01989
G1 X54.331 Y32.179 E.01989
G1 X54.537 Y31.653 E.01989
G1 X54.774 Y31.168 E.019
G1 X55.053 Y30.695 E.01932
G1 X55.486 Y30.945 F21000
;TYPE:Outer wall
G1 F3000
G1 X55.493 Y30.934 E.00045
G1 X55.798 Y30.507 E.01846
G1 X56.136 Y30.107 E.01844
G1 X56.507 Y29.736 E.01844
G1 X56.907 Y29.398 E.01844
G1 X57.333 Y29.093 E.01844
G1 X57.783 Y28.825 E.01844
G1 X58.254 Y28.595 E.01844
G1 X58.742 Y28.405 E.01844
G1 X59.244 Y28.255 E.01844
G1 X59.757 Y28.148 E.01844
G1 X60.277 Y28.083 E.01844
G1 X60.776 Y28.062 E.01758
G1 X61.323 Y28.083 E.01927
G1 X61.843 Y28.148 E.01846
G1 X62.356 Y28.255 E.01844
G1 X62.858 Y28.405 E.01844
G1 X63.346 Y28.595 E.01844
G1 X63.817 Y28.825 E.01844
G1 X64.267 Y29.093 E.01844
G1 X64.674 Y29.384 E.01758
G1 X65.093 Y29.736 E.01927
G1 X65.464 Y30.107 E.01846
G1 X65.802 Y30.507 E.01844
G1 X66.107 Y30.933 E.01844
G1 X66.375 Y31.383 E.01844
G1 X66.605 Y31.854 E.01844
G1 X66.795 Y32.342 E.01844
G1 X66.945 Y32.844 E.01844
G1 X67.052 Y33.357 E.01844
G1 X67.114 Y33.852 E.01758
G1 X67.139 Y34.392 E.01902
G1 X67.139 Y84.407 E1.76023
G1 X67.117 Y84.923 E.01818
G1 X67.052 Y85.443 E.01844
G1 X66.945 Y85.956 E.01844
G1 X66.795 Y86.458 E.01844
G1 X66.605 Y86.946 E.01844
G1 X66.375 Y87.417 E.01844
G1 X66.107 Y87.867 E.01844
G1 X65.802 Y88.293 E.01844
G1 X65.464 Y88.693 E.01844
G1 X65.093 Y89.064 E.01844
G1 X64.693 Y89.402 E.01844
G1 X64.267 Y89.707 E.01844
G1 X63.838 Y89.962 E.01758
G1 X63.347 Y90.205 E.01927
G1 X62.858 Y90.395 E.01846
G1 X62.356 Y90.545 E.01844
G1 X61.843 Y90.652 E.01844
G1 X61.323 Y90.717 E.01844
G1 X60.8 Y90.739 E.01844
G1 X60.277 Y90.717 E.01844
G1 X59.757 Y90.652 E.01844
G1 X59.244 Y90.545 E.01844
G1 X58.742 Y90.395 E.01844
G1 X58.254 Y90.205 E.01844
G1 X57.805 Y89.986 E.01758
G1 X57.334 Y89.707 E.01927
G1 X56.907 Y89.402 E.01846
G1 X56.507 Y89.064 E.01844
G1 X56.136 Y88.693 E.01844
G1 X55.798 Y88.293 E.01844
G1 X55.508 Y87.887 E.01758
G1 X55.225 Y87.418 E.01927
G1 X54.995 Y86.946 E.01846
G1 X54.805 Y86.458 E.01844
G1 X54.655 Y85.956 E.01844
G1 X54.553 Y85.467 E.01758
G1 X54.483 Y84.924 E.01927
G1 X54.461 Y84.407 E.01821
G1 X54.461 Y34.393 E1.7602
G1 X54.483 Y33.877 E.01818
G1 X54.548 Y33.357 E.01844
G1 X54.655 Y32.844 E.01844
G1 X54.805 Y32.342 E.01844
G1 X54.995 Y31.854 E.01844
G1 X55.214 Y31.405 E.01758
G1 X55.456 Y30.996 E.01671
