; HEADER_BLOCK_START
; generated by OrcaSlicer 1.6.3 on 2023-06-21 at 12:22:33
; total layer number: 8
; HEADER_BLOCK_END

; THUMBNAIL_BLOCK_START
; THUMBNAIL_BLOCK_END

; external perimeters extrusion width = 0.40mm
; perimeters extrusion width = 0.45mm
; infill extrusion width = 0.45mm
; solid infill extrusion width = 0.40mm
; top infill extrusion width = 0.40mm
; support material extrusion width = 0.40mm
; first layer extrusion width = 0.50mm

; EXECUTABLE_BLOCK_START
EXCLUDE_OBJECT_DEFINE NAME=Corpo1_decorato_1mm.stl_id_0_copy_0 CENTER=60,60 POLYGON=[[30.1,16.4],[89.9,16.4],[89.9,97.6],[89.8795,98.0955],[89.8182,98.5876],[89.7164,99.0729],[89.5749,99.5482],[89.3946,100.01],[89.1768,100.456],[88.923,100.882],[88.6348,101.285],[88.3143,101.664],[87.9637,102.014],[87.5853,102.335],[87.1817,102.623],[86.7557,102.877],[86.3102,103.095],[85.8482,103.275],[85.3729,103.416],[84.8876,103.518],[84.3955,103.58],[83.9,103.6],[36.1,103.6],[35.6045,103.58],[35.1124,103.518],[34.6271,103.416],[34.1518,103.275],[33.6898,103.095],[33.2443,102.877],[32.8183,102.623],[32.4147,102.335],[32.0363,102.014],[31.6857,101.664],[31.3652,101.285],[31.077,100.882],[30.8232,100.456],[30.6054,100.01],[30.4251,99.5482],[30.2836,99.0729],[30.1818,98.5876],[30.1205,98.0955],[30.1,97.6],[30.1,16.4]]
M73 P0 R29
;TYPE:Custom
START_PRINT T_BED=110 T_EXTRUDER=260
G90
G21
M83 ; use relative distances for extrusion
; Filament gcode

    PRESSURE_ADVANCE_SELECT FILAMENT=ABS
M106 S0
;LAYER_CHANGE
;Z:0.2
;HEIGHT:0.2
;BEFORE_LAYER_CHANGE
;0.2
G92 E0

;AFTER_LAYER_CHANGE
;0.2
SET_VELOCITY_LIMIT ACCEL_TO_DECEL=500
M204 S1000
G1 E-.5 F3000
G1 Z.2 F21000
G1 X27.186 Y16.4
G1 E.5 F1800
;TYPE:Skirt
;WIDTH:0.5
G1 F3000
G1 X27.579 Y14.938 E.05327
G1 X28.652 Y13.871 E.05327
G1 X30.1 Y13.486 E.05272
G1 X89.9 Y13.486 E2.10459
G1 X91.362 Y13.879 E.05327
G1 X92.429 Y14.952 E.05327
G1 X92.814 Y16.4 E.05272
G1 X92.814 Y97.6 E2.85774
G1 X92.71 Y98.948 E.04758
G1 X92.368 Y100.38 E.0518
G1 X91.795 Y101.736 E.0518
G1 X91.295 Y102.575 E.03439
G1 X90.538 Y103.547 E.04335
G1 X89.847 Y104.238 E.03439
G1 X88.875 Y104.995 E.04335
G1 X88.036 Y105.495 E.03439
G1 X86.908 Y105.99 E.04335
G1 X86.204 Y106.209 E.02593
G1 X85.248 Y106.41 E.03439
G1 X84.02 Y106.512 E.04335
G1 X35.98 Y106.512 E1.69074
G1 X34.514 Y106.37 E.0518
G1 X33.32 Y106.068 E.04335
G1 X32.41 Y105.713 E.03439
G1 X31.125 Y104.995 E.0518
G1 X30.153 Y104.238 E.04335
G1 X29.462 Y103.547 E.03439
G1 X28.993 Y102.979 E.02592
G1 X28.32 Y101.947 E.04335
G1 X27.891 Y101.07 E.03439
G1 X27.491 Y99.904 E.04335
G1 X27.29 Y98.948 E.03439
G1 X27.188 Y97.72 E.04335
G1 X27.186 Y16.46 E2.85987
G1 X27.643 Y16.46 F21000
G1 F3000
G1 X27.643 Y16.4 E.00211
G1 X28.035 Y15.069 E.04884
G1 X29.085 Y14.162 E.04884
G1 X30.1 Y13.943 E.03653
G1 X89.9 Y13.943 E2.10459
G1 X91.231 Y14.335 E.04884
G1 X92.138 Y15.385 E.04884
G1 X92.357 Y16.4 E.03653
G1 X92.357 Y97.6 E2.85774
G1 X92.256 Y98.891 E.04559
G1 X91.93 Y100.249 E.04915
G1 X91.384 Y101.535 E.04915
G1 X90.923 Y102.309 E.03173
G1 X90.189 Y103.252 E.04202
G1 X89.552 Y103.889 E.03173
G1 X88.609 Y104.623 E.04202
G1 X87.835 Y105.084 E.03173
G1 X86.074 Y105.771 E.06652
G1 X85.191 Y105.956 E.03173
G1 X84.002 Y106.055 E.04202
G1 X35.998 Y106.055 E1.68941
G1 X34.608 Y105.923 E.04915
G1 X33.451 Y105.63 E.04202
G1 X32.611 Y105.302 E.03174
G1 X31.391 Y104.623 E.04915
G1 X29.948 Y103.401 E.06652
G1 X29.365 Y102.713 E.03173
G1 X28.712 Y101.713 E.04202
G1 X28.316 Y100.903 E.03173
G1 X27.929 Y99.774 E.04202
G1 X27.744 Y98.892 E.03173
G1 X27.645 Y97.702 E.04202
G1 X27.643 Y16.52 E2.85709
; printing object Corpo1 decorato 1mm.stl id:0 copy 0
EXCLUDE_OBJECT_START NAME=Corpo1_decorato_1mm.stl_id_0_copy_0
G1 E-.5
G1 Z.4 F21000
G1 X76.887 Y18.621
G1 Z.2
G1 E.5 F1800
;TYPE:Inner wall
G1 F3000
G1 X87.679 Y18.621 E.3798
G1 X87.679 Y97.554 E2.77795
G1 X87.664 Y97.912 E.01261
G1 X87.625 Y98.222 E.01099
G1 X87.561 Y98.527 E.01099
G1 X87.472 Y98.826 E.01099
G1 X87.359 Y99.117 E.01099
G1 X87.222 Y99.398 E.01099
G1 X87.062 Y99.666 E.01099
G1 X86.88 Y99.92 E.01099
G1 X86.679 Y100.158 E.01099
G1 X86.458 Y100.379 E.01099
G1 X86.22 Y100.58 E.01099
G1 X85.966 Y100.762 E.01098
G1 X85.698 Y100.922 E.01099
G1 X85.417 Y101.059 E.01099
G1 X85.126 Y101.172 E.01099
G1 X84.827 Y101.261 E.01099
G1 X84.522 Y101.325 E.01099
G1 X84.212 Y101.364 E.01099
G1 X83.854 Y101.379 E.01261
G1 X36.146 Y101.379 E1.67903
G1 X35.788 Y101.364 E.01261
G1 X35.478 Y101.325 E.01099
G1 X35.173 Y101.261 E.01099
G1 X34.874 Y101.172 E.01099
G1 X34.583 Y101.059 E.01099
G1 X34.302 Y100.922 E.01099
G1 X34.034 Y100.762 E.01099
G1 X33.78 Y100.58 E.01099
G1 X33.542 Y100.379 E.01099
G1 X33.321 Y100.158 E.01099
G1 X33.12 Y99.92 E.01099
G1 X32.938 Y99.666 E.01099
G1 X32.778 Y99.398 E.01099
G1 X32.641 Y99.117 E.01099
G1 X32.528 Y98.826 E.01099
G1 X32.439 Y98.527 E.01099
G1 X32.375 Y98.222 E.01099
G1 X32.336 Y97.912 E.01099
G1 X32.321 Y97.554 E.01261
G1 X32.321 Y18.621 E2.77795
M73 P1 R29
G1 X43.113 Y18.621 E.3798
G1 X47.458 Y27.447 E.34621
G1 X47.797 Y28.084 E.02539
G1 X48.192 Y28.728 E.0266
G1 X48.626 Y29.347 E.0266
G1 X49.098 Y29.937 E.0266
G1 X49.605 Y30.498 E.0266
G1 X50.146 Y31.025 E.0266
G1 X50.719 Y31.519 E.0266
G1 X51.321 Y31.976 E.0266
G1 X51.95 Y32.395 E.0266
G1 X52.604 Y32.774 E.0266
G1 X53.28 Y33.112 E.0266
G1 X53.975 Y33.408 E.0266
G1 X54.688 Y33.66 E.0266
G1 X55.415 Y33.868 E.0266
G1 X56.153 Y34.03 E.0266
G1 X56.899 Y34.147 E.0266
G1 X57.652 Y34.217 E.0266
G1 X58.373 Y34.239 E.02539
G1 X61.627 Y34.239 E.11452
G1 X62.348 Y34.217 E.02539
G1 X63.101 Y34.147 E.0266
G1 X63.847 Y34.03 E.0266
G1 X64.585 Y33.868 E.0266
G1 X65.312 Y33.66 E.0266
G1 X66.025 Y33.408 E.0266
G1 X66.72 Y33.112 E.0266
G1 X67.396 Y32.774 E.0266
G1 X68.05 Y32.395 E.0266
G1 X68.679 Y31.976 E.0266
G1 X69.281 Y31.519 E.0266
G1 X69.854 Y31.025 E.0266
G1 X70.395 Y30.498 E.0266
G1 X70.902 Y29.937 E.0266
G1 X71.374 Y29.347 E.0266
G1 X71.808 Y28.728 E.0266
G1 X72.203 Y28.084 E.0266
G1 X72.542 Y27.447 E.02539
G1 X76.86 Y18.675 E.3441
G1 X76.603 Y18.164 F21000
G1 F3000
G1 X88.136 Y18.164 E.4059
G1 X88.136 Y97.564 E2.79437
G1 X88.12 Y97.95 E.0136
G1 X88.077 Y98.297 E.01232
G1 X88.005 Y98.639 E.01232
G1 X87.905 Y98.975 E.01232
G1 X87.778 Y99.301 E.01232
G1 X87.624 Y99.615 E.01232
G1 X87.445 Y99.916 E.01232
G1 X87.241 Y100.201 E.01232
G1 X87.015 Y100.468 E.01232
G1 X86.768 Y100.715 E.01232
G1 X86.501 Y100.942 E.01232
G1 X86.216 Y101.145 E.01231
G1 X85.915 Y101.324 E.01232
G1 X85.601 Y101.478 E.01232
G1 X85.275 Y101.605 E.01232
G1 X84.939 Y101.705 E.01232
G1 X84.597 Y101.777 E.01232
G1 X84.25 Y101.82 E.01232
G1 X83.863 Y101.836 E.0136
G1 X36.137 Y101.836 E1.6797
G1 X35.75 Y101.82 E.0136
G1 X35.403 Y101.777 E.01232
G1 X35.061 Y101.705 E.01232
G1 X34.725 Y101.605 E.01232
G1 X34.399 Y101.478 E.01232
G1 X34.085 Y101.324 E.01232
G1 X33.784 Y101.145 E.01232
G1 X33.499 Y100.941 E.01232
G1 X33.232 Y100.715 E.01232
G1 X32.985 Y100.468 E.01232
G1 X32.759 Y100.201 E.01232
G1 X32.555 Y99.916 E.01232
G1 X32.376 Y99.615 E.01232
G1 X32.222 Y99.301 E.01232
G1 X32.095 Y98.975 E.01232
G1 X31.995 Y98.639 E.01232
G1 X31.923 Y98.297 E.01232
G1 X31.88 Y97.95 E.01232
G1 X31.864 Y97.563 E.0136
G1 X31.864 Y18.164 E2.79437
G1 X43.397 Y18.164 E.4059
G1 X47.865 Y27.239 E.35597
G1 X48.194 Y27.857 E.02464
G1 X48.574 Y28.477 E.0256
G1 X48.992 Y29.072 E.02561
G1 X49.446 Y29.641 E.0256
G1 X49.935 Y30.18 E.0256
G1 X50.455 Y30.688 E.0256
G1 X51.007 Y31.163 E.02561
G1 X51.586 Y31.603 E.0256
G1 X52.192 Y32.007 E.02561
G1 X52.821 Y32.372 E.0256
G1 X53.472 Y32.697 E.02561
G1 X54.141 Y32.982 E.0256
G1 X54.827 Y33.225 E.02561
G1 X55.526 Y33.424 E.02561
G1 X56.237 Y33.581 E.0256
G1 X56.956 Y33.693 E.02561
G1 X57.68 Y33.76 E.0256
G1 X58.38 Y33.782 E.02464
G1 X61.62 Y33.782 E.11402
G1 X62.32 Y33.76 E.02464
G1 X63.044 Y33.693 E.0256
G1 X63.763 Y33.581 E.02561
G1 X64.474 Y33.424 E.0256
G1 X65.173 Y33.225 E.02561
G1 X65.859 Y32.982 E.02561
G1 X66.528 Y32.697 E.0256
G1 X67.179 Y32.372 E.0256
G1 X67.808 Y32.007 E.02561
G1 X68.414 Y31.603 E.02561
G1 X68.993 Y31.163 E.0256
G1 X69.545 Y30.688 E.02561
G1 X70.065 Y30.18 E.0256
G1 X70.554 Y29.641 E.02561
G1 X71.008 Y29.072 E.0256
G1 X71.426 Y28.477 E.0256
G1 X71.806 Y27.857 E.02561
G1 X72.135 Y27.239 E.02464
G1 X76.576 Y18.218 E.35386
G1 X76.318 Y17.707 F21000
G1 F3000
G1 X88.593 Y17.707 E.432
G1 X88.593 Y97.573 E2.81079
G1 X88.576 Y97.987 E.0146
G1 X88.528 Y98.372 E.01365
G1 X88.448 Y98.752 E.01365
G1 X88.338 Y99.123 E.01365
G1 X88.197 Y99.485 E.01365
G1 X88.026 Y99.833 E.01365
G1 X87.828 Y100.166 E.01365
G1 X87.602 Y100.482 E.01365
G1 X87.352 Y100.778 E.01365
G1 X87.078 Y101.052 E.01365
G1 X86.782 Y101.303 E.01365
G1 X86.466 Y101.528 E.01365
G1 X86.133 Y101.726 E.01365
G1 X85.785 Y101.897 E.01365
G1 X85.423 Y102.038 E.01365
G1 X85.052 Y102.148 E.01365
G1 X84.672 Y102.228 E.01365
G1 X84.287 Y102.276 E.01365
G1 X83.873 Y102.293 E.0146
G1 X36.127 Y102.293 E1.68036
G1 X35.713 Y102.276 E.0146
G1 X35.328 Y102.228 E.01365
G1 X34.948 Y102.148 E.01365
G1 X34.577 Y102.038 E.01365
G1 X34.215 Y101.897 E.01365
G1 X33.867 Y101.726 E.01365
G1 X33.534 Y101.528 E.01365
G1 X33.218 Y101.302 E.01365
G1 X32.922 Y101.052 E.01365
G1 X32.648 Y100.778 E.01365
G1 X32.398 Y100.482 E.01365
G1 X32.172 Y100.166 E.01365
G1 X31.974 Y99.833 E.01365
G1 X31.803 Y99.485 E.01365
G1 X31.662 Y99.123 E.01365
G1 X31.552 Y98.752 E.01365
G1 X31.472 Y98.372 E.01365
G1 X31.424 Y97.987 E.01365
G1 X31.407 Y97.573 E.0146
G1 X31.407 Y17.707 E2.81079
G1 X43.682 Y17.707 E.432
G1 X48.272 Y27.03 E.36574
M73 P1 R28
G1 X48.591 Y27.63 E.0239
G1 X48.956 Y28.226 E.02461
G1 X49.358 Y28.798 E.02461
G1 X49.795 Y29.345 E.02461
G1 X50.264 Y29.863 E.02461
G1 X50.765 Y30.351 E.02461
G1 X51.294 Y30.808 E.02461
G1 X51.851 Y31.231 E.02461
G1 X52.433 Y31.618 E.02461
G1 X53.038 Y31.969 E.02461
G1 X53.663 Y32.282 E.02461
G1 X54.307 Y32.556 E.02461
G1 X54.966 Y32.789 E.02461
G1 X55.638 Y32.981 E.02461
G1 X56.321 Y33.131 E.02461
G1 X57.012 Y33.239 E.02461
G1 X57.709 Y33.304 E.02461
G1 X58.387 Y33.325 E.0239
G1 X61.613 Y33.325 E.11352
G1 X62.291 Y33.304 E.0239
G1 X62.988 Y33.239 E.02461
G1 X63.679 Y33.131 E.02461
G1 X64.362 Y32.981 E.02461
G1 X65.034 Y32.789 E.02461
G1 X65.693 Y32.556 E.02461
G1 X66.337 Y32.282 E.02461
G1 X66.962 Y31.969 E.02461
G1 X67.567 Y31.618 E.02461
G1 X68.149 Y31.231 E.02461
G1 X68.706 Y30.808 E.02461
G1 X69.235 Y30.351 E.02461
G1 X69.736 Y29.863 E.02461
G1 X70.205 Y29.345 E.02461
G1 X70.642 Y28.798 E.02461
G1 X71.044 Y28.226 E.02461
G1 X71.409 Y27.63 E.02461
G1 X71.728 Y27.03 E.0239
G1 X76.292 Y17.761 E.36362
G1 X76.034 Y17.25 F21000
G1 F3000
G1 X89.05 Y17.25 E.45809
G1 X89.05 Y97.582 E2.82721
G1 X89.032 Y98.025 E.0156
G1 X88.979 Y98.448 E.01498
G1 X88.892 Y98.864 E.01498
G1 X88.77 Y99.272 E.01498
G1 X88.616 Y99.668 E.01498
G1 X88.429 Y100.051 E.01498
G1 X88.211 Y100.416 E.01498
G1 X87.963 Y100.763 E.01498
G1 X87.688 Y101.088 E.01498
G1 X87.388 Y101.388 E.01498
G1 X87.063 Y101.664 E.01498
G1 X86.716 Y101.911 E.01498
G1 X86.351 Y102.129 E.01498
G1 X85.968 Y102.316 E.01498
G1 X85.572 Y102.47 E.01498
G1 X85.164 Y102.592 E.01498
G1 X84.748 Y102.679 E.01498
G1 X84.325 Y102.732 E.01498
G1 X83.882 Y102.75 E.0156
G1 X36.118 Y102.75 E1.68103
G1 X35.675 Y102.732 E.0156
G1 X35.252 Y102.679 E.01498
G1 X34.836 Y102.592 E.01498
G1 X34.428 Y102.47 E.01498
G1 X34.032 Y102.316 E.01498
G1 X33.649 Y102.129 E.01498
G1 X33.284 Y101.911 E.01498
G1 X32.937 Y101.664 E.01498
G1 X32.612 Y101.388 E.01498
G1 X32.312 Y101.088 E.01498
G1 X32.037 Y100.763 E.01498
G1 X31.789 Y100.416 E.01498
G1 X31.571 Y100.051 E.01498
G1 X31.384 Y99.668 E.01498
G1 X31.23 Y99.272 E.01498
G1 X31.108 Y98.864 E.01498
G1 X31.021 Y98.448 E.01498
G1 X30.968 Y98.025 E.01498
G1 X30.95 Y97.582 E.0156
G1 X30.95 Y17.25 E2.82721
M73 P2 R28
G1 X43.966 Y17.25 E.45809
G1 X48.679 Y26.822 E.3755
G1 X48.988 Y27.403 E.02315
G1 X49.339 Y27.975 E.02361
G1 X49.724 Y28.524 E.02362
G1 X50.143 Y29.048 E.02361
G1 X50.593 Y29.546 E.02361
G1 X51.074 Y30.014 E.02361
G1 X51.582 Y30.452 E.02361
G1 X52.116 Y30.858 E.02361
G1 X52.675 Y31.23 E.02362
G1 X53.255 Y31.567 E.02361
G1 X53.855 Y31.867 E.02361
G1 X54.473 Y32.129 E.02361
G1 X55.105 Y32.353 E.02361
G1 X55.75 Y32.538 E.02362
G1 X56.406 Y32.682 E.02361
G1 X57.069 Y32.785 E.02361
G1 X57.737 Y32.847 E.02361
G1 X58.394 Y32.868 E.02315
G1 X61.606 Y32.868 E.11302
G1 X62.263 Y32.847 E.02315
G1 X62.931 Y32.785 E.02361
G1 X63.594 Y32.682 E.02361
G1 X64.25 Y32.538 E.02361
G1 X64.895 Y32.353 E.02362
G1 X65.527 Y32.129 E.02361
G1 X66.145 Y31.867 E.02361
G1 X66.745 Y31.567 E.02362
G1 X67.325 Y31.23 E.02361
G1 X67.884 Y30.858 E.02362
G1 X68.418 Y30.452 E.02361
G1 X68.926 Y30.014 E.02362
G1 X69.407 Y29.546 E.02361
G1 X69.857 Y29.048 E.02361
G1 X70.276 Y28.524 E.02361
G1 X70.661 Y27.975 E.02361
G1 X71.012 Y27.403 E.02361
G1 X71.321 Y26.822 E.02315
G1 X76.007 Y17.304 E.37338
G1 X75.723 Y16.75 F21000
;TYPE:Outer wall
G1 F3000
G1 X89.55 Y16.75 E.48664
G1 X89.55 Y97.593 E2.84517
G1 X89.53 Y98.067 E.01669
G1 X89.473 Y98.53 E.01643
G1 X89.377 Y98.987 E.01643
G1 X89.244 Y99.434 E.01643
G1 X89.074 Y99.869 E.01643
G1 X88.869 Y100.289 E.01643
G1 X88.63 Y100.69 E.01643
G1 X88.358 Y101.07 E.01643
G1 X88.057 Y101.426 E.01643
G1 X87.726 Y101.757 E.01643
G1 X87.37 Y102.058 E.01643
G1 X86.99 Y102.33 E.01643
G1 X86.589 Y102.569 E.01643
G1 X86.169 Y102.774 E.01643
G1 X85.734 Y102.944 E.01643
G1 X85.287 Y103.077 E.01643
G1 X84.83 Y103.173 E.01643
G1 X84.367 Y103.23 E.01643
G1 X83.893 Y103.25 E.01669
G1 X36.107 Y103.25 E1.68176
G1 X35.633 Y103.23 E.01669
G1 X35.17 Y103.173 E.01643
G1 X34.713 Y103.077 E.01643
G1 X34.266 Y102.944 E.01643
G1 X33.831 Y102.774 E.01643
G1 X33.411 Y102.569 E.01643
G1 X33.01 Y102.33 E.01643
G1 X32.63 Y102.058 E.01643
G1 X32.274 Y101.757 E.01644
G1 X31.943 Y101.426 E.01643
G1 X31.642 Y101.07 E.01643
G1 X31.37 Y100.69 E.01643
G1 X31.131 Y100.289 E.01643
G1 X30.926 Y99.869 E.01643
G1 X30.756 Y99.434 E.01643
G1 X30.623 Y98.987 E.01643
G1 X30.527 Y98.53 E.01643
G1 X30.47 Y98.067 E.01643
G1 X30.45 Y97.593 E.01669
G1 X30.45 Y16.75 E2.84517
G1 X44.277 Y16.75 E.48664
G1 X44.402 Y17.003 E.00991
G1 X49.124 Y26.594 E.37627
G1 X49.422 Y27.155 E.02233
G1 X49.757 Y27.7 E.02253
G1 X50.125 Y28.224 E.02253
G1 X50.524 Y28.724 E.02253
G1 X50.954 Y29.199 E.02253
G1 X51.412 Y29.646 E.02253
G1 X51.897 Y30.063 E.02253
G1 X52.406 Y30.45 E.02253
G1 X52.939 Y30.805 E.02253
G1 X53.493 Y31.126 E.02252
G1 X54.065 Y31.413 E.02253
G1 X54.654 Y31.663 E.02253
G1 X55.257 Y31.877 E.02253
G1 X55.873 Y32.053 E.02253
G1 X56.498 Y32.19 E.02253
G1 X57.13 Y32.289 E.02253
G1 X57.768 Y32.348 E.02253
G1 X58.402 Y32.368 E.02234
G1 X61.598 Y32.368 E.11248
G1 X62.232 Y32.348 E.02234
G1 X62.87 Y32.289 E.02253
G1 X63.502 Y32.19 E.02253
G1 X64.127 Y32.053 E.02253
G1 X64.743 Y31.877 E.02253
G1 X65.346 Y31.663 E.02253
G1 X65.935 Y31.413 E.02253
G1 X66.507 Y31.126 E.02253
G1 X67.061 Y30.805 E.02253
G1 X67.594 Y30.45 E.02253
G1 X68.103 Y30.063 E.02253
G1 X68.588 Y29.646 E.02253
G1 X69.046 Y29.199 E.02253
G1 X69.476 Y28.724 E.02253
G1 X69.875 Y28.224 E.02253
G1 X70.243 Y27.7 E.02253
G1 X70.578 Y27.155 E.02253
G1 X70.876 Y26.594 E.02233
G1 X75.696 Y16.804 E.38406
G1 X75.785 Y16.8
G1 E-.5
G1 Z.4 F21000
G1 X87.542 Y19.685
G1 Z.2
G1 E.5 F1800
;TYPE:Bottom surface
;WIDTH:0.501369
G1 F6300
G1 X86.82 Y18.964 E.036
G1 X86.172 Y18.964 E.02289
G1 X87.336 Y20.128 E.0581
G1 X87.336 Y20.776 E.02289
G1 X85.524 Y18.964 E.09047
G1 X84.875 Y18.964 E.02289
G1 X87.336 Y21.425 E.12283
G1 X87.336 Y22.073 E.02289
G1 X84.227 Y18.964 E.1552
G1 X83.579 Y18.964 E.02289
G1 X87.336 Y22.721 E.18756
G1 X87.336 Y23.37 E.02289
G1 X82.93 Y18.964 E.21993
G1 X82.282 Y18.964 E.02289
G1 X87.336 Y24.018 E.2523
G1 X87.336 Y24.666 E.02289
G1 X81.634 Y18.964 E.28466
G1 X80.985 Y18.964 E.02289
G1 X87.336 Y25.315 E.31703
G1 X87.336 Y25.963 E.02289
G1 X80.337 Y18.964 E.34939
G1 X79.689 Y18.964 E.02289
G1 X87.336 Y26.611 E.38176
G1 X87.336 Y27.26 E.02289
G1 X79.04 Y18.964 E.41412
G1 X78.392 Y18.964 E.02289
G1 X87.336 Y27.908 E.44649
G1 X87.336 Y28.556 E.02289
G1 X77.744 Y18.964 E.47886
G1 X77.099 Y18.967 E.02277
G1 X87.336 Y29.205 E.51105
G1 X87.336 Y29.853 E.02289
