; HEADER_BLOCK_START
; generated by OrcaSlicer 1.6.3 on 2023-06-21 at 11:46:02
; total layer number: 46
; HEADER_BLOCK_END

; THUMBNAIL_BLOCK_START
; THUMBNAIL_BLOCK_END

; external perimeters extrusion width = 0.40mm
; perimeters extrusion width = 0.45mm
; infill extrusion width = 0.45mm
; solid infill extrusion width = 0.40mm
; top infill extrusion width = 0.40mm
; support material extrusion width = 0.40mm
; first layer extrusion width = 0.50mm

; EXECUTABLE_BLOCK_START
EXCLUDE_OBJECT_DEFINE NAME=Corpo13_verticale_5_carte.stl_id_0_copy_0 CENTER=60,60 POLYGON=[[30.1,15.9],[89.9,15.9],[89.9,98.1],[89.8795,98.5955],[89.8182,99.0876],[89.7164,99.5729],[89.5749,100.048],[89.3946,100.51],[89.1768,100.956],[88.923,101.382],[88.6348,101.785],[88.3143,102.164],[87.9637,102.514],[87.5853,102.835],[87.1817,103.123],[86.7557,103.377],[86.3102,103.595],[85.8482,103.775],[85.3729,103.916],[84.8876,104.018],[84.3955,104.08],[83.9,104.1],[36.1,104.1],[35.6045,104.08],[35.1124,104.018],[34.6271,103.916],[34.1518,103.775],[33.6898,103.595],[33.2443,103.377],[32.8183,103.123],[32.4147,102.835],[32.0363,102.514],[31.6857,102.164],[31.3652,101.785],[31.077,101.382],[30.8232,100.956],[30.6054,100.51],[30.4251,100.048],[30.2836,99.5729],[30.1818,99.0876],[30.1205,98.5955],[30.1,98.1],[30.1,15.9]]
M73 P0 R20
;TYPE:Custom
START_PRINT T_BED=110 T_EXTRUDER=260
G90
G21
M83 ; use relative distances for extrusion
; Filament gcode

    PRESSURE_ADVANCE_SELECT FILAMENT=ABS
M106 S0
;LAYER_CHANGE
;Z:0.2
;HEIGHT:0.2
;BEFORE_LAYER_CHANGE
;0.2
G92 E0

;AFTER_LAYER_CHANGE
;0.2
SET_VELOCITY_LIMIT ACCEL_TO_DECEL=500
M204 S1000
G1 E-.5 F3000
G1 Z.2 F21000
G1 X28.427 Y14.438
G1 E.5 F1800
;TYPE:Skirt
;WIDTH:0.5
G1 F3000
G1 X29.5 Y13.371 E.05327
G1 X30.948 Y12.986 E.05272
G1 X89.052 Y12.986 E2.04492
G1 X90.514 Y13.379 E.05327
G1 X91.581 Y14.452 E.05327
G1 X91.966 Y15.9 E.05272
G1 X91.966 Y98.1 E2.89294
G1 X91.874 Y99.308 E.04266
G1 X91.688 Y100.196 E.03192
G1 X91.333 Y101.229 E.03842
G1 X90.717 Y102.41 E.04688
G1 X89.751 Y103.65 E.05532
G1 X88.948 Y104.39 E.03842
G1 X88.21 Y104.917 E.03192
G1 X87.25 Y105.436 E.03842
G1 X86.404 Y105.766 E.03193
G1 X85.346 Y106.034 E.03842
G1 X84.446 Y106.146 E.03192
G1 X35.98 Y106.164 E1.70572
G1 X34.892 Y106.074 E.03842
G1 X33.596 Y105.766 E.04688
G1 X32.75 Y105.436 E.03193
G1 X31.79 Y104.917 E.03842
G1 X31.052 Y104.39 E.03193
G1 X30.249 Y103.65 E.03842
G1 X29.662 Y102.958 E.03193
G1 X29.065 Y102.044 E.03842
G1 X28.667 Y101.229 E.03193
G1 X28.312 Y100.196 E.03842
G1 X28.126 Y99.308 E.03192
G1 X28.036 Y98.22 E.03842
G1 X28.034 Y15.9 E2.89717
G1 X28.411 Y14.496 E.05116
G1 X28.865 Y14.63 F21000
G1 F3000
G1 X28.883 Y14.569 E.00223
G1 X29.933 Y13.662 E.04884
G1 X30.948 Y13.443 E.03653
G1 X89.052 Y13.443 E2.04492
G1 X90.383 Y13.835 E.04884
G1 X91.29 Y14.885 E.04884
G1 X91.509 Y15.9 E.03653
G1 X91.509 Y98.1 E2.89294
G1 X91.42 Y99.252 E.04066
G1 X91.249 Y100.066 E.02927
G1 X90.907 Y101.063 E.03709
G1 X90.324 Y102.176 E.04422
G1 X89.841 Y102.853 E.02927
G1 X89.127 Y103.628 E.03709
G1 X88.492 Y104.166 E.02927
G1 X87.61 Y104.742 E.0371
G1 X86.863 Y105.107 E.02927
G1 X85.866 Y105.449 E.0371
G1 X85.052 Y105.62 E.02927
G1 X84.002 Y105.707 E.03709
G1 X35.998 Y105.707 E1.68941
G1 X34.948 Y105.62 E.03709
G1 X33.726 Y105.328 E.04422
G1 X32.951 Y105.026 E.02927
G1 X32.024 Y104.524 E.03709
G1 X31.347 Y104.041 E.02927
G1 X30.572 Y103.327 E.03709
G1 X30.034 Y102.692 E.02927
G1 X29.458 Y101.81 E.03709
G1 X29.093 Y101.063 E.02927
G1 X28.751 Y100.066 E.03709
G1 X28.58 Y99.252 E.02927
G1 X28.493 Y98.202 E.0371
G1 X28.491 Y15.9 E2.89651
M73 P1 R20
G1 X28.848 Y14.687 E.04449
; printing object Corpo13 verticale 5 carte.stl id:0 copy 0
EXCLUDE_OBJECT_START NAME=Corpo13_verticale_5_carte.stl_id_0_copy_0
G1 E-.5
G1 Z.4 F21000
G1 X73.938 Y100.829
G1 Z.2
G1 E.5 F1800
;TYPE:Inner wall
G1 F3000
G1 X73.883 Y101.031 E.00738
G1 X47.646 Y101.031 E.92336
G1 X47.593 Y100.826 E.00746
G1 X48.069 Y100.559 E.0192
G1 X48.638 Y100.179 E.0241
G1 X49.176 Y99.755 E.02411
G1 X49.682 Y99.287 E.02424
G1 X50.16 Y98.766 E.0249
G1 X50.568 Y98.249 E.02318
G1 X50.948 Y97.68 E.0241
G1 X51.283 Y97.082 E.02411
G1 X51.57 Y96.46 E.02411
G1 X51.807 Y95.817 E.0241
G1 X51.993 Y95.158 E.0241
G1 X52.126 Y94.486 E.02411
G1 X52.207 Y93.806 E.0241
G1 X52.232 Y93.166 E.02257
G1 X52.232 Y33.438 E2.10204
G1 X52.249 Y32.937 E.01762
G1 X52.297 Y32.477 E.01629
G1 X52.375 Y32.021 E.01629
G1 X52.485 Y31.571 E.01629
G1 X52.625 Y31.13 E.01628
G1 X52.795 Y30.7 E.01629
G1 X52.993 Y30.282 E.01629
G1 X53.22 Y29.879 E.01629
G1 X53.474 Y29.492 E.01629
G1 X53.754 Y29.123 E.01629
G1 X54.058 Y28.774 E.01629
G1 X54.385 Y28.447 E.01629
G1 X54.734 Y28.143 E.01629
G1 X55.102 Y27.863 E.01629
G1 X55.489 Y27.609 E.01629
G1 X55.893 Y27.382 E.01629
G1 X56.545 Y27.091 E.02512
G1 X56.656 Y27.318 E.0089
G1 X56.309 Y27.525 E.01423
G1 X55.756 Y27.92 E.02389
G1 X55.238 Y28.358 E.02389
G1 X54.758 Y28.838 E.02389
G1 X54.32 Y29.356 E.02388
G1 X53.925 Y29.909 E.02389
G1 X53.578 Y30.492 E.02389
G1 X53.28 Y31.101 E.02389
G1 X53.033 Y31.734 E.02389
G1 X52.84 Y32.384 E.02388
G1 X52.7 Y33.048 E.02389
G1 X52.616 Y33.722 E.02389
G1 X52.59 Y34.354 E.02227
G1 X52.59 Y84.45 E1.76306
G1 X52.62 Y85.104 E.02304
G1 X52.7 Y85.752 E.02297
G1 X52.84 Y86.416 E.02389
G1 X53.033 Y87.066 E.02389
G1 X53.28 Y87.699 E.02389
G1 X53.58 Y88.312 E.02402
G1 X53.94 Y88.912 E.02466
G1 X54.32 Y89.444 E.02298
G1 X54.758 Y89.962 E.02389
G1 X55.238 Y90.442 E.02388
G1 X55.759 Y90.883 E.02402
G1 X56.331 Y91.288 E.02466
G1 X56.892 Y91.622 E.02298
G1 X57.501 Y91.92 E.02388
G1 X58.134 Y92.167 E.02389
G1 X58.784 Y92.36 E.02389
G1 X59.448 Y92.5 E.02388
G1 X60.122 Y92.584 E.02389
G1 X60.8 Y92.612 E.02388
G1 X61.478 Y92.584 E.02388
G1 X62.152 Y92.5 E.02389
G1 X62.816 Y92.36 E.02388
G1 X63.466 Y92.167 E.02389
G1 X64.099 Y91.92 E.02389
G1 X64.708 Y91.622 E.02389
G1 X65.291 Y91.275 E.02388
G1 X65.844 Y90.88 E.02389
G1 X66.362 Y90.442 E.02389
G1 X66.841 Y89.962 E.02388
G1 X67.28 Y89.444 E.02389
G1 X67.675 Y88.891 E.02388
G1 X68.022 Y88.308 E.02389
G1 X68.32 Y87.699 E.02388
G1 X68.567 Y87.066 E.02389
G1 X68.76 Y86.416 E.02389
G1 X68.9 Y85.752 E.02389
G1 X68.984 Y85.078 E.02389
G1 X69.01 Y84.446 E.02227
G1 X69.01 Y34.35 E1.76306
G1 X68.98 Y33.696 E.02304
G1 X68.9 Y33.048 E.02297
G1 X68.76 Y32.384 E.02389
G1 X68.567 Y31.734 E.02389
G1 X68.319 Y31.098 E.02402
G1 X68.009 Y30.469 E.02466
G1 X67.675 Y29.909 E.02297
G1 X67.28 Y29.356 E.02389
G1 X66.842 Y28.838 E.02388
G1 X66.359 Y28.356 E.02402
G1 X65.823 Y27.905 E.02466
G1 X65.291 Y27.525 E.02297
G1 X64.944 Y27.318 E.01423
G1 X65.055 Y27.091 E.0089
G1 X65.289 Y27.184 E.00884
G1 X65.704 Y27.381 E.01617
G1 X66.131 Y27.622 E.01724
G1 X66.498 Y27.863 E.01544
G1 X66.866 Y28.143 E.01629
G1 X67.215 Y28.447 E.01629
G1 X67.542 Y28.774 E.01629
G1 X67.846 Y29.123 E.01629
G1 X68.126 Y29.492 E.01629
G1 X68.38 Y29.879 E.01629
G1 X68.605 Y30.279 E.01617
G1 X68.814 Y30.722 E.01725
G1 X68.975 Y31.13 E.01544
G1 X69.115 Y31.571 E.01629
G1 X69.225 Y32.021 E.01629
G1 X69.303 Y32.477 E.01629
G1 X69.351 Y32.937 E.01629
G1 X69.368 Y33.438 E.01762
G1 X69.368 Y93.201 E2.1033
G1 X69.392 Y93.83 E.02215
G1 X69.47 Y94.498 E.02366
G1 X69.598 Y95.158 E.02366
G1 X69.778 Y95.806 E.02366
G1 X70.006 Y96.438 E.02366
G1 X70.283 Y97.051 E.02366
G1 X70.606 Y97.64 E.02366
G1 X70.973 Y98.203 E.02366
G1 X71.367 Y98.716 E.02275
G1 X71.829 Y99.234 E.02444
G1 X72.318 Y99.7 E.02378
G1 X72.839 Y100.125 E.02366
G1 X73.391 Y100.508 E.02366
G1 X73.886 Y100.798 E.02017
G1 E-.5
G1 Z.4 F21000
G1 X55.06 Y89.61
G1 Z.2
G1 E.5 F1800
G1 F3000
G1 X54.681 Y89.163 E.02063
G1 X54.323 Y88.662 E.02167
G1 X53.982 Y88.093 E.02333
G1 X53.699 Y87.515 E.02266
G1 X53.466 Y86.918 E.02256
G1 X53.283 Y86.304 E.02256
G1 X53.152 Y85.676 E.02255
G1 X53.075 Y85.065 E.02167
G1 X53.047 Y84.44 E.02204
G1 X53.047 Y34.364 E1.76237
G1 X53.072 Y33.76 E.02127
G1 X53.152 Y33.124 E.02255
G1 X53.283 Y32.496 E.02256
G1 X53.466 Y31.882 E.02255
G1 X53.699 Y31.285 E.02256
G1 X53.98 Y30.709 E.02256
G1 X54.308 Y30.159 E.02256
G1 X54.681 Y29.637 E.02256
G1 X55.095 Y29.148 E.02255
G1 X55.548 Y28.695 E.02256
G1 X56.037 Y28.281 E.02256
G1 X56.559 Y27.908 E.02255
G1 X57.109 Y27.58 E.02256
G1 X57.685 Y27.299 E.02255
G1 X58.282 Y27.066 E.02256
G1 X58.896 Y26.883 E.02255
G1 X59.524 Y26.752 E.02256
G1 X60.16 Y26.672 E.02256
G1 X60.775 Y26.647 E.02167
G1 X61.437 Y26.672 E.02332
G1 X62.076 Y26.752 E.02267
G1 X62.704 Y26.883 E.02256
G1 X63.318 Y27.066 E.02255
G1 X63.915 Y27.299 E.02256
G1 X64.491 Y27.58 E.02255
G1 X65.041 Y27.908 E.02256
G1 X65.542 Y28.266 E.02167
G1 X66.05 Y28.693 E.02333
G1 X66.505 Y29.148 E.02266
G1 X66.919 Y29.637 E.02255
G1 X67.292 Y30.159 E.02256
G1 X67.607 Y30.688 E.02167
G1 X67.9 Y31.282 E.02333
G1 X68.134 Y31.882 E.02267
G1 X68.317 Y32.496 E.02256
G1 X68.448 Y33.124 E.02255
G1 X68.525 Y33.735 E.02167
G1 X68.553 Y34.36 E.02204
G1 X68.553 Y84.436 E1.76237
G1 X68.528 Y85.04 E.02127
G1 X68.448 Y85.676 E.02255
G1 X68.317 Y86.304 E.02256
G1 X68.134 Y86.918 E.02256
G1 X67.901 Y87.515 E.02256
G1 X67.62 Y88.091 E.02255
G1 X67.292 Y88.641 E.02256
G1 X66.919 Y89.163 E.02255
G1 X66.505 Y89.652 E.02256
G1 X66.052 Y90.105 E.02255
G1 X65.563 Y90.519 E.02256
G1 X65.041 Y90.892 E.02256
G1 X64.491 Y91.22 E.02255
G1 X63.915 Y91.501 E.02256
G1 X63.318 Y91.734 E.02256
G1 X62.704 Y91.917 E.02256
G1 X62.076 Y92.048 E.02255
G1 X61.44 Y92.128 E.02256
G1 X60.8 Y92.154 E.02255
G1 X60.16 Y92.128 E.02255
G1 X59.524 Y92.048 E.02256
G1 X58.896 Y91.917 E.02255
G1 X58.282 Y91.734 E.02256
G1 X57.685 Y91.501 E.02256
G1 X57.109 Y91.22 E.02255
G1 X56.58 Y90.904 E.02167
G1 X56.04 Y90.521 E.02333
G1 X55.548 Y90.105 E.02266
G1 X55.099 Y89.655 E.02237
G1 X55.408 Y89.314 F21000
G1 F3000
G1 X55.042 Y88.882 E.01992
G1 X54.706 Y88.411 E.02037
G1 X54.384 Y87.875 E.02199
G1 X54.118 Y87.331 E.02131
G1 X53.899 Y86.769 E.02122
G1 X53.727 Y86.191 E.02122
G1 X53.603 Y85.601 E.02122
G1 X53.531 Y85.027 E.02037
G1 X53.504 Y84.429 E.02104
G1 X53.504 Y34.373 E1.76167
G1 X53.528 Y33.797 E.02027
G1 X53.603 Y33.199 E.02122
G1 X53.727 Y32.609 E.02122
G1 X53.899 Y32.031 E.02122
G1 X54.118 Y31.469 E.02122
M73 P2 R20
G1 X54.383 Y30.927 E.02122
G1 X54.691 Y30.409 E.02122
G1 X55.042 Y29.918 E.02123
G1 X55.432 Y29.458 E.02122
G1 X55.858 Y29.032 E.02122
G1 X56.318 Y28.642 E.02122
G1 X56.809 Y28.291 E.02122
G1 X57.327 Y27.983 E.02123
G1 X57.869 Y27.718 E.02122
G1 X58.431 Y27.499 E.02122
G1 X59.009 Y27.327 E.02122
G1 X59.599 Y27.203 E.02122
G1 X60.197 Y27.128 E.02123
G1 X60.776 Y27.104 E.02037
G1 X61.4 Y27.128 E.02199
G1 X62.001 Y27.203 E.02131
G1 X62.591 Y27.327 E.02122
G1 X63.169 Y27.499 E.02122
G1 X63.731 Y27.718 E.02122
G1 X64.273 Y27.983 E.02122
G1 X64.791 Y28.291 E.02123
G1 X65.262 Y28.628 E.02037
G1 X65.74 Y29.03 E.022
G1 X66.168 Y29.458 E.02131
G1 X66.558 Y29.918 E.02122
G1 X66.909 Y30.409 E.02123
G1 X67.205 Y30.906 E.02037
G1 X67.481 Y31.467 E.02199
G1 X67.701 Y32.031 E.02131
G1 X67.873 Y32.609 E.02122
G1 X67.997 Y33.199 E.02122
G1 X68.069 Y33.773 E.02037
G1 X68.096 Y34.371 E.02104
G1 X68.096 Y84.427 E1.76167
G1 X68.072 Y85.003 E.02027
G1 X67.997 Y85.601 E.02122
G1 X67.873 Y86.191 E.02122
G1 X67.701 Y86.769 E.02122
G1 X67.482 Y87.331 E.02122
G1 X67.217 Y87.873 E.02122
G1 X66.909 Y88.391 E.02123
G1 X66.558 Y88.882 E.02122
G1 X66.168 Y89.342 E.02123
G1 X65.742 Y89.768 E.02122
G1 X65.282 Y90.158 E.02122
G1 X64.791 Y90.509 E.02123
G1 X64.273 Y90.817 E.02122
G1 X63.731 Y91.082 E.02122
G1 X63.169 Y91.301 E.02122
G1 X62.591 Y91.473 E.02122
G1 X62.001 Y91.597 E.02122
G1 X61.403 Y91.672 E.02122
G1 X60.8 Y91.697 E.02122
G1 X60.197 Y91.672 E.02122
G1 X59.599 Y91.597 E.02122
G1 X59.009 Y91.473 E.02122
G1 X58.431 Y91.301 E.02122
G1 X57.869 Y91.082 E.02122
G1 X57.327 Y90.817 E.02122
G1 X56.83 Y90.521 E.02037
G1 X56.32 Y90.16 E.02199
G1 X55.858 Y89.768 E.02131
G1 X55.448 Y89.358 E.02042
G1 X55.782 Y89.046 F21000
G1 F3000
G1 X55.768 Y89.032 E.00068
G1 X55.403 Y88.601 E.01989
G1 X55.088 Y88.16 E.01907
G1 X54.786 Y87.656 E.02066
G1 X54.537 Y87.147 E.01995
G1 X54.331 Y86.621 E.01989
G1 X54.17 Y86.079 E.01989
G1 X54.054 Y85.526 E.01989
G1 X53.987 Y84.988 E.01907
G1 X53.961 Y84.419 E.02005
G1 X53.961 Y34.382 E1.76098
G1 X53.984 Y33.835 E.01927
G1 X54.054 Y33.274 E.01989
G1 X54.17 Y32.721 E.01989
G1 X54.331 Y32.179 E.01989
G1 X54.537 Y31.653 E.01989
G1 X54.785 Y31.145 E.01989
G1 X55.074 Y30.659 E.01989
G1 X55.403 Y30.199 E.01989
G1 X55.768 Y29.768 E.01989
G1 X56.168 Y29.368 E.01989
G1 X56.599 Y29.003 E.01989
G1 X57.059 Y28.674 E.01989
G1 X57.545 Y28.385 E.01989
G1 X58.053 Y28.137 E.01989
G1 X58.579 Y27.931 E.01989
G1 X59.121 Y27.77 E.01989
G1 X59.674 Y27.654 E.01989
G1 X60.235 Y27.584 E.01989
G1 X60.777 Y27.562 E.01907
G1 X61.363 Y27.584 E.02066
G1 X61.926 Y27.654 E.01995
G1 X62.479 Y27.77 E.01989
G1 X63.021 Y27.931 E.01989
G1 X63.547 Y28.137 E.01989
G1 X64.055 Y28.385 E.01989
G1 X64.541 Y28.674 E.01989
G1 X64.982 Y28.989 E.01907
G1 X65.431 Y29.367 E.02066
G1 X65.832 Y29.768 E.01995
G1 X66.197 Y30.199 E.01989
G1 X66.526 Y30.659 E.01989
G1 X66.803 Y31.125 E.01907
G1 X67.063 Y31.651 E.02066
G1 X67.269 Y32.179 E.01995
G1 X67.43 Y32.721 E.01989
G1 X67.546 Y33.274 E.01989
G1 X67.613 Y33.812 E.01907
G1 X67.639 Y34.381 E.02005
G1 X67.639 Y84.418 E1.76098
G1 X67.616 Y84.965 E.01927
G1 X67.546 Y85.526 E.01989
G1 X67.43 Y86.079 E.01989
G1 X67.269 Y86.621 E.01989
G1 X67.063 Y87.147 E.01989
G1 X66.815 Y87.655 E.01989
G1 X66.526 Y88.141 E.01989
G1 X66.197 Y88.601 E.01989
G1 X65.832 Y89.032 E.01989
G1 X65.432 Y89.432 E.01989
G1 X65.001 Y89.797 E.01989
G1 X64.541 Y90.126 E.01989
G1 X64.055 Y90.415 E.01989
G1 X63.547 Y90.663 E.01989
G1 X63.021 Y90.869 E.01989
G1 X62.479 Y91.03 E.01989
G1 X61.926 Y91.146 E.01989
G1 X61.365 Y91.216 E.01989
G1 X60.8 Y91.239 E.01989
G1 X60.235 Y91.216 E.01989
G1 X59.674 Y91.146 E.01989
G1 X59.121 Y91.03 E.01989
G1 X58.579 Y90.869 E.01989
G1 X58.053 Y90.663 E.01989
G1 X57.545 Y90.415 E.01989
G1 X57.079 Y90.138 E.01907
G1 X56.6 Y89.798 E.02066
G1 X56.168 Y89.432 E.01995
G1 X55.824 Y89.088 E.01711
G1 X56.14 Y88.696 F21000
;TYPE:Outer wall
G1 F3000
G1 X56.136 Y88.693 E.00016
G1 X55.798 Y88.293 E.01844
G1 X55.506 Y87.885 E.01764
G1 X55.225 Y87.418 E.01921
G1 X54.995 Y86.946 E.01846
G1 X54.805 Y86.458 E.01844
G1 X54.655 Y85.956 E.01844
G1 X54.548 Y85.443 E.01844
G1 X54.486 Y84.946 E.01764
G1 X54.461 Y84.408 E.01895
G1 X54.461 Y34.393 E1.76022
G1 X54.483 Y33.877 E.01818
G1 X54.548 Y33.357 E.01844
G1 X54.655 Y32.844 E.01844
G1 X54.805 Y32.342 E.01844
G1 X54.995 Y31.854 E.01844
G1 X55.225 Y31.383 E.01844
G1 X55.493 Y30.933 E.01844
G1 X55.798 Y30.507 E.01844
G1 X56.136 Y30.107 E.01844
G1 X56.507 Y29.736 E.01844
G1 X56.907 Y29.398 E.01844
G1 X57.333 Y29.093 E.01844
G1 X57.783 Y28.825 E.01844
G1 X58.254 Y28.595 E.01844
G1 X58.742 Y28.405 E.01844
G1 X59.244 Y28.255 E.01844
G1 X59.757 Y28.148 E.01844
G1 X60.277 Y28.083 E.01844
G1 X60.777 Y28.062 E.01764
G1 X61.323 Y28.083 E.01921
G1 X61.843 Y28.148 E.01846
G1 X62.356 Y28.255 E.01844
G1 X62.858 Y28.405 E.01844
G1 X63.346 Y28.595 E.01844
G1 X63.817 Y28.825 E.01844
G1 X64.267 Y29.093 E.01844
G1 X64.675 Y29.385 E.01764
G1 X65.093 Y29.736 E.01921
G1 X65.464 Y30.107 E.01846
G1 X65.802 Y30.507 E.01844
G1 X66.107 Y30.933 E.01844
G1 X66.363 Y31.364 E.01764
G1 X66.605 Y31.853 E.01921
G1 X66.795 Y32.342 E.01846
G1 X66.945 Y32.844 E.01844
G1 X67.052 Y33.357 E.01844
G1 X67.114 Y33.854 E.01764
G1 X67.139 Y34.392 E.01895
G1 X67.139 Y84.407 E1.76022
G1 X67.117 Y84.923 E.01818
G1 X67.052 Y85.443 E.01844
G1 X66.945 Y85.956 E.01844
G1 X66.795 Y86.458 E.01844
G1 X66.605 Y86.946 E.01844
G1 X66.375 Y87.417 E.01844
G1 X66.107 Y87.867 E.01844
G1 X65.802 Y88.293 E.01844
G1 X65.464 Y88.693 E.01844
G1 X65.093 Y89.064 E.01844
G1 X64.693 Y89.402 E.01844
G1 X64.267 Y89.707 E.01844
G1 X63.817 Y89.975 E.01844
G1 X63.346 Y90.205 E.01844
G1 X62.858 Y90.395 E.01844
G1 X62.356 Y90.545 E.01844
G1 X61.843 Y90.652 E.01844
G1 X61.323 Y90.717 E.01844
G1 X60.8 Y90.739 E.01844
G1 X60.277 Y90.717 E.01844
G1 X59.757 Y90.652 E.01844
G1 X59.244 Y90.545 E.01844
G1 X58.742 Y90.395 E.01844
G1 X58.254 Y90.205 E.01844
G1 X57.783 Y89.975 E.01844
G1 X57.352 Y89.718 E.01764
