; generated by SuperSlicer 2.5.59 on 2023-01-09 at 19:30:11 UTC


;
;

;
;
; 

; external perimeters extrusion width = 0.40mm
; perimeters extrusion width = 0.46mm
; infill extrusion width = 0.64mm
; solid infill extrusion width = 0.56mm
; top infill extrusion width = 0.40mm
; support material extrusion width = 0.46mm
; first layer extrusion width = 0.50mm

; object:{"name":"soporte_motor_nema_z_axis","id":"soporte_motor_nema_z_axis.STL id:0 copy 0","object_center":[60.000001,60.000000,0.000000],"boundingbox_center":[60.000001,60.000000,20.000000],"boundingbox_size":[62.000000,29.000000,40.000000]}
; plater:{"center":[60.000001,60.000000,0.000000],"boundingbox_center":[60.000001,60.000000,20.000000],"boundingbox_size":[62.000000,29.000000,40.000000]}

M73 P0 R64
;TYPE:Custom
; custom gcode: start_gcode
START_PRINT T_BED=110 T_EXTRUDER=240
; custom gcode end: start_gcode
M107
G21 ; set units to millimeters
G90 ; use absolute coordinates
M83 ; use relative distances for extrusion
; custom gcode: start_filament_gcode
; Filament gcode

    PRESSURE_ADVANCE_SELECT FILAMENT=ABS
; custom gcode end: start_filament_gcode
;_TOOLCHANGE 0
M104 S240 ; set temperature
M109 S240 ; set temperature and wait for it to be reached
M190 S110 ; set bed temperature and wait for it to be reached
;LAYER_CHANGE
;Z:0.2
;HEIGHT:0.2
G1 Z0.2 F12000
G92 E0
G1 E-0.5 F3000
M204 S2000
G1 X26.879 Y42.621 F12000
G1 E0.5 F1800
;TYPE:Skirt
;WIDTH:0.52
G1 X25.779 Y43.934 E0.06657
G1 X25.384 Y45.6 E0.06657
G1 X25.384 Y62.4 E0.65312
G1 X25.808 Y64.122 E0.06894
G1 X26.93 Y65.416 E0.06657
G1 X41.528 Y75.922 E0.69921
G1 X42.797 Y76.511 E0.05439
G1 X69.962 Y83.302 E1.08856
G1 X70.863 Y83.413 E0.0353
G1 X83.093 Y83.413 E0.47544
G1 X85.179 Y82.772 E0.08484
G1 X92.986 Y77.475 E0.36678
G1 X94.221 Y76.066 E0.07281
G1 X94.616 Y74.4 E0.06657
G1 X94.616 Y57.6 E0.65312
G1 X94.331 Y56.173 E0.05657
G1 X93.326 Y54.786 E0.06657
G1 X91.807 Y53.997 E0.06657
G1 X44.114 Y41.997 E1.91187
G1 X43.208 Y41.884 E0.03552
G1 X29.1 Y41.884 E0.54845
G1 X26.879 Y42.621 E0.09097
G1 X27.257 Y42.971 F12000
G1 F1800
G1 X26.255 Y44.052 E0.05728
G1 X25.861 Y45.6 E0.06209
G1 X25.861 Y62.4 E0.65312
G1 X26.182 Y63.805 E0.05602
G1 X27.208 Y65.029 E0.06209
G1 X41.807 Y75.535 E0.69921
G1 X42.913 Y76.048 E0.04741
G1 X70.078 Y82.839 E1.08856
G1 X70.863 Y82.936 E0.03077
G1 X83.093 Y82.936 E0.47544
G1 X84.911 Y82.377 E0.07395
G1 X92.718 Y77.08 E0.36678
G1 X93.745 Y75.948 E0.05941
G1 X94.139 Y74.4 E0.06209
G1 X94.139 Y57.6 E0.65312
G1 X93.966 Y56.558 E0.04107
G1 X93.095 Y55.219 E0.06209
G1 X91.69 Y54.459 E0.06209
G1 X43.998 Y42.459 E1.91187
G1 X43.208 Y42.361 E0.03096
G1 X29.1 Y42.361 E0.54845
G1 X27.341 Y42.881 E0.0713
G1 X27.257 Y42.971 E0.00481
G1 E-0.5 F3000
; printing object soporte_motor_nema_z_axis.STL id:0 copy 0
; acceleration to travel
M204 S4000
G1 X38.218 Y56.643 F12000
; decel to extrusion
M204 S2000
G1 X43.698 Y63.479
; end travel
G1 E0.5 F1800
;TYPE:Support material
;WIDTH:0.5
G1 X76.527 Y63.479 E1.22276
G1 X76.937 Y63.524 E0.01534
G1 X77.025 Y63.533 E0.00331
G1 X77.29 Y63.563 E0.00993
G1 X77.617 Y63.676 E0.0129
G1 X77.938 Y63.788 E0.01266
G1 X78.211 Y63.963 E0.01206
G1 X78.474 Y64.133 E0.01168
G1 X78.673 Y64.35 E0.01096
G1 X78.863 Y64.558 E0.0105
G1 X78.98 Y64.795 E0.00985
G1 X79.093 Y65.023 E0.00946
G1 X79.131 Y65.264 E0.00907
G1 X79.18 Y65.576 E0.01179
G1 X79.18 Y74.847 E0.34529
G1 X79.811 Y75.479 E0.03328
G1 X83.093 Y75.479 E0.12222
G1 X83.093 Y79.697 E0.15713
G1 X70.863 Y79.697 E0.45551
G1 X70.863 Y76.302 E0.12647
G1 X57.281 Y76.302 E0.5059
G1 X57.281 Y72.906 E0.12647
G1 X43.698 Y72.906 E0.5059
G1 X43.698 Y63.479 E0.35114
; acceleration to travel
M204 S4000
M73 P0 R63
G1 X69.464 Y74.215 F12000
; decel to extrusion
M204 S2000
G1 X82.346 Y79.583
; end travel
G1 F1800
G1 X82.346 Y75.789 E0.1413
G1 X81.838 Y75.789 E0.01892
G1 X81.838 Y79.386 E0.13398
G1 X81.33 Y79.386 E0.01892
G1 X81.33 Y75.789 E0.13398
M73 P0 R63
G1 X80.823 Y75.789 E0.01892
G1 X80.823 Y79.386 E0.13398
G1 X80.315 Y79.386 E0.01892
G1 X80.315 Y75.789 E0.13398
G1 X79.807 Y75.789 E0.01892
G1 X79.807 Y79.386 E0.13398
G1 X79.299 Y79.386 E0.01892
G1 X79.299 Y75.406 E0.14827
G1 X78.869 Y74.975 E0.02266
G1 X78.869 Y65.601 E0.34918
G1 X78.823 Y65.312 E0.01089
G1 X78.791 Y65.114 E0.00747
G1 X78.791 Y79.386 E0.5316
G1 X78.283 Y79.386 E0.01892
G1 X78.283 Y64.385 E0.55876
G1 X78.272 Y64.372 E0.00061
G1 X78.042 Y64.225 E0.01018
G1 X77.801 Y64.069 E0.01068
G1 X77.775 Y64.06 E0.00102
G1 X77.775 Y79.386 E0.57084
G1 X77.267 Y79.386 E0.01892
G1 X77.267 Y63.884 E0.57741
G1 X77.221 Y63.868 E0.00183
G1 X76.991 Y63.842 E0.00863
G1 X76.902 Y63.833 E0.00331
G1 X76.76 Y63.817 E0.00536
G1 X76.76 Y79.386 E0.57991
G1 X76.252 Y79.386 E0.01892
G1 X76.252 Y63.789 E0.58093
G1 X75.744 Y63.789 E0.01892
G1 X75.744 Y79.386 E0.58093
G1 X75.236 Y79.386 E0.01892
G1 X75.236 Y63.789 E0.58093
G1 X74.728 Y63.789 E0.01892
G1 X74.728 Y79.386 E0.58093
G1 X74.22 Y79.386 E0.01892
G1 X74.22 Y63.789 E0.58093
G1 X73.712 Y63.789 E0.01892
G1 X73.712 Y79.386 E0.58093
G1 X73.205 Y79.386 E0.01892
G1 X73.205 Y63.789 E0.58093
G1 X72.697 Y63.789 E0.01892
G1 X72.697 Y79.386 E0.58093
G1 X72.189 Y79.386 E0.01892
G1 X72.189 Y63.789 E0.58093
G1 X71.681 Y63.789 E0.01892
G1 X71.681 Y79.386 E0.58093
G1 X71.174 Y79.386 E0.01888
G1 X71.173 Y75.991 E0.12647
G1 X71.173 Y63.789 E0.45446
G1 X70.665 Y63.789 E0.01892
G1 X70.665 Y75.991 E0.45446
G1 X70.157 Y75.991 E0.01892
G1 X70.157 Y63.789 E0.45446
G1 X69.649 Y63.789 E0.01892
G1 X69.649 Y75.991 E0.45446
G1 X69.142 Y75.991 E0.01892
G1 X69.142 Y63.789 E0.45446
G1 X68.634 Y63.789 E0.01892
G1 X68.634 Y75.991 E0.45446
G1 X68.126 Y75.991 E0.01892
G1 X68.126 Y63.789 E0.45446
G1 X67.618 Y63.789 E0.01892
G1 X67.618 Y75.991 E0.45446
G1 X67.11 Y75.991 E0.01892
G1 X67.11 Y63.789 E0.45446
G1 X66.602 Y63.789 E0.01892
G1 X66.602 Y75.991 E0.45446
G1 X66.094 Y75.991 E0.01892
G1 X66.094 Y63.789 E0.45446
G1 X65.587 Y63.789 E0.01892
G1 X65.587 Y75.991 E0.45446
G1 X65.079 Y75.991 E0.01892
G1 X65.079 Y63.789 E0.45446
G1 X64.571 Y63.789 E0.01892
G1 X64.571 Y75.991 E0.45446
G1 X64.063 Y75.991 E0.01892
G1 X64.063 Y63.789 E0.45446
G1 X63.555 Y63.789 E0.01892
G1 X63.555 Y75.991 E0.45446
G1 X63.047 Y75.991 E0.01892
G1 X63.047 Y63.789 E0.45446
G1 X62.539 Y63.789 E0.01892
G1 X62.539 Y75.991 E0.45446
G1 X62.031 Y75.991 E0.01892
G1 X62.031 Y63.789 E0.45446
G1 X61.524 Y63.789 E0.01892
G1 X61.524 Y75.991 E0.45446
G1 X61.016 Y75.991 E0.01892
G1 X61.016 Y63.789 E0.45446
G1 X60.508 Y63.789 E0.01892
G1 X60.508 Y75.991 E0.45446
G1 X60 Y75.991 E0.01892
G1 X60 Y63.789 E0.45446
G1 X59.492 Y63.789 E0.01892
G1 X59.492 Y75.991 E0.45446
G1 X58.984 Y75.991 E0.01892
G1 X58.984 Y63.789 E0.45446
G1 X58.476 Y63.789 E0.01892
G1 X58.476 Y75.991 E0.45446
G1 X57.969 Y75.991 E0.01892
G1 X57.969 Y63.789 E0.45446
G1 X57.461 Y63.789 E0.01892
G1 X57.461 Y72.595 E0.32798
G1 X56.953 Y72.595 E0.01892
G1 X56.953 Y63.789 E0.32798
G1 X56.445 Y63.789 E0.01892
G1 X56.445 Y72.595 E0.32798
G1 X55.937 Y72.595 E0.01892
G1 X55.937 Y63.789 E0.32798
G1 X55.429 Y63.789 E0.01892
G1 X55.429 Y72.595 E0.32798
G1 X54.921 Y72.595 E0.01892
G1 X54.921 Y63.789 E0.32798
G1 X54.413 Y63.789 E0.01892
G1 X54.413 Y72.595 E0.32798
G1 X53.906 Y72.595 E0.01892
G1 X53.906 Y63.789 E0.32798
G1 X53.398 Y63.789 E0.01892
G1 X53.398 Y72.595 E0.32798
G1 X52.89 Y72.595 E0.01892
G1 X52.89 Y63.789 E0.32798
G1 X52.382 Y63.789 E0.01892
G1 X52.382 Y72.595 E0.32798
G1 X51.874 Y72.595 E0.01892
G1 X51.874 Y63.789 E0.32798
G1 X51.366 Y63.789 E0.01892
G1 X51.366 Y72.595 E0.32798
G1 X50.858 Y72.595 E0.01892
G1 X50.858 Y63.789 E0.32798
G1 X50.351 Y63.789 E0.01892
G1 X50.351 Y72.595 E0.32798
G1 X49.843 Y72.595 E0.01892
G1 X49.843 Y63.789 E0.32798
G1 X49.335 Y63.789 E0.01892
G1 X49.335 Y72.595 E0.32798
G1 X48.827 Y72.595 E0.01892
G1 X48.827 Y63.789 E0.32798
G1 X48.319 Y63.789 E0.01892
G1 X48.319 Y72.595 E0.32798
G1 X47.811 Y72.595 E0.01892
G1 X47.811 Y63.789 E0.32798
G1 X47.303 Y63.789 E0.01892
G1 X47.303 Y72.595 E0.32798
G1 X46.795 Y72.595 E0.01892
G1 X46.795 Y63.789 E0.32798
G1 X46.288 Y63.789 E0.01892
G1 X46.288 Y72.595 E0.32798
G1 X45.78 Y72.595 E0.01892
G1 X45.78 Y63.789 E0.32798
G1 X45.272 Y63.789 E0.01892
G1 X45.272 Y72.595 E0.32798
G1 X44.764 Y72.595 E0.01892
G1 X44.764 Y63.789 E0.32798
G1 X44.256 Y63.789 E0.01892
G1 X44.256 Y72.792 E0.33531
G1 E-0.5 F3000
; acceleration to travel
M204 S4000
G1 X42.781 Y63.44 F12000
; decel to extrusion
M204 S2000
G1 X42.044 Y58.764
; end travel
G1 E0.5 F1800
;TYPE:Internal perimeter
G1 X89.736 Y58.764 E1.77636
G1 X89.736 Y73.236 E0.53902
G1 X81.422 Y73.236 E0.30965
G1 X81.422 Y65.401 E0.2918
G1 X81.255 Y64.337 E0.04014
G1 X80.733 Y63.279 E0.04393
G1 X79.933 Y62.404 E0.04416
G1 X78.927 Y61.757 E0.04454
G1 X77.787 Y61.361 E0.04494
G1 X76.651 Y61.236 E0.04259
G1 X30.264 Y61.236 E1.72773
G1 X30.264 Y46.764 E0.53902
G1 X42.044 Y46.764 E0.43874
G1 X42.044 Y58.764 E0.44695
G1 X42.501 Y58.307 F12000
G1 F1800
G1 X90.193 Y58.307 E1.77636
G1 X90.193 Y73.693 E0.57306
M73 P1 R63
G1 X80.965 Y73.693 E0.3437
G1 X80.965 Y65.437 E0.3075
G1 X80.814 Y64.477 E0.03621
G1 X80.352 Y63.54 E0.03892
G1 X79.635 Y62.757 E0.03954
G1 X78.725 Y62.171 E0.0403
G1 X77.686 Y61.81 E0.04099
G1 X76.626 Y61.693 E0.03973
G1 X29.807 Y61.693 E1.74381
G1 X29.807 Y46.307 E0.57306
G1 X42.501 Y46.307 E0.47279
G1 X42.501 Y58.307 E0.44695
G1 X42.958 Y57.85 F12000
;TYPE:External perimeter
G1 F1800
G1 X90.65 Y57.85 E1.77636
G1 X90.65 Y74.15 E0.60711
G1 X80.508 Y74.15 E0.37775
G1 X80.508 Y65.473 E0.3232
G1 X80.374 Y64.616 E0.03228
G1 X79.971 Y63.8 E0.0339
G1 X79.338 Y63.109 E0.03491
G1 X78.524 Y62.585 E0.03606
G1 X77.585 Y62.259 E0.03704
G1 X76.6 Y62.15 E0.03688
G1 X29.35 Y62.15 E1.7599
G1 X29.35 Y45.85 E0.60711
G1 X42.958 Y45.85 E0.50683
G1 X42.958 Y57.85 E0.44695
;WIPE_START
M204 S4000
G1 X42.958 Y58.25 F12000
;WIPE_END
G1 E-0.5 F3000
; acceleration to travel
G1 X73.252 Y58.682 F12000
; decel to extrusion
M204 S2000
G1 X88.675 Y58.901
; end travel
G1 E0.5 F1800
;TYPE:Solid infill
;WIDTH:0.504485
G1 F2400
G1 X89.599 Y59.825 E0.04911
G1 X89.599 Y60.472 F12000
G1 F2400
G1 X88.028 Y58.901 E0.08346
G1 X87.382 Y58.901 F12000
G1 F2400
G1 X89.599 Y61.118 E0.11781
G1 X89.599 Y61.764 F12000
G1 F2400
G1 X86.736 Y58.901 E0.15217
G1 X86.089 Y58.901 F12000
G1 F2400
G1 X89.599 Y62.411 E0.18652
G1 X89.599 Y63.057 F12000
G1 F2400
G1 X85.443 Y58.901 E0.22088
G1 X84.796 Y58.901 F12000
G1 F2400
G1 X89.599 Y63.704 E0.25523
G1 X89.599 Y64.35 F12000
G1 F2400
G1 X84.15 Y58.901 E0.28959
G1 X83.504 Y58.901 F12000
G1 F2400
G1 X89.599 Y64.996 E0.32394
G1 X89.599 Y65.643 F12000
G1 F2400
G1 X82.857 Y58.901 E0.3583
G1 X82.211 Y58.901 F12000
G1 F2400
G1 X89.599 Y66.289 E0.39265
G1 X89.599 Y66.936 F12000
G1 F2400
G1 X81.564 Y58.901 E0.427
G1 X80.918 Y58.901 F12000
G1 F2400
G1 X89.599 Y67.582 E0.46136
G1 X89.599 Y68.229 F12000
G1 F2400
G1 X80.271 Y58.901 E0.49571
G1 X79.625 Y58.901 F12000
G1 F2400
G1 X89.599 Y68.875 E0.53007
G1 X89.599 Y69.521 F12000
G1 F2400
G1 X78.979 Y58.901 E0.56442
G1 X78.332 Y58.901 F12000
G1 F2400
G1 X89.599 Y70.168 E0.59878
G1 X89.599 Y70.814 F12000
G1 F2400
G1 X77.686 Y58.901 E0.63313
G1 X77.039 Y58.901 F12000
G1 F2400
G1 X89.599 Y71.461 E0.66748
G1 X89.599 Y72.107 F12000
G1 F2400
G1 X80.998 Y63.506 E0.45711
; acceleration to travel
M204 S4000
G1 X81.288 Y64.227 F12000
; decel to extrusion
M204 S2000
G1 X81.433 Y64.588
; end travel
G1 F2400
G1 X89.599 Y72.753 E0.43396
G1 X89.298 Y73.099 F12000
G1 F2400
G1 X81.554 Y65.355 E0.41156
G1 X81.559 Y66.007 F12000
G1 F2400
G1 X88.651 Y73.099 E0.37691
G1 X88.005 Y73.099 F12000
G1 F2400
G1 X81.559 Y66.653 E0.34255
G1 X81.559 Y67.3 F12000
G1 F2400
G1 X87.358 Y73.099 E0.3082
G1 X86.712 Y73.099 F12000
G1 F2400
G1 X81.559 Y67.946 E0.27385
G1 X81.559 Y68.592 F12000
G1 F2400
G1 X86.066 Y73.099 E0.23949
G1 X85.419 Y73.099 F12000
G1 F2400
G1 X81.559 Y69.239 E0.20514
G1 X81.559 Y69.885 F12000
G1 F2400
G1 X84.773 Y73.099 E0.17078
G1 X84.126 Y73.099 F12000
G1 F2400
G1 X81.559 Y70.532 E0.13643
G1 X81.559 Y71.178 F12000
G1 F2400
G1 X83.48 Y73.099 E0.10207
G1 X82.834 Y73.099 F12000
G1 F2400
G1 X81.559 Y71.825 E0.06772
G1 X81.559 Y72.471 F12000
G1 F2400
G1 X82.187 Y73.099 E0.03337
G1 E-0.5 F3000
; acceleration to travel
M204 S4000
G1 X80.311 Y65.62 F12000
; decel to extrusion
M204 S2000
G1 X79.373 Y61.881
; end travel
G1 E0.5 F1800
G1 F2400
G1 X76.393 Y58.901 E0.15838
G1 X75.747 Y58.901 F12000
G1 F2400
G1 X78.208 Y61.362 E0.13079
G1 X77.377 Y61.178 F12000
G1 F2400
G1 X75.1 Y58.901 E0.12101
G1 X74.454 Y58.901 F12000
G1 F2400
G1 X76.651 Y61.099 E0.11679
G1 X76.005 Y61.099 F12000
G1 F2400
G1 X73.807 Y58.901 E0.11679
G1 X73.161 Y58.901 F12000
G1 F2400
G1 X75.358 Y61.099 E0.11679
G1 X74.712 Y61.099 F12000
G1 F2400
G1 X72.515 Y58.901 E0.11679
G1 X71.868 Y58.901 F12000
G1 F2400
G1 X74.066 Y61.099 E0.11679
G1 X73.419 Y61.099 F12000
G1 F2400
G1 X71.222 Y58.901 E0.11679
G1 X70.575 Y58.901 F12000
G1 F2400
G1 X72.773 Y61.099 E0.11679
G1 X72.126 Y61.099 F12000
G1 F2400
G1 X69.929 Y58.901 E0.11679
G1 X69.283 Y58.901 F12000
G1 F2400
G1 X71.48 Y61.099 E0.11679
G1 X70.834 Y61.099 F12000
G1 F2400
G1 X68.636 Y58.901 E0.11679
G1 X67.99 Y58.901 F12000
G1 F2400
G1 X70.187 Y61.099 E0.11679
G1 X69.541 Y61.099 F12000
G1 F2400
G1 X67.343 Y58.901 E0.11679
G1 X66.697 Y58.901 F12000
G1 F2400
G1 X68.894 Y61.099 E0.11679
G1 X68.248 Y61.099 F12000
G1 F2400
G1 X66.051 Y58.901 E0.11679
G1 X65.404 Y58.901 F12000
G1 F2400
G1 X67.602 Y61.099 E0.11679
G1 X66.955 Y61.099 F12000
G1 F2400
G1 X64.758 Y58.901 E0.11679
G1 X64.111 Y58.901 F12000
G1 F2400
G1 X66.309 Y61.099 E0.11679
G1 X65.662 Y61.099 F12000
G1 F2400
G1 X63.465 Y58.901 E0.11679
G1 X62.818 Y58.901 F12000
G1 F2400
G1 X65.016 Y61.099 E0.11679
G1 X64.37 Y61.099 F12000
G1 F2400
G1 X62.172 Y58.901 E0.11679
G1 X61.526 Y58.901 F12000
G1 F2400
G1 X63.723 Y61.099 E0.11679
G1 X63.077 Y61.099 F12000
G1 F2400
G1 X60.879 Y58.901 E0.11679
G1 X60.233 Y58.901 F12000
G1 F2400
G1 X62.43 Y61.099 E0.11679
G1 X61.784 Y61.099 F12000
G1 F2400
G1 X59.586 Y58.901 E0.11679
M73 P2 R62
G1 X58.94 Y58.901 F12000
G1 F2400
G1 X61.138 Y61.099 E0.11679
G1 X60.491 Y61.099 F12000
G1 F2400
G1 X58.294 Y58.901 E0.11679
G1 X57.647 Y58.901 F12000
G1 F2400
G1 X59.845 Y61.099 E0.11679
G1 X59.198 Y61.099 F12000
G1 F2400
G1 X57.001 Y58.901 E0.11679
G1 X56.354 Y58.901 F12000
G1 F2400
G1 X58.552 Y61.099 E0.11679
G1 X57.905 Y61.099 F12000
G1 F2400
G1 X55.708 Y58.901 E0.11679
G1 X55.062 Y58.901 F12000
G1 F2400
G1 X57.259 Y61.099 E0.11679
G1 X56.613 Y61.099 F12000
G1 F2400
G1 X54.415 Y58.901 E0.11679
G1 X53.769 Y58.901 F12000
G1 F2400
G1 X55.966 Y61.099 E0.11679
G1 X55.32 Y61.099 F12000
G1 F2400
G1 X53.122 Y58.901 E0.11679
G1 X52.476 Y58.901 F12000
G1 F2400
G1 X54.673 Y61.099 E0.11679
G1 X54.027 Y61.099 F12000
G1 F2400
G1 X51.83 Y58.901 E0.11679
G1 X51.183 Y58.901 F12000
G1 F2400
G1 X53.381 Y61.099 E0.11679
G1 X52.734 Y61.099 F12000
G1 F2400
G1 X50.537 Y58.901 E0.11679
G1 X49.89 Y58.901 F12000
G1 F2400
G1 X52.088 Y61.099 E0.11679
G1 X51.441 Y61.099 F12000
G1 F2400
G1 X49.244 Y58.901 E0.11679
G1 X48.598 Y58.901 F12000
G1 F2400
G1 X50.795 Y61.099 E0.11679
G1 X50.149 Y61.099 F12000
G1 F2400
G1 X47.951 Y58.901 E0.11679
G1 X47.305 Y58.901 F12000
G1 F2400
G1 X49.502 Y61.099 E0.11679
G1 X48.856 Y61.099 F12000
G1 F2400
G1 X46.658 Y58.901 E0.11679
G1 X46.012 Y58.901 F12000
G1 F2400
G1 X48.209 Y61.099 E0.11679
G1 X47.563 Y61.099 F12000
G1 F2400
G1 X45.365 Y58.901 E0.11679
G1 X44.719 Y58.901 F12000
G1 F2400
G1 X46.917 Y61.099 E0.11679
G1 X46.27 Y61.099 F12000
G1 F2400
G1 X44.073 Y58.901 E0.11679
G1 X43.426 Y58.901 F12000
G1 F2400
G1 X45.624 Y61.099 E0.11679
G1 X44.977 Y61.099 F12000
G1 F2400
G1 X42.78 Y58.901 E0.11679
G1 X42.133 Y58.901 F12000
G1 F2400
G1 X44.331 Y61.099 E0.11679
G1 E-0.5 F3000
; acceleration to travel
M204 S4000
G1 X42.715 Y52.156 F12000
; decel to extrusion
M204 S2000
G1 X41.906 Y47.685
; end travel
G1 E0.5 F1800
G1 F2400
G1 X41.122 Y46.901 E0.04167
G1 X40.476 Y46.901 F12000
G1 F2400
G1 X41.906 Y48.332 E0.07602
G1 X41.906 Y48.978 F12000
G1 F2400
G1 X39.83 Y46.901 E0.11038
G1 X39.183 Y46.901 F12000
G1 F2400
G1 X41.906 Y49.625 E0.14473
