; generated by SuperSlicer 2.5.59 on 2023-03-09 at 05:38:11 UTC


;
;

;
;
; 

; external perimeters extrusion width = 0.15mm
; perimeters extrusion width = 0.17mm
; infill extrusion width = 0.24mm
; solid infill extrusion width = 0.21mm
; top infill extrusion width = 0.15mm
; support material extrusion width = 0.17mm
; first layer extrusion width = 0.19mm

; object:{"name":"Crane_Spreader","id":"Crane_Spreader.stl id:0 copy 0","object_center":[61.626527,50.955433,0.000000],"boundingbox_center":[61.626527,50.955433,2.000000],"boundingbox_size":[80.415048,80.415048,4.000000]}
; plater:{"center":[61.626527,50.955433,0.000000],"boundingbox_center":[61.626527,50.955433,2.000000],"boundingbox_size":[80.415048,80.415048,4.000000]}

M73 P0 R51
;TYPE:Custom
; custom gcode: start_gcode
START_PRINT T_BED=60 T_EXTRUDER=200
; custom gcode end: start_gcode
M107
G21 ; set units to millimeters
G90 ; use absolute coordinates
M82 ; use absolute distances for extrusion
G92 E0
; custom gcode: start_filament_gcode
; Filament gcode

    PRESSURE_ADVANCE_SELECT FILAMENT=PLA
; custom gcode end: start_filament_gcode
;_TOOLCHANGE 0
M104 S200 ; set temperature
M109 S200 ; set temperature and wait for it to be reached
M190 S60 ; set bed temperature and wait for it to be reached
;LAYER_CHANGE
;Z:0.1
;HEIGHT:0.1
G1 Z0.1 F12000
M73 P0 R51
G1 E-0.8 F3000
M204 S2000
G1 X41.643 Y41.643 F12000
G1 E0 F1800
;TYPE:Skirt
;WIDTH:0.195
G1 X15.495 Y67.791 E0.2668
G1 X14.934 Y68.543 E0.27357
G1 X14.54 Y70.097 E0.28513
G1 X14.54 Y88.485 E0.4178
G1 X14.675 Y89.413 E0.42457
G1 X15.495 Y90.79 E0.43613
G1 X21.792 Y97.087 E0.50038
G1 X22.544 Y97.648 E0.50715
G1 X24.097 Y98.042 E0.51871
G1 X39.337 Y98.042 E0.62867
G1 X40.265 Y97.907 E0.63543
G1 X41.642 Y97.087 E0.647
G1 X107.758 Y30.971 E1.3216
G1 X108.319 Y30.219 E1.32837
G1 X108.713 Y28.666 E1.33994
G1 X108.713 Y13.426 E1.44989
G1 X108.578 Y12.498 E1.45666
G1 X107.758 Y11.121 E1.46822
G1 X101.461 Y4.824 E1.53247
G1 X100.709 Y4.263 E1.53924
G1 X99.156 Y3.869 E1.5508
G1 X80.768 Y3.869 E1.68347
G1 X79.839 Y4.004 E1.69024
G1 X78.462 Y4.824 E1.7018
G1 X41.643 Y41.643 E2.07748
M73 P0 R51
G1 X41.766 Y41.766 F12000
G1 F1800
G1 X15.618 Y67.914 E2.34428
G1 X15.107 Y68.588 E2.35039
G1 X14.714 Y70.097 E2.36163
G1 X14.714 Y88.485 E2.4943
G1 X14.83 Y89.323 E2.50041
G1 X15.618 Y90.667 E2.51165
G1 X21.915 Y96.964 E2.5759
G1 X22.589 Y97.475 E2.582
G1 X24.097 Y97.868 E2.59325
G1 X39.337 Y97.868 E2.7032
G1 X40.175 Y97.752 E2.70931
G1 X41.52 Y96.964 E2.72055
G1 X107.635 Y30.849 E3.39516
G1 X108.146 Y30.174 E3.40126
G1 X108.539 Y28.666 E3.41251
G1 X108.539 Y13.426 E3.52246
G1 X108.423 Y12.588 E3.52856
G1 X107.635 Y11.243 E3.53981
G1 X101.338 Y4.947 E3.60406
G1 X100.664 Y4.436 E3.61016
G1 X99.156 Y4.043 E3.62141
G1 X80.768 Y4.043 E3.75408
G1 X79.93 Y4.159 E3.76018
G1 X78.585 Y4.947 E3.77143
G1 X41.766 Y41.766 E4.14711
G92 E0
G1 E-0.8 F3000
; printing object Crane_Spreader.stl id:0 copy 0
; acceleration to travel
M204 S4000
G1 X44.679 Y43.862 F12000
; decel to extrusion
M204 S2000
G1 X46.136 Y44.91
; end travel
G1 E0 F1800
;TYPE:Support material
;WIDTH:0.1875
G1 X49.284 Y44.91 E0.02173
G1 X49.284 Y38.613 E0.0652
G1 X55.581 Y38.613 E0.10867
G1 X55.581 Y35.465 E0.1304
G1 X58.729 Y35.465 E0.15213
G1 X58.729 Y32.316 E0.17387
G1 X61.877 Y32.316 E0.1956
G1 X61.877 Y29.168 E0.21733
G1 X65.026 Y29.168 E0.23907
G1 X65.026 Y26.02 E0.2608
G1 X68.174 Y26.02 E0.28254
G1 X68.174 Y22.871 E0.30427
G1 X71.323 Y22.871 E0.326
G1 X71.323 Y19.723 E0.34774
G1 X74.471 Y19.723 E0.36947
G1 X74.471 Y16.575 E0.3912
G1 X77.619 Y16.575 E0.41294
G1 X77.619 Y10.278 E0.4564
G1 X80.768 Y10.278 E0.47814
G1 X80.768 Y7.129 E0.49987
G1 X99.156 Y7.129 E0.62681
G1 X99.156 Y13.426 E0.67027
G1 X105.452 Y13.426 E0.71374
G1 X105.452 Y28.666 E0.81894
G1 X102.304 Y28.666 E0.84067
G1 X102.304 Y31.814 E0.86241
G1 X90.213 Y31.814 E0.94588
G1 X90.213 Y25.507 E0.98942
G1 X91.126 Y24.593 E0.99833
G1 X91.266 Y24.453 E0.9997
G1 X91.75 Y24.937 E1.00443
G1 X92.099 Y25.286 E1.00783
G1 X92.448 Y25.635 E1.01124
G1 X92.796 Y25.984 E1.01464
G1 X93.145 Y26.332 E1.01805
G1 X93.494 Y26.681 E1.02145
G1 X93.843 Y27.03 E1.02486
G1 X94.191 Y27.379 E1.02826
G1 X94.54 Y27.727 E1.03167
G1 X94.889 Y28.076 E1.03507
G1 X95.238 Y28.425 E1.03848
G1 X95.633 Y28.821 E1.04234
G1 X95.966 Y28.821 E1.04464
G1 X97.474 Y27.312 E1.05936
G1 X97.474 Y26.98 E1.06166
G1 X97.079 Y26.584 E1.06552
G1 X96.73 Y26.235 E1.06892
G1 X96.381 Y25.886 E1.07233
G1 X96.032 Y25.538 E1.07573
G1 X94.289 Y23.794 E1.09276
G1 X93.94 Y23.445 E1.09616
G1 X93.591 Y23.096 E1.09957
G1 X93.242 Y22.748 E1.10297
G1 X93.107 Y22.612 E1.10429
G1 X93.954 Y21.765 E1.11256
G1 X94.308 Y21.411 E1.11602
G1 X95.015 Y20.704 E1.12292
G1 X95.369 Y20.351 E1.12637
G1 X95.722 Y19.997 E1.12982
G1 X96.076 Y19.644 E1.13327
G1 X96.429 Y19.29 E1.13673
G1 X97.136 Y18.583 E1.14363
G1 X97.49 Y18.229 E1.14708
G1 X98.597 Y17.122 E1.15789
G1 X98.597 Y16.789 E1.16019
G1 X98.217 Y16.409 E1.1639
G1 X97.218 Y15.41 E1.17366
G1 X96.885 Y15.077 E1.17691
G1 X96.219 Y14.41 E1.18341
G1 X95.886 Y14.077 E1.18666
G1 X95.553 Y13.744 E1.18991
G1 X95.22 Y13.411 E1.19317
G1 X94.221 Y12.412 E1.20292
G1 X93.841 Y12.032 E1.20663
G1 X93.508 Y12.032 E1.20893
G1 X89.925 Y15.614 E1.2439
G1 X89.572 Y15.968 E1.24735
G1 X89.218 Y16.322 E1.25081
G1 X87.097 Y18.443 E1.27152
G1 X86.743 Y18.796 E1.27497
G1 X86.39 Y19.15 E1.27842
G1 X86.036 Y19.504 E1.28187
G1 X85.683 Y19.857 E1.28532
G1 X85.329 Y20.211 E1.28877
G1 X84.975 Y20.564 E1.29223
G1 X84.622 Y20.918 E1.29568
G1 X84.268 Y21.271 E1.29913
G1 X83.208 Y22.332 E1.30948
G1 X82.854 Y22.686 E1.31293
G1 X82.501 Y23.039 E1.31639
G1 X82.147 Y23.393 E1.31984
G1 X81.793 Y23.746 E1.32329
G1 X81.44 Y24.1 E1.32674
G1 X81.086 Y24.453 E1.33019
G1 X80.733 Y24.807 E1.33364
G1 X80.379 Y25.16 E1.3371
G1 X80.026 Y25.514 E1.34055
G1 X79.672 Y25.868 E1.344
G1 X79.319 Y26.221 E1.34745
G1 X78.965 Y26.575 E1.3509
G1 X78.611 Y26.928 E1.35435
G1 X78.258 Y27.282 E1.3578
G1 X77.904 Y27.635 E1.36126
G1 X77.551 Y27.989 E1.36471
G1 X77.197 Y28.342 E1.36816
G1 X76.844 Y28.696 E1.37161
G1 X76.49 Y29.05 E1.37506
G1 X76.137 Y29.403 E1.37851
G1 X75.783 Y29.757 E1.38197
G1 X75.429 Y30.11 E1.38542
G1 X75.076 Y30.464 E1.38887
G1 X74.722 Y30.817 E1.39232
G1 X74.369 Y31.171 E1.39577
G1 X74.015 Y31.524 E1.39922
G1 X73.662 Y31.878 E1.40268
G1 X73.308 Y32.231 E1.40613
G1 X72.955 Y32.585 E1.40958
G1 X72.601 Y32.939 E1.41303
G1 X72.248 Y33.292 E1.41648
G1 X71.894 Y33.646 E1.41993
G1 X71.54 Y33.999 E1.42338
G1 X71.187 Y34.353 E1.42684
G1 X70.833 Y34.706 E1.43029
G1 X70.48 Y35.06 E1.43374
G1 X70.126 Y35.413 E1.43719
G1 X69.773 Y35.767 E1.44064
G1 X69.419 Y36.121 E1.44409
G1 X69.066 Y36.474 E1.44755
G1 X68.712 Y36.828 E1.451
G1 X68.358 Y37.181 E1.45445
G1 X66.237 Y39.303 E1.47516
G1 X65.884 Y39.656 E1.47861
G1 X65.53 Y40.01 E1.48206
G1 X65.176 Y40.363 E1.48551
G1 X64.823 Y40.717 E1.48896
G1 X64.469 Y41.07 E1.49242
G1 X62.348 Y43.192 E1.51313
G1 X61.994 Y43.545 E1.51658
G1 X61.641 Y43.899 E1.52003
G1 X61.287 Y44.252 E1.52348
G1 X58.459 Y47.081 E1.55109
G1 X58.105 Y47.434 E1.55454
G1 X57.752 Y47.788 E1.558
G1 X54.923 Y50.616 E1.58561
G1 X54.57 Y50.97 E1.58906
G1 X54.216 Y51.323 E1.59251
G1 X53.863 Y51.677 E1.59596
G1 X51.741 Y53.798 E1.61667
G1 X51.388 Y54.152 E1.62012
G1 X51.034 Y54.505 E1.62358
G1 X50.681 Y54.859 E1.62703
G1 X50.327 Y55.212 E1.63048
G1 X49.974 Y55.566 E1.63393
G1 X47.852 Y57.687 E1.65464
G1 X47.499 Y58.041 E1.65809
G1 X47.145 Y58.394 E1.66154
G1 X46.792 Y58.748 E1.66499
G1 X46.438 Y59.102 E1.66845
G1 X46.085 Y59.455 E1.6719
G1 X45.731 Y59.809 E1.67535
G1 X45.377 Y60.162 E1.6788
G1 X45.024 Y60.516 E1.68225
G1 X44.67 Y60.869 E1.6857
G1 X44.317 Y61.223 E1.68916
G1 X43.963 Y61.576 E1.69261
G1 X43.61 Y61.93 E1.69606
G1 X43.256 Y62.284 E1.69951
G1 X42.903 Y62.637 E1.70296
G1 X42.549 Y62.991 E1.70641
G1 X42.195 Y63.344 E1.70986
G1 X41.842 Y63.698 E1.71332
G1 X41.488 Y64.051 E1.71677
G1 X41.135 Y64.405 E1.72022
G1 X40.781 Y64.758 E1.72367
G1 X40.428 Y65.112 E1.72712
G1 X40.074 Y65.466 E1.73057
G1 X39.721 Y65.819 E1.73403
G1 X39.367 Y66.173 E1.73748
G1 X39.014 Y66.526 E1.74093
G1 X38.66 Y66.88 E1.74438
G1 X38.306 Y67.233 E1.74783
G1 X37.953 Y67.587 E1.75128
G1 X37.599 Y67.94 E1.75473
G1 X37.246 Y68.294 E1.75819
G1 X36.892 Y68.647 E1.76164
G1 X36.539 Y69.001 E1.76509
G1 X36.185 Y69.355 E1.76854
G1 X35.832 Y69.708 E1.77199
G1 X35.478 Y70.062 E1.77544
G1 X35.124 Y70.415 E1.7789
G1 X34.771 Y70.769 E1.78235
G1 X34.417 Y71.122 E1.7858
G1 X34.064 Y71.476 E1.78925
G1 X33.71 Y71.829 E1.7927
G1 X33.357 Y72.183 E1.79615
G1 X33.003 Y72.537 E1.79961
G1 X31.942 Y73.597 E1.80996
G1 X31.589 Y73.951 E1.81341
G1 X31.235 Y74.304 E1.81686
G1 X30.882 Y74.658 E1.82031
G1 X30.528 Y75.011 E1.82377
G1 X30.175 Y75.365 E1.82722
G1 X29.821 Y75.719 E1.83067
G1 X29.468 Y76.072 E1.83412
G1 X29.114 Y76.426 E1.83757
G1 X26.993 Y78.547 E1.85828
G1 X26.639 Y78.901 E1.86173
G1 X26.286 Y79.254 E1.86519
G1 X22.703 Y82.837 E1.90016
G1 X22.703 Y83.169 E1.90246
G1 X23.083 Y83.549 E1.90617
G1 X23.416 Y83.883 E1.90942
G1 X23.749 Y84.216 E1.91267
G1 X24.415 Y84.882 E1.91917
G1 X24.748 Y85.215 E1.92243
G1 X25.082 Y85.548 E1.92568
G1 X25.415 Y85.881 E1.92893
G1 X25.748 Y86.214 E1.93218
G1 X26.414 Y86.88 E1.93868
G1 X26.747 Y87.213 E1.94193
G1 X27.08 Y87.546 E1.94519
G1 X27.46 Y87.926 E1.9489
G1 X27.793 Y87.926 E1.95119
G1 X29.254 Y86.465 E1.96546
G1 X29.608 Y86.112 E1.96891
G1 X30.668 Y85.051 E1.97927
G1 X31.022 Y84.697 E1.98272
G1 X32.082 Y83.637 E1.99307
G1 X32.436 Y83.283 E1.99652
G1 X32.55 Y83.169 E1.99763
G1 X33.283 Y82.436 E2.00479
G1 X33.419 Y82.571 E2.00612
G1 X33.767 Y82.92 E2.00952
G1 X34.814 Y83.966 E2.01974
G1 X35.162 Y84.315 E2.02314
G1 X35.511 Y84.664 E2.02654
G1 X35.86 Y85.013 E2.02995
G1 X36.906 Y86.059 E2.04016
G1 X37.255 Y86.408 E2.04357
G1 X37.651 Y86.803 E2.04743
G1 X37.984 Y86.803 E2.04973
G1 X39.091 Y85.696 E2.06054
G1 X39.492 Y85.295 E2.06445
G1 X39.492 Y84.962 E2.06675
G1 X39.096 Y84.567 E2.07061
G1 X38.747 Y84.218 E2.07402
G1 X38.398 Y83.869 E2.07742
G1 X38.05 Y83.52 E2.08083
G1 X37.701 Y83.172 E2.08423
G1 X37.352 Y82.823 E2.08764
G1 X37.003 Y82.474 E2.09104
G1 X36.655 Y82.125 E2.09445
G1 X36.306 Y81.777 E2.09785
G1 X35.957 Y81.428 E2.10125
G1 X35.608 Y81.079 E2.10466
G1 X35.124 Y80.595 E2.10939
G1 X35.264 Y80.455 E2.11075
G1 X36.178 Y79.542 E2.11967
G1 X42.485 Y79.542 E2.16321
G1 X42.485 Y91.633 E2.24668
G1 X39.337 Y91.633 E2.26841
G1 X39.337 Y94.781 E2.29015
G1 X24.097 Y94.781 E2.39535
G1 X24.097 Y88.485 E2.43882
G1 X17.801 Y88.485 E2.48228
G1 X17.801 Y70.097 E2.60922
G1 X20.949 Y70.097 E2.63095
G1 X20.949 Y66.948 E2.65268
G1 X27.246 Y66.948 E2.69615
G1 X27.246 Y63.8 E2.71789
G1 X30.394 Y63.8 E2.73962
G1 X30.394 Y60.651 E2.76135
G1 X33.542 Y60.651 E2.78309
G1 X33.542 Y57.503 E2.80482
G1 X36.691 Y57.503 E2.82655
G1 X36.691 Y54.355 E2.84829
G1 X39.839 Y54.355 E2.87002
G1 X39.839 Y51.206 E2.89175
G1 X42.987 Y51.206 E2.91349
G1 X42.987 Y48.058 E2.93522
G1 X46.136 Y48.058 E2.95695
G1 X46.136 Y44.91 E2.97869
G92 E0
G1 E-0.8 F3000
; acceleration to travel
M204 S4000
G1 X85.489 Y34.053 F12000
; decel to extrusion
M204 S2000
G1 X105.166 Y28.624
; end travel
G1 E0 F1800
G1 X105.166 Y13.539 E0.10414
G1 X104.981 Y13.539 E0.10541
G1 X104.981 Y28.553 E0.20905
G1 X104.797 Y28.553 E0.21033
G1 X104.797 Y13.539 E0.31397
G1 X104.612 Y13.539 E0.31524
G1 X104.612 Y28.553 E0.41888
G1 X104.428 Y28.553 E0.42016
G1 X104.428 Y13.539 E0.5238
G1 X104.243 Y13.539 E0.52507
G1 X104.243 Y28.553 E0.62872
M73 P1 R50
G1 X104.059 Y28.553 E0.62999
G1 X104.059 Y13.539 E0.73363
G1 X103.874 Y13.539 E0.73491
G1 X103.874 Y28.553 E0.83855
G1 X103.69 Y28.553 E0.83982
G1 X103.69 Y13.539 E0.94347
G1 X103.505 Y13.539 E0.94474
G1 X103.505 Y28.553 E1.04838
G1 X103.321 Y28.553 E1.04966
G1 X103.321 Y13.539 E1.1533
G1 X103.136 Y13.539 E1.15457
G1 X103.136 Y28.553 E1.25822
G1 X102.952 Y28.553 E1.25949
G1 X102.952 Y13.539 E1.36313
G1 X102.767 Y13.539 E1.36441
G1 X102.767 Y28.553 E1.46805
G1 X102.583 Y28.553 E1.46932
G1 X102.583 Y13.539 E1.57296
G1 X102.398 Y13.539 E1.57424
G1 X102.398 Y28.553 E1.67788
G1 X102.214 Y28.553 E1.67915
G1 X102.214 Y13.539 E1.7828
G1 X102.029 Y13.539 E1.78407
G1 X102.029 Y31.701 E1.90945
G1 X101.845 Y31.701 E1.91072
G1 X101.845 Y13.539 E2.0361
G1 X101.66 Y13.539 E2.03737
G1 X101.66 Y31.701 E2.16275
G1 X101.476 Y31.701 E2.16402
G1 X101.476 Y13.539 E2.2894
G1 X101.291 Y13.539 E2.29067
G1 X101.291 Y31.701 E2.41605
G1 X101.107 Y31.701 E2.41732
G1 X101.107 Y13.539 E2.5427
M73 P2 R50
G1 X100.922 Y13.539 E2.54397
G1 X100.922 Y31.701 E2.66935
G1 X100.738 Y31.701 E2.67062
G1 X100.738 Y13.539 E2.796
G1 X100.553 Y13.539 E2.79727
G1 X100.553 Y31.701 E2.92265
G1 X100.369 Y31.701 E2.92392
G1 X100.369 Y13.539 E3.0493
G1 X100.185 Y13.539 E3.05057
G1 X100.185 Y31.701 E3.17595
G1 X100 Y31.701 E3.17722
G1 X100 Y13.539 E3.30259
G1 X99.816 Y13.539 E3.30387
G1 X99.816 Y31.701 E3.42924
G1 X99.631 Y31.701 E3.43052
G1 X99.631 Y13.539 E3.55589
G1 X99.447 Y13.539 E3.55717
G1 X99.447 Y31.701 E3.68254
G1 X99.262 Y31.701 E3.68382
G1 X99.262 Y13.539 E3.80919
G1 X99.078 Y13.539 E3.81047
G1 X99.078 Y31.701 E3.93584
G1 X98.893 Y31.701 E3.93712
G1 X98.893 Y7.242 E4.10596
G1 X98.709 Y7.242 E4.10723
G1 X98.709 Y31.701 E4.27608
G1 X98.524 Y31.701 E4.27735
G1 X98.524 Y17.355 E4.37639
G1 X98.34 Y17.539 E4.37819
G1 X98.34 Y31.701 E4.47595
G1 X98.155 Y31.701 E4.47722
G1 X98.155 Y17.724 E4.57371
G1 X97.971 Y17.908 E4.57551
G1 X97.971 Y31.701 E4.67073
G1 X97.786 Y31.701 E4.672
G1 X97.786 Y18.093 E4.76594
G1 X97.602 Y18.277 E4.76774
G1 X97.602 Y31.701 E4.86041
G1 X97.417 Y31.701 E4.86169
G1 X97.417 Y27.529 E4.89049
G1 X97.233 Y27.714 E4.89229
G1 X97.233 Y31.701 E4.91981
G1 X97.048 Y31.701 E4.92109
G1 X97.048 Y27.898 E4.94734
G1 X96.864 Y28.083 E4.94914
G1 X96.864 Y31.701 E4.97412
G1 X96.679 Y31.701 E4.97539
G1 X96.679 Y28.267 E4.9991
G1 X96.495 Y28.452 E5.0009
G1 X96.495 Y31.701 E5.02333
G1 X96.31 Y31.701 E5.02461
G1 X96.31 Y28.636 E5.04577
G1 X96.126 Y28.821 E5.04757
G1 X96.126 Y31.701 E5.06745
G1 X95.941 Y31.701 E5.06872
G1 X95.941 Y28.933 E5.08783
G1 X95.757 Y28.933 E5.08911
G1 X95.757 Y31.701 E5.10821
G1 X95.572 Y31.701 E5.10949
G1 X95.572 Y28.919 E5.12869
G1 X95.388 Y28.735 E5.13049
G1 X95.388 Y31.701 E5.15097
G1 X95.203 Y31.701 E5.15225
G1 X95.203 Y28.55 E5.174
G1 X95.019 Y28.366 E5.1758
G1 X95.019 Y31.701 E5.19883
G1 X94.834 Y31.701 E5.2001
G1 X94.834 Y28.181 E5.2244
G1 X94.65 Y27.997 E5.2262
G1 X94.65 Y31.701 E5.25177
G1 X94.465 Y31.701 E5.25305
G1 X94.465 Y27.812 E5.27989
G1 X94.281 Y27.628 E5.2817
G1 X94.281 Y31.701 E5.30982
G1 X94.096 Y31.701 E5.31109
G1 X94.096 Y27.443 E5.34048
G1 X93.912 Y27.259 E5.34228
G1 X93.912 Y31.701 E5.37295
G1 X93.727 Y31.701 E5.37423
G1 X93.727 Y27.074 E5.40617
G1 X93.543 Y26.89 E5.40797
G1 X93.543 Y31.701 E5.44118
G1 X93.358 Y31.701 E5.44246
G1 X93.358 Y26.705 E5.47694
G1 X93.174 Y26.521 E5.47875
G1 X93.174 Y31.701 E5.51451
G1 X92.989 Y31.701 E5.51578
G1 X92.989 Y26.336 E5.55282
G1 X92.805 Y26.152 E5.55462
G1 X92.805 Y31.701 E5.59293
G1 X92.621 Y31.701 E5.5942
G1 X92.621 Y25.967 E5.63378
G1 X92.436 Y25.783 E5.63558
G1 X92.436 Y31.701 E5.67644
G1 X92.252 Y31.701 E5.67771
G1 X92.252 Y25.598 E5.71984
G1 X92.067 Y25.414 E5.72164
G1 X92.067 Y31.701 E5.76505
G1 X91.883 Y31.701 E5.76632
G1 X91.883 Y25.229 E5.811
G1 X91.698 Y25.045 E5.8128
G1 X91.698 Y31.701 E5.85875
G1 X91.514 Y31.701 E5.86002
G1 X91.514 Y24.86 E5.90725
G1 X91.329 Y24.676 E5.90905
G1 X91.329 Y31.701 E5.95754
G1 X91.145 Y31.701 E5.95882
G1 X91.145 Y24.734 E6.00691
G1 X90.96 Y24.919 E6.00871
G1 X90.96 Y31.701 E6.05553
G1 X90.776 Y31.701 E6.05681
G1 X90.776 Y25.103 E6.10235
G1 X90.591 Y25.288 E6.10415
G1 X90.591 Y31.701 E6.14843
G1 X90.407 Y31.701 E6.1497
G1 X90.407 Y25.371 E6.1934
G92 E0
G1 E-0.8 F3000
; acceleration to travel
M204 S4000
G1 X95.818 Y19.562 F12000
; decel to extrusion
M204 S2000
G1 X98.524 Y16.657
; end travel
G1 E0 F1800
G1 X98.524 Y7.242 E0.06499
G1 X98.34 Y7.242 E0.06626
G1 X98.34 Y16.371 E0.12928
M73 P2 R50
G1 X98.155 Y16.187 E0.13108
G1 X98.155 Y7.242 E0.19283
G1 X97.971 Y7.242 E0.1941
G1 X97.971 Y16.002 E0.25457
