; HEADER_BLOCK_START
; generated by OrcaSlicer 1.7.0-beta on 2023-09-10 at 21:20:01
; total layer number: 6
; HEADER_BLOCK_END

; THUMBNAIL_BLOCK_START
; THUMBNAIL_BLOCK_END

; external perimeters extrusion width = 0.15mm
; perimeters extrusion width = 0.17mm
; infill extrusion width = 0.24mm
; solid infill extrusion width = 0.21mm
; top infill extrusion width = 0.15mm
; first layer extrusion width = 0.19mm

; EXECUTABLE_BLOCK_START
EXCLUDE_OBJECT_DEFINE NAME=denjihair.stl_id_0_copy_0 CENTER=58.2474,59.6409 POLYGON=[[35.0205,51.2093],[35.3457,48.6361],[37.8753,46.08],[40.188,44.7934],[45.5905,44.184],[69.7661,44.658],[76.5056,45.0135],[78.4122,46.3285],[78.4389,46.3508],[80.2277,48.67],[81.4668,52.9005],[81.4691,52.909],[81.4708,52.9166],[81.4722,52.9233],[81.4731,52.9293],[81.4737,52.9347],[81.4741,52.9397],[81.4743,52.9443],[81.4744,52.9487],[81.4744,52.9529],[80.1193,60.7231],[77.6439,67.7823],[61.5269,75.0954],[61.5012,75.0979],[61.4783,75.0973],[48.3973,73.7449],[48.3678,73.7377],[48.3369,73.7242],[39.3569,68.8995],[35.7251,61.8573],[35.0205,51.2093]]
M73 P0 R7
;TYPE:Custom
START_PRINT T_BED=60 T_EXTRUDER=220
G90
G21
M83 ; use relative distances for extrusion
; filament start gcode

    PRESSURE_ADVANCE_SELECT FILAMENT=PLA
M106 S0
;LAYER_CHANGE
;Z:0.1
;HEIGHT:0.1
;BEFORE_LAYER_CHANGE
;0.1
G92 E0

;AFTER_LAYER_CHANGE
;0.1
;_SET_FAN_SPEED_CHANGING_LAYER
SET_VELOCITY_LIMIT ACCEL=500 ACCEL_TO_DECEL=250
G1 E-.8 F3000
G1 Z.2 F21000
G1 X33.652 Y62.926
G1 Z.2
G1 Z.1
G1 E.8 F1800
;TYPE:Skirt
;WIDTH:0.1875
G1 F3000
G1 X33.398 Y62.011 E.00642
G1 X32.693 Y51.363 E.07219
G1 X33.032 Y48.344 E.02056
G1 X33.688 Y46.996 E.01014
G1 X36.218 Y44.44 E.02433
G1 X36.742 Y44.042 E.00445
G1 X39.054 Y42.755 E.0179
G1 X39.927 Y42.476 E.0062
G1 X45.329 Y41.867 E.03678
G1 X69.812 Y42.326 E.16566
G1 X76.628 Y42.685 E.04618
G1 X77.83 Y43.094 E.00858
G1 X79.736 Y44.409 E.01567
G1 X80.286 Y44.927 E.00511
G1 X82.074 Y47.246 E.01981
G1 X82.466 Y48.015 E.00584
G1 X83.795 Y52.724 E.0331
G1 X83.772 Y53.354 E.00426
G1 X82.417 Y61.124 E.05336
G1 X79.845 Y68.554 E.05319
G1 X78.608 Y69.906 E.0124
G1 X62.49 Y77.219 E.11973
G1 X61.442 Y77.429 E.00724
G1 X47.812 Y76.003 E.09271
G1 X47.233 Y75.779 E.0042
G1 X38.253 Y70.954 E.06896
G1 X37.284 Y69.968 E.00935
G1 X33.659 Y62.94 E.0535
G1 X33.807 Y62.863 F21000
G1 F3000
G1 X33.8 Y62.85 E.0001
G1 X33.564 Y62 E.00597
G1 X32.859 Y51.352 E.07219
G1 X33.197 Y48.365 E.02034
G1 X33.806 Y47.113 E.00942
G1 X36.336 Y44.556 E.02433
G1 X36.822 Y44.187 E.00413
G1 X39.135 Y42.901 E.0179
M73 P1 R7
G1 X39.945 Y42.641 E.00576
G1 X45.348 Y42.032 E.03678
G1 X69.809 Y42.492 E.16551
G1 X76.62 Y42.85 E.04614
G1 X77.735 Y43.23 E.00797
G1 X79.642 Y44.545 E.01567
G1 X80.154 Y45.028 E.00476
G1 X81.943 Y47.347 E.01981
G1 X82.306 Y48.061 E.00542
G1 X83.55 Y52.308 E.02993
G1 X83.63 Y52.74 E.00297
G1 X83.608 Y53.325 E.00396
G1 X82.163 Y61.44 E.05576
G1 X79.688 Y68.499 E.05061
G1 X78.539 Y69.755 E.01151
G1 X62.422 Y77.068 E.11973
G1 X61.446 Y77.263 E.00673
G1 X47.851 Y75.841 E.09247
G1 X47.312 Y75.632 E.00392
G1 X38.332 Y70.808 E.06896
G1 X37.432 Y69.892 E.00868
G1 X33.814 Y62.877 E.0534
; printing object denjihair.stl id:0 copy 0
G1 E-.8
EXCLUDE_OBJECT_START NAME=denjihair.stl_id_0_copy_0
G1 Z.3 F21000
G1 X72.495 Y45.187 Z.3
G1 Z.1
G1 E.8 F1800
;TYPE:Outer wall
;WIDTH:0.112573
G1 F3000
G1 X72.469 Y45.207 E.00012
;WIDTH:0.140673
G1 X72.443 Y45.227 E.00016
;WIDTH:0.156215
G1 X72.437 Y45.238 E.00006
;WIDTH:0.191478
G1 X72.451 Y45.454 E.0015
;WIDTH:0.23028
G1 X72.458 Y45.599 E.00123
G1 E-.8
G1 Z.3 F21000
G1 X72.093 Y49.805 Z.3
G1 X72.063 Y49.911
G1 X72.016 Y50.001
G1 X68.683 Y54.301
G1 X68.638 Y54.348
G1 X68.558 Y54.408
G1 X65.73 Y55.621
G1 X65.642 Y55.644
G1 X65.536 Y55.651
G1 X49.302 Y54.391
G1 X49.197 Y54.374
G1 X49.097 Y54.332
G1 X49.017 Y54.272
G1 X45.724 Y51.781
G1 X45.669 Y51.729
G1 X42.123 Y48.022
M73 P2 R7
G1 X42.067 Y47.921
G1 X42.061 Y47.898
G1 X42.219 Y47.862
G1 Z.1
G1 E.8 F1800
;WIDTH:0.1875
G1 F3000
G2 X42.835 Y47.873 I.311 J-.141 E.0052
G3 X44.59 Y45.138 I8.4 J3.458 E.0221
G3 X45.514 Y44.337 I3.808 J3.461 E.00829
G1 X45.387 Y44.871 E.00371
G2 X45.13 Y48.22 I10.536 J2.493 E.02282
G2 X45.688 Y51.458 I51.428 J-7.203 E.02223
G2 X46.347 Y51.53 I.341 J-.071 E.00592
G2 X46.36 Y51.332 I-.415 J-.125 E.00136
G3 X45.813 Y48.044 I36.22 J-7.706 E.02256
G3 X45.796 Y47.613 I5.16 J-.42 E.00292
G1 X45.876 Y47.596 E.00055
G2 X48.788 Y52.063 I11.921 J-4.589 E.03634
G2 X48.964 Y53.761 I15.517 J-.75 E.01155
G2 X49.094 Y54.126 I.891 J-.111 E.00264
G2 X49.671 Y53.782 I.245 J-.245 E.00621
G3 X50.469 Y48.734 I6.973 J-1.485 E.03537
G3 X51.002 Y47.909 I8.612 J4.974 E.00665
G2 X52.163 Y51.752 I9.463 J-.763 E.02737
G2 X52.791 Y52.861 I16.898 J-8.828 E.00862
G2 X53.296 Y52.974 I.316 J-.227 E.00384
G2 X53.436 Y52.525 I-.356 J-.356 E.00331
G3 X53.405 Y49.393 I11.145 J-1.675 E.02126
G3 X54.196 Y46.699 I10.381 J1.586 E.01905
G1 X54.252 Y46.608 E.00072
G3 X54.465 Y46.803 I-.596 J.862 E.00196
G1 X55.64 Y48.023 E.01146
G2 X56.059 Y48.353 I.695 J-.452 E.00367
G2 X56.557 Y47.982 I.075 J-.419 E.00471
G2 X56.597 Y47.713 I-1.078 J-.299 E.00185
G1 X56.82 Y45.613 E.01429
G3 X58.653 Y47.397 I-7.998 J10.058 E.01733
G3 X60.281 Y49.527 I-19.134 J16.306 E.01815
G2 X60.929 Y49.359 I.282 J-.244 E.00561
G2 X60.987 Y49.169 I-1.33 J-.509 E.00135
G2 X61.424 Y45.8 I-20.199 J-4.331 E.02301
G3 X61.565 Y45.922 I-.477 J.694 E.00126
G3 X63.3 Y48.711 I-11.057 J8.815 E.02228
G3 X65.27 Y55.273 I-19.853 J9.537 E.04654
G2 X65.844 Y55.36 I.309 J-.101 E.00485
G2 X65.921 Y54.976 I-.37 J-.273 E.00274
G2 X65.745 Y53.954 I-37.139 J5.863 E.00702
G3 X65.834 Y53.491 I1.16 J-.016 E.00321
G2 X67.309 Y48.809 I-18.534 J-8.409 E.03329
G1 X67.389 Y48.806 E.00055
G3 X67.9 Y52.583 I-17.487 J4.29 E.02583
G2 X67.976 Y54.094 I21.895 J-.342 E.01023
G2 X68.641 Y53.952 I.323 J-.117 E.00665
G2 X68.649 Y53.662 I-3.492 J-.24 E.00197
G2 X68.519 Y51.33 I-137.89 J6.528 E.0158
G3 X68.72 Y50.675 I1.818 J.2 E.00467
G2 X69.664 Y46.377 I-15.087 J-5.565 E.02986
G2 X69.749 Y44.961 I-26.513 J-2.297 E.0096
G1 X69.825 Y44.944 E.00053
G3 X71.281 Y49.758 I-12.579 J6.432 E.0342
G2 X71.938 Y49.783 I.331 J-.043 E.00633
G2 X71.87 Y48.984 I-2.932 J-.154 E.00545
G3 X71.81 Y48.299 I1.748 J-.499 E.00468
G2 X72.417 Y45.692 I-13.62 J-4.548 E.01813
G1 X72.505 Y45.693 E.0006
G3 X72.461 Y46.211 I-.91 J.183 E.00356
G2 X72.964 Y46.502 I.336 J-.001 E.00475
G2 X73.137 Y46.336 I-.43 J-.624 E.00163
G3 X73.739 Y45.57 I15.939 J11.907 E.00659
G3 X73.738 Y45.974 I-2.488 J.192 E.00274
G2 X73.665 Y48.043 I138.593 J5.885 E.01401
G2 X73.731 Y48.549 I1.162 J.106 E.00348
G2 X74.321 Y48.417 I.264 J-.203 E.00513
G3 X74.401 Y47.525 I11.204 J.551 E.00605
G3 X75.026 Y46.357 I3.143 J.929 E.00903
G3 X76.349 Y45.196 I4.082 J3.319 E.01196
G2 X76.113 Y46.666 I8.353 J2.095 E.01008
M73 P3 R7
G2 X76.142 Y49.126 I10.989 J1.101 E.01668
G2 X76.271 Y49.533 I1.807 J-.351 E.00289
G2 X76.851 Y49.317 I.256 J-.199 E.00555
G3 X76.765 Y47.436 I58.321 J-3.596 E.01274
G3 X77.171 Y46.947 I.69 J.159 E.00446
G3 X78.345 Y46.376 I2.61 J3.877 E.00886
G3 X78.328 Y46.64 I-1.5 J.04 E.0018
G3 X77.943 Y48.25 I-16.929 J-3.203 E.0112
G3 X77.678 Y48.667 I-1.014 J-.352 E.00337
G2 X77.667 Y48.945 I.259 J.15 E.00196
G2 X77.95 Y49.174 I.282 J-.059 E.00267
G2 X78.549 Y48.952 I-.284 J-1.681 E.00435
G3 X79.929 Y48.668 I1.404 J3.332 E.00959
G1 X80.096 Y48.701 E.00115
G2 X78.82 Y51.732 I6.575 J4.551 E.02241
G2 X78.744 Y53.042 I5.096 J.954 E.0089
G2 X79.126 Y53.317 I.331 J-.056 E.00353
G2 X80.197 Y53.067 I-6.864 J-31.797 E.00744
G3 X81.351 Y52.954 I1.065 J4.944 E.00786
G2 X78.035 Y60.036 I10.092 J9.042 E.05366
G3 X77.838 Y60.289 I-.647 J-.299 E.00219
G2 X78.188 Y60.749 I.304 J.132 E.00475
G3 X79.546 Y60.699 I.89 J5.601 E.00922
G3 X79.92 Y60.765 I-.441 J3.572 E.00257
G2 X78.444 Y61.878 I5.347 J8.628 E.01252
G2 X75.642 Y64.555 I130.206 J139.101 E.02622
G2 X74.67 Y65.674 I11.31 J10.798 E.01003
G2 X74.801 Y66.125 I.205 J.185 E.0038
G3 X76.025 Y66.603 I-7.108 J20.008 E.00889
G3 X77.553 Y67.689 I-2.78 J5.528 E.01273
G2 X74.392 Y68.008 I-.431 J11.555 E.02156
G2 X71.509 Y69.275 I2.996 J10.729 E.02138
G3 X65.537 Y71.709 I-14.032 J-25.88 E.04371
G3 X60.726 Y72.071 I-3.096 J-9.001 E.033
G2 X60.226 Y72.023 I-.339 J.9 E.00344
G2 X60.09 Y72.617 I.167 J.351 E.00474
G3 X61.373 Y74.79 I-4.379 J4.05 E.0172
G1 X61.305 Y74.832 E.00054
G2 X59.34 Y73.536 I-4.233 J4.281 E.01602
G2 X56.54 Y72.585 I-7.241 J16.717 E.02003
G2 X48.651 Y73.532 I-2.6 J11.675 E.05479
G1 X48.601 Y73.468 E.00055
G3 X50.624 Y71.99 I4.205 J3.633 E.0171
G2 X50.514 Y71.384 I-.162 J-.284 E.00545
G3 X47.928 Y70.54 I1.74 J-9.719 E.01846
G2 X44.874 Y69.172 I-22.873 J46.97 E.02264
G2 X40.257 Y68.69 I-3.281 J9.073 E.03172
G2 X39.459 Y68.81 I1.714 J14.097 E.00546
G3 X41.914 Y66.576 I4.874 J2.89 E.02279
G2 X42.017 Y65.897 I-.157 J-.371 E.00556
G3 X40.886 Y65.075 I2.209 J-4.227 E.00949
G2 X39.342 Y63.585 I-13.906 J12.871 E.01453
G2 X35.89 Y61.815 I-6.362 J8.157 E.0264
G3 X37.314 Y61.197 I4.203 J7.732 E.01051
G3 X38.372 Y61.088 I.829 J2.853 E.00724
G2 X38.567 Y60.551 I-.024 J-.312 E.00485
G1 X36.217 Y56.475 E.03183
G2 X35.656 Y55.696 I-5.848 J3.618 E.0065
G3 X36.645 Y55.795 I.329 J1.706 E.00682
G2 X37.097 Y55.896 I.397 J-.718 E.00318
G2 X37.392 Y55.351 I-.088 J-.4 E.00475
G2 X35.939 Y52.395 I-27.769 J11.809 E.0223
G2 X35.276 Y51.424 I-10.776 J6.647 E.00796
G1 X35.325 Y51.363 E.00053
G3 X37.452 Y52.739 I-4.322 J9.01 E.01718
M73 P3 R6
G2 X38.017 Y52.441 I.241 J-.229 E.00582
G2 X37.964 Y52.351 I-.28 J.104 E.00071
G3 X37.376 Y51.814 I29.169 J-32.559 E.00538
G3 X37.271 Y51.637 I.583 J-.464 E.0014
G2 X36.164 Y49.565 I-5.9 J1.823 E.01599
G1 X35.594 Y48.852 E.00618
G1 X35.632 Y48.792 E.00048
M73 P4 R6
G3 X37.468 Y49.577 I-1.148 J5.223 E.01359
G1 X37.545 Y49.643 E.00069
G2 X37.566 Y50.019 I.923 J.138 E.00257
G2 X38.203 Y49.913 I.297 J-.181 E.00559
G1 X38.238 Y49.789 E.00087
G2 X38.003 Y46.364 I-6.782 J-1.255 E.02348
G1 X37.983 Y46.232 E.0009
G3 X39.744 Y47.582 I-2.165 J4.648 E.01514
G3 X39.809 Y47.972 I-.622 J.304 E.00271
G2 X40.353 Y48.153 I.318 J-.048 E.00478
G2 X40.473 Y47.932 I-.154 J-.227 E.00177
G2 X40.317 Y44.938 I-8.739 J-1.045 E.02038
G3 X42.465 Y46.771 I-2.644 J5.273 E.01929
G3 X42.47 Y47.032 I-.355 J.137 E.0018
G2 X42.197 Y47.794 I2.29 J1.251 E.0055
G2 X42.213 Y47.848 I.333 J-.073 E.00038
G1 X42.066 Y47.942 F21000
;TYPE:Inner wall
G1 F3000
G1 X42.122 Y48.022 E.00066
G2 X42.98 Y47.955 I.408 J-.304 E.00694
G3 X44.292 Y45.722 I8.595 J3.548 E.01758
G3 X45.157 Y44.824 I8.168 J6.999 E.00844
G1 X45.22 Y44.859 E.00049
G2 X44.965 Y48.241 I10.669 J2.504 E.02303
G2 X45.531 Y51.512 I50.834 J-7.106 E.02246
G2 X46.504 Y51.589 I.5 J-.124 E.00869
G2 X46.524 Y51.309 I-.591 J-.184 E.00192
G3 X46.048 Y48.604 I67.807 J-13.328 E.01858
G1 X46.13 Y48.58 E.00058
G2 X48.627 Y52.135 I11.327 J-5.301 E.02954
G2 X48.803 Y53.8 I15.045 J-.744 E.01134
G2 X48.961 Y54.227 I1.063 J-.152 E.0031
G2 X49.836 Y53.76 I.382 J-.337 E.00924
G3 X50.614 Y48.815 I6.808 J-1.462 E.03464
G3 X50.886 Y48.372 I5.619 J3.144 E.00352
G2 X52.016 Y51.829 I9.797 J-1.291 E.02475
G2 X52.661 Y52.965 I15.957 J-8.303 E.00883
G2 X52.91 Y53.144 I.357 J-.234 E.00213
G2 X53.6 Y52.65 I.202 J-.447 E.00693
G1 X53.602 Y52.517 E.0009
G3 X53.57 Y49.417 I10.989 J-1.665 E.02104
G3 X54.292 Y46.863 I11.971 J2.008 E.01799
G1 X55.518 Y48.135 E.01195
G2 X56.025 Y48.516 I.806 J-.547 E.00437
G2 X56.718 Y48.024 I.106 J-.585 E.0064
G2 X56.763 Y47.727 I-1.228 J-.338 E.00204
G1 X56.953 Y45.926 E.01225
G3 X59.985 Y49.408 I-11.914 J13.434 E.03132
G2 X60.376 Y49.79 I.799 J-.425 E.00376
G2 X61.084 Y49.418 I.178 J-.521 E.00606
G2 X61.149 Y49.206 I-1.483 J-.568 E.0015
G2 X61.571 Y46.206 I-20.413 J-4.403 E.02052
G3 X63.151 Y48.784 I-10.744 J8.357 E.0205
G3 X65.111 Y55.322 I-19.77 J9.489 E.04636
G2 X65.965 Y55.474 I.467 J-.15 E.00719
G2 X66.086 Y54.962 I-.441 J-.375 E.0037
G2 X65.911 Y53.948 I-24.156 J3.656 E.00696
G3 X65.989 Y53.552 I.987 J-.012 E.00275
G2 X67.317 Y49.597 I-18.852 J-8.534 E.02827
G1 X67.397 Y49.598 E.00054
G3 X67.735 Y52.591 I-20.263 J3.797 E.02039
G2 X67.814 Y54.135 I20.151 J-.266 E.01046
G2 X68.807 Y53.966 I.484 J-.158 E.0098
G2 X68.815 Y53.658 I-3.698 J-.255 E.00208
G3 X68.691 Y51.271 I112.169 J-7.034 E.01617
G3 X68.875 Y50.735 I2.449 J.541 E.00384
G2 X69.829 Y46.392 I-15.241 J-5.626 E.03017
G2 X69.886 Y45.623 I-12.162 J-1.287 E.00522
G1 X69.963 Y45.608 E.00053
G3 X71.081 Y49.59 I-11.659 J5.422 E.02811
G2 X71.452 Y50.192 I.673 J0 E.00503
G2 X72.104 Y49.806 I.16 J-.472 E.00581
G2 X72.034 Y48.958 I-3.109 J-.171 E.00577
G3 X71.973 Y48.33 I1.578 J-.471 E.0043
G2 X72.441 Y46.58 I-19.288 J-6.098 E.01226
G2 X73.266 Y46.44 I.353 J-.425 E.00643
M73 P5 R6
G1 X73.497 Y46.143 E.00254
G1 X73.565 Y46.168 E.00049
G2 X73.503 Y48.276 I32.231 J1.996 E.01427
G2 X74.009 Y48.849 I.507 J.063 E.00585
G2 X74.485 Y48.447 I-.011 J-.496 E.00456
G3 X74.563 Y47.563 I11.916 J.601 E.00601
G3 X75.547 Y46.025 I3.346 J1.058 E.01249
G3 X76.103 Y45.556 I4.173 J4.378 E.00493
G2 X75.947 Y46.655 I7.534 J1.624 E.00751
G2 X75.978 Y49.154 I11.175 J1.113 E.01695
G2 X76.136 Y49.631 I1.805 J-.335 E.00341
G2 X77.017 Y49.31 I.391 J-.296 E.00844
G3 X76.937 Y47.424 I41.695 J-2.723 E.01277
G3 X77.26 Y47.086 I.539 J.192 E.00326
G3 X78.165 Y46.608 I3.077 J4.729 E.00693
G3 X77.787 Y48.193 I-16.863 J-3.192 E.01103
G3 X77.538 Y48.573 I-.874 J-.301 E.0031
G2 X77.504 Y48.982 I.402 J.239 E.00287
G2 X77.819 Y49.317 I.399 J-.059 E.00331
G2 X78.278 Y49.259 I.14 J-.734 E.00318
G3 X79.819 Y48.827 I1.741 J3.247 E.01091
G2 X78.564 Y52.962 I5.96 J4.068 E.02969
G2 X79.254 Y53.468 I.531 J-.002 E.00673
G3 X80.987 Y53.126 I2.549 J8.363 E.01197
G2 X77.869 Y60.004 I10.527 J8.918 E.05174
G1 X77.847 Y60.041 E.0003
G2 X78.19 Y60.916 I.28 J.395 E.0087
G3 X79.458 Y60.858 I.89 J5.566 E.0086
G2 X77.597 Y62.446 I8.862 J12.272 E.01657
G1 X75.782 Y64.177 E.01697
G2 X74.529 Y65.586 I12.195 J12.102 E.01275
G2 X74.441 Y65.985 I.447 J.308 E.00283
G2 X74.727 Y66.274 I.514 J-.222 E.00281
G3 X75.952 Y66.752 I-7.55 J21.147 E.0089
G3 X77.046 Y67.457 I-2.811 J5.562 E.00882
G1 X77.023 Y67.524 E.00048
G2 X71.427 Y69.13 I-.08 J10.274 E.03993
G3 X65.49 Y71.55 I-13.95 J-25.736 E.04346
G3 X60.762 Y71.909 I-3.049 J-8.843 E.03243
G2 X60.167 Y71.867 I-.36 J.854 E.00411
G2 X59.959 Y72.719 I.227 J.507 E.00684
G3 X60.956 Y74.193 I-4.334 J4.006 E.01208
G1 X60.895 Y74.243 E.00053
G2 X59.404 Y73.382 I-4.094 J5.375 E.01168
G2 X56.577 Y72.423 I-7.305 J16.874 E.02022
G2 X49.426 Y73.005 I-2.64 J11.788 E.04928
G1 X49.382 Y72.931 E.00058
G3 X50.716 Y72.129 I3.954 J5.067 E.01056
G2 X50.66 Y71.265 I-.239 J-.418 E.00728
G2 X50.039 Y71.118 I-1.046 J3.033 E.00432
G3 X47.996 Y70.388 I3.253 J-12.337 E.0147
G2 X44.932 Y69.016 I-22.896 J47.021 E.02271
G2 X40.237 Y68.525 I-3.339 J9.228 E.03225
G1 X39.793 Y68.584 E.00303
G3 X41.996 Y66.72 I4.622 J3.228 E.01974
G2 X42.12 Y65.766 I-.243 J-.517 E.00774
G3 X41.143 Y65.092 I2.291 J-4.368 E.00805
G2 X39.446 Y63.455 I-16.416 J15.331 E.01596
G2 X36.323 Y61.788 I-6.16 J7.781 E.02408
G3 X37.98 Y61.247 I2.095 J3.607 E.01188
G2 X38.474 Y61.237 I.172 J-3.8 E.00334
G2 X38.704 Y60.457 I-.124 J-.461 E.00659
G1 X36.359 Y56.389 E.03177
G2 X35.976 Y55.818 I-6.267 J3.786 E.00466
G3 X36.944 Y56.067 I-.625 J4.431 E.00678
G2 X37.55 Y55.301 I.074 J-.565 E.00795
G2 X36.081 Y52.309 I-27.778 J11.782 E.02256
G2 X35.81 Y51.883 I-6.069 J3.575 E.00341
G1 X35.863 Y51.825 E.00053
G3 X37.357 Y52.876 I-5.013 J8.717 E.01237
G2 X38.175 Y52.387 I.34 J-.36 E.00868
M73 P6 R6
G2 X38.091 Y52.243 I-.447 J.164 E.00114
G3 X37.506 Y51.71 I140.579 J-155.192 E.00535
G3 X37.425 Y51.574 I.428 J-.345 E.00107
G2 X36.046 Y49.152 I-6.496 J2.095 E.01899
G1 X36.088 Y49.091 E.0005
G3 X37.377 Y49.716 I-1.393 J4.513 E.00973
G2 X37.497 Y50.199 I.526 J.125 E.0035
G2 X38.359 Y49.969 I.368 J-.354 E.00735
G1 X38.402 Y49.823 E.00103
G2 X38.233 Y46.548 I-7.001 J-1.281 E.02238
G3 X39.601 Y47.668 I-2.351 J4.27 E.01203
G3 X39.639 Y47.866 I-.212 J.143 E.0014
G2 X40.449 Y48.29 I.488 J.053 E.00795
G2 X40.637 Y47.962 I-.246 J-.359 E.00264
G2 X40.543 Y45.242 I-8.763 J-1.061 E.01848
G3 X42.327 Y46.876 I-2.822 J4.873 E.01649
G3 X42.225 Y47.15 I-.45 J-.011 E.00202
