; generated by SuperSlicer 2.5.59 on 2023-03-22 at 20:24:40 UTC


;
;

;
;
; 

; external perimeters extrusion width = 0.40mm
; perimeters extrusion width = 0.46mm
; infill extrusion width = 0.64mm
; solid infill extrusion width = 0.56mm
; top infill extrusion width = 0.40mm
; first layer extrusion width = 0.50mm

; object:{"name":"dig_resonanceMount-longReverse-rev2","id":"dig_resonanceMount-longReverse-rev2.stl id:0 copy 0","object_center":[60.000000,60.000000,0.000000],"boundingbox_center":[60.000000,60.000000,2.500000],"boundingbox_size":[28.000000,31.776051,5.000000]}
EXCLUDE_OBJECT_DEFINE NAME=dig_resonanceMount_longReverse_rev2_stl_id_0_copy_0 CENTER=60.000000,60.000000 POLYGON=[[46.000000,47.685984],[46.008160,47.447136],[46.032600,47.209404],[46.073204,46.973888],[46.129792,46.741700],[46.202088,46.513908],[46.289760,46.291580],[46.392404,46.075760],[46.509532,45.867440],[46.640608,45.667604],[46.785012,45.477176],[46.942072,45.297052],[47.111064,45.128060],[47.291192,44.970992],[47.481620,44.826592],[47.681456,44.695520],[47.889772,44.578384],[48.105600,44.475748],[48.327924,44.388068],[48.555708,44.315772],[48.787904,44.259192],[49.023420,44.218584],[49.261156,44.194144],[49.500000,44.185984],[58.515236,44.111976],[61.482928,44.111976],[70.500000,44.185984],[70.738848,44.194144],[70.976584,44.218584],[71.212096,44.259192],[71.444288,44.315772],[71.672080,44.388068],[71.894400,44.475748],[72.110232,44.578384],[72.318544,44.695520],[72.518376,44.826592],[72.708808,44.970992],[72.888936,45.128060],[73.057920,45.297052],[73.214992,45.477176],[73.359400,45.667604],[73.490472,45.867440],[73.607600,46.075760],[73.710240,46.291580],[73.797912,46.513908],[73.870208,46.741700],[73.926800,46.973888],[73.967400,47.209404],[73.991848,47.447136],[74.000000,47.685984],[74.000000,66.114640],[73.991848,66.353484],[73.967400,66.591224],[73.926800,66.826736],[73.870208,67.058928],[73.797912,67.286720],[73.710240,67.509040],[73.607600,67.724872],[73.490472,67.933184],[73.359400,68.133016],[73.214992,68.323448],[73.057920,68.503568],[72.888936,68.672560],[72.708808,68.829632],[72.518376,68.974032],[72.318544,69.105104],[63.505064,74.880776],[63.353952,74.974392],[63.221704,75.051664],[63.066988,75.136800],[62.929888,75.207688],[62.772040,75.284224],[62.630404,75.348432],[62.469904,75.416264],[62.324052,75.473512],[62.161364,75.532576],[62.011648,75.582600],[61.847248,75.632856],[61.694020,75.675408],[61.528384,75.716832],[61.372024,75.751680],[61.205624,75.784280],[61.046520,75.811208],[60.879820,75.835024],[60.718372,75.853840],[60.551832,75.868928],[60.388464,75.879472],[60.222536,75.885904],[60.057668,75.888024],[59.892800,75.885904],[59.726872,75.879472],[59.563504,75.868928],[59.396960,75.853840],[59.235516,75.835024],[59.068812,75.811208],[58.909712,75.784280],[58.743308,75.751680],[58.586948,75.716832],[58.421316,75.675408],[58.268084,75.632856],[58.103688,75.582600],[57.953968,75.532576],[57.791284,75.473512],[57.645432,75.416264],[57.484928,75.348432],[57.343292,75.284224],[57.185444,75.207688],[57.048348,75.136800],[56.893632,75.051664],[56.761384,74.974392],[56.610272,74.880776],[47.681456,69.105104],[47.481620,68.974032],[47.291192,68.829632],[47.111064,68.672560],[46.942072,68.503568],[46.785012,68.323448],[46.640608,68.133016],[46.509532,67.933184],[46.392404,67.724872],[46.289760,67.509040],[46.202088,67.286720],[46.129792,67.058928],[46.073204,66.826736],[46.032600,66.591224],[46.008160,66.353484],[46.000000,66.114640],[46.000000,47.685984]]
; plater:{"center":[60.000000,60.000000,0.000000],"boundingbox_center":[60.000000,60.000000,2.500000],"boundingbox_size":[28.000000,31.776051,5.000000]}

M73 P0 R9
;TYPE:Custom
; custom gcode: start_gcode
START_PRINT T_BED=60 T_EXTRUDER=200
; custom gcode end: start_gcode
M107
G21 ; set units to millimeters
G90 ; use absolute coordinates
M82 ; use absolute distances for extrusion
G92 E0
; custom gcode: start_filament_gcode
; Filament gcode

    PRESSURE_ADVANCE_SELECT FILAMENT=PLA
; custom gcode end: start_filament_gcode
;_TOOLCHANGE 0
M104 S200 ; set temperature
M109 S200 ; set temperature and wait for it to be reached
M190 S60 ; set bed temperature and wait for it to be reached
;LAYER_CHANGE
;Z:0.2
;HEIGHT:0.2
G1 Z0.2 F12000
M73 P0 R9
G1 E-0.8 F3000
M204 S2000
G1 Z0.6 F12000
G1 X44.364 Y42.909
G1 Z0.2
G1 E0 F1800
;TYPE:Skirt
;WIDTH:0.52
G1 X43.795 Y43.608 E0.03573
G1 X43.247 Y44.509 E0.07757
G1 X42.955 Y45.164 E0.10604
G1 X42.655 Y46.163 E0.1474
G1 X42.493 Y47.452 E0.19896
G1 X42.484 Y66.11 E0.93909
G1 X42.6 Y67.364 E0.98904
G1 X43.012 Y68.777 E1.04743
M73 P0 R9
G1 X43.524 Y69.783 E1.09221
G1 X44.026 Y70.491 E1.12664
G1 X44.82 Y71.335 E1.1726
G1 X45.484 Y71.865 E1.20631
G1 X54.762 Y77.871 E1.64475
G1 X56.557 Y78.763 E1.72426
G1 X57.955 Y79.174 E1.78205
G1 X58.967 Y79.34 E1.82276
G1 X60.812 Y79.373 E1.89593
G1 X62.783 Y79.018 E1.97541
G1 X63.754 Y78.685 E2.01612
G1 X64.685 Y78.254 E2.05683
G1 X74.877 Y71.588 E2.53991
G1 X75.636 Y70.891 E2.58079
G1 X76.205 Y70.193 E2.61652
G1 X76.753 Y69.292 E2.65836
G1 X77.045 Y68.636 E2.68683
G1 X77.345 Y67.638 E2.72819
G1 X77.507 Y66.347 E2.77981
G1 X77.507 Y47.454 E3.52926
G1 X77.345 Y46.163 E3.58088
G1 X76.96 Y44.953 E3.63126
G1 X76.476 Y44.017 E3.67303
G1 X75.974 Y43.31 E3.70745
G1 X75.108 Y42.398 E3.75733
G1 X74.264 Y41.77 E3.79907
G1 X73.234 Y41.226 E3.84527
G1 X72.023 Y40.841 E3.89569
G1 X71.12 Y40.699 E3.93193
G1 X49.268 Y40.679 E4.7988
G1 X48.318 Y40.774 E4.83669
G1 X46.767 Y41.226 E4.90078
G1 X45.831 Y41.71 E4.94255
G1 X45.124 Y42.212 E4.97697
G1 X44.364 Y42.909 E5.01789
G1 X44.718 Y43.229 F12000
G1 F1800
G1 X44.177 Y43.895 E5.05194
G1 X43.397 Y45.343 E5.11719
G1 X43.123 Y46.256 E5.15501
G1 X42.97 Y47.453 E5.20286
G1 X42.961 Y66.11 E5.943
G1 X43.071 Y67.292 E5.99006
G1 X43.458 Y68.607 E6.04447
G1 X43.924 Y69.524 E6.08526
G1 X44.386 Y70.178 E6.11701
G1 X45.127 Y70.969 E6.16001
G1 X45.751 Y71.47 E6.19175
G1 X55.021 Y77.47 E6.62982
G1 X56.715 Y78.313 E6.70484
G1 X58.071 Y78.712 E6.76092
G1 X59.035 Y78.868 E6.79967
G1 X60.787 Y78.896 E6.86917
G1 X62.667 Y78.555 E6.94498
G1 X64.477 Y77.825 E7.02238
G1 X74.564 Y71.228 E7.5005
M73 P1 R9
G1 X75.282 Y70.572 E7.53908
G1 X75.823 Y69.906 E7.57314
G1 X76.603 Y68.458 E7.63839
G1 X76.877 Y67.545 E7.67621
G1 X77.03 Y66.347 E7.72412
G1 X77.03 Y47.454 E8.47357
G1 X76.877 Y46.256 E8.52148
G1 X76.518 Y45.131 E8.56831
G1 X76.076 Y44.277 E8.60649
G1 X75.614 Y43.623 E8.63823
G1 X74.789 Y42.753 E8.68581
G1 X74.018 Y42.178 E8.72395
G1 X73.055 Y41.669 E8.76715
G1 X71.93 Y41.309 E8.81402
G1 X71.071 Y41.173 E8.84853
G1 X48.703 Y41.197 E9.73583
G1 X47.766 Y41.385 E9.77374
G1 X46.945 Y41.668 E9.80818
G1 X46.091 Y42.11 E9.84635
G1 X45.437 Y42.572 E9.8781
G1 X44.718 Y43.229 E9.91672
G92 E0
G1 E-0.8 F3000
G1 Z0.6 F12000
; printing object dig_resonanceMount-longReverse-rev2.stl id:0 copy 0
EXCLUDE_OBJECT_START NAME=dig_resonanceMount_longReverse_rev2_stl_id_0_copy_0
G1 X56.895 Y66.229
G1 Z0.2
G1 E0 F1800
;TYPE:Internal perimeter
;WIDTH:0.5
G1 X56.861 Y66.26 E0.00177
G1 X56.535 Y66.621 E0.02026
G1 X56.253 Y67.007 E0.03842
G1 X56.072 Y67.31 E0.05181
G1 X55.868 Y67.737 E0.0698
G1 X55.707 Y68.185 E0.08791
G1 X55.619 Y68.529 E0.10138
G1 X55.545 Y68.995 E0.11933
G1 X55.516 Y69.485 E0.13797
G1 X55.545 Y69.974 E0.15661
G1 X55.619 Y70.441 E0.17457
G1 X55.707 Y70.784 E0.18804
G1 X55.868 Y71.233 E0.20615
G1 X56.072 Y71.66 E0.22414
G1 X56.253 Y71.962 E0.23753
G1 X56.535 Y72.348 E0.25569
G1 X56.861 Y72.709 E0.27418
G1 X57.228 Y73.035 E0.29284
G1 X57.624 Y73.318 E0.31133
G1 X58.042 Y73.553 E0.32954
G1 X58.36 Y73.696 E0.34282
G1 X58.809 Y73.85 E0.36086
G1 X59.288 Y73.96 E0.37953
G1 X59.771 Y74.016 E0.39801
G1 X60.262 Y74.021 E0.41668
G1 X60.746 Y73.972 E0.43516
G1 X61.213 Y73.876 E0.45328
G1 X61.552 Y73.772 E0.46675
G1 X61.989 Y73.592 E0.4847
G1 X62.409 Y73.369 E0.50277
G1 X62.705 Y73.174 E0.51628
G1 X63.076 Y72.875 E0.53437
G1 X63.413 Y72.544 E0.55233
G1 X63.641 Y72.273 E0.56577
G1 X63.913 Y71.881 E0.58391
G1 X64.142 Y71.467 E0.60191
G1 X64.283 Y71.145 E0.61527
G1 X64.434 Y70.691 E0.63344
G1 X64.537 Y70.228 E0.65148
G1 X64.58 Y69.881 E0.66477
G1 X64.597 Y69.402 E0.68298
G1 X64.562 Y68.917 E0.70146
G1 X64.477 Y68.446 E0.71965
G1 X64.384 Y68.108 E0.73298
G1 X64.217 Y67.665 E0.751
G1 X64.003 Y67.237 E0.76915
G1 X63.816 Y66.938 E0.78255
G1 X63.53 Y66.561 E0.80053
G1 X63.196 Y66.202 E0.8192
G1 X62.825 Y65.887 E0.83769
G1 X62.434 Y65.616 E0.85577
G1 X62.124 Y65.442 E0.86927
G1 X61.689 Y65.249 E0.88736
G1 X61.24 Y65.101 E0.90531
G1 X60.895 Y65.022 E0.91877
G1 X60.422 Y64.96 E0.93689
G1 X59.949 Y64.946 E0.95489
G1 X59.598 Y64.968 E0.96826
G1 X59.126 Y65.042 E0.98643
G1 X58.647 Y65.168 E1.00526
G1 X58.06 Y65.407 E1.02933
G1 X57.624 Y65.652 E1.04834
G1 X57.228 Y65.934 E1.06683
G1 X56.895 Y66.229 E1.08372
G1 X57.167 Y66.603 F12000
G1 F1800
G1 X56.89 Y66.91 E1.09946
G1 X56.634 Y67.26 E1.11592
G1 X56.476 Y67.526 E1.1277
G1 X56.291 Y67.913 E1.144
G1 X56.145 Y68.32 E1.16043
G1 X56.067 Y68.621 E1.17226
G1 X56 Y69.045 E1.18855
G1 X55.974 Y69.485 E1.20531
G1 X56 Y69.925 E1.22207
G1 X56.067 Y70.348 E1.23836
G1 X56.145 Y70.65 E1.25019
G1 X56.291 Y71.057 E1.26662
G1 X56.476 Y71.444 E1.28292
G1 X56.635 Y71.71 E1.2947
G1 X56.89 Y72.06 E1.31116
G1 X57.183 Y72.384 E1.32778
G1 X57.513 Y72.677 E1.34456
G1 X57.869 Y72.932 E1.36119
G1 X58.248 Y73.144 E1.37768
G1 X58.529 Y73.27 E1.38939
G1 X58.935 Y73.41 E1.40573
G1 X59.365 Y73.509 E1.42251
G1 X59.8 Y73.559 E1.43913
G1 X60.242 Y73.564 E1.45591
G1 X60.677 Y73.519 E1.47254
G1 X61.1 Y73.432 E1.48897
G1 X61.398 Y73.342 E1.5008
G1 X61.794 Y73.178 E1.51708
G1 X62.175 Y72.976 E1.53348
G1 X62.435 Y72.804 E1.54534
G1 X62.772 Y72.533 E1.56175
G1 X63.077 Y72.233 E1.57804
G1 X63.278 Y71.995 E1.58985
G1 X63.524 Y71.64 E1.60629
G1 X63.732 Y71.264 E1.6226
G1 X63.856 Y70.981 E1.63437
G1 X63.993 Y70.57 E1.65083
G1 X64.086 Y70.15 E1.66717
G1 X64.124 Y69.844 E1.67888
G1 X64.14 Y69.411 E1.69537
G1 X64.108 Y68.974 E1.712
G1 X64.031 Y68.548 E1.72848
G1 X63.949 Y68.25 E1.74021
G1 X63.797 Y67.848 E1.75654
G1 X63.603 Y67.461 E1.77299
G1 X63.44 Y67.198 E1.78478
G1 X63.18 Y66.856 E1.80108
G1 X62.879 Y66.533 E1.81786
G1 X62.546 Y66.25 E1.83449
G1 X62.191 Y66.004 E1.85089
G1 X61.919 Y65.851 E1.86275
G1 X61.524 Y65.676 E1.87916
G1 X61.118 Y65.542 E1.89544
G1 X60.814 Y65.473 E1.90726
G1 X60.386 Y65.416 E1.9237
G1 X59.957 Y65.403 E1.94001
G1 X59.648 Y65.423 E1.95178
G1 X59.22 Y65.49 E1.96824
G1 X58.792 Y65.603 E1.98506
G1 X58.259 Y65.82 E2.00693
G1 X57.869 Y66.038 E2.02391
G1 X57.513 Y66.292 E2.04053
G1 X57.183 Y66.585 E2.05731
G1 X57.167 Y66.603 E2.0582
G1 X57.505 Y66.91 F12000
;TYPE:External perimeter
G1 F1800
G1 X57.245 Y67.199 E2.07296
G1 X57.016 Y67.512 E2.08772
G1 X56.879 Y67.742 E2.09789
G1 X56.713 Y68.089 E2.11251
G1 X56.582 Y68.454 E2.12725
G1 X56.515 Y68.714 E2.13744
G1 X56.455 Y69.094 E2.15206
G1 X56.432 Y69.485 E2.16695
G1 X56.455 Y69.876 E2.18183
G1 X56.515 Y70.256 E2.19645
G1 X56.582 Y70.515 E2.20664
G1 X56.713 Y70.88 E2.22138
G1 X56.879 Y71.228 E2.23601
G1 X57.016 Y71.457 E2.24617
G1 X57.245 Y71.771 E2.26093
G1 X57.505 Y72.059 E2.27569
G1 X57.798 Y72.319 E2.29059
G1 X58.115 Y72.545 E2.30535
G1 X58.453 Y72.735 E2.32012
G1 X58.697 Y72.845 E2.33026
G1 X59.061 Y72.97 E2.3449
G1 X59.443 Y73.058 E2.3598
G1 X59.829 Y73.102 E2.37456
G1 X60.221 Y73.107 E2.38945
G1 X60.607 Y73.067 E2.40422
G1 X60.987 Y72.989 E2.41896
G1 X61.244 Y72.911 E2.42915
G1 X61.599 Y72.764 E2.44376
G1 X61.941 Y72.582 E2.45849
G1 X62.165 Y72.435 E2.46869
G1 X62.467 Y72.191 E2.48343
G1 X62.742 Y71.922 E2.49805
G1 X62.914 Y71.717 E2.50823
G1 X63.136 Y71.398 E2.52298
G1 X63.322 Y71.061 E2.53761
G1 X63.429 Y70.817 E2.54777
G1 X63.552 Y70.448 E2.56253
G1 X63.635 Y70.072 E2.57716
G1 X63.668 Y69.807 E2.5873
G1 X63.682 Y69.419 E2.60207
G1 X63.654 Y69.032 E2.61684
G1 X63.585 Y68.649 E2.6316
G1 X63.514 Y68.392 E2.64175
G1 X63.378 Y68.032 E2.65638
G1 X63.204 Y67.684 E2.67114
G1 X63.063 Y67.457 E2.68131
G1 X62.83 Y67.151 E2.69593
G1 X62.563 Y66.864 E2.71083
G1 X62.267 Y66.613 E2.72559
G1 X61.948 Y66.392 E2.74032
G1 X61.714 Y66.26 E2.75052
G1 X61.36 Y66.103 E2.76526
G1 X60.995 Y65.983 E2.77987
G1 X60.734 Y65.923 E2.79006
G1 X60.349 Y65.872 E2.8048
G1 X59.964 Y65.861 E2.81943
G1 X59.697 Y65.878 E2.82959
G1 X59.314 Y65.938 E2.84435
G1 X58.937 Y66.037 E2.85916
G1 X58.457 Y66.232 E2.87883
G1 X58.115 Y66.425 E2.89378
G1 X57.798 Y66.65 E2.90854
G1 X57.505 Y66.91 E2.92344
;WIPE_START
M204 S4000
G1 X57.117 Y66.812 F12000
;WIPE_END
G92 E0
G1 E-0.8 F3000
M204 S2000
G1 Z0.6 F12000
G1 X68.896 Y63.662
M73 P2 R9
G1 Z0.2
G1 E0 F1800
;TYPE:Internal perimeter
G1 X69.52 Y63.854 E0.0248
G1 X69.996 Y63.9 E0.043
G1 X70.409 Y63.88 E0.05871
G1 X70.921 Y63.758 E0.0787
G1 X71.239 Y63.626 E0.0918
G1 X71.645 Y63.386 E0.10971
G1 X72.067 Y63.008 E0.13125
G1 X72.375 Y62.583 E0.15117
G1 X72.628 Y62.665 E0.16127
G1 X72.628 Y66.26 E0.29788
G1 X72.567 Y66.631 E0.31216
G1 X72.45 Y66.976 E0.32603
G1 X72.266 Y67.306 E0.34039
G1 X72.034 Y67.593 E0.3544
G1 X71.743 Y67.846 E0.36905
G1 X71.509 Y67.993 E0.37956
G1 X71.159 Y68.14 E0.39402
G1 X70.787 Y68.227 E0.40853
G1 X70.456 Y68.25 E0.42114
G1 X65.148 Y68.25 E0.62286
G1 X65.079 Y69.89 E0.68522
G1 X65.008 Y70.414 E0.70533
G1 X64.886 Y70.921 E0.72515
G1 X64.711 Y71.412 E0.74496
G1 X64.487 Y71.883 E0.76478
G1 X64.215 Y72.328 E0.78459
G1 X63.894 Y72.749 E0.8047
G1 X63.634 Y73.033 E0.81935
G1 X63.355 Y73.293 E0.83383
G1 X62.937 Y73.617 E0.85395
G1 X62.495 Y73.893 E0.87377
G1 X62.026 Y74.121 E0.89358
G1 X61.536 Y74.3 E0.9134
G1 X61.03 Y74.427 E0.93321
G1 X60.506 Y74.502 E0.95333
G1 X60.13 Y74.522 E0.96765
G1 X59.601 Y74.501 E0.98778
G1 X59.085 Y74.427 E1.00759
G1 X58.571 Y74.298 E1.02772
G1 X58.212 Y74.172 E1.04219
G1 X57.859 Y74.017 E1.05684
G1 X57.396 Y73.761 E1.07695
G1 X56.968 Y73.463 E1.09677
G1 X56.573 Y73.122 E1.11658
G1 X56.216 Y72.743 E1.1364
G1 X55.9 Y72.328 E1.15621
G1 X55.628 Y71.883 E1.17603
G1 X55.404 Y71.412 E1.19584
G1 X55.23 Y70.921 E1.21566
G1 X55.107 Y70.414 E1.23547
G1 X55.037 Y69.89 E1.25558
G1 X54.967 Y68.25 E1.31794
G1 X49.544 Y68.25 E1.52405
G1 X49.203 Y68.227 E1.53703
G1 X48.922 Y68.167 E1.54797
G1 X48.566 Y68.029 E1.56247
G1 X48.24 Y67.834 E1.57692
G1 X48.028 Y67.656 E1.58745
G1 X47.762 Y67.351 E1.60283
G1 X47.551 Y66.983 E1.61894
G1 X47.472 Y66.774 E1.62743
G1 X47.413 Y66.559 E1.63591
G1 X47.364 Y66.079 E1.65426
G1 X47.366 Y62.525 E1.78932
G1 X47.621 Y62.444 E1.79949
G1 X47.96 Y62.924 E1.82183
G1 X48.24 Y63.216 E1.83719
G1 X48.629 Y63.506 E1.85564
G1 X49.121 Y63.742 E1.87637
G1 X49.521 Y63.85 E1.89214
G1 X49.999 Y63.905 E1.91041
G1 X50.558 Y63.857 E1.93174
G1 X51.018 Y63.721 E1.94998
G1 X51.146 Y63.662 E1.95534
G1 X51.77 Y63.854 E1.98013
G1 X52.246 Y63.9 E1.99833
G1 X52.659 Y63.88 E2.01405
G1 X53.171 Y63.758 E2.03403
G1 X53.489 Y63.626 E2.04714
G1 X53.895 Y63.386 E2.06505
G1 X54.317 Y63.008 E2.08659
G1 X54.657 Y62.54 E2.10856
G1 X54.889 Y62.01 E2.13054
G1 X55.005 Y61.444 E2.15251
G1 X54.998 Y60.793 E2.17727
G1 X55.244 Y60.705 E2.18719
G1 X55.373 Y60.867 E2.19506
G1 X55.808 Y61.327 E2.21912
G1 X56.149 Y61.627 E2.2364
G1 X56.668 Y62.011 E2.26093
G1 X57.292 Y62.371 E2.2883
G1 X57.884 Y62.629 E2.31283
G1 X58.317 Y62.775 E2.33022
G1 X59.007 Y62.936 E2.35714
G1 X59.649 Y63.012 E2.38173
G1 X60.104 Y63.025 E2.399
G1 X60.75 Y62.987 E2.4236
G1 X61.447 Y62.867 E2.4505
G1 X61.889 Y62.747 E2.4679
G1 X62.478 Y62.531 E2.49173
G1 X62.838 Y62.363 E2.50683
G1 X63.449 Y62.01 E2.53367
G1 X64.028 Y61.578 E2.56111
G1 X64.499 Y61.136 E2.58567
G1 X65.116 Y60.447 E2.62081
G1 X65.081 Y61.261 E2.65175
G1 X65.131 Y61.721 E2.66936
G1 X65.243 Y62.11 E2.68472
G1 X65.437 Y62.538 E2.70257
G1 X65.71 Y62.924 E2.72057
G1 X65.99 Y63.216 E2.73592
G1 X66.379 Y63.506 E2.75437
G1 X66.871 Y63.742 E2.7751
G1 X67.271 Y63.85 E2.79088
G1 X67.749 Y63.905 E2.80914
G1 X68.308 Y63.857 E2.83048
G1 X68.768 Y63.721 E2.84872
G1 X68.896 Y63.662 E2.85407
G1 X68.935 Y63.14 F12000
G1 F1800
G1 X69.155 Y63.264 E2.86367
G1 X69.61 Y63.404 E2.88176
G1 X70.007 Y63.442 E2.89693
G1 X70.344 Y63.426 E2.90976
G1 X70.779 Y63.322 E2.92675
G1 X71.034 Y63.216 E2.93723
