; HEADER_BLOCK_START
; generated by OrcaSlicer 1.6.6 on 2023-09-03 at 20:15:59
; total layer number: 16
; HEADER_BLOCK_END

; THUMBNAIL_BLOCK_START
; THUMBNAIL_BLOCK_END

; external perimeters extrusion width = 0.15mm
; perimeters extrusion width = 0.17mm
; infill extrusion width = 0.24mm
; solid infill extrusion width = 0.21mm
; top infill extrusion width = 0.15mm
; first layer extrusion width = 0.19mm

; external perimeters extrusion width = 0.15mm
; perimeters extrusion width = 0.17mm
; infill extrusion width = 0.24mm
; solid infill extrusion width = 0.21mm
; top infill extrusion width = 0.15mm
; first layer extrusion width = 0.19mm

; external perimeters extrusion width = 0.15mm
; perimeters extrusion width = 0.17mm
; infill extrusion width = 0.24mm
; solid infill extrusion width = 0.21mm
; top infill extrusion width = 0.15mm
; first layer extrusion width = 0.19mm

; external perimeters extrusion width = 0.15mm
; perimeters extrusion width = 0.17mm
; infill extrusion width = 0.24mm
; solid infill extrusion width = 0.21mm
; top infill extrusion width = 0.15mm
; first layer extrusion width = 0.19mm

; EXECUTABLE_BLOCK_START
EXCLUDE_OBJECT_DEFINE NAME=DimSum-Eyes.stl_id_0_copy_0 CENTER=71.0178,63.0989 POLYGON=[[65.3181,63.1009],[65.3579,62.6935],[65.4763,62.3016],[65.6689,61.9404],[65.9283,61.6237],[66.2445,61.3637],[66.6053,61.1704],[66.997,61.0511],[67.4043,61.0106],[74.6313,61.0106],[75.0386,61.0511],[75.4303,61.1704],[75.7911,61.3637],[76.1073,61.6237],[76.3667,61.9404],[76.5593,62.3016],[76.6777,62.6935],[76.7175,63.1009],[76.6769,63.5083],[76.5577,63.8999],[76.3644,64.2607],[76.1044,64.5769],[75.7877,64.8363],[75.4264,65.0289],[75.4261,65.0291],[75.0343,65.1475],[74.6268,65.1872],[67.4088,65.1872],[67.0013,65.1475],[67.0013,65.1475],[66.6095,65.0291],[66.6094,65.029],[66.6092,65.029],[66.6092,65.0289],[66.2479,64.8363],[65.9313,64.5769],[65.6712,64.2608],[65.4779,63.8999],[65.3587,63.5083],[65.3181,63.1009]]
EXCLUDE_OBJECT_DEFINE NAME=DimSum-Mouth03.stl_id_1_copy_0 CENTER=56.3792,63.8299 POLYGON=[[52.4404,64.8278],[52.4439,64.7607],[52.4518,64.6735],[52.4647,64.563],[52.4835,64.4274],[52.5101,64.2706],[52.5468,64.098],[52.5959,63.9149],[52.6597,63.7268],[52.7403,63.5392],[52.8402,63.3573],[52.9616,63.1865],[52.9616,63.1865],[53.1057,63.0316],[53.1058,63.0315],[53.2704,62.894],[53.4522,62.7747],[53.6478,62.6745],[53.8541,62.5942],[54.0677,62.5347],[54.2854,62.4968],[54.5038,62.4814],[58.2436,62.4727],[58.4621,62.487],[58.6799,62.5238],[58.8938,62.5823],[59.1004,62.6617],[59.2966,62.761],[59.4789,62.8794],[59.6442,63.0162],[59.7891,63.1705],[59.9112,63.3407],[60.012,63.5221],[60.0935,63.7094],[60.1582,63.8972],[60.2081,64.08],[60.2457,64.2524],[60.273,64.4091],[60.2924,64.5446],[60.3058,64.655],[60.3141,64.7421],[60.318,64.8092],[60.3179,64.8596],[60.3145,64.8965],[60.3085,64.9231],[60.3004,64.9427],[60.2909,64.9585],[60.2909,64.9586],[60.2803,64.9735],[60.2691,64.9879],[60.269,64.9879],[60.257,65.0017],[60.257,65.0017],[60.2442,65.015],[60.2308,65.0276],[60.2169,65.0394],[60.2023,65.0506],[60.1873,65.0609],[60.1719,65.0703],[60.1561,65.0789],[60.14,65.0867],[60.1399,65.0868],[60.1234,65.0939],[60.1064,65.1003],[60.089,65.1061],[60.0713,65.1114],[60.0533,65.116],[60.0348,65.1202],[60.0162,65.1239],[59.9973,65.1271],[59.9784,65.1297],[59.9595,65.1318],[59.9407,65.1334],[59.9221,65.1343],[59.9037,65.1347],[56.4024,65.1871],[56.38,65.1872],[56.3576,65.1872],[52.8561,65.1513],[52.8378,65.151],[52.8192,65.1501],[52.8004,65.1486],[52.7814,65.1466],[52.7625,65.1441],[52.7437,65.141],[52.725,65.1374],[52.7065,65.1333],[52.6884,65.1287],[52.6707,65.1236],[52.6533,65.1178],[52.6363,65.1115],[52.6197,65.1044],[52.6035,65.0967],[52.5876,65.0881],[52.5722,65.0787],[52.5572,65.0685],[52.5426,65.0575],[52.5286,65.0457],[52.5151,65.0331],[52.5023,65.02],[52.4902,65.0062],[52.4788,64.9918],[52.4682,64.977],[52.4586,64.9611],[52.4504,64.9415],[52.4442,64.915],[52.4407,64.8781],[52.4404,64.8278]]
EXCLUDE_OBJECT_DEFINE NAME=DimSum-Mouth02.stl_id_2_copy_0 CENTER=45.3613,63.4144 POLYGON=[[43.2825,64.4783],[43.2949,64.273],[43.3212,64.0423],[43.3621,63.7935],[43.4188,63.5338],[43.492,63.2706],[43.5827,63.0112],[43.6918,62.7628],[43.8203,62.5328],[43.9686,62.3273],[44.1346,62.1478],[44.3158,61.9949],[44.5097,61.8688],[44.7137,61.77],[44.9253,61.699],[45.1421,61.656],[45.3613,61.6416],[45.5806,61.656],[45.7973,61.699],[46.0089,61.77],[46.213,61.8688],[46.4069,61.9949],[46.5881,62.1478],[46.7541,62.3273],[46.9023,62.5328],[47.0308,62.7628],[47.14,63.0112],[47.2307,63.2706],[47.3039,63.5338],[47.3605,63.7935],[47.4015,64.0423],[47.4277,64.273],[47.4401,64.4783],[47.4397,64.6525],[47.4275,64.7967],[47.4047,64.9134],[47.3724,65.0054],[47.3317,65.0754],[47.2838,65.1259],[47.2297,65.1596],[47.1706,65.1792],[47.1073,65.1872],[43.6154,65.1872],[43.5521,65.1792],[43.493,65.1596],[43.4389,65.1259],[43.3909,65.0754],[43.3502,65.0054],[43.3179,64.9134],[43.2951,64.7967],[43.2829,64.6525],[43.2825,64.4783]]
EXCLUDE_OBJECT_DEFINE NAME=DimSum-Mouth01.stl_id_3_copy_0 CENTER=57.7521,56.1427 POLYGON=[[55.6617,57.1498],[55.6652,57.0828],[55.6732,56.9956],[55.6861,56.8852],[55.7048,56.7495],[55.7314,56.5926],[55.7681,56.4199],[55.8172,56.2367],[55.881,56.0486],[55.9616,55.8608],[56.0615,55.6787],[56.1829,55.5079],[56.3271,55.3528],[56.4921,55.2153],[56.6749,55.0964],[56.8725,54.9968],[57.082,54.9178],[57.3004,54.8601],[57.5248,54.8248],[57.7521,54.8128],[57.9794,54.8248],[58.2037,54.8601],[58.4221,54.9178],[58.6316,54.9968],[58.8293,55.0964],[59.0121,55.2153],[59.177,55.3528],[59.3213,55.5079],[59.4426,55.6787],[59.5425,55.8608],[59.6232,56.0486],[59.6869,56.2367],[59.736,56.4199],[59.7727,56.5926],[59.7993,56.7495],[59.8181,56.8852],[59.831,56.9957],[59.8389,57.0828],[59.8424,57.1498],[59.8424,57.1498],[59.8421,57.2001],[59.8386,57.2368],[59.8325,57.2632],[59.8243,57.2827],[59.8147,57.2985],[59.8041,57.3132],[59.7927,57.3275],[59.7805,57.3413],[59.7677,57.3545],[59.7543,57.367],[59.7402,57.3788],[59.7257,57.3898],[59.7106,57.4001],[59.6952,57.4094],[59.6794,57.418],[59.6631,57.4257],[59.6465,57.4328],[59.6295,57.4391],[59.6121,57.4449],[59.5944,57.45],[59.5763,57.4546],[59.5579,57.4587],[59.5392,57.4623],[59.5203,57.4654],[59.5014,57.4679],[59.4824,57.4699],[59.4636,57.4714],[59.445,57.4723],[59.4267,57.4726],[56.0775,57.4726],[56.0591,57.4723],[56.0405,57.4714],[56.0217,57.4699],[56.0028,57.4679],[55.9838,57.4654],[55.965,57.4623],[55.9463,57.4587],[55.9278,57.4546],[55.9097,57.45],[55.892,57.4449],[55.8746,57.4391],[55.8576,57.4328],[55.841,57.4257],[55.8248,57.418],[55.8089,57.4094],[55.7935,57.4001],[55.7785,57.3898],[55.7639,57.3788],[55.7499,57.367],[55.7364,57.3545],[55.7236,57.3413],[55.7114,57.3275],[55.7001,57.3132],[55.6895,57.2985],[55.6798,57.2827],[55.6717,57.2632],[55.6655,57.2368],[55.662,57.2001],[55.6617,57.1498],[55.6617,57.1498]]
M73 P0 R2
;TYPE:Custom
START_PRINT T_BED=60 T_EXTRUDER=220
G90
G21
M83 ; use relative distances for extrusion
; filament start gcode

    PRESSURE_ADVANCE_SELECT FILAMENT=PLA
M106 S0
;LAYER_CHANGE
;Z:0.1
;HEIGHT:0.1
;BEFORE_LAYER_CHANGE
;0.1
G92 E0

;AFTER_LAYER_CHANGE
;0.1
SET_VELOCITY_LIMIT ACCEL=500 ACCEL_TO_DECEL=250
SET_VELOCITY_LIMIT SQUARE_CORNER_VELOCITY=9
G1 E-.8 F3000
G1 Z.2 F21000
G1 X43.08 Y60.044
G1 Z.2
G1 Z.1
G1 E.8 F1800
;TYPE:Skirt
;WIDTH:0.1875
G1 F3000
G1 X43.375 Y59.832 E.00246
G1 X55.626 Y53.014 E.09485
G1 X56.705 Y52.606 E.0078
G1 X57.918 Y52.487 E.00824
G1 X59.226 Y52.73 E.009
G1 X76.235 Y58.982 E.12259
G1 X76.892 Y59.308 E.00497
G1 X77.588 Y59.823 E.00586
G1 X78.171 Y60.463 E.00586
G1 X78.617 Y61.204 E.00585
G1 X78.91 Y62.019 E.00586
G1 X79.038 Y62.875 E.00586
G1 X78.997 Y63.739 E.00585
M73 P1 R2
G1 X78.788 Y64.579 E.00586
G1 X78.42 Y65.362 E.00585
G1 X77.582 Y66.381 E.00892
G1 X76.885 Y66.894 E.00586
G1 X75.709 Y67.38 E.0086
G1 X74.627 Y67.519 E.00738
G1 X43.615 Y67.519 E.20979
G1 X42.758 Y67.372 E.00588
G1 X42.205 Y67.104 E.00416
G1 X41.7 Y66.681 E.00445
G1 X41.335 Y66.178 E.00421
G1 X41.029 Y65.36 E.00591
G1 X40.951 Y64.658 E.00478
G1 X41.02 Y63.663 E.00674
G1 X41.245 Y62.646 E.00705
G1 X41.557 Y61.825 E.00594
G1 X42.077 Y60.963 E.00681
G1 X42.63 Y60.366 E.00551
G1 X43.068 Y60.052 E.00364
G1 X43.164 Y60.186 F21000
G1 F3000
G1 X43.456 Y59.977 E.00243
G1 X55.701 Y53.163 E.0948
G1 X56.747 Y52.767 E.00757
G1 X57.909 Y52.653 E.00789
G1 X59.169 Y52.886 E.00867
G1 X76.177 Y59.137 E.12259
M73 P2 R2
G1 X76.814 Y59.455 E.00481
G1 X77.483 Y59.951 E.00564
G1 X78.042 Y60.568 E.00564
G1 X78.47 Y61.283 E.00563
G1 X78.751 Y62.067 E.00564
G1 X78.873 Y62.891 E.00564
G1 X78.832 Y63.723 E.00563
G1 X78.63 Y64.531 E.00564
G1 X78.273 Y65.284 E.00563
G1 X77.477 Y66.253 E.00849
G1 X76.807 Y66.748 E.00564
G1 X75.661 Y67.221 E.00838
G1 X74.627 Y67.353 E.00705
G1 X43.615 Y67.353 E.20979
G1 X42.81 Y67.215 E.00553
G1 X42.293 Y66.963 E.0039
G1 X41.821 Y66.567 E.00417
G1 X41.478 Y66.094 E.00395
G1 X41.192 Y65.328 E.00553
G1 X41.117 Y64.657 E.00457
G1 X41.184 Y63.69 E.00656
G1 X41.405 Y62.69 E.00693
G1 X41.709 Y61.892 E.00578
G1 X42.212 Y61.061 E.00657
G1 X42.737 Y60.493 E.00523
G1 X43.152 Y60.195 E.00346
; printing object DimSum-Eyes.stl id:0 copy 0
G1 E-.8
EXCLUDE_OBJECT_START NAME=DimSum-Eyes.stl_id_0_copy_0
G1 Z.3 F21000
G1 X69.293 Y63.705 Z.3
G1 Z.1
G1 E.8 F1800
;TYPE:Outer wall
;WIDTH:0.187499
M73 P3 R2
G1 F3000
G1 X69.157 Y64.032 E.0024
G3 X69.381 Y62.903 I-1.746 J-.933 E.07624
G1 X69.382 Y63.291 E.00263
G3 X69.306 Y63.673 I-1.97 J-.193 E.00264
G1 X69.299 Y63.691 E.00013
G1 X69.127 Y63.647 F21000
;TYPE:Inner wall
G1 F3000
G1 X69.011 Y63.955 E.00222
G1 X68.7 Y64.39 E.00362
G1 X68.265 Y64.702 E.00362
G1 X67.765 Y64.891 E.00362
G1 X67.23 Y64.909 E.00362
G1 X66.709 Y64.788 E.00362
G1 X66.255 Y64.506 E.00362
G1 X65.888 Y64.116 E.00362
G1 X65.667 Y63.629 E.00362
G1 X65.579 Y63.101 E.00362
G1 X65.666 Y62.573 E.00362
G1 X65.886 Y62.085 E.00362
G1 X66.252 Y61.694 E.00362
G1 X66.706 Y61.412 E.00362
G1 X67.227 Y61.289 E.00362
G1 X67.761 Y61.307 E.00362
G1 X68.262 Y61.494 E.00362
G1 X68.697 Y61.806 E.00362
G1 X69.01 Y62.24 E.00362
G1 X69.198 Y62.741 E.00362
G1 X69.217 Y63.275 E.00362
G1 X69.199 Y63.454 E.00121
G1 X69.132 Y63.633 E.0013
G1 X68.972 Y63.589 F21000
G1 F3000
G1 X68.865 Y63.876 E.00207
G1 X68.582 Y64.272 E.00329
G1 X68.187 Y64.555 E.00329
G1 X67.732 Y64.727 E.00329
G1 X67.246 Y64.744 E.00329
G1 X66.773 Y64.634 E.00329
G1 X66.36 Y64.377 E.00329
G1 X66.027 Y64.023 E.00329
G1 X65.826 Y63.58 E.00329
G1 X65.746 Y63.101 E.00329
G1 X65.825 Y62.621 E.00329
G1 X66.025 Y62.178 E.00329
G1 X66.357 Y61.823 E.00329
G1 X66.77 Y61.566 E.00329
G1 X67.243 Y61.455 E.00329
G1 X67.729 Y61.47 E.00329
G1 X68.184 Y61.641 E.00329
G1 X68.58 Y61.924 E.00329
G1 X68.863 Y62.319 E.00329
G1 X69.035 Y62.773 E.00329
G1 X69.051 Y63.259 E.00329
G1 X69.035 Y63.421 E.0011
G1 X68.978 Y63.575 E.00111
G1 E-.8
G1 Z.3 F21000
G1 X68.82 Y62.344 Z.3
G1 Z.1
G1 E.8 F1800
;TYPE:Bottom surface
;WIDTH:0.191846
G1 F6300
G2 X68.258 Y61.822 I-2.906 J2.562 E.00533
G2 X67.882 Y61.646 I-.629 J.859 E.0029
G1 X68.859 Y62.624 E.00959
G3 X68.925 Y62.931 I-.739 J.32 E.0022
G1 X67.575 Y61.58 E.01326
M73 P4 R2
G1 X67.555 Y61.578 E.00014
G2 X67.325 Y61.572 I-.132 J.574 E.00161
G1 X68.934 Y63.18 E.01579
G3 X68.912 Y63.399 I-.562 J.055 E.00154
G1 X67.106 Y61.593 E.01773
G1 X66.921 Y61.65 E.00134
G1 X68.856 Y63.585 E.019
G3 X68.787 Y63.757 I-.467 J-.086 E.0013
G1 X66.749 Y61.718 E.02002
G1 X66.592 Y61.802 E.00124
G1 X68.704 Y63.914 E.02073
G3 X68.601 Y64.052 I-.399 J-.189 E.0012
G1 X66.453 Y61.905 E.02108
G1 X66.321 Y62.014 E.00119
G1 X68.492 Y64.184 E.02131
G1 X68.36 Y64.293 E.00119
G1 X66.212 Y62.146 E.02108
G2 X66.11 Y62.284 I.296 J.327 E.0012
G1 X68.221 Y64.396 E.02073
G1 X68.065 Y64.48 E.00124
G1 X66.026 Y62.441 E.02001
G2 X65.957 Y62.613 I.399 J.259 E.0013
G1 X67.892 Y64.548 E.019
G1 X67.707 Y64.604 E.00134
G1 X65.901 Y62.799 E.01773
G2 X65.88 Y63.018 I.539 J.164 E.00154
G1 X67.488 Y64.626 E.01579
G3 X67.239 Y64.618 I-.103 J-.632 E.00174
G1 X65.888 Y63.267 E.01326
M73 P5 R2
G2 X65.954 Y63.574 I.806 J-.013 E.0022
G1 X66.931 Y64.551 E.00959
G3 X66.336 Y64.197 I.52 J-1.55 E.00485
G1 X65.993 Y63.854 E.00336
G1 E-.8 F3000
G1 Z.3 F21000
G1 X68.969 Y64.057 Z.3
G1 X73.2 Y64.241
G1 X73.081 Y64.338
G1 Z.1
G1 E.8 F1800
;TYPE:Outer wall
;WIDTH:0.187499
G1 F3000
G1 X72.886 Y64.028 E.00247
G3 X76.528 Y62.525 I1.747 J-.93 E.04469
G1 X76.604 Y62.906 E.00263
G3 X73.101 Y64.351 I-1.97 J.192 E.0342
G1 X73.094 Y64.346 E.00006
G1 X73.222 Y64.231 F21000
;TYPE:Inner wall
G1 F3000
G1 X73.024 Y63.955 E.0023
G1 X72.836 Y63.454 E.00362
G1 X72.819 Y62.919 E.00362
G1 X72.942 Y62.398 E.00362
G1 X73.224 Y61.944 E.00362
G1 X73.615 Y61.579 E.00362
G1 X74.103 Y61.358 E.00362
G1 X74.631 Y61.272 E.00362
G1 X75.159 Y61.359 E.00362
G1 X75.646 Y61.581 E.00362
G1 X76.036 Y61.947 E.00362
G1 X76.318 Y62.401 E.00362
G1 X76.439 Y62.923 E.00362
G1 X76.456 Y63.101 E.00121
G1 X76.369 Y63.629 E.00362
G1 X76.147 Y64.116 E.00362
G1 X75.781 Y64.506 E.00362
G1 X75.326 Y64.788 E.00362
G1 X74.805 Y64.909 E.00362
G1 X74.271 Y64.891 E.00362
G1 X73.77 Y64.702 E.00362
G1 X73.336 Y64.39 E.00362
G1 X73.231 Y64.243 E.00122
G1 X73.356 Y64.135 F21000
G1 F3000
G1 X73.171 Y63.876 E.00215
G1 X73 Y63.421 E.00329
G1 X72.985 Y62.935 E.00329
G1 X73.096 Y62.462 E.00329
G1 X73.353 Y62.049 E.00329
G1 X73.708 Y61.717 E.00329
G1 X74.151 Y61.517 E.00329
G1 X74.631 Y61.439 E.00329
G1 X75.11 Y61.518 E.00329
G1 X75.553 Y61.719 E.00329
G1 X75.907 Y62.052 E.00329
G1 X76.164 Y62.465 E.00329
G1 X76.274 Y62.939 E.00329
G1 X76.289 Y63.101 E.0011
G1 X76.21 Y63.58 E.00329
G1 X76.009 Y64.023 E.00329
M73 P6 R2
G1 X75.676 Y64.377 E.00329
G1 X75.263 Y64.634 E.00329
G1 X74.789 Y64.744 E.00329
G1 X74.303 Y64.727 E.00329
G1 X73.849 Y64.555 E.00329
G1 X73.454 Y64.272 E.00329
G1 X73.365 Y64.147 E.00103
G1 E-.8
G1 Z.3 F21000
G1 X75.384 Y61.685 Z.3
G1 Z.1
G1 E.8 F1800
;TYPE:Bottom surface
;WIDTH:0.191847
G1 F6300
G3 X75.906 Y62.247 I-2.562 J2.905 E.00533
G3 X76.081 Y62.624 I-.859 J.629 E.0029
G1 X75.104 Y61.647 E.00959
G2 X74.797 Y61.58 I-.32 J.739 E.0022
G1 X76.148 Y62.931 E.01326
G3 X76.156 Y63.181 I-.623 J.146 E.00174
G1 X74.547 Y61.572 E.01579
G2 X74.328 Y61.594 I-.055 J.561 E.00154
G1 X76.134 Y63.4 E.01773
G1 X76.078 Y63.584 E.00134
G1 X74.143 Y61.65 E.019
G2 X73.971 Y61.718 I.086 J.468 E.0013
G1 X76.01 Y63.757 E.02002
G1 X75.926 Y63.914 E.00124
G1 X73.814 Y61.802 E.02073
G2 X73.676 Y61.905 I.189 J.399 E.0012
G1 X75.823 Y64.052 E.02108
G1 X75.714 Y64.184 E.00119
G1 X73.543 Y62.014 E.02131
G1 X73.435 Y62.146 E.00119
G1 X75.582 Y64.293 E.02108
G3 X75.444 Y64.396 I-.327 J-.296 E.0012
G1 X73.332 Y62.284 E.02073
M73 P7 R2
G1 X73.248 Y62.441 E.00124
G1 X75.287 Y64.48 E.02001
G3 X75.114 Y64.548 I-.259 J-.399 E.0013
G1 X73.18 Y62.614 E.019
G1 X73.123 Y62.798 E.00134
G1 X74.929 Y64.604 E.01773
G3 X74.71 Y64.626 I-.164 J-.54 E.00154
G1 X73.102 Y63.018 E.01579
G2 X73.11 Y63.267 I.632 J.103 E.00174
G1 X74.461 Y64.618 E.01326
G3 X74.154 Y64.551 I.013 J-.806 E.0022
G1 X73.176 Y63.574 E.00959
G2 X73.531 Y64.17 I1.55 J-.52 E.00485
G1 X73.874 Y64.512 E.00336
; stop printing object DimSum-Eyes.stl id:0 copy 0
; printing object DimSum-Mouth01.stl id:3 copy 0
G1 E-.8 F3000
EXCLUDE_OBJECT_END NAME=DimSum-Eyes.stl_id_0_copy_0
EXCLUDE_OBJECT_START NAME=DimSum-Mouth01.stl_id_3_copy_0
G1 Z.3 F21000
G1 X55.763 Y57.212 Z.3
G1 Z.1
G1 E.8 F1800
;TYPE:Outer wall
;WIDTH:0.187499
G1 F3000
G1 X55.825 Y56.61 E.0041
G1 X55.961 Y56.115 E.00347
G1 X56.069 Y55.878 E.00176
G1 X56.339 Y55.488 E.0032
G1 X56.683 Y55.208 E.003
G1 X56.975 Y55.068 E.00219
G1 X57.532 Y54.92 E.0039
G1 X58.128 Y54.951 E.00404
G1 X58.436 Y55.034 E.00215
G1 X58.911 Y55.266 E.00358
G1 X59.276 Y55.613 E.0034
G1 X59.508 Y56.051 E.00336
G3 X59.742 Y57.116 I-3.477 J1.32 E.0074
G1 X59.733 Y57.24 E.00084
G3 X59.253 Y57.274 I-.256 J-.21 E.00364
M73 P8 R2
G2 X58.85 Y56.338 I-3.132 J.793 E.00692
G1 X58.556 Y56.051 E.00278
G1 X58.226 Y55.891 E.00248
G1 X57.764 Y55.805 E.00318
G1 X57.347 Y55.862 E.00285
G1 X56.97 Y56.036 E.00281
G1 X56.654 Y56.338 E.00296
G2 X56.209 Y57.325 I3.915 J2.357 E.00734
