; HEADER_BLOCK_START
; generated by OrcaSlicer 1.6.6 on 2023-09-04 at 09:36:38
; total layer number: 19
; HEADER_BLOCK_END

; THUMBNAIL_BLOCK_START
; THUMBNAIL_BLOCK_END

; external perimeters extrusion width = 0.15mm
; perimeters extrusion width = 0.17mm
; infill extrusion width = 0.24mm
; solid infill extrusion width = 0.21mm
; top infill extrusion width = 0.15mm
; first layer extrusion width = 0.19mm

; external perimeters extrusion width = 0.15mm
; perimeters extrusion width = 0.17mm
; infill extrusion width = 0.24mm
; solid infill extrusion width = 0.21mm
; top infill extrusion width = 0.15mm
; first layer extrusion width = 0.19mm

; external perimeters extrusion width = 0.15mm
; perimeters extrusion width = 0.17mm
; infill extrusion width = 0.24mm
; solid infill extrusion width = 0.21mm
; top infill extrusion width = 0.15mm
; first layer extrusion width = 0.19mm

; EXECUTABLE_BLOCK_START
EXCLUDE_OBJECT_DEFINE NAME=DimSum-Blush.stl_id_0_copy_0 CENTER=60,68.5885 POLYGON=[[54.3513,68.5901],[54.3855,68.2401],[54.4872,67.9034],[54.6527,67.5931],[54.8756,67.321],[55.1472,67.0976],[55.4572,66.9315],[55.7937,66.829],[56.1437,66.7942],[63.8563,66.7942],[64.2063,66.8291],[64.5428,66.9315],[64.8528,67.0976],[65.1244,67.321],[65.3473,67.5931],[65.5128,67.9034],[65.6145,68.2401],[65.6487,68.5901],[65.6138,68.9401],[65.5114,69.2766],[65.3453,69.5866],[65.1219,69.8582],[64.8498,70.0811],[64.5395,70.2466],[64.5391,70.2467],[64.539,70.2467],[64.5388,70.2468],[64.2022,70.3486],[63.8521,70.3827],[56.1479,70.3827],[55.7979,70.3486],[55.4612,70.2468],[55.461,70.2468],[55.4605,70.2466],[55.1502,70.0811],[54.8781,69.8582],[54.6547,69.5866],[54.4886,69.2766],[54.3862,68.9401],[54.3513,68.5901]]
EXCLUDE_OBJECT_DEFINE NAME=DimSum-Blush.stl_id_1_copy_0 CENTER=60,60 POLYGON=[[54.3513,60.0017],[54.3855,59.6516],[54.4872,59.3149],[54.6527,59.0046],[54.8756,58.7325],[55.1472,58.5091],[55.4572,58.343],[55.7937,58.2406],[56.1437,58.2058],[63.8563,58.2058],[64.2063,58.2406],[64.5428,58.343],[64.8528,58.5091],[65.1244,58.7325],[65.3473,59.0046],[65.5128,59.3149],[65.6145,59.6516],[65.6487,60.0017],[65.6138,60.3516],[65.5114,60.6881],[65.3453,60.9981],[65.1219,61.2698],[64.8498,61.4926],[64.5395,61.6581],[64.5391,61.6582],[64.539,61.6583],[64.5388,61.6583],[64.2022,61.7601],[63.8521,61.7942],[56.1479,61.7942],[55.7979,61.7601],[55.4612,61.6583],[55.461,61.6583],[55.4605,61.6581],[55.1502,61.4926],[54.8781,61.2698],[54.6547,60.9981],[54.4886,60.6881],[54.3862,60.3516],[54.3513,60.0017]]
EXCLUDE_OBJECT_DEFINE NAME=DimSum-Blush.stl_id_2_copy_0 CENTER=60,51.4115 POLYGON=[[54.3513,51.4132],[54.3855,51.0631],[54.4872,50.7265],[54.6527,50.4161],[54.8756,50.144],[55.1472,49.9206],[55.4572,49.7545],[55.7937,49.6521],[56.1437,49.6173],[63.8563,49.6173],[64.2063,49.6521],[64.5428,49.7545],[64.8528,49.9206],[65.1244,50.144],[65.3473,50.4161],[65.5128,50.7265],[65.6145,51.0631],[65.6487,51.4132],[65.6138,51.7632],[65.5114,52.0996],[65.3453,52.4096],[65.1219,52.6813],[64.8498,52.9041],[64.5395,53.0696],[64.5391,53.0698],[64.539,53.0698],[64.5388,53.0699],[64.2022,53.1716],[63.8521,53.2058],[56.1479,53.2058],[55.7979,53.1716],[55.4612,53.0699],[55.461,53.0698],[55.4605,53.0696],[55.1502,52.9041],[54.8781,52.6813],[54.6547,52.4096],[54.4886,52.0996],[54.3862,51.7632],[54.3513,51.4132]]
M73 P0 R3
;TYPE:Custom
START_PRINT T_BED=60 T_EXTRUDER=220
G90
G21
M83 ; use relative distances for extrusion
; filament start gcode

    PRESSURE_ADVANCE_SELECT FILAMENT=PLA
M106 S0
;LAYER_CHANGE
;Z:0.1
;HEIGHT:0.1
;BEFORE_LAYER_CHANGE
;0.1
G92 E0

;AFTER_LAYER_CHANGE
;0.1
SET_VELOCITY_LIMIT ACCEL=500 ACCEL_TO_DECEL=250
SET_VELOCITY_LIMIT SQUARE_CORNER_VELOCITY=9
G1 E-.8 F3000
G1 Z.2 F21000
G1 X53.105 Y48.659
G1 Z.2
G1 Z.1
G1 E.8 F1800
;TYPE:Skirt
;WIDTH:0.1875
G1 F3000
G1 X53.395 Y48.343 E.0029
G1 X54.047 Y47.865 E.00547
G1 X55.115 Y47.421 E.00783
G1 X56.144 Y47.285 E.00702
G1 X64.087 Y47.297 E.05373
G1 X65.221 Y47.524 E.00783
G1 X65.954 Y47.865 E.00547
G1 X66.605 Y48.343 E.00547
G1 X67.151 Y48.939 E.00547
G1 X67.57 Y49.629 E.00547
G1 X67.935 Y50.837 E.00854
G1 X67.98 Y68.59 E.1201
G1 X67.934 Y69.171 E.00394
G1 X67.742 Y69.956 E.00547
G1 X67.146 Y71.068 E.00853
G1 X66.599 Y71.663 E.00547
G1 X65.636 Y72.305 E.00783
G1 X64.428 Y72.67 E.00853
G1 X56.148 Y72.715 E.05602
G1 X55.572 Y72.67 E.00391
G1 X54.786 Y72.479 E.00547
G1 X53.673 Y71.886 E.00853
G1 X52.854 Y71.068 E.00783
G1 X52.258 Y69.956 E.00853
G1 X52.066 Y69.171 E.00547
G1 X52.02 Y51.413 E.12013
M73 P1 R3
G1 X52.065 Y50.837 E.00391
G1 X52.256 Y50.052 E.00547
G1 X52.849 Y48.939 E.00854
G1 X53.095 Y48.67 E.00246
G1 X53.217 Y48.782 F21000
G1 F3000
G1 X53.5 Y48.471 E.00284
G1 X54.125 Y48.012 E.00525
G1 X55.163 Y47.58 E.00761
G1 X56.144 Y47.451 E.00669
G1 X64.07 Y47.462 E.05362
G1 X65.173 Y47.683 E.00761
G1 X65.875 Y48.012 E.00525
G1 X66.5 Y48.471 E.00525
G1 X67.022 Y49.044 E.00525
G1 X67.423 Y49.708 E.00525
G1 X67.77 Y50.853 E.0081
G1 X67.814 Y68.59 E.11999
G1 X67.769 Y69.155 E.00383
G1 X67.583 Y69.908 E.00525
G1 X67.018 Y70.963 E.0081
G1 X66.494 Y71.534 E.00525
G1 X65.558 Y72.158 E.00761
G1 X64.412 Y72.504 E.0081
G1 X56.148 Y72.549 E.05591
G1 X55.588 Y72.504 E.0038
G1 X54.834 Y72.32 E.00525
G1 X53.778 Y71.757 E.0081
G1 X52.982 Y70.963 E.00761
G1 X52.417 Y69.908 E.0081
G1 X52.231 Y69.155 E.00525
G1 X52.186 Y51.413 E.12002
G1 X52.23 Y50.853 E.0038
G1 X52.415 Y50.1 E.00525
G1 X52.978 Y49.044 E.0081
G1 X53.207 Y48.793 E.0023
; printing object DimSum-Blush.stl id:0 copy 0
G1 E-.8
EXCLUDE_OBJECT_START NAME=DimSum-Blush.stl_id_0_copy_0
G1 Z.3 F21000
G1 X57.639 Y69.385 Z.3
M73 P2 R3
G1 Z.1
G1 E.8 F1800
;TYPE:Outer wall
;WIDTH:0.187499
G1 F3000
G1 X57.349 Y69.789 E.00337
G1 X56.945 Y70.08 E.00337
G1 X56.479 Y70.255 E.00337
G1 X55.982 Y70.272 E.00337
G1 X55.497 Y70.16 E.00337
G1 X55.074 Y69.897 E.00337
G1 X54.734 Y69.534 E.00337
G1 X54.528 Y69.081 E.00337
G1 X54.446 Y68.59 E.00337
G1 X54.527 Y68.099 E.00337
G1 X54.732 Y67.646 E.00337
G1 X55.072 Y67.282 E.00337
G1 X55.494 Y67.019 E.00337
G1 X55.979 Y66.905 E.00337
G1 X56.476 Y66.921 E.00337
G1 X56.942 Y67.096 E.00337
G1 X57.347 Y67.385 E.00337
G1 X57.637 Y67.79 E.00337
G1 X57.813 Y68.255 E.00337
G1 X57.83 Y68.753 E.00337
G1 X57.814 Y68.919 E.00113
G1 X57.644 Y69.37 E.00327
G1 X57.492 Y69.306 F21000
;TYPE:Inner wall
G1 F3000
G1 X57.231 Y69.672 E.00304
G1 X56.867 Y69.933 E.00304
G1 X56.447 Y70.092 E.00304
G1 X55.998 Y70.107 E.00304
G1 X55.561 Y70.006 E.00304
G1 X55.179 Y69.769 E.00304
G1 X54.872 Y69.442 E.00304
G1 X54.687 Y69.033 E.00304
G1 X54.613 Y68.59 E.00304
G1 X54.686 Y68.147 E.00304
G1 X54.871 Y67.738 E.00304
G1 X55.177 Y67.41 E.00304
G1 X55.558 Y67.173 E.00304
G1 X55.995 Y67.07 E.00304
G1 X56.444 Y67.085 E.00304
G1 X56.864 Y67.242 E.00304
G1 X57.229 Y67.503 E.00304
G1 X57.491 Y67.868 E.00304
G1 X57.649 Y68.288 E.00304
G1 X57.665 Y68.737 E.00304
G1 X57.65 Y68.886 E.00102
G1 X57.498 Y69.292 E.00293
G1 X57.346 Y69.228 F21000
G1 F3000
G1 X57.113 Y69.554 E.00271
G1 X56.788 Y69.787 E.00271
G1 X56.414 Y69.928 E.00271
G1 X56.014 Y69.942 E.00271
G1 X55.625 Y69.851 E.00271
G1 X55.285 Y69.64 E.00271
G1 X55.011 Y69.349 E.00271
G1 X54.845 Y68.985 E.00271
G1 X54.78 Y68.59 E.00271
G1 X54.845 Y68.195 E.00271
G1 X55.009 Y67.831 E.00271
G1 X55.282 Y67.538 E.00271
G1 X55.622 Y67.327 E.00271
G1 X56.012 Y67.236 E.00271
G1 X56.411 Y67.248 E.00271
G1 X56.786 Y67.389 E.00271
G1 X57.111 Y67.622 E.00271
G1 X57.345 Y67.946 E.00271
G1 X57.486 Y68.321 E.00271
G1 X57.499 Y68.721 E.00271
G1 X57.486 Y68.854 E.00091
G1 X57.351 Y69.214 E.0026
G1 E-.8
G1 Z.3 F21000
G1 X57.329 Y68.024 Z.3
G1 Z.1
G1 E.8 F1800
;TYPE:Bottom surface
;WIDTH:0.198064
G1 F6300
G2 X56.835 Y67.556 I-2.598 J2.253 E.00491
G2 X56.444 Y67.388 I-.616 J.897 E.00308
G1 X57.346 Y68.29 E.00918
G3 X57.387 Y68.58 I-.709 J.246 E.00212
G1 X56.155 Y67.348 E.01254
G2 X55.926 Y67.369 I-.062 J.586 E.00166
G1 X57.366 Y68.809 E.01465
G3 X57.311 Y69.004 I-.517 J-.04 E.00147
M73 P3 R3
G1 X55.731 Y67.424 E.01608
G2 X55.559 Y67.502 I.11 J.471 E.00137
G1 X57.233 Y69.176 E.01703
G3 X57.136 Y69.329 I-.433 J-.166 E.00131
G1 X55.406 Y67.598 E.01761
G1 X55.269 Y67.711 E.00128
G1 X57.024 Y69.466 E.01786
G1 X56.887 Y69.579 E.00128
G1 X55.156 Y67.848 E.01761
G2 X55.059 Y68.001 I.337 J.319 E.00131
G1 X56.733 Y69.675 E.01703
G3 X56.561 Y69.753 I-.282 J-.393 E.00137
G1 X54.981 Y68.173 E.01608
G2 X54.927 Y68.368 I.463 J.235 E.00147
G1 X56.366 Y69.808 E.01465
G3 X56.137 Y69.829 I-.167 J-.565 E.00166
G1 X54.906 Y68.597 E.01253
G2 X54.946 Y68.887 I.749 J.044 E.00212
G1 X55.848 Y69.789 E.00918
G3 X55.307 Y69.498 I.327 J-1.255 E.00446
G1 X54.963 Y69.154 E.0035
G1 E-.8 F3000
G1 Z.3 F21000
G1 X57.543 Y69.235 Z.3
G1 X62.5 Y69.314
G1 X62.363 Y69.387
G1 Z.1
G1 E.8 F1800
;TYPE:Outer wall
;WIDTH:0.187499
G1 F3000
G1 X62.361 Y69.385 E.00002
G1 X62.186 Y68.919 E.00337
G1 X62.17 Y68.421 E.00337
G1 X62.284 Y67.936 E.00337
G1 X62.547 Y67.514 E.00337
G1 X62.911 Y67.174 E.00337
G1 X63.364 Y66.969 E.00337
G1 X63.856 Y66.889 E.00337
G1 X64.347 Y66.97 E.00337
G1 X64.8 Y67.176 E.00337
G1 X65.163 Y67.517 E.00337
G1 X65.425 Y67.94 E.00337
G1 X65.538 Y68.424 E.00337
G1 X65.554 Y68.59 E.00113
G1 X65.472 Y69.081 E.00337
G1 X65.266 Y69.534 E.00337
G1 X64.926 Y69.897 E.00337
G1 X64.503 Y70.16 E.00337
G1 X64.018 Y70.272 E.00337
G1 X63.521 Y70.255 E.00337
G1 X63.055 Y70.08 E.00337
G1 X62.651 Y69.789 E.00337
G1 X62.371 Y69.399 E.00325
G1 X62.508 Y69.306 F21000
;TYPE:Inner wall
G1 F3000
G1 X62.35 Y68.886 E.00304
G1 X62.336 Y68.438 E.00304
G1 X62.438 Y68 E.00304
G1 X62.675 Y67.62 E.00304
G1 X63.003 Y67.313 E.00304
G1 X63.412 Y67.128 E.00304
G1 X63.855 Y67.056 E.00304
G1 X64.298 Y67.129 E.00304
G1 X64.707 Y67.315 E.00304
M73 P4 R3
G1 X65.034 Y67.622 E.00304
G1 X65.271 Y68.003 E.00304
G1 X65.372 Y68.441 E.00304
G1 X65.387 Y68.59 E.00102
G1 X65.313 Y69.033 E.00304
G1 X65.128 Y69.442 E.00304
G1 X64.821 Y69.769 E.00304
G1 X64.439 Y70.006 E.00304
G1 X64.002 Y70.107 E.00304
G1 X63.553 Y70.092 E.00304
G1 X63.133 Y69.933 E.00304
G1 X62.769 Y69.672 E.00304
G1 X62.516 Y69.319 E.00294
G1 X62.654 Y69.228 F21000
G1 F3000
G1 X62.514 Y68.854 E.00271
G1 X62.501 Y68.454 E.00271
G1 X62.592 Y68.064 E.00271
G1 X62.804 Y67.725 E.00271
G1 X63.096 Y67.452 E.00271
G1 X63.461 Y67.287 E.00271
G1 X63.855 Y67.222 E.00271
G1 X64.25 Y67.288 E.00271
G1 X64.614 Y67.453 E.00271
G1 X64.906 Y67.727 E.00271
G1 X65.117 Y68.067 E.00271
G1 X65.207 Y68.457 E.00271
G1 X65.22 Y68.59 E.00091
G1 X65.155 Y68.985 E.00271
G1 X64.989 Y69.349 E.00271
G1 X64.715 Y69.64 E.00271
G1 X64.375 Y69.851 E.00271
G1 X63.986 Y69.942 E.00271
G1 X63.586 Y69.928 E.00271
G1 X63.212 Y69.787 E.00271
G1 X62.887 Y69.554 E.00271
G1 X62.663 Y69.241 E.0026
G1 E-.8
G1 Z.3 F21000
G1 X64.419 Y67.405 Z.3
G1 Z.1
G1 E.8 F1800
;TYPE:Bottom surface
;WIDTH:0.198063
G1 F6300
G3 X64.887 Y67.9 I-2.253 J2.599 E.00491
G3 X65.054 Y68.29 I-.897 J.616 E.00308
G1 X64.152 Y67.388 E.00918
G2 X63.862 Y67.348 I-.355 J1.498 E.00211
G1 X65.094 Y68.58 E.01254
G3 X65.073 Y68.809 I-.586 J.062 E.00166
G1 X63.633 Y67.369 E.01465
G2 X63.438 Y67.424 I.04 J.518 E.00147
G1 X65.019 Y69.004 E.01608
G3 X64.941 Y69.176 I-.471 J-.11 E.00137
G1 X63.267 Y67.502 E.01703
G2 X63.113 Y67.598 I.166 J.433 E.00131
G1 X64.844 Y69.329 E.01761
G1 X64.731 Y69.466 E.00128
G1 X62.976 Y67.711 E.01786
G1 X62.864 Y67.848 E.00128
G1 X64.594 Y69.579 E.01761
G3 X64.441 Y69.675 I-.319 J-.337 E.00131
G1 X62.767 Y68.001 E.01703
G2 X62.689 Y68.173 I.393 J.282 E.00137
G1 X64.269 Y69.753 E.01608
G3 X64.074 Y69.808 I-.235 J-.463 E.00147
G1 X62.635 Y68.368 E.01465
M73 P5 R3
G2 X62.614 Y68.597 I.565 J.167 E.00166
G1 X63.845 Y69.829 E.01253
G3 X63.556 Y69.789 I-.044 J-.749 E.00212
G1 X62.654 Y68.887 E.00918
G2 X62.944 Y69.427 I1.255 J-.327 E.00446
G1 X63.289 Y69.772 E.0035
; stop printing object DimSum-Blush.stl id:0 copy 0
; printing object DimSum-Blush.stl id:1 copy 0
G1 E-.8 F3000
EXCLUDE_OBJECT_END NAME=DimSum-Blush.stl_id_0_copy_0
EXCLUDE_OBJECT_START NAME=DimSum-Blush.stl_id_1_copy_0
G1 Z.3 F21000
G1 X57.639 Y60.796 Z.3
G1 Z.1
G1 E.8 F1800
;TYPE:Outer wall
;WIDTH:0.187499
G1 F3000
G1 X57.349 Y61.201 E.00337
G1 X56.945 Y61.491 E.00337
G1 X56.479 Y61.667 E.00337
G1 X55.982 Y61.684 E.00337
G1 X55.497 Y61.571 E.00337
G1 X55.074 Y61.309 E.00337
G1 X54.734 Y60.946 E.00337
G1 X54.528 Y60.493 E.00337
G1 X54.446 Y60.002 E.00337
G1 X54.527 Y59.511 E.00337
G1 X54.732 Y59.057 E.00337
G1 X55.072 Y58.694 E.00337
G1 X55.494 Y58.43 E.00337
G1 X55.979 Y58.317 E.00337
G1 X56.476 Y58.333 E.00337
G1 X56.942 Y58.507 E.00337
G1 X57.347 Y58.797 E.00337
G1 X57.637 Y59.201 E.00337
G1 X57.813 Y59.667 E.00337
G1 X57.83 Y60.164 E.00337
G1 X57.814 Y60.33 E.00113
G1 X57.644 Y60.782 E.00327
G1 X57.492 Y60.718 F21000
;TYPE:Inner wall
G1 F3000
G1 X57.231 Y61.083 E.00304
G1 X56.867 Y61.345 E.00304
G1 X56.447 Y61.503 E.00304
G1 X55.998 Y61.519 E.00304
G1 X55.561 Y61.417 E.00304
G1 X55.179 Y61.18 E.00304
G1 X54.872 Y60.853 E.00304
G1 X54.687 Y60.444 E.00304
G1 X54.613 Y60.002 E.00304
G1 X54.686 Y59.559 E.00304
G1 X54.871 Y59.15 E.00304
G1 X55.177 Y58.822 E.00304
G1 X55.558 Y58.584 E.00304
G1 X55.995 Y58.482 E.00304
G1 X56.444 Y58.496 E.00304
G1 X56.864 Y58.654 E.00304
G1 X57.229 Y58.915 E.00304
G1 X57.491 Y59.28 E.00304
G1 X57.649 Y59.7 E.00304
G1 X57.665 Y60.148 E.00304
G1 X57.65 Y60.298 E.00102
G1 X57.498 Y60.704 E.00293
G1 X57.346 Y60.64 F21000
G1 F3000
G1 X57.113 Y60.965 E.00271
G1 X56.788 Y61.199 E.00271
G1 X56.414 Y61.34 E.00271
G1 X56.014 Y61.353 E.00271
G1 X55.625 Y61.263 E.00271
G1 X55.285 Y61.052 E.00271
G1 X55.011 Y60.76 E.00271
G1 X54.845 Y60.396 E.00271
G1 X54.78 Y60.001 E.00271
G1 X54.845 Y59.607 E.00271
G1 X55.009 Y59.242 E.00271
G1 X55.282 Y58.95 E.00271
G1 X55.622 Y58.738 E.00271
G1 X56.012 Y58.647 E.00271
G1 X56.411 Y58.66 E.00271
G1 X56.786 Y58.8 E.00271
G1 X57.111 Y59.033 E.00271
G1 X57.345 Y59.358 E.00271
G1 X57.486 Y59.732 E.00271
G1 X57.499 Y60.132 E.00271
G1 X57.486 Y60.265 E.00091
G1 X57.351 Y60.626 E.0026
G1 E-.8
G1 Z.3 F21000
G1 X57.329 Y59.435 Z.3
G1 Z.1
G1 E.8 F1800
;TYPE:Bottom surface
;WIDTH:0.198064
G1 F6300
G2 X56.835 Y58.967 I-2.598 J2.253 E.00491
M73 P6 R3
G2 X56.444 Y58.8 I-.616 J.897 E.00308
G1 X57.346 Y59.702 E.00918
G3 X57.387 Y59.992 I-.709 J.246 E.00212
G1 X56.155 Y58.76 E.01254
G2 X55.926 Y58.781 I-.062 J.586 E.00166
G1 X57.366 Y60.221 E.01465
G3 X57.311 Y60.416 I-.517 J-.04 E.00147
G1 X55.731 Y58.835 E.01608
G2 X55.559 Y58.913 I.11 J.471 E.00137
G1 X57.233 Y60.587 E.01703
G3 X57.136 Y60.741 I-.433 J-.166 E.00131
G1 X55.406 Y59.01 E.01761
G1 X55.269 Y59.123 E.00128
G1 X57.024 Y60.878 E.01786
G1 X56.887 Y60.99 E.00128
G1 X55.156 Y59.26 E.01761
G2 X55.059 Y59.413 I.337 J.319 E.00131
G1 X56.733 Y61.087 E.01703
G3 X56.561 Y61.165 I-.282 J-.393 E.00137
G1 X54.981 Y59.585 E.01608
G2 X54.927 Y59.78 I.463 J.235 E.00147
G1 X56.366 Y61.219 E.01465
G3 X56.137 Y61.24 I-.167 J-.565 E.00166
G1 X54.906 Y60.009 E.01253
G2 X54.946 Y60.298 I.749 J.044 E.00212
G1 X55.848 Y61.2 E.00918
G3 X55.307 Y60.91 I.327 J-1.255 E.00446
G1 X54.963 Y60.565 E.0035
G1 E-.8 F3000
G1 Z.3 F21000
G1 X57.543 Y60.646 Z.3
G1 X62.5 Y60.725
G1 X62.363 Y60.798
G1 Z.1
G1 E.8 F1800
;TYPE:Outer wall
;WIDTH:0.187499
G1 F3000
G1 X62.361 Y60.796 E.00002
G1 X62.186 Y60.33 E.00337
G1 X62.17 Y59.833 E.00337
G1 X62.284 Y59.348 E.00337
G1 X62.547 Y58.926 E.00337
G1 X62.911 Y58.586 E.00337
G1 X63.364 Y58.381 E.00337
G1 X63.856 Y58.3 E.00337
G1 X64.347 Y58.382 E.00337
G1 X64.8 Y58.588 E.00337
G1 X65.163 Y58.928 E.00337
G1 X65.425 Y59.351 E.00337
G1 X65.538 Y59.836 E.00337
G1 X65.554 Y60.002 E.00113
M73 P7 R3
G1 X65.472 Y60.493 E.00337
G1 X65.266 Y60.946 E.00337
G1 X64.926 Y61.309 E.00337
G1 X64.503 Y61.571 E.00337
G1 X64.018 Y61.684 E.00337
G1 X63.521 Y61.667 E.00337
G1 X63.055 Y61.491 E.00337
G1 X62.651 Y61.201 E.00337
G1 X62.371 Y60.811 E.00325
G1 X62.508 Y60.718 F21000
;TYPE:Inner wall
G1 F3000
G1 X62.35 Y60.298 E.00304
G1 X62.336 Y59.849 E.00304
G1 X62.438 Y59.412 E.00304
G1 X62.675 Y59.031 E.00304
G1 X63.003 Y58.725 E.00304
G1 X63.412 Y58.54 E.00304
G1 X63.855 Y58.467 E.00304
G1 X64.298 Y58.541 E.00304
G1 X64.707 Y58.726 E.00304
G1 X65.034 Y59.033 E.00304
