; HEADER_BLOCK_START
; generated by OrcaSlicer 1.6.3 on 2023-06-18 at 12:56:20
; total layer number: 214
; HEADER_BLOCK_END

; THUMBNAIL_BLOCK_START
; THUMBNAIL_BLOCK_END

; external perimeters extrusion width = 0.40mm
; perimeters extrusion width = 0.45mm
; infill extrusion width = 0.45mm
; solid infill extrusion width = 0.40mm
; top infill extrusion width = 0.40mm
; support material extrusion width = 0.40mm
; first layer extrusion width = 0.50mm

; EXECUTABLE_BLOCK_START
EXCLUDE_OBJECT_DEFINE NAME=Dock_noLogo.stl_id_0_copy_0 CENTER=60,60 POLYGON=[[24,22.5],[24.0341,22.2412],[24.134,22],[24.2929,21.7929],[24.5,21.634],[24.7412,21.5341],[25,21.5],[95,21.5],[95.2588,21.5341],[95.5,21.634],[95.7071,21.7929],[95.866,22],[95.9659,22.2412],[96,22.5],[96,30.5],[81.1349,97.7588],[81.035,98],[80.9976,98.0543],[80.8761,98.2071],[80.669,98.366],[80.5576,98.4175],[80.4278,98.4659],[80.169,98.5],[39.9,98.5],[39.6412,98.4659],[39.5114,98.4175],[39.4,98.366],[39.1929,98.2071],[39.0713,98.0543],[39.034,98],[38.9341,97.7588],[24,30.5],[24,22.5]]
M73 P0 R54
;TYPE:Custom
START_PRINT T_BED=110 T_EXTRUDER=260
G90
G21
M83 ; use relative distances for extrusion
; Filament gcode

    PRESSURE_ADVANCE_SELECT FILAMENT=ABS
M106 S0
;LAYER_CHANGE
;Z:0.2
;HEIGHT:0.2
;BEFORE_LAYER_CHANGE
;0.2
G92 E0

;AFTER_LAYER_CHANGE
;0.2
SET_VELOCITY_LIMIT ACCEL_TO_DECEL=500
M204 S1000
G1 E-.5 F3000
G1 Z.2 F21000
G1 X18.409 Y16.611
G1 E.5 F1800
;TYPE:Skirt
;WIDTH:0.5
G1 F3000
G1 X19.482 Y15.543 E.05327
G1 X20.93 Y15.158 E.05272
G1 X99.07 Y15.158 E2.75008
G1 X100.532 Y15.551 E.05327
G1 X101.6 Y16.625 E.05327
G1 X101.985 Y18.072 E.05272
G1 X101.985 Y33.358 E.53795
G1 X101.923 Y33.952 E.02103
G1 X87.638 Y102.522 E2.46505
G1 X86.955 Y103.873 E.05327
G1 X85.687 Y104.699 E.05327
G1 X84.785 Y104.842 E.03212
G1 X35.215 Y104.842 E1.74457
G1 X33.753 Y104.449 E.05327
G1 X32.686 Y103.375 E.05327
G1 X32.362 Y102.522 E.03212
G1 X18.077 Y33.952 E2.46505
G1 X18.015 Y33.358 E.02103
G1 X18.015 Y18.072 E.53795
G1 X18.393 Y16.669 E.05116
G1 X18.846 Y16.802 F21000
G1 F3000
G1 X18.864 Y16.741 E.00223
G1 X19.915 Y15.835 E.04884
G1 X20.93 Y15.615 E.03653
G1 X99.07 Y15.615 E2.75008
G1 X100.402 Y16.007 E.04884
G1 X101.308 Y17.058 E.04884
G1 X101.528 Y18.072 E.03653
G1 X101.528 Y33.358 E.53795
G1 X101.476 Y33.859 E.01773
G1 X87.191 Y102.429 E2.46505
G1 X86.535 Y103.652 E.04884
G1 X84.785 Y104.385 E.06678
M73 P0 R53
G1 X35.215 Y104.385 E1.74457
G1 X33.884 Y103.993 E.04884
G1 X32.809 Y102.429 E.06678
G1 X18.524 Y33.859 E2.46505
G1 X18.472 Y33.358 E.01773
G1 X18.472 Y18.072 E.53795
G1 X18.829 Y16.86 E.04449
; printing object Dock_noLogo.stl id:0 copy 0
EXCLUDE_OBJECT_START NAME=Dock_noLogo.stl_id_0_copy_0
G1 E-.5
G1 Z.4 F21000
G1 X41.929 Y21.482
G1 Z.2
G1 E.5 F1800
;TYPE:Support
G1 F3000
G1 X39.89 Y21.482 E.07175
G1 X39.586 Y21.535 E.01086
G1 X39.415 Y21.597 E.0064
G1 X39.286 Y21.692 E.00566
G1 X39.011 Y22.041 E.01562
G1 X38.959 Y22.138 E.00388
G1 X38.899 Y22.331 E.00712
G1 X38.901 Y31.749 E.33143
G1 X39.252 Y32.1 E.01749
G1 X48.319 Y32.1 E.31909
G1 X48.325 Y97.642 E2.30668
G1 X48.358 Y97.848 E.00734
G1 X48.429 Y98.085 E.00871
G1 X48.568 Y98.356 E.01072
G1 X48.852 Y98.527 E.01167
G1 X53.357 Y98.523 E.15855
G1 X53.357 Y101.928 E.11983
G1 X35.215 Y101.928 E.6385
G1 X35.215 Y33.358 E2.41324
G1 X20.93 Y33.358 E.50276
G1 X20.93 Y18.072 E.53795
G1 X41.929 Y18.072 E.73905
G1 X41.929 Y21.413 E.11758
G1 E-.5
G1 Z.4 F21000
G1 X42.612 Y22.682
G1 X47.04 Y30.9
G1 X47.908 Y32.511
G1 Z.2
G1 E.5 F1800
G1 F3000
G1 X47.915 Y97.672 E2.29327
G1 X47.96 Y97.953 E.01
G1 X48.042 Y98.224 E.00996
G1 X48.259 Y98.651 E.01685
G1 X48.738 Y98.938 E.01967
G1 X52.946 Y98.936 E.1481
G1 X52.946 Y101.516 E.09082
G1 X35.626 Y101.516 E.60954
G1 X35.626 Y32.946 E2.41324
G1 X21.341 Y32.946 E.50276
G1 X21.341 Y18.484 E.50899
G1 X41.518 Y18.484 E.71009
G1 X41.518 Y21.071 E.09104
G1 X39.87 Y21.071 E.05797
G1 X39.49 Y21.135 E.01358
G1 X39.215 Y21.233 E.01026
G1 X38.997 Y21.394 E.00955
G1 X38.664 Y21.815 E.01889
G1 X38.578 Y21.98 E.00655
G1 X38.493 Y22.254 E.01009
G1 X38.475 Y22.483 E.0081
G1 X38.49 Y22.577 E.00333
G1 X38.49 Y31.919 E.32879
G1 X39.082 Y32.511 E.02949
G1 X47.908 Y32.511 E.31061
G1 X47.4 Y33.019 F21000
G1 F3000
G1 X47.408 Y97.71 E2.27671
G1 X47.468 Y98.083 E.01329
G1 X47.563 Y98.395 E.0115
G1 X47.877 Y99.014 E.02442
G1 X48.597 Y99.446 E.02954
G1 X52.438 Y99.446 E.13519
G1 X52.438 Y101.008 E.055
G1 X36.134 Y101.008 E.57379
G1 X36.134 Y32.438 E2.41324
G1 X21.849 Y32.438 E.50276
G1 X21.849 Y18.992 E.47324
G1 X41.01 Y18.992 E.67435
G1 X41.01 Y20.563 E.05529
G1 X39.846 Y20.563 E.04095
G1 X39.701 Y20.577 E.00514
G1 X39.371 Y20.641 E.01182
G1 X38.968 Y20.784 E.01503
G1 X38.641 Y21.026 E.01434
G1 X38.237 Y21.537 E.02293
G1 X38.107 Y21.785 E.00984
G1 X37.99 Y22.158 E.01377
G1 X37.965 Y22.503 E.01216
G1 X37.982 Y22.615 E.00401
G1 X37.982 Y32.129 E.33483
G1 X38.872 Y33.019 E.04429
G1 X47.4 Y33.019 E.30013
G1 X46.892 Y33.527 F21000
G1 F3000
G1 X46.902 Y97.747 E2.26015
G1 X46.944 Y98.066 E.01133
G1 X47.084 Y98.566 E.01828
G1 X47.16 Y98.75 E.00701
G1 X47.495 Y99.377 E.025
G1 X48.456 Y99.954 E.03942
G1 X51.93 Y99.956 E.12228
G1 X51.93 Y100.5 E.01918
G1 X36.642 Y100.5 E.53805
G1 X36.642 Y31.931 E2.41324
M73 P1 R53
G1 X22.357 Y31.931 E.50276
G1 X22.357 Y19.5 E.43749
G1 X40.502 Y19.5 E.6386
G1 X40.502 Y20.055 E.01954
G1 X39.822 Y20.055 E.02394
G1 X39.628 Y20.074 E.00686
G1 X39.252 Y20.147 E.01348
G1 X38.722 Y20.335 E.0198
G1 X38.284 Y20.658 E.01914
G1 X37.809 Y21.259 E.02698
G1 X37.635 Y21.589 E.01312
G1 X37.488 Y22.063 E.01745
G1 X37.454 Y22.522 E.01623
G1 X37.474 Y22.654 E.00468
G1 X37.474 Y32.34 E.34088
G1 X38.661 Y33.527 E.0591
G1 X46.892 Y33.527 E.28966
G1 X46.384 Y34.035 F21000
G1 F3000
G1 X46.384 Y97.531 E2.23468
G1 X46.395 Y97.784 E.00892
G1 X46.444 Y98.159 E.01331
G1 X46.605 Y98.738 E.02113
G1 X46.701 Y98.968 E.00877
G1 X47.249 Y99.993 E.04089
G1 X37.15 Y99.993 E.35541
G1 X37.15 Y32.734 E2.36709
G1 X38.451 Y34.035 E.06476
G1 X46.384 Y34.035 E.27919
G1 X45.876 Y34.543 F21000
G1 F3000
G1 X45.876 Y97.537 E2.21702
G1 X45.903 Y97.97 E.01527
G1 X45.994 Y98.471 E.01791
G1 X46.127 Y98.909 E.01611
G1 X46.365 Y99.485 E.02193
G1 X37.658 Y99.485 E.30645
G1 X37.658 Y33.96 E2.30607
G1 X38.241 Y34.543 E.02901
G1 X45.876 Y34.543 E.26872
G1 X45.368 Y35.051 F21000
G1 F3000
G1 X45.368 Y97.544 E2.19937
G1 X45.382 Y97.859 E.01112
G1 X45.445 Y98.345 E.01726
G1 X45.617 Y98.977 E.02303
G1 X38.166 Y98.977 E.26223
G1 X38.166 Y35.051 E2.24981
G1 X45.368 Y35.051 E.25349
G1 X44.86 Y35.559 F21000
G1 F3000
G1 X44.86 Y97.55 E2.18171
G1 X44.875 Y97.897 E.01221
G1 X44.95 Y98.469 E.02032
G1 X38.673 Y98.469 E.22089
G1 X38.673 Y35.559 E2.21406
G1 X44.86 Y35.559 E.21774
G1 X44.353 Y36.066 F21000
G1 F3000
G1 X44.353 Y97.556 E2.16406
G1 X44.37 Y97.961 E.01427
G1 X39.181 Y97.961 E.1826
G1 X39.181 Y36.066 E2.17831
G1 X44.353 Y36.066 E.18199
G1 X43.845 Y36.574 F21000
G1 F3000
G1 X43.845 Y97.453 E2.14257
G1 X39.689 Y97.453 E.14625
G1 X39.689 Y36.574 E2.14257
G1 X43.845 Y36.574 E.14625
G1 X43.337 Y37.082 F21000
G1 F3000
G1 X43.337 Y96.945 E2.10682
G1 X40.197 Y96.945 E.1105
G1 X40.197 Y37.082 E2.10682
G1 X43.337 Y37.082 E.1105
G1 X42.829 Y37.59 F21000
G1 F3000
G1 X42.829 Y96.438 E2.07107
G1 X40.705 Y96.438 E.07475
G1 X40.705 Y37.59 E2.07107
G1 X42.829 Y37.59 E.07475
G1 X42.321 Y38.098 F21000
G1 F3000
G1 X42.321 Y95.93 E2.03532
G1 X41.213 Y95.93 E.039
G1 X41.213 Y38.098 E2.03532
G1 X42.321 Y38.098 E.039
G1 X36.966 Y31.423 F21000
G1 F3000
G1 X22.864 Y31.423 E.49629
G1 X22.864 Y20.007 E.40175
G1 X38.15 Y20.007 E.53797
G1 X37.382 Y20.981 E.04367
G1 X37.164 Y21.394 E.01641
G1 X36.986 Y21.967 E.02113
G1 X36.943 Y22.542 E.02029
G1 X36.966 Y22.693 E.00536
G1 X36.966 Y31.423 E.30725
G1 X36.458 Y30.915 F21000
G1 F3000
G1 X23.372 Y30.915 E.46054
G1 X23.372 Y20.515 E.366
G1 X37.053 Y20.515 E.48148
G1 X36.693 Y21.199 E.02718
G1 X36.484 Y21.871 E.0248
G1 X36.432 Y22.562 E.02436
G1 X36.458 Y22.731 E.00603
G1 X36.458 Y30.915 E.28802
G1 X35.95 Y30.407 F21000
G1 F3000
G1 X23.88 Y30.407 E.42479
G1 X23.88 Y21.023 E.33025
G1 X36.216 Y21.023 E.43414
G1 X35.982 Y21.776 E.02774
G1 X35.921 Y22.581 E.02842
G1 X35.95 Y22.77 E.00671
G1 X35.95 Y30.407 E.26879
G1 X35.442 Y29.899 F21000
G1 F3000
G1 X24.388 Y29.899 E.38904
G1 X24.388 Y21.531 E.29451
G1 X35.491 Y21.531 E.39075
G1 X35.411 Y22.601 E.03776
G1 X35.442 Y22.808 E.00738
G1 X35.442 Y29.899 E.24955
G1 X34.935 Y29.391 F21000
G1 F3000
G1 X24.896 Y29.391 E.3533
M73 P2 R53
G1 X24.896 Y22.039 E.25876
G1 X34.944 Y22.039 E.35362
G1 X34.9 Y22.62 E.02053
G1 X34.935 Y22.847 E.00806
G1 X34.935 Y29.391 E.23032
G1 X34.427 Y28.883 F21000
G1 F3000
G1 X25.404 Y28.883 E.31755
G1 X25.404 Y22.547 E.22301
G1 X34.375 Y22.547 E.31573
G1 X34.427 Y22.885 E.01206
G1 X34.427 Y28.883 E.21109
G1 X33.919 Y28.376 F21000
G1 F3000
G1 X25.912 Y28.376 E.2818
G1 X25.912 Y23.055 E.18726
G1 X33.919 Y23.055 E.2818
G1 X33.919 Y28.376 E.18726
G1 X33.411 Y27.868 F21000
G1 F3000
G1 X26.42 Y27.868 E.24605
G1 X26.42 Y23.562 E.15152
G1 X33.411 Y23.562 E.24605
G1 X33.411 Y27.868 E.15152
G1 X32.903 Y27.36 F21000
G1 F3000
G1 X26.927 Y27.36 E.21031
G1 X26.927 Y24.07 E.11577
G1 X32.903 Y24.07 E.21031
G1 X32.903 Y27.36 E.11577
G1 X32.395 Y26.852 F21000
G1 F3000
G1 X27.435 Y26.852 E.17456
G1 X27.435 Y24.578 E.08002
G1 X32.395 Y24.578 E.17456
G1 X32.395 Y26.852 E.08002
G1 X31.887 Y26.344 F21000
G1 F3000
G1 X27.943 Y26.344 E.13881
G1 X27.943 Y25.086 E.04427
G1 X31.887 Y25.086 E.13881
G1 X31.887 Y26.344 E.04427
G1 E-.5
G1 Z.4 F21000
G1 X40.101 Y27.201
G1 X79.987 Y30.9
G1 X99.07 Y33.358
G1 Z.2
G1 E.5 F1800
G1 F3000
G1 X84.785 Y33.358 E.50276
G1 X84.785 Y101.928 E2.41324
M73 P2 R52
G1 X66.643 Y101.928 E.6385
G1 X66.643 Y98.522 E.11985
G1 X71.236 Y98.527 E.16164
G1 X71.52 Y98.356 E.01167
G1 X71.658 Y98.085 E.01072
G1 X71.73 Y97.848 E.00871
G1 X71.763 Y97.642 E.00734
G1 X71.769 Y32.1 E2.30668
G1 X80.835 Y32.1 E.31909
G1 X81.187 Y31.749 E.01749
G1 X81.189 Y22.331 E.33143
G1 X81.129 Y22.138 E.00712
G1 X81.077 Y22.041 E.00388
G1 X80.802 Y21.692 E.01562
G1 X80.673 Y21.597 E.00566
G1 X80.502 Y21.535 E.0064
G1 X80.198 Y21.482 E.01086
G1 X78.071 Y21.482 E.07485
G1 X78.071 Y18.072 E.12
G1 X99.07 Y18.072 E.73905
G1 X99.07 Y33.289 E.53553
G1 X72.18 Y32.511 F21000
G1 F3000
G1 X81.006 Y32.511 E.31061
G1 X81.598 Y31.919 E.02949
G1 X81.598 Y22.577 E.32878
G1 X81.613 Y22.483 E.00333
G1 X81.595 Y22.254 E.0081
G1 X81.51 Y21.98 E.01009
G1 X81.424 Y21.815 E.00655
G1 X81.091 Y21.394 E.01889
G1 X80.873 Y21.233 E.00955
G1 X80.684 Y21.16 E.00711
G1 X80.218 Y21.071 E.01672
G1 X78.482 Y21.071 E.06106
G1 X78.482 Y18.484 E.09104
G1 X98.659 Y18.484 E.71009
G1 X98.659 Y32.946 E.50899
G1 X84.374 Y32.946 E.50276
G1 X84.374 Y101.516 E2.41324
G1 X67.054 Y101.516 E.60954
G1 X67.054 Y98.935 E.09083
G1 X71.35 Y98.938 E.15119
G1 X71.829 Y98.651 E.01967
G1 X72.046 Y98.224 E.01685
G1 X72.128 Y97.953 E.00996
G1 X72.173 Y97.672 E.01
G1 X72.18 Y32.511 E2.29327
G1 X72.688 Y33.019 F21000
G1 F3000
G1 X81.216 Y33.019 E.30013
G1 X82.106 Y32.129 E.04429
G1 X82.106 Y22.615 E.33483
G1 X82.123 Y22.503 E.00401
G1 X82.098 Y22.158 E.01216
G1 X81.981 Y21.785 E.01377
G1 X81.851 Y21.537 E.00984
G1 X81.447 Y21.026 E.02293
G1 X81.119 Y20.784 E.01434
G1 X80.717 Y20.641 E.01503
G1 X80.387 Y20.577 E.01182
G1 X80.242 Y20.563 E.00514
G1 X78.99 Y20.563 E.04405
G1 X78.99 Y18.992 E.05529
G1 X98.151 Y18.992 E.67435
G1 X98.151 Y32.438 E.47324
G1 X83.866 Y32.438 E.50276
G1 X83.866 Y101.008 E2.41324
G1 X67.562 Y101.008 E.57379
G1 X67.562 Y99.445 E.05501
G1 X71.491 Y99.446 E.13828
G1 X72.211 Y99.014 E.02954
G1 X72.525 Y98.395 E.02442
G1 X72.62 Y98.083 E.0115
G1 X72.68 Y97.71 E.01329
G1 X72.688 Y33.019 E2.27671
G1 X73.196 Y33.527 F21000
G1 F3000
G1 X81.427 Y33.527 E.28966
G1 X82.614 Y32.34 E.0591
G1 X82.614 Y22.654 E.34088
G1 X82.634 Y22.523 E.00468
G1 X82.6 Y22.063 E.01623
G1 X82.453 Y21.589 E.01745
G1 X82.279 Y21.259 E.01313
G1 X81.804 Y20.658 E.02698
G1 X81.366 Y20.335 E.01914
G1 X80.836 Y20.147 E.01979
G1 X80.46 Y20.074 E.01348
G1 X80.266 Y20.055 E.00686
G1 X79.498 Y20.055 E.02703
G1 X79.498 Y19.5 E.01954
G1 X97.643 Y19.5 E.6386
G1 X97.643 Y31.931 E.43749
G1 X83.358 Y31.931 E.50276
G1 X83.358 Y100.5 E2.41324
G1 X68.07 Y100.5 E.53805
G1 X68.07 Y99.955 E.01919
G1 X71.632 Y99.954 E.12538
G1 X72.593 Y99.377 E.03942
G1 X72.928 Y98.75 E.025
G1 X73.004 Y98.566 E.00701
G1 X73.144 Y98.066 E.01827
G1 X73.186 Y97.747 E.01133
G1 X73.196 Y33.527 E2.26015
G1 X73.704 Y34.035 F21000
G1 F3000
G1 X81.637 Y34.035 E.27919
G1 X82.85 Y32.822 E.06038
G1 X82.85 Y99.993 E2.364
G1 X72.839 Y99.993 E.35232
G1 X73.387 Y98.968 E.04089
G1 X73.483 Y98.738 E.00877
G1 X73.644 Y98.16 E.02112
G1 X73.693 Y97.785 E.01331
G1 X73.704 Y97.531 E.00893
G1 X73.704 Y34.035 E2.23468
G1 X74.212 Y34.543 F21000
G1 F3000
G1 X81.847 Y34.543 E.26872
G1 X82.342 Y34.048 E.02463
G1 X82.342 Y99.485 E2.30297
G1 X73.723 Y99.485 E.30335
G1 X73.961 Y98.909 E.02193
G1 X74.094 Y98.471 E.01611
G1 X74.185 Y97.971 E.0179
G1 X74.212 Y97.537 E.01528
G1 X74.212 Y34.543 E2.21702
G1 X74.72 Y35.051 F21000
G1 F3000
G1 X81.834 Y35.051 E.25039
G1 X81.834 Y98.977 E2.24981
M73 P3 R52
G1 X74.471 Y98.977 E.25913
G1 X74.643 Y98.346 E.02302
G1 X74.706 Y97.859 E.01726
G1 X74.72 Y97.544 E.01112
G1 X74.72 Y35.051 E2.19937
G1 X75.228 Y35.559 F21000
G1 F3000
G1 X81.327 Y35.559 E.21465
G1 X81.327 Y98.469 E2.21406
G1 X75.138 Y98.469 E.2178
G1 X75.213 Y97.897 E.02031
G1 X75.228 Y97.55 E.01222
G1 X75.228 Y35.559 E2.18171
G1 X75.735 Y36.066 F21000
G1 F3000
G1 X80.819 Y36.066 E.1789
G1 X80.819 Y97.961 E2.17831
G1 X75.718 Y97.961 E.1795
G1 X75.735 Y97.556 E.01427
G1 X75.735 Y36.066 E2.16406
G1 X76.243 Y36.574 F21000
G1 F3000
G1 X80.311 Y36.574 E.14315
G1 X80.311 Y97.453 E2.14257
G1 X76.243 Y97.453 E.14315
G1 X76.243 Y36.574 E2.14257
G1 X76.751 Y37.082 F21000
G1 F3000
G1 X79.803 Y37.082 E.10741
G1 X79.803 Y96.945 E2.10682
G1 X76.751 Y96.945 E.10741
G1 X76.751 Y37.082 E2.10682
G1 X77.259 Y37.59 F21000
G1 F3000
G1 X79.295 Y37.59 E.07166
G1 X79.295 Y96.438 E2.07107
G1 X77.259 Y96.438 E.07166
G1 X77.259 Y37.59 E2.07107
G1 X77.767 Y38.098 F21000
G1 F3000
G1 X78.787 Y38.098 E.03591
G1 X78.787 Y95.93 E2.03532
G1 X77.767 Y95.93 E.03591
G1 X77.767 Y38.098 E2.03532
G1 X83.122 Y31.423 F21000
G1 F3000
G1 X83.122 Y22.693 E.30725
G1 X83.145 Y22.542 E.00536
G1 X83.102 Y21.967 E.02029
G1 X82.924 Y21.394 E.02112
G1 X82.706 Y20.981 E.01641
G1 X81.937 Y20.007 E.04367
G1 X97.136 Y20.007 E.53488
G1 X97.136 Y31.423 E.40175
G1 X83.122 Y31.423 E.49319
G1 X83.63 Y30.915 F21000
G1 F3000
G1 X83.63 Y22.731 E.28802
G1 X83.656 Y22.562 E.00603
G1 X83.604 Y21.872 E.02436
G1 X83.395 Y21.199 E.0248
G1 X83.035 Y20.515 E.02718
G1 X96.628 Y20.515 E.47838
G1 X96.628 Y30.915 E.366
G1 X83.63 Y30.915 E.45745
G1 X84.138 Y30.407 F21000
G1 F3000
G1 X84.138 Y22.77 E.26878
G1 X84.166 Y22.581 E.00671
G1 X84.106 Y21.776 E.02842
G1 X83.872 Y21.023 E.02774
G1 X96.12 Y21.023 E.43105
G1 X96.12 Y30.407 E.33025
G1 X84.138 Y30.407 E.4217
G1 X84.646 Y29.899 F21000
G1 F3000
G1 X84.646 Y22.808 E.24955
G1 X84.677 Y22.601 E.00738
G1 X84.597 Y21.531 E.03776
G1 X95.612 Y21.531 E.38766
G1 X95.612 Y29.899 E.29451
G1 X84.646 Y29.899 E.38595
G1 X85.153 Y29.391 F21000
G1 F3000
G1 X85.153 Y22.847 E.23032
G1 X85.188 Y22.621 E.00806
G1 X85.144 Y22.039 E.02053
G1 X95.104 Y22.039 E.35052
G1 X95.104 Y29.391 E.25876
G1 X85.153 Y29.391 E.3502
G1 X85.661 Y28.883 F21000
G1 F3000
G1 X85.661 Y22.885 E.21109
G1 X85.713 Y22.547 E.01206
G1 X94.596 Y22.547 E.31263
G1 X94.596 Y28.883 E.22301
G1 X85.661 Y28.883 E.31446
G1 X86.169 Y28.376 F21000
G1 F3000
G1 X86.169 Y23.055 E.18726
G1 X94.088 Y23.055 E.27871
G1 X94.088 Y28.376 E.18726
G1 X86.169 Y28.376 E.27871
G1 X86.677 Y27.868 F21000
G1 F3000
G1 X86.677 Y23.562 E.15152
G1 X93.58 Y23.562 E.24296
G1 X93.58 Y27.868 E.15152
G1 X86.677 Y27.868 E.24296
G1 X87.185 Y27.36 F21000
G1 F3000
G1 X87.185 Y24.07 E.11577
G1 X93.073 Y24.07 E.20721
G1 X93.073 Y27.36 E.11577
G1 X87.185 Y27.36 E.20721
G1 X87.693 Y26.852 F21000
G1 F3000
G1 X87.693 Y24.578 E.08002
G1 X92.565 Y24.578 E.17147
G1 X92.565 Y26.852 E.08002
G1 X87.693 Y26.852 E.17147
G1 X88.201 Y26.344 F21000
G1 F3000
