; generated by SuperSlicer 2.5.59 on 2023-01-16 at 21:10:12 UTC


;
;

;
;
; 

; external perimeters extrusion width = 0.40mm
; perimeters extrusion width = 0.46mm
; infill extrusion width = 0.64mm
; solid infill extrusion width = 0.56mm
; top infill extrusion width = 0.40mm
; first layer extrusion width = 0.50mm

; object:{"name":"Door_Hook","id":"Door_Hook.stl id:0 copy 0","object_center":[60.000288,60.000000,0.000000],"boundingbox_center":[60.000288,60.000000,15.000000],"boundingbox_size":[69.259705,65.000000,30.000000]}
; plater:{"center":[60.000288,60.000000,0.000000],"boundingbox_center":[60.000288,60.000000,15.000000],"boundingbox_size":[69.259705,65.000000,30.000000]}

M73 P0 R52
;TYPE:Custom
; custom gcode: start_gcode
START_PRINT T_BED=110 T_EXTRUDER=240
; custom gcode end: start_gcode
M107
G21 ; set units to millimeters
G90 ; use absolute coordinates
M83 ; use relative distances for extrusion
; custom gcode: start_filament_gcode
; Filament gcode

    PRESSURE_ADVANCE_SELECT FILAMENT=ABS
; custom gcode end: start_filament_gcode
;_TOOLCHANGE 0
M109 S240 ; set temperature and wait for it to be reached
M190 S110 ; set bed temperature and wait for it to be reached
;LAYER_CHANGE
;Z:0.2
;HEIGHT:0.2
G1 Z0.2 F12000
G92 E0
G1 E-0.5 F3000
M204 S2000
G1 X32.983 Y26.762 F12000
G1 E0.5 F1800
;TYPE:Skirt
;WIDTH:0.52
G1 X22.974 Y42.204 E0.72998
G1 X22.458 Y43.436 E0.05296
G1 X22.421 Y45.17 E0.06881
G1 X22.77 Y46.192 E0.04285
G1 X46.812 Y93.1 E2.09098
G1 X47.563 Y94.061 E0.04837
G1 X48.683 Y94.906 E0.05565
G1 X49.992 Y95.41 E0.05565
G1 X50.874 Y95.534 E0.03535
G1 X92.627 Y95.543 E1.65628
G1 X93.768 Y95.41 E0.0456
G1 X95.078 Y94.906 E0.05565
G1 X96.197 Y94.061 E0.05565
G1 X96.948 Y93.1 E0.04837
G1 X97.497 Y91.809 E0.05565
G1 X97.652 Y90.933 E0.03528
G1 X97.679 Y73.411 E0.69508
G1 X97.547 Y72.422 E0.03957
G1 X97 Y71.207 E0.05286
G1 X55.795 Y26.039 E2.42535
G1 X54.879 Y25.276 E0.0473
G1 X54.264 Y24.934 E0.0279
G1 X53.432 Y24.631 E0.03514
G1 X52.513 Y24.478 E0.03694
G1 X37.223 Y24.457 E0.60656
G1 X35.74 Y24.681 E0.05951
G1 X34.469 Y25.276 E0.05565
G1 X33.909 Y25.698 E0.0278
G1 X32.983 Y26.762 E0.05599
G1 X33.383 Y27.022 F12000
G1 F1800
G1 X23.375 Y42.464 E0.72998
G1 X22.919 Y43.557 E0.04696
G1 X22.887 Y45.068 E0.05997
G1 X23.195 Y45.974 E0.03796
G1 X47.225 Y92.861 E2.09003
M73 P0 R52
G1 X47.894 Y93.717 E0.0431
G1 X48.907 Y94.485 E0.05038
G1 X50.091 Y94.943 E0.05038
G1 X51.134 Y95.066 E0.04164
G1 X92.627 Y95.066 E1.646
G1 X93.669 Y94.943 E0.04164
G1 X94.854 Y94.485 E0.05038
G1 X95.866 Y93.717 E0.05038
G1 X96.535 Y92.861 E0.0431
G1 X97.034 Y91.693 E0.05039
G1 X97.177 Y90.883 E0.03264
G1 X97.202 Y73.411 E0.69311
G1 X97.084 Y72.537 E0.03497
G1 X96.607 Y71.478 E0.04607
G1 X55.443 Y26.361 E2.42276
G1 X54.626 Y25.68 E0.04217
G1 X54.07 Y25.37 E0.02526
G1 X53.3 Y25.09 E0.0325
G1 X52.463 Y24.952 E0.03365
G1 X37.223 Y24.934 E0.60458
G1 X35.871 Y25.14 E0.05424
G1 X34.722 Y25.68 E0.05039
G1 X34.216 Y26.063 E0.02516
G1 X33.383 Y27.022 E0.05038
G1 E-0.5 F3000
; printing object Door_Hook.stl id:0 copy 0
; acceleration to travel
M204 S4000
G1 X51.128 Y70.059 F12000
; decel to extrusion
M204 S2000
G1 X60 Y91.577
; end travel
G1 E0.5 F1800
;TYPE:External perimeter
;WIDTH:0.5
G1 X51.142 Y91.577 E0.33666
G1 X50.98 Y91.566 E0.00617
G1 X50.692 Y91.483 E0.01139
G1 X50.438 Y91.324 E0.01139
G1 X50.238 Y91.102 E0.01139
G1 X50.107 Y90.833 E0.01139
G1 X50.071 Y90.69 E0.00559
G1 X50.053 Y90.485 E0.00783
G1 X50.053 Y34.489 E2.12819
G1 X50.031 Y34.139 E0.01334
G1 X49.98 Y33.85 E0.01116
G1 X49.901 Y33.569 E0.01108
G1 X49.795 Y33.298 E0.01108
G1 X49.662 Y33.038 E0.01108
G1 X49.504 Y32.794 E0.01108
G1 X49.322 Y32.566 E0.01108
G1 X49.118 Y32.357 E0.01108
G1 X48.895 Y32.17 E0.01108
G1 X48.654 Y32.006 E0.01108
G1 X48.399 Y31.866 E0.01108
G1 X48.13 Y31.753 E0.01108
G1 X47.851 Y31.667 E0.01108
G1 X47.562 Y31.608 E0.01124
G1 X47.143 Y31.577 E0.01595
G1 X40.055 Y31.58 E0.26941
G1 X39.765 Y31.609 E0.01107
G1 X39.479 Y31.667 E0.01108
G1 X39.201 Y31.753 E0.01108
G1 X38.932 Y31.866 E0.01108
G1 X38.676 Y32.006 E0.01108
G1 X38.435 Y32.17 E0.01108
G1 X38.212 Y32.357 E0.01108
G1 X38.009 Y32.566 E0.01108
G1 X37.829 Y32.792 E0.01098
G1 X30.569 Y43.692 E0.49775
G1 X29.096 Y45.889 E0.10053
G1 X29.035 Y45.952 E0.00332
G1 X28.914 Y46.022 E0.00535
G1 X28.786 Y46.045 E0.00492
G1 X28.646 Y46.02 E0.00541
G1 X28.571 Y45.984 E0.00315
G1 X26.331 Y44.421 E0.10381
G1 X26.308 Y44.389 E0.00152
G1 X26.324 Y44.328 E0.00241
G1 X36.303 Y28.931 E0.69732
G1 X36.476 Y28.721 E0.01036
G1 X36.712 Y28.55 E0.01109
G1 X36.988 Y28.449 E0.01115
G1 X37.236 Y28.423 E0.00948
G1 X52.112 Y28.423 E0.56538
G1 X52.298 Y28.442 E0.00711
G1 X52.498 Y28.489 E0.00782
G1 X52.635 Y28.55 E0.00571
G1 X52.878 Y28.726 E0.01139
G1 X52.978 Y28.837 E0.00571
G1 X53.128 Y29.097 E0.01139
G1 X53.172 Y29.231 E0.00536
G1 X53.207 Y29.521 E0.01113
G1 X53.207 Y85.515 E2.12812
G1 X53.25 Y86.001 E0.01854
G1 X53.316 Y86.292 E0.01133
G1 X53.409 Y86.568 E0.01108
G1 X53.529 Y86.834 E0.01108
G1 X53.674 Y87.086 E0.01108
G1 X53.845 Y87.323 E0.01108
G1 X53.999 Y87.497 E0.00886
G1 X54.251 Y87.739 E0.01329
G1 X54.483 Y87.915 E0.01108
G1 X54.732 Y88.067 E0.01108
G1 X54.995 Y88.194 E0.01108
G1 X55.268 Y88.293 E0.01108
G1 X55.551 Y88.365 E0.01108
G1 X55.839 Y88.409 E0.01108
G1 X56.121 Y88.423 E0.01074
G1 X88.139 Y88.423 E1.21687
G1 X88.421 Y88.409 E0.01074
G1 X88.709 Y88.365 E0.01108
G1 X88.992 Y88.293 E0.01108
G1 X89.266 Y88.194 E0.01108
G1 X89.528 Y88.067 E0.01108
G1 X89.777 Y87.915 E0.01108
G1 X90.009 Y87.739 E0.01108
G1 X90.223 Y87.541 E0.01108
G1 X90.416 Y87.323 E0.01108
G1 X90.586 Y87.086 E0.01108
G1 X90.731 Y86.834 E0.01108
G1 X90.851 Y86.568 E0.01108
G1 X90.944 Y86.292 E0.01108
G1 X91.01 Y86.001 E0.01133
G1 X91.053 Y85.515 E0.01854
G1 X91.045 Y74.956 E0.40133
G1 X91.068 Y73.602 E0.05146
G1 X91.153 Y73.488 E0.00538
G1 X91.283 Y73.425 E0.00553
G1 X93.713 Y73.417 E0.09235
G1 X93.706 Y90.531 E0.65044
M73 P1 R52
G1 X93.69 Y90.687 E0.00594
G1 X93.597 Y90.972 E0.01139
G1 X93.43 Y91.22 E0.01139
G1 X93.2 Y91.413 E0.01139
G1 X92.927 Y91.535 E0.01139
G1 X92.844 Y91.546 E0.00316
;TYPE:Internal perimeter
G1 X92.812 Y91.085 E0.01755
G1 X92.956 Y91.021 E0.00599
G1 X93.087 Y90.911 E0.0065
G1 X93.183 Y90.769 E0.0065
G1 X93.241 Y90.591 E0.00712
G1 X93.249 Y90.507 E0.00321
G1 X93.256 Y73.876 E0.6321
G1 X91.52 Y73.881 E0.06596
G1 X91.502 Y74.959 E0.04098
G1 X91.51 Y85.535 E0.40194
G1 X91.463 Y86.072 E0.0205
G1 X91.385 Y86.416 E0.01339
G1 X91.277 Y86.735 E0.01281
G1 X91.139 Y87.042 E0.01281
G1 X90.97 Y87.334 E0.01281
G1 X90.773 Y87.608 E0.01281
G1 X90.55 Y87.861 E0.01281
G1 X90.303 Y88.09 E0.01281
G1 X90.035 Y88.293 E0.01281
G1 X89.747 Y88.469 E0.01281
G1 X89.443 Y88.615 E0.01281
G1 X89.127 Y88.731 E0.01281
G1 X88.8 Y88.814 E0.01281
G1 X88.467 Y88.864 E0.01281
G1 X88.15 Y88.88 E0.01204
G1 X56.11 Y88.88 E1.21773
G1 X55.794 Y88.864 E0.01204
G1 X55.46 Y88.814 E0.01281
G1 X55.134 Y88.731 E0.01281
G1 X54.817 Y88.615 E0.01281
G1 X54.513 Y88.469 E0.01281
G1 X54.226 Y88.293 E0.01281
G1 X53.954 Y88.088 E0.01295
G1 X53.669 Y87.814 E0.01502
G1 X53.487 Y87.608 E0.01045
G1 X53.29 Y87.334 E0.01281
G1 X53.122 Y87.042 E0.01281
G1 X52.983 Y86.735 E0.01281
G1 X52.876 Y86.416 E0.01281
G1 X52.797 Y86.072 E0.01339
G1 X52.75 Y85.535 E0.02049
G1 X52.75 Y29.549 E2.12782
G1 X52.723 Y29.33 E0.00839
G1 X52.708 Y29.284 E0.00186
G1 X52.606 Y29.108 E0.00773
G1 X52.57 Y29.067 E0.00206
G1 X52.406 Y28.948 E0.00773
G1 X52.353 Y28.924 E0.00221
G1 X52.222 Y28.894 E0.00508
G1 X52.088 Y28.88 E0.00514
G1 X37.26 Y28.88 E0.56356
G1 X37.092 Y28.898 E0.00642
G1 X36.929 Y28.957 E0.00659
G1 X36.792 Y29.057 E0.00645
G1 X36.672 Y29.202 E0.00714
G1 X26.908 Y44.266 E0.68229
G1 X28.765 Y45.562 E0.08604
G1 X30.189 Y43.438 E0.09717
G1 X37.459 Y32.522 E0.49847
G1 X37.666 Y32.263 E0.01259
G1 X37.901 Y32.022 E0.01281
G1 X38.159 Y31.805 E0.01281
G1 X38.438 Y31.615 E0.01281
G1 X38.734 Y31.454 E0.01281
G1 X39.044 Y31.323 E0.01281
G1 X39.366 Y31.224 E0.01281
G1 X39.697 Y31.157 E0.01281
G1 X40.032 Y31.123 E0.0128
G1 X47.16 Y31.12 E0.27092
G1 X47.624 Y31.155 E0.01768
G1 X47.964 Y31.224 E0.01319
G1 X48.286 Y31.323 E0.01281
G1 X48.597 Y31.454 E0.01281
G1 X48.893 Y31.615 E0.01281
G1 X49.172 Y31.805 E0.01281
G1 X49.43 Y32.022 E0.01281
G1 X49.665 Y32.263 E0.01281
G1 X49.875 Y32.526 E0.01281
G1 X50.058 Y32.81 E0.01281
G1 X50.212 Y33.109 E0.01281
G1 X50.335 Y33.423 E0.01281
G1 X50.426 Y33.748 E0.01281
G1 X50.486 Y34.085 E0.013
G1 X50.51 Y34.475 E0.01486
G1 X50.51 Y90.465 E2.12797
G1 X50.523 Y90.614 E0.0057
G1 X50.528 Y90.635 E0.00083
;WIDTH:0.497931
G1 X50.967 Y90.391 E0.019
;WIDTH:0.5
G1 X50.967 Y34.461 E2.12572
G1 X50.94 Y34.03 E0.01638
G1 X50.872 Y33.646 E0.01485
G1 X50.769 Y33.277 E0.01454
G1 X50.629 Y32.921 E0.01454
G1 X50.454 Y32.581 E0.01454
G1 X50.247 Y32.259 E0.01454
G1 X50.008 Y31.96 E0.01454
G1 X49.741 Y31.686 E0.01454
G1 X49.448 Y31.44 E0.01454
G1 X49.132 Y31.225 E0.01454
G1 X48.796 Y31.042 E0.01454
G1 X48.443 Y30.893 E0.01454
G1 X48.077 Y30.78 E0.01454
G1 X47.687 Y30.701 E0.01515
G1 X47.177 Y30.663 E0.01942
G1 X40.009 Y30.666 E0.27244
G1 X39.628 Y30.704 E0.01453
G1 X39.253 Y30.78 E0.01454
G1 X38.888 Y30.893 E0.01454
G1 X38.535 Y31.042 E0.01454
G1 X38.199 Y31.225 E0.01454
G1 X37.883 Y31.44 E0.01454
G1 X37.59 Y31.686 E0.01454
G1 X37.322 Y31.96 E0.01454
G1 X37.089 Y32.252 E0.0142
G1 X28.644 Y44.92 E0.57864
G1 X27.532 Y44.144 E0.05151
G1 X37.041 Y29.472 E0.66451
G1 X37.123 Y29.373 E0.00489
G1 X37.196 Y29.346 E0.00294
G1 X37.284 Y29.337 E0.00336
G1 X52.064 Y29.337 E0.56173
G1 X52.256 Y29.357 E0.00734
G1 X52.293 Y29.585 E0.00877
G1 X52.293 Y85.555 E2.12723
G1 X52.345 Y86.143 E0.02244
G1 X52.435 Y86.54 E0.01545
G1 X52.557 Y86.902 E0.01454
G1 X52.714 Y87.251 E0.01454
G1 X52.906 Y87.583 E0.01454
G1 X53.129 Y87.893 E0.01454
G1 X53.339 Y88.131 E0.01204
G1 X53.657 Y88.436 E0.01675
G1 X53.968 Y88.672 E0.01483
G1 X54.294 Y88.871 E0.01454
G1 X54.639 Y89.037 E0.01454
G1 X54.999 Y89.168 E0.01454
G1 X55.37 Y89.262 E0.01454
G1 X55.748 Y89.32 E0.01454
G1 X56.099 Y89.337 E0.01334
G1 X88.162 Y89.337 E1.2186
M73 P1 R51
G1 X88.512 Y89.32 E0.01334
G1 X88.891 Y89.262 E0.01454
G1 X89.262 Y89.168 E0.01454
G1 X89.621 Y89.037 E0.01454
G1 X89.966 Y88.871 E0.01454
G1 X90.292 Y88.672 E0.01454
G1 X90.598 Y88.441 E0.01454
G1 X90.878 Y88.18 E0.01454
G1 X91.131 Y87.893 E0.01454
G1 X91.355 Y87.583 E0.01454
G1 X91.546 Y87.251 E0.01454
G1 X91.703 Y86.902 E0.01454
G1 X91.825 Y86.54 E0.01454
G1 X91.916 Y86.143 E0.01545
G1 X91.967 Y85.555 E0.02246
G1 X91.96 Y74.963 E0.40256
G1 X91.97 Y74.337 E0.0238
G1 X92.799 Y74.334 E0.0315
G1 X92.792 Y90.45 E0.6125
G1 X92.745 Y90.637 E0.00733
G1 X92.555 Y90.663 E0.00727
G1 X51.214 Y90.663 E1.57121
;WIDTH:0.456462
G1 X50.784 Y91.001 E0.019
;WIDTH:0.5
G1 X50.88 Y91.062 E0.00432
G1 X51.06 Y91.113 E0.00712
G1 X51.158 Y91.12 E0.00374
G1 X92.358 Y91.12 E1.56585
G1 X92.389 Y91.577 E0.01741
;TYPE:External perimeter
G1 X60 Y91.577 E1.23099
;WIPE_START
M204 S4000
G1 X59.8 Y91.231 F12000
;WIPE_END
G1 E-0.5 F3000
; acceleration to travel
G1 X81.417 Y88.459 F12000
; decel to extrusion
M204 S2000
G1 X92.226 Y87.074
; end travel
G1 E0.5 F1800
;TYPE:Gap fill
;WIDTH:0.734211
G1 X92.255 Y86.926 E0.00862
;WIDTH:0.661083
G1 X92.283 Y86.779 E0.00771
;WIDTH:0.623424
G1 X92.302 Y86.659 E0.00586
G1 X92.327 Y86.444 E0.01048
;WIDTH:0.508022
G1 X92.351 Y86.228 E0.00839
G1 X92.353 Y86.196 E0.00123
G1 X92.367 Y85.889 E0.01189
;WIDTH:0.449664
G1 X92.38 Y85.582 E0.0104
G1 X92.381 Y85.564 E0.0006
G1 X92.384 Y74.75 E0.36574
G1 X92.384 Y74.648 E0.00345
G1 X92.384 Y74.546 E0.00345
G1 E-0.5 F3000
; acceleration to travel
M204 S4000
G1 X65.091 Y44.694 F12000
; decel to extrusion
M204 S2000
G1 X51.196 Y29.495
; end travel
G1 E0.5 F1800
;TYPE:Solid infill
;WIDTH:0.515842
G1 F2400
G1 X52.12 Y30.419 E0.05122
G1 X52.12 Y31.066 F12000
G1 F2400
G1 X50.55 Y29.496 E0.08705
G1 X49.904 Y29.497 F12000
G1 F2400
G1 X52.12 Y31.713 E0.12288
G1 X52.121 Y32.36 F12000
G1 F2400
G1 X49.259 Y29.497 E0.15871
G1 X48.613 Y29.498 F12000
G1 F2400
G1 X52.121 Y33.006 E0.19454
G1 X52.122 Y33.653 F12000
G1 F2400
G1 X47.967 Y29.499 E0.23037
G1 X47.321 Y29.499 F12000
G1 F2400
G1 X48.697 Y30.875 E0.0763
; acceleration to travel
M204 S4000
G1 X48.067 Y30.676 F12000
; decel to extrusion
M204 S2000
G1 X47.752 Y30.576
; end travel
G1 F2400
G1 X46.676 Y29.5 E0.05968
G1 X46.03 Y29.501 F12000
G1 F2400
G1 X47.091 Y30.561 E0.05881
G1 X46.441 Y30.558 F12000
G1 F2400
G1 X45.384 Y29.501 E0.05861
G1 X44.738 Y29.502 F12000
G1 F2400
G1 X45.792 Y30.555 E0.05841
G1 X45.142 Y30.552 F12000
G1 F2400
G1 X44.093 Y29.503 E0.05821
G1 X43.447 Y29.503 F12000
G1 F2400
G1 X44.493 Y30.55 E0.05801
G1 X43.844 Y30.547 F12000
G1 F2400
G1 X42.801 Y29.504 E0.05781
G1 X42.156 Y29.505 F12000
G1 F2400
G1 X43.194 Y30.544 E0.05761
G1 X42.545 Y30.541 F12000
G1 F2400
G1 X41.51 Y29.505 E0.05741
G1 X40.864 Y29.506 F12000
G1 F2400
G1 X41.896 Y30.538 E0.05721
G1 X41.246 Y30.535 F12000
G1 F2400
G1 X40.218 Y29.507 E0.05701
G1 X39.573 Y29.507 F12000
G1 F2400
G1 X40.597 Y30.532 E0.05681
G1 X39.955 Y30.536 F12000
G1 F2400
G1 X38.927 Y29.508 E0.05699
G1 X38.281 Y29.509 F12000
G1 F2400
G1 X39.393 Y30.62 E0.06165
G1 X38.892 Y30.766 F12000
G1 F2400
G1 X37.635 Y29.509 E0.06967
G1 X37.116 Y29.636 F12000
G1 F2400
G1 X38.427 Y30.947 E0.07269
G1 X38.025 Y31.192 F12000
G1 F2400
G1 X36.861 Y30.028 E0.06456
G1 X36.607 Y30.42 F12000
G1 F2400
G1 X37.659 Y31.473 E0.05837
G1 X37.34 Y31.8 F12000
G1 F2400
G1 X36.352 Y30.812 E0.05477
G1 X36.098 Y31.204 F12000
G1 F2400
G1 X37.02 Y32.127 E0.05116
G1 X36.755 Y32.507 F12000
G1 F2400
G1 X35.843 Y31.596 E0.05054
G1 X35.589 Y31.988 F12000
G1 F2400
G1 X36.496 Y32.895 E0.05031
G1 X36.237 Y33.283 F12000
G1 F2400
G1 X35.334 Y32.38 E0.05008
G1 X35.08 Y32.772 F12000
G1 F2400
G1 X35.979 Y33.671 E0.04985
G1 X35.72 Y34.058 F12000
G1 F2400
G1 X34.825 Y33.164 E0.04963
G1 X34.571 Y33.555 F12000
G1 F2400
G1 X35.462 Y34.446 E0.0494
G1 X35.203 Y34.834 F12000
G1 F2400
G1 X34.316 Y33.947 E0.04917
G1 X34.062 Y34.339 F12000
G1 F2400
G1 X34.945 Y35.222 E0.04894
G1 X34.686 Y35.61 F12000
G1 F2400
G1 X33.807 Y34.731 E0.04872
G1 X33.553 Y35.123 F12000
G1 F2400
G1 X34.427 Y35.998 E0.04849
G1 X34.169 Y36.385 F12000
G1 F2400
G1 X33.298 Y35.515 E0.04826
G1 X33.044 Y35.907 F12000
G1 F2400
G1 X33.91 Y36.773 E0.04804
G1 X33.652 Y37.161 F12000
G1 F2400
G1 X32.79 Y36.299 E0.04781
G1 X32.535 Y36.691 F12000
G1 F2400
G1 X33.393 Y37.549 E0.04758
G1 X33.135 Y37.937 F12000
G1 F2400
G1 X32.281 Y37.083 E0.04735
G1 X32.026 Y37.475 F12000
G1 F2400
G1 X32.876 Y38.325 E0.04713
G1 X32.617 Y38.712 F12000
G1 F2400
G1 X31.772 Y37.867 E0.0469
G1 X31.517 Y38.259 F12000
G1 F2400
G1 X32.359 Y39.1 E0.04667
G1 X32.1 Y39.488 F12000
G1 F2400
G1 X31.263 Y38.65 E0.04644
G1 X31.008 Y39.042 F12000
G1 F2400
G1 X31.842 Y39.876 E0.04622
G1 X31.583 Y40.264 F12000
G1 F2400
G1 X30.754 Y39.434 E0.04599
G1 X30.499 Y39.826 F12000
G1 F2400
G1 X31.324 Y40.652 E0.04576
G1 X31.066 Y41.039 F12000
G1 F2400
G1 X30.245 Y40.218 E0.04553
G1 X29.99 Y40.61 F12000
G1 F2400
G1 X30.807 Y41.427 E0.04531
G1 X30.549 Y41.815 F12000
G1 F2400
G1 X29.736 Y41.002 E0.04508
G1 X29.481 Y41.394 F12000
G1 F2400
G1 X30.29 Y42.203 E0.04485
G1 X30.032 Y42.591 F12000
G1 F2400
G1 X29.227 Y41.786 E0.04463
G1 X28.972 Y42.178 F12000
G1 F2400
G1 X29.773 Y42.978 E0.0444
G1 X29.514 Y43.366 F12000
G1 F2400
G1 X28.718 Y42.57 E0.04417
G1 X28.463 Y42.962 F12000
G1 F2400
G1 X29.256 Y43.754 E0.04394
G1 X28.997 Y44.142 F12000
G1 F2400
G1 X28.209 Y43.354 E0.04372
G1 X27.954 Y43.746 F12000
G1 F2400
G1 X28.739 Y44.53 E0.04349
G1 E-0.5 F3000
; acceleration to travel
M204 S4000
G1 X43.439 Y36.821 F12000
; decel to extrusion
M204 S2000
G1 X50.789 Y32.967
; end travel
G1 E0.5 F1800
G1 F2400
G1 X52.122 Y34.3 E0.07392
G1 X52.123 Y34.947 F12000
G1 F2400
G1 X51.035 Y33.86 E0.06028
G1 X51.104 Y34.575 F12000
G1 F2400
G1 X52.123 Y35.594 E0.05649
G1 X52.123 Y36.241 F12000
G1 F2400
G1 X51.105 Y35.222 E0.05649
G1 X51.105 Y35.868 F12000
G1 F2400
G1 X52.124 Y36.887 E0.0565
G1 X52.124 Y37.534 F12000
G1 F2400
G1 X51.105 Y36.515 E0.05651
G1 X51.105 Y37.162 F12000
G1 F2400
G1 X52.125 Y38.181 E0.05652
G1 X52.125 Y38.828 F12000
