; generated by SuperSlicer 2.5.59 on 2023-02-01 at 17:21:30 UTC


;
;

;
;
; 

; external perimeters extrusion width = 0.40mm
; perimeters extrusion width = 0.46mm
; infill extrusion width = 0.64mm
; solid infill extrusion width = 0.56mm
; top infill extrusion width = 0.40mm
; first layer extrusion width = 0.50mm

; object:{"name":"Dragon_Mount","id":"Dragon_Mount.stl id:0 copy 0","object_center":[60.000000,59.999999,0.000000],"boundingbox_center":[60.000000,59.999999,10.250746],"boundingbox_size":[53.000854,16.501350,20.501492]}
; plater:{"center":[60.000000,59.999999,0.000000],"boundingbox_center":[60.000000,59.999999,10.250746],"boundingbox_size":[53.000854,16.501350,20.501492]}

M73 P0 R72
;TYPE:Custom
; custom gcode: start_gcode
START_PRINT T_BED=110 T_EXTRUDER=240
; custom gcode end: start_gcode
M107
G21 ; set units to millimeters
G90 ; use absolute coordinates
M82 ; use absolute distances for extrusion
G92 E0
; custom gcode: start_filament_gcode
; Filament gcode

    PRESSURE_ADVANCE_SELECT FILAMENT=ABS
; custom gcode end: start_filament_gcode
;_TOOLCHANGE 0
M109 S240 ; set temperature and wait for it to be reached
M190 S110 ; set bed temperature and wait for it to be reached
;LAYER_CHANGE
;Z:0.1
;HEIGHT:0.1
G1 Z0.1 F12000
G1 E-0.5 F3000
M204 S2000
G1 X41.361 Y49.871 F12000
G1 E0 F1800
;TYPE:Skirt
;WIDTH:0.52
G1 X31.659 Y57.918 E0.25082
G1 X30.698 Y59.128 E0.28157
G1 X30.304 Y60.803 E0.3158
G1 X30.304 Y67.699 E0.45302
G1 X31.013 Y69.893 E0.4989
G1 X32.313 Y71.019 E0.53313
G1 X33.979 Y71.446 E0.56735
G1 X57.428 Y71.897 E1.03401
M73 P0 R72
G1 X62.571 Y71.897 E1.13635
G1 X86.022 Y71.446 E1.60305
G1 X88.202 Y70.694 E1.64894
G1 X89.303 Y69.373 E1.68316
G1 X89.698 Y67.699 E1.71739
G1 X89.697 Y60.799 E1.85468
G1 X89.378 Y59.286 E1.88544
G1 X88.342 Y57.914 E1.91966
G1 X78.091 Y49.415 E2.18462
G1 X75.699 Y48.552 E2.23522
G1 X44.301 Y48.554 E2.85997
G1 X41.908 Y49.417 E2.91058
G1 X41.361 Y49.871 E2.92472
G1 X41.68 Y50.254 F12000
G1 F1800
G1 X31.977 Y58.301 E3.17553
G1 X31.196 Y59.252 E3.20002
G1 X30.802 Y60.803 E3.23185
G1 X30.802 Y67.699 E3.36907
G1 X31.293 Y69.415 E3.40459
G1 X32.446 Y70.524 E3.43643
G1 X33.989 Y70.947 E3.46826
G1 X57.438 Y71.399 E3.93492
G1 X62.562 Y71.398 E4.03688
G1 X86.012 Y70.948 E4.50358
G1 X87.719 Y70.424 E4.5391
G1 X88.805 Y69.249 E4.57094
G1 X89.199 Y67.699 E4.60277
G1 X89.199 Y60.799 E4.74006
G1 X88.966 Y59.591 E4.76455
G1 X88.023 Y58.298 E4.79638
G1 X77.773 Y49.798 E5.06134
G1 X75.699 Y49.05 E5.10521
G1 X44.301 Y49.053 E5.72996
G1 X42.227 Y49.801 E5.77384
G1 X41.68 Y50.254 E5.78797
G92 E0
G1 E-0.5 F3000
; printing object Dragon_Mount.stl id:0 copy 0
; acceleration to travel
M204 S4000
G1 X50.779 Y51.786 F12000
; decel to extrusion
M204 S2000
G1 X55.329 Y52.551
; end travel
G1 E0 F1800
;TYPE:External perimeter
;WIDTH:0.5
G1 X64.746 Y52.55 E0.17987
G1 X64.746 Y52.643 E0.18163
;TYPE:Internal perimeter
;WIDTH:0.406654
G1 X64.268 Y53.029 E0.19118
;WIDTH:0.5
G1 X55.808 Y53.03 E0.35277
G1 X55.808 Y54.47 E0.38029
G1 X58.177 Y54.47 E0.42554
G1 X58.177 Y67.421 E0.6729
G1 X61.822 Y67.421 E0.74252
G1 X61.822 Y54.47 E0.98987
G1 X64.268 Y54.47 E1.03659
G1 X64.268 Y53.986 E1.04584
G1 X63.789 Y53.986 E1.05498
G1 X63.789 Y53.992 E1.05508
G1 X61.343 Y53.992 E1.1018
G1 X61.344 Y66.943 E1.34915
G1 X58.656 Y66.943 E1.40049
G1 X58.656 Y54.231 E1.64328
G1 X59.134 Y54.226 E1.65242
G1 X59.134 Y66.464 E1.88617
G1 X60.865 Y66.464 E1.91923
G1 X60.865 Y53.986 E2.15755
G1 X59.373 Y53.986 E2.18603
G1 X59.123 Y53.988 E2.19081
;TYPE:Unknown
G1 X58.666 Y53.99
;TYPE:Internal perimeter
G1 X58.416 Y53.992 E2.19558
G1 X56.286 Y53.992 E2.23627
G1 X56.286 Y53.508 E2.2455
G1 X63.789 Y53.508 E2.38881
G1 X64.268 Y53.508 E2.39795
;WIDTH:0.406653
G1 X64.746 Y53.122 E2.4075
;TYPE:External perimeter
;WIDTH:0.5
G1 X64.746 Y54.949 E2.4424
G1 X62.3 Y54.949 E2.48911
G1 X62.301 Y67.9 E2.73647
G1 X57.699 Y67.9 E2.82437
G1 X57.698 Y54.949 E3.07173
G1 X55.329 Y54.949 E3.11698
G1 X55.329 Y52.551 E3.16278
;WIPE_START
M204 S4000
G1 X55.675 Y52.751 F12000
;WIPE_END
G92 E0
G1 E-0.5 F3000
; acceleration to travel
G1 X58.378 Y53.665 F12000
; decel to extrusion
M204 S2000
G1 X59.754 Y54.13
; end travel
G1 E0 F1800
;TYPE:Solid infill
;WIDTH:0.513424
G1 F2400
G1 X60.721 Y55.097 E0.02683
G1 X60.721 Y55.774 F12000
G1 F2400
G1 X59.278 Y54.33 E0.06687
G1 X59.278 Y55.007 F12000
G1 F2400
G1 X60.721 Y56.451 E0.10691
G1 X60.721 Y57.128 F12000
G1 F2400
G1 X59.278 Y55.684 E0.14696
G1 X59.278 Y56.361 F12000
G1 F2400
G1 X60.721 Y57.804 E0.187
G1 X60.721 Y58.481 F12000
G1 F2400
G1 X59.278 Y57.037 E0.22704
G1 X59.278 Y57.714 F12000
G1 F2400
G1 X60.721 Y59.158 E0.26708
G1 X60.721 Y59.835 F12000
G1 F2400
G1 X59.278 Y58.391 E0.30713
G1 X59.278 Y59.068 F12000
G1 F2400
G1 X60.721 Y60.512 E0.34717
G1 X60.721 Y61.188 F12000
G1 F2400
G1 X59.278 Y59.745 E0.38721
G1 X59.278 Y60.421 F12000
G1 F2400
G1 X60.722 Y61.865 E0.42726
G1 X60.722 Y62.542 F12000
G1 F2400
G1 X59.278 Y61.098 E0.4673
G1 X59.278 Y61.775 F12000
G1 F2400
G1 X60.722 Y63.219 E0.50734
G1 X60.722 Y63.895 F12000
G1 F2400
G1 X59.278 Y62.452 E0.54739
G1 X59.278 Y63.128 F12000
G1 F2400
G1 X60.722 Y64.572 E0.58743
G1 X60.722 Y65.249 F12000
G1 F2400
G1 X59.278 Y63.805 E0.62748
G1 X59.278 Y64.482 F12000
G1 F2400
G1 X60.722 Y65.926 E0.66752
G1 X60.44 Y66.321 F12000
G1 F2400
G1 X59.278 Y65.159 E0.69975
G1 X59.278 Y65.836 F12000
G1 F2400
G1 X59.763 Y66.321 E0.7132
G92 E0
G1 E-0.5 F3000
; acceleration to travel
M204 S4000
G1 X65.798 Y67.077 F12000
; decel to extrusion
M204 S2000
G1 X68.761 Y67.449
; end travel
G1 E0 F1800
;TYPE:External perimeter
;WIDTH:0.5
G1 X68.761 Y54.949 E0.23875
G1 X66.688 Y54.949 E0.27834
G1 X66.688 Y52.55 E0.32415
G1 X70.039 Y52.55 E0.38817
G1 X70.083 Y52.695 E0.39106
G1 X70.284 Y53.059 E0.39901
G1 X70.552 Y53.375 E0.40691
G1 X70.874 Y53.631 E0.41477
G1 X71.21 Y53.807 E0.42202
G1 X71.604 Y53.928 E0.42988
G1 X71.777 Y53.945 E0.43321
;TYPE:Internal perimeter
G1 X71.777 Y54.426 E0.4424
G1 X71.509 Y54.399 E0.44754
G1 X71.027 Y54.252 E0.45717
G1 X70.612 Y54.033 E0.46613
G1 X70.217 Y53.721 E0.47575
G1 X69.888 Y53.333 E0.48546
G1 X69.72 Y53.029 E0.49209
G1 X67.166 Y53.029 E0.54088
G1 X67.166 Y54.47 E0.56841
G1 X69.239 Y54.47 E0.60801
G1 X69.24 Y66.97 E0.84675
G1 X85.221 Y66.97 E1.15199
G1 X85.221 Y61.528 E1.25595
G1 X77.251 Y61.528 E1.40817
G1 X76.226 Y61.493 E1.42777
G1 X75.329 Y61.371 E1.44506
G1 X75.167 Y61.636 E1.45098
G1 X74.716 Y62.041 E1.46257
G1 X74.217 Y62.312 E1.47342
G1 X73.731 Y62.47 E1.48318
G1 X73.427 Y62.513 E1.48904
G1 X73.403 Y62.033 E1.49822
;TYPE:External perimeter
G1 X73.622 Y62.002 E1.50245
G1 X74.027 Y61.87 E1.51057
G1 X74.438 Y61.647 E1.51951
G1 X74.795 Y61.326 E1.52868
G1 X75.248 Y60.584 E1.54529
G1 X75.404 Y60.167 E1.55378
G1 X75.482 Y59.73 E1.56226
G1 X75.48 Y59.286 E1.57074
G1 X75.398 Y58.85 E1.57922
G1 X75.238 Y58.435 E1.58772
G1 X74.779 Y57.699 E1.60429
G1 X74.422 Y57.382 E1.6134
M73 P1 R71
G1 X74.044 Y57.173 E1.62164
G1 X73.64 Y57.041 E1.62978
G1 X73.149 Y56.969 E1.63926
G1 X72.721 Y56.988 E1.64743
G1 X72.237 Y57.097 E1.6569
G1 X71.845 Y57.264 E1.66504
G1 X71.459 Y57.515 E1.67384
G1 X71.124 Y57.833 E1.68266
G1 X70.851 Y58.206 E1.69149
G1 X70.65 Y58.622 E1.70032
G1 X70.528 Y59.068 E1.70915
G1 X70.488 Y59.529 E1.71798
G1 X70.532 Y59.989 E1.7268
G1 X70.658 Y60.432 E1.7356
G1 X70.842 Y60.814 E1.7437
G1 X71.11 Y61.188 E1.75249
G1 X71.443 Y61.509 E1.76132
G1 X71.828 Y61.764 E1.77015
G1 X72.253 Y61.946 E1.77898
G1 X72.704 Y62.048 E1.78781
G1 X72.927 Y62.057 E1.79206
;TYPE:Internal perimeter
G1 X72.951 Y62.537 E1.80124
G1 X72.641 Y62.524 E1.80716
G1 X72.105 Y62.403 E1.81766
G1 X71.6 Y62.187 E1.82815
G1 X71.142 Y61.884 E1.83864
G1 X70.747 Y61.502 E1.84913
G1 X70.429 Y61.059 E1.85956
G1 X70.313 Y60.818 E1.86467
;WIDTH:0.3767
G1 X70.123 Y61.454 E1.87422
;WIDTH:0.5
G1 X70.383 Y61.817 E1.88275
G1 X70.842 Y62.258 E1.8949
G1 X71.372 Y62.61 E1.90706
G1 X71.957 Y62.86 E1.91922
G1 X72.578 Y63.001 E1.93137
G1 X73.214 Y63.027 E1.94353
G1 X73.839 Y62.938 E1.95559
G1 X74.407 Y62.753 E1.96699
G1 X74.993 Y62.435 E1.97974
G1 X75.6 Y61.891 E1.99529
G1 X76.185 Y61.971 E2.00658
G1 X77.243 Y62.006 E2.0268
G1 X84.503 Y62.006 E2.16546
;WIDTH:0.36941
G1 X84.025 Y62.485 E2.17501
;WIDTH:0.5
G1 X77.235 Y62.485 E2.30469
G1 X76.144 Y62.448 E2.32554
G1 X75.754 Y62.395 E2.33305
G1 X75.271 Y62.828 E2.34545
G1 X74.597 Y63.195 E2.36011
G1 X73.948 Y63.406 E2.37314
G1 X73.238 Y63.507 E2.38684
G1 X72.515 Y63.477 E2.40066
G1 X71.809 Y63.317 E2.41448
G1 X71.144 Y63.033 E2.4283
G1 X70.541 Y62.633 E2.44212
G1 X70.197 Y62.301 E2.45125
G1 X70.197 Y66.013 E2.52215
G1 X84.264 Y66.013 E2.79083
G1 X84.264 Y62.724 E2.85365
;WIDTH:0.36941
G1 X84.742 Y62.245 E2.8632
;WIDTH:0.5
G1 X84.743 Y66.492 E2.94431
G1 X69.718 Y66.492 E3.23127
G1 X69.718 Y61.345 E3.32957
G1 X69.756 Y61.333 E3.33033
G1 X69.85 Y61.101 E3.33511
;TYPE:Unknown
G1 X70.05 Y60.604
;TYPE:Internal perimeter
G1 X70.144 Y60.372 E3.33988
G1 X70.06 Y60.078 E3.34573
G1 X70.008 Y59.531 E3.35622
G1 X70.055 Y58.984 E3.36671
G1 X70.2 Y58.454 E3.3772
G1 X70.439 Y57.959 E3.3877
G1 X70.763 Y57.515 E3.39819
G1 X71.162 Y57.138 E3.40868
G1 X71.619 Y56.84 E3.4191
G1 X72.089 Y56.639 E3.42886
G1 X72.658 Y56.512 E3.43999
G1 X73.173 Y56.489 E3.44984
G1 X73.75 Y56.573 E3.46097
G1 X74.237 Y56.733 E3.47076
G1 X74.982 Y57.146 E3.48704
G1 X74.972 Y56.708 E3.49541
G1 X74.971 Y53.028 E3.56569
G1 X74.31 Y53.028 E3.57831
G1 X74.258 Y53.123 E3.58037
G1 X74.33 Y53.362 E3.58515
;TYPE:Unknown
G1 X74.42 Y53.659
;TYPE:Internal perimeter
G1 X74.492 Y53.898 E3.58992
G1 X74.494 Y56.313 E3.63605
G1 X73.859 Y56.106 E3.64879
G1 X73.197 Y56.008 E3.66158
G1 X72.594 Y56.036 E3.67311
G1 X71.942 Y56.182 E3.68588
G1 X71.393 Y56.417 E3.69727
G1 X70.864 Y56.76 E3.70932
G1 X70.402 Y57.198 E3.72147
G1 X69.982 Y57.773 E3.73508
G1 X69.718 Y57.687 E3.74039
G1 X69.718 Y53.992 E3.81097
G1 X67.645 Y53.992 E3.85056
G1 X67.645 Y53.507 E3.85982
G1 X69.438 Y53.507 E3.89407
G1 X69.493 Y53.606 E3.89622
G1 X69.82 Y53.992 E3.90588
G1 X69.789 Y53.992 E3.90647
G1 X70.349 Y54.436 E3.92013
G1 X70.632 Y54.585 E3.92624
G1 X70.449 Y55.03 E3.93542
G1 X70.196 Y54.897 E3.94088
G1 X70.197 Y56.734 E3.97597
G1 X70.567 Y56.383 E3.98572
G1 X71.167 Y55.993 E3.99938
G1 X71.882 Y55.687 E4.01424
G1 X71.837 Y55.394 E4.01992
G1 X71.321 Y55.342 E4.02983
G1 X70.89 Y55.211 E4.03843
G1 X71.073 Y54.766 E4.04761
G1 X71.415 Y54.871 E4.05444
G1 X72.015 Y54.93 E4.06596
G1 X72.616 Y54.871 E4.07749
G1 X73.187 Y54.696 E4.08889
G1 X73.47 Y54.547 E4.09499
G1 X73.803 Y54.913 E4.10444
G1 X73.369 Y55.141 E4.11379
G1 X73.132 Y55.213 E4.11852
G1 X73.155 Y55.519 E4.12437
G1 X74.015 Y55.645 E4.14096
G1 X74.014 Y55.041 E4.1525
G1 X73.967 Y54.795 E4.15728
;TYPE:Unknown
G1 X73.916 Y54.533
;TYPE:Internal perimeter
G1 X73.869 Y54.287 E4.16205
G1 X74.148 Y54.066 E4.16886
G1 X74.338 Y53.842 E4.17447
G1 X73.987 Y53.515 E4.18362
G1 X73.813 Y53.72 E4.18876
G1 X73.419 Y54.033 E4.19838
G1 X73.004 Y54.252 E4.20734
G1 X72.521 Y54.399 E4.21697
G1 X72.253 Y54.426 E4.22212
G1 X72.253 Y53.945 E4.2313
;TYPE:External perimeter
G1 X72.427 Y53.928 E4.23463
G1 X72.821 Y53.807 E4.2425
G1 X73.156 Y53.631 E4.24974
G1 X73.479 Y53.375 E4.2576
G1 X73.746 Y53.059 E4.2655
G1 X73.947 Y52.695 E4.27345
G1 X73.991 Y52.55 E4.27635
G1 X75.449 Y52.55 E4.30419
G1 X75.449 Y52.7 E4.30705
G1 X75.451 Y56.703 E4.3835
G1 X75.463 Y57.213 E4.39326
G1 X75.549 Y58.211 E4.41238
G1 X75.549 Y60.918 E4.46409
G1 X76.266 Y61.016 E4.47791
G1 X77.259 Y61.049 E4.49689
G1 X85.7 Y61.049 E4.65809
G1 X85.7 Y67.449 E4.78033
G1 X68.761 Y67.449 E5.10385
;WIPE_START
M204 S4000
G1 X68.961 Y67.102 F12000
;WIPE_END
G92 E0
G1 E-0.5 F3000
; acceleration to travel
G1 X69.535 Y63.087 F12000
; decel to extrusion
M204 S2000
G1 X69.823 Y61.079
; end travel
G1 E0 F1800
;TYPE:Gap fill
;WIDTH:0.64717
G1 X69.784 Y60.942 E0.00355
;WIDTH:0.575149
G1 X69.745 Y60.805 E0.0067
G1 X69.72 Y60.639 E0.0104
;WIDTH:0.531706
G1 X69.704 Y60.522 E0.0128
;WIDTH:0.491006
G1 X69.687 Y60.406 E0.01501
;WIDTH:0.450306
G1 X69.671 Y60.289 E0.01703
;WIDTH:0.403086
G1 X69.655 Y60.172 E0.01883
G1 X69.652 Y60.137 E0.01936
G1 X69.638 Y59.842 E0.02386
;WIDTH:0.34675
G1 X69.624 Y59.547 E0.02769
G1 X69.623 Y59.518 E0.02807
G1 X69.636 Y59.223 E0.0319
;WIDTH:0.403181
G1 X69.649 Y58.928 E0.0364
G1 X69.668 Y58.776 E0.03874
;WIDTH:0.443526
G1 X69.684 Y58.658 E0.04074
;WIDTH:0.483251
G1 X69.7 Y58.54 E0.04294
;WIDTH:0.522976
G1 X69.715 Y58.422 E0.04532
;WIDTH:0.562701
G1 X69.731 Y58.304 E0.04789
;WIDTH:0.597851
G1 X69.777 Y58.119 E0.05227
;WIDTH:0.705487
G1 X69.824 Y57.955 E0.05695
G92 E0
G1 E-0.5 F3000
; acceleration to travel
M204 S4000
G1 X78.656 Y61.052 F12000
; decel to extrusion
M204 S2000
G1 X83.153 Y62.628
; end travel
G1 E0 F1800
;TYPE:Solid infill
;WIDTH:0.505192
G1 F2400
G1 X84.12 Y63.596 E0.0264
G1 X84.12 Y64.272 F12000
G1 F2400
G1 X82.476 Y62.628 E0.07127
G1 X81.8 Y62.628 F12000
G1 F2400
G1 X84.121 Y64.949 E0.13461
G1 X84.121 Y65.626 F12000
G1 F2400
G1 X81.123 Y62.628 E0.21642
G1 X80.446 Y62.628 F12000
G1 F2400
G1 X83.688 Y65.87 E0.30489
G1 X83.011 Y65.87 F12000
G1 F2400
G1 X79.769 Y62.628 E0.39335
G1 X79.093 Y62.628 F12000
G1 F2400
G1 X82.334 Y65.87 E0.48181
G1 X81.657 Y65.87 F12000
G1 F2400
G1 X78.416 Y62.628 E0.57028
G1 X77.739 Y62.628 F12000
G1 F2400
G1 X80.981 Y65.87 E0.65874
G1 X80.304 Y65.87 F12000
G1 F2400
G1 X77.052 Y62.618 E0.7475
G1 X76.331 Y62.574 F12000
G1 F2400
G1 X79.627 Y65.87 E0.83745
G1 X78.95 Y65.87 F12000
G1 F2400
G1 X75.709 Y62.628 E0.92592
G1 X75.352 Y62.948 F12000
G1 F2400
G1 X78.274 Y65.87 E1.00566
G1 X77.597 Y65.87 F12000
G1 F2400
G1 X74.913 Y63.186 E1.07891
G1 X74.445 Y63.395 F12000
G1 F2400
G1 X76.92 Y65.87 E1.14645
G1 X76.243 Y65.87 F12000
G1 F2400
G1 X73.927 Y63.554 E1.20965
G1 X73.335 Y63.638 F12000
G1 F2400
G1 X75.567 Y65.87 E1.27056
G1 X74.89 Y65.87 F12000
G1 F2400
G1 X72.646 Y63.626 E1.3318
G1 X71.807 Y63.464 F12000
G1 F2400
G1 X74.213 Y65.87 E1.39745
G1 X73.536 Y65.87 F12000
G1 F2400
G1 X70.34 Y62.674 E1.48467
G1 X70.34 Y63.351 F12000
G1 F2400
G1 X72.86 Y65.87 E1.55343
G1 X72.183 Y65.87 F12000
G1 F2400
G1 X70.34 Y64.027 E1.60371
G1 X70.34 Y64.704 F12000
G1 F2400
G1 X71.506 Y65.87 E1.63552
G1 X70.829 Y65.87 F12000
G1 F2400
G1 X70.34 Y65.381 E1.64887
G92 E0
G1 E-0.5 F3000
; acceleration to travel
M204 S4000
G1 X57.529 Y66.768 F12000
; decel to extrusion
M204 S2000
G1 X51.238 Y67.449
; end travel
G1 E0 F1800
;TYPE:External perimeter
;WIDTH:0.5
G1 X34.302 Y67.449 E0.32348
G1 X34.301 Y61.052 E0.44565
G1 X42.502 Y61.052 E0.60227
;TYPE:Internal perimeter
G1 X42.51 Y61.53 E0.61141
G1 X34.78 Y61.531 E0.75905
G1 X34.78 Y66.97 E0.86294
G1 X50.759 Y66.97 E1.16814
G1 X50.759 Y54.47 E1.40688
G1 X52.821 Y54.47 E1.44627
G1 X52.821 Y53.03 E1.47378
G1 X50.232 Y53.03 E1.52323
G1 X50.062 Y53.331 E1.52983
G1 X49.734 Y53.715 E1.53948
G1 X49.341 Y54.024 E1.54903
G1 X48.927 Y54.24 E1.55795
G1 X48.447 Y54.386 E1.56752
G1 X47.945 Y54.435 E1.57717
G1 X47.442 Y54.386 E1.58681
G1 X46.963 Y54.24 E1.59638
G1 X46.549 Y54.024 E1.6053
G1 X46.155 Y53.715 E1.61485
G1 X45.827 Y53.332 E1.6245
G1 X45.657 Y53.03 E1.6311
G1 X45.029 Y53.03 E1.6431
G1 X45.029 Y56.715 E1.71347
G1 X45.009 Y57.276 E1.7242
G1 X45.432 Y56.954 E1.73436
G1 X45.928 Y56.706 E1.74495
G1 X46.497 Y56.548 E1.75622
G1 X46.77 Y56.525 E1.76145
G1 X46.771 Y56.045 E1.77062
G1 X46.412 Y56.075 E1.77748
G1 X45.507 Y56.326 E1.79542
G1 X45.508 Y53.815 E1.84338
G1 X46.288 Y54.428 E1.86234
G1 X46.569 Y54.575 E1.86839
G1 X46.387 Y55.02 E1.87757
G1 X45.986 Y54.81 E1.88621
G1 X45.986 Y55.697 E1.90314
G1 X46.328 Y55.602 E1.90991
G1 X46.92 Y55.552 E1.92125
G1 X46.953 Y55.237 E1.9273
G1 X46.828 Y55.2 E1.92979
G1 X47.01 Y54.755 E1.93897
G1 X47.348 Y54.857 E1.94573
G1 X47.945 Y54.916 E1.95717
G1 X48.541 Y54.857 E1.96862
G1 X49.109 Y54.685 E1.97994
G1 X49.389 Y54.538 E1.98599
G1 X49.59 Y54.974 E1.99515
G1 X49.29 Y55.13 E2.0016
G1 X48.635 Y55.329 E2.01468
G1 X48.085 Y55.383 E2.02523
G1 X48.058 Y55.7 E2.0313
G1 X48.419 Y55.799 E2.03845
G1 X49.07 Y56.115 E2.05227
G1 X49.802 Y56.65 E2.06959
G1 X49.802 Y55.102 E2.09916
G1 X49.798 Y54.852 E2.10394
;TYPE:Unknown
G1 X49.793 Y54.53
;TYPE:Internal perimeter
