; HEADER_BLOCK_START
; generated by OrcaSlicer 1.6.3 on 2023-06-08 at 15:10:47
; total layer number: 35
; HEADER_BLOCK_END

; THUMBNAIL_BLOCK_START
; THUMBNAIL_BLOCK_END

; external perimeters extrusion width = 0.40mm
; perimeters extrusion width = 0.45mm
; infill extrusion width = 0.45mm
; solid infill extrusion width = 0.40mm
; top infill extrusion width = 0.40mm
; support material extrusion width = 0.40mm
; first layer extrusion width = 0.50mm

; external perimeters extrusion width = 0.40mm
; perimeters extrusion width = 0.45mm
; infill extrusion width = 0.45mm
; solid infill extrusion width = 0.40mm
; top infill extrusion width = 0.40mm
; support material extrusion width = 0.40mm
; first layer extrusion width = 0.50mm

; external perimeters extrusion width = 0.40mm
; perimeters extrusion width = 0.45mm
; infill extrusion width = 0.45mm
; solid infill extrusion width = 0.40mm
; top infill extrusion width = 0.40mm
; support material extrusion width = 0.40mm
; first layer extrusion width = 0.50mm

; EXECUTABLE_BLOCK_START
EXCLUDE_OBJECT_DEFINE NAME=duct_spacer_for_5015-MGN12.stl_id_0_copy_0 CENTER=60,81.6026 POLYGON=[[41,79.8024],[41.0078,79.5512],[41.0314,79.3011],[41.0706,79.0529],[41.1254,78.8077],[41.1954,78.5664],[41.2804,78.33],[41.3801,78.0994],[41.4941,77.8755],[41.6219,77.6592],[41.7631,77.4514],[41.917,77.2528],[42.083,77.0643],[42.2606,76.8865],[42.449,76.7203],[42.6475,76.5662],[42.8552,76.4249],[43.0714,76.2969],[43.2952,76.1828],[43.5258,76.0829],[43.7621,75.9977],[44.0033,75.9275],[44.2485,75.8725],[44.4966,75.8331],[44.7468,75.8093],[44.9979,75.8013],[75.0021,75.8013],[75.2532,75.8093],[75.5034,75.8331],[75.7515,75.8725],[75.9967,75.9275],[76.2379,75.9977],[76.4742,76.0829],[76.7048,76.1828],[76.9286,76.2969],[77.1448,76.4249],[77.3525,76.5662],[77.551,76.7203],[77.7394,76.8865],[77.917,77.0643],[78.083,77.2528],[78.2369,77.4514],[78.3781,77.6592],[78.5059,77.8755],[78.6199,78.0994],[78.7196,78.33],[78.8046,78.5664],[78.8746,78.8077],[78.9294,79.0529],[78.9686,79.3011],[78.9922,79.5512],[79,79.8024],[78.992,80.0535],[78.9683,80.3036],[78.929,80.5517],[78.8741,80.7969],[78.804,81.0382],[78.7188,81.2746],[78.619,81.5051],[78.5049,81.7289],[78.3769,81.9452],[78.2357,82.153],[78.0817,82.3515],[77.9155,82.5399],[77.7378,82.7175],[77.5493,82.8837],[77.3508,83.0376],[77.143,83.1788],[76.9267,83.3067],[70.6097,86.979],[70.4889,87.0468],[70.3699,87.1065],[70.3584,87.1118],[70.2534,87.1589],[70.2236,87.1713],[70.1399,87.2045],[70.086,87.2243],[70.0259,87.2451],[69.946,87.2705],[69.9104,87.2811],[69.8039,87.31],[69.7935,87.3126],[69.6754,87.3394],[69.6601,87.3426],[69.5564,87.3615],[69.5149,87.3681],[69.4366,87.3788],[69.3686,87.3865],[69.3162,87.3913],[69.2217,87.3976],[69.1955,87.3988],[69.0745,87.4013],[51.5244,87.4039],[51.4658,87.4039],[51.4045,87.4037],[51.3039,87.4033],[51.292,87.4032],[51.1865,87.4023],[51.156,87.4019],[51.0876,87.4009],[51.021,87.3997],[50.9949,87.3991],[50.9079,87.3966],[50.8975,87.3962],[50.8262,87.3935],[50.7845,87.3915],[50.7492,87.3896],[50.6806,87.3853],[50.6081,87.3795],[50.5845,87.3774],[50.5692,87.3758],[50.5485,87.3736],[50.481,87.3658],[50.3643,87.3479],[50.2545,87.3253],[50.1481,87.2975],[50.0416,87.2641],[49.9314,87.2243],[49.8139,87.1779],[49.688,87.123],[49.6793,87.1189],[49.558,87.0588],[49.5481,87.0536],[49.4286,86.9869],[43.0733,83.3067],[42.857,83.1788],[42.6492,83.0376],[42.4507,82.8837],[42.2622,82.7175],[42.0845,82.5399],[41.9183,82.3515],[41.7643,82.153],[41.6231,81.9452],[41.4951,81.7289],[41.381,81.5051],[41.2812,81.2746],[41.196,81.0382],[41.1259,80.7969],[41.071,80.5517],[41.0317,80.3036],[41.008,80.0535],[41,79.8024]]
EXCLUDE_OBJECT_DEFINE NAME=duct_spacer_for_5015-MGN12.stl_id_1_copy_0 CENTER=60,60 POLYGON=[[41,58.1998],[41.0078,57.9486],[41.0314,57.6985],[41.0706,57.4503],[41.1254,57.2051],[41.1954,56.9638],[41.2804,56.7274],[41.3801,56.4968],[41.4941,56.2729],[41.6219,56.0566],[41.7631,55.8488],[41.917,55.6502],[42.083,55.4617],[42.2606,55.2839],[42.449,55.1177],[42.6475,54.9636],[42.8552,54.8223],[43.0714,54.6943],[43.2952,54.5802],[43.5258,54.4803],[43.7621,54.3951],[44.0033,54.3249],[44.2485,54.2699],[44.4966,54.2305],[44.7468,54.2067],[44.9979,54.1987],[75.0021,54.1987],[75.2532,54.2067],[75.5034,54.2305],[75.7515,54.2699],[75.9967,54.3249],[76.2379,54.3951],[76.4742,54.4803],[76.7048,54.5802],[76.9286,54.6943],[77.1448,54.8223],[77.3525,54.9636],[77.551,55.1177],[77.7394,55.2839],[77.917,55.4617],[78.083,55.6502],[78.2369,55.8488],[78.3781,56.0566],[78.5059,56.2729],[78.6199,56.4968],[78.7196,56.7274],[78.8046,56.9638],[78.8746,57.2051],[78.9294,57.4503],[78.9686,57.6985],[78.9922,57.9486],[79,58.1998],[78.992,58.4509],[78.9683,58.701],[78.929,58.9491],[78.8741,59.1943],[78.804,59.4356],[78.7188,59.6719],[78.619,59.9025],[78.5049,60.1263],[78.3769,60.3426],[78.2357,60.5504],[78.0817,60.7489],[77.9155,60.9373],[77.7378,61.1149],[77.5493,61.281],[77.3508,61.435],[77.143,61.5762],[76.9267,61.7041],[70.6097,65.3764],[70.4889,65.4442],[70.3699,65.5039],[70.3584,65.5092],[70.2534,65.5563],[70.2236,65.5687],[70.1399,65.6019],[70.086,65.6217],[70.0259,65.6425],[69.946,65.6679],[69.9104,65.6785],[69.8039,65.7074],[69.7935,65.71],[69.6754,65.7368],[69.6601,65.74],[69.5564,65.7589],[69.5149,65.7655],[69.4366,65.7762],[69.3686,65.7839],[69.3162,65.7887],[69.2217,65.795],[69.1955,65.7962],[69.0745,65.7987],[51.5244,65.8013],[51.4658,65.8012],[51.4045,65.8011],[51.3039,65.8007],[51.292,65.8006],[51.1865,65.7997],[51.156,65.7993],[51.0876,65.7983],[51.021,65.7971],[50.9949,65.7965],[50.9079,65.794],[50.8975,65.7936],[50.8262,65.7909],[50.7845,65.7889],[50.7492,65.787],[50.6806,65.7827],[50.6081,65.7769],[50.5845,65.7748],[50.5692,65.7732],[50.5485,65.771],[50.481,65.7632],[50.3643,65.7453],[50.2545,65.7227],[50.1481,65.6949],[50.0416,65.6615],[49.9314,65.6217],[49.8139,65.5753],[49.688,65.5204],[49.6793,65.5163],[49.558,65.4562],[49.5481,65.451],[49.4286,65.3843],[43.0733,61.7041],[42.857,61.5762],[42.6492,61.435],[42.4507,61.281],[42.2622,61.1149],[42.0845,60.9373],[41.9183,60.7489],[41.7643,60.5504],[41.6231,60.3426],[41.4951,60.1263],[41.381,59.9025],[41.2812,59.6719],[41.196,59.4356],[41.1259,59.1943],[41.071,58.9491],[41.0317,58.701],[41.008,58.4509],[41,58.1998]]
EXCLUDE_OBJECT_DEFINE NAME=duct_spacer_for_5015-MGN12.stl_id_2_copy_0 CENTER=60,38.3974 POLYGON=[[41,36.5972],[41.0078,36.346],[41.0314,36.0959],[41.0706,35.8477],[41.1254,35.6025],[41.1954,35.3612],[41.2804,35.1248],[41.3801,34.8942],[41.4941,34.6703],[41.6219,34.454],[41.7631,34.2462],[41.917,34.0476],[42.083,33.8591],[42.2606,33.6813],[42.449,33.5151],[42.6475,33.361],[42.8552,33.2197],[43.0714,33.0917],[43.2952,32.9776],[43.5258,32.8777],[43.7621,32.7925],[44.0033,32.7223],[44.2485,32.6673],[44.4966,32.6279],[44.7468,32.6041],[44.9979,32.5961],[75.0021,32.5961],[75.2532,32.6041],[75.5034,32.6279],[75.7515,32.6673],[75.9967,32.7223],[76.2379,32.7925],[76.4742,32.8777],[76.7048,32.9776],[76.9286,33.0917],[77.1448,33.2197],[77.3525,33.361],[77.551,33.5151],[77.7394,33.6813],[77.917,33.8591],[78.083,34.0476],[78.2369,34.2462],[78.3781,34.454],[78.5059,34.6703],[78.6199,34.8942],[78.7196,35.1248],[78.8046,35.3612],[78.8746,35.6025],[78.9294,35.8477],[78.9686,36.0959],[78.9922,36.346],[79,36.5972],[78.992,36.8483],[78.9683,37.0984],[78.929,37.3465],[78.8741,37.5917],[78.804,37.833],[78.7188,38.0693],[78.619,38.2999],[78.5049,38.5237],[78.3769,38.74],[78.2357,38.9478],[78.0817,39.1463],[77.9155,39.3347],[77.7378,39.5123],[77.5493,39.6784],[77.3508,39.8324],[77.143,39.9736],[76.9267,40.1015],[70.6097,43.7738],[70.4889,43.8416],[70.3699,43.9013],[70.3584,43.9066],[70.2534,43.9537],[70.2236,43.9661],[70.1399,43.9992],[70.086,44.0191],[70.0259,44.0399],[69.946,44.0653],[69.9104,44.0759],[69.8039,44.1048],[69.7935,44.1074],[69.6754,44.1342],[69.6601,44.1374],[69.5564,44.1563],[69.5149,44.1629],[69.4366,44.1736],[69.3686,44.1813],[69.3162,44.1861],[69.2217,44.1924],[69.1955,44.1936],[69.0745,44.1961],[51.5244,44.1987],[51.4658,44.1986],[51.4045,44.1985],[51.3039,44.1981],[51.292,44.198],[51.1865,44.1971],[51.156,44.1967],[51.0876,44.1957],[51.021,44.1945],[50.9949,44.1939],[50.9079,44.1914],[50.8975,44.191],[50.8262,44.1883],[50.7845,44.1863],[50.7492,44.1844],[50.6806,44.1801],[50.6081,44.1743],[50.5845,44.1722],[50.5692,44.1706],[50.5485,44.1684],[50.481,44.1606],[50.3643,44.1427],[50.2545,44.1201],[50.1481,44.0923],[50.0416,44.0588],[49.9314,44.0191],[49.8139,43.9727],[49.688,43.9177],[49.6793,43.9137],[49.558,43.8536],[49.5481,43.8484],[49.4286,43.7817],[43.0733,40.1015],[42.857,39.9736],[42.6492,39.8324],[42.4507,39.6784],[42.2622,39.5123],[42.0845,39.3347],[41.9183,39.1463],[41.7643,38.9478],[41.6231,38.74],[41.4951,38.5237],[41.381,38.2999],[41.2812,38.0693],[41.196,37.833],[41.1259,37.5917],[41.071,37.3465],[41.0317,37.0984],[41.008,36.8483],[41,36.5972]]
M73 P0 R11
;TYPE:Custom
START_PRINT T_BED=110 T_EXTRUDER=260
G90
G21
M83 ; use relative distances for extrusion
; Filament gcode

    PRESSURE_ADVANCE_SELECT FILAMENT=ABS
M106 S0
;LAYER_CHANGE
;Z:0.2
;HEIGHT:0.2
;BEFORE_LAYER_CHANGE
;0.2
G92 E0

;AFTER_LAYER_CHANGE
;0.2
SET_VELOCITY_LIMIT ACCEL_TO_DECEL=500
M204 S1000
G1 E-.5 F3000
G1 Z.2 F21000
G1 X39.609 Y32.268
G1 E.5 F1800
;TYPE:Skirt
;WIDTH:0.5
G1 F3000
G1 X40.199 Y31.622 E.0308
G1 X40.86 Y31.059 E.03055
G1 X41.587 Y30.584 E.03055
G1 X42.367 Y30.204 E.03055
G1 X43.366 Y29.879 E.03697
G1 X44.221 Y29.727 E.03055
G1 X75.009 Y29.682 E1.08357
G1 X76.209 Y29.789 E.04238
G1 X77.463 Y30.136 E.04579
G1 X78.629 Y30.712 E.04579
G1 X79.667 Y31.496 E.04579
G1 X80.386 Y32.262 E.03698
G1 X81.103 Y33.348 E.04579
G1 X81.603 Y34.549 E.04578
G1 X81.87 Y35.822 E.04579
G1 X81.914 Y79.802 E1.54782
G1 X81.773 Y81.188 E.04902
G1 X81.293 Y82.663 E.05458
G1 X80.787 Y83.584 E.03698
G1 X80.267 Y84.279 E.03055
G1 X79.659 Y84.908 E.0308
G1 X78.989 Y85.448 E.0303
G1 X71.921 Y89.584 E.28818
G1 X71.133 Y89.944 E.03052
G1 X70.303 Y90.185 E.03039
G1 X69.075 Y90.315 E.04348
G1 X50.962 Y90.313 E.63745
G1 X49.666 Y90.179 E.04589
G1 X48.51 Y89.788 E.04292
G1 X41.59 Y85.815 E.28083
G1 X40.524 Y85.07 E.04579
G1 X39.733 Y84.279 E.03937
G1 X38.987 Y83.213 E.04579
G1 X38.454 Y82.026 E.04579
G1 X38.193 Y81.008 E.03698
G1 X38.086 Y79.802 E.04261
G1 X38.086 Y36.597 E1.52056
G1 X38.226 Y35.213 E.04897
G1 X38.703 Y33.742 E.0544
G1 X39.113 Y32.971 E.03073
G1 X39.575 Y32.317 E.02818
G1 X39.947 Y32.581 F21000
G1 F3000
G1 X39.971 Y32.548 E.00141
G1 X40.523 Y31.945 E.02878
G1 X41.141 Y31.42 E.02853
G1 X41.82 Y30.977 E.02853
G1 X42.549 Y30.623 E.02853
G1 X43.466 Y30.325 E.03395
G1 X44.264 Y30.182 E.02853
G1 X75.009 Y30.139 E1.08204
G1 X76.137 Y30.241 E.03985
G1 X77.308 Y30.566 E.04276
G1 X78.396 Y31.105 E.04276
G1 X79.365 Y31.839 E.04276
G1 X80.025 Y32.542 E.03395
G1 X80.696 Y33.556 E.04276
G1 X81.164 Y34.676 E.04276
G1 X81.415 Y35.865 E.04276
G1 X81.457 Y79.802 E1.54631
G1 X81.327 Y81.088 E.04549
G1 X80.874 Y82.481 E.05156
G1 X80.492 Y83.196 E.02853
G1 X80.023 Y83.858 E.02853
G1 X79.475 Y84.455 E.02853
G1 X78.732 Y85.07 E.03395
G1 X71.697 Y89.186 E.28684
G1 X70.968 Y89.517 E.02817
G1 X70.202 Y89.739 E.02806
G1 X69.075 Y89.858 E.03991
G1 X50.968 Y89.856 E.63726
M73 P1 R11
G1 X49.758 Y89.732 E.0428
G1 X48.694 Y89.37 E.03956
G1 X41.823 Y85.422 E.27889
G1 X40.826 Y84.727 E.04276
G1 X39.977 Y83.858 E.04276
G1 X39.38 Y82.98 E.03735
G1 X38.884 Y81.871 E.04276
G1 X38.644 Y80.937 E.03395
G1 X38.543 Y79.802 E.04008
G1 X38.543 Y36.597 E1.52056
G1 X38.673 Y35.312 E.04544
G1 X39.123 Y33.923 E.0514
G1 X39.507 Y33.204 E.02868
G1 X39.913 Y32.63 E.02476
; printing object duct spacer for 5015-MGN12.stl id:0 copy 0
EXCLUDE_OBJECT_START NAME=duct_spacer_for_5015-MGN12.stl_id_0_copy_0
G1 E-.5
G1 Z.4 F21000
G1 X72.226 Y77.828
G1 Z.2
G1 E.5 F1800
;TYPE:Inner wall
;WIDTH:0.511461
G1 F3000
G1 X72.174 Y77.649 E.00671
G1 X71.907 Y77.112 E.02163
G1 X72.889 Y77.118 E.03544
G1 X72.474 Y77.512 E.02067
G1 X72.263 Y77.78 E.01231
G1 E-.5
G1 Z.4 F21000
G1 X72.34 Y81.889
G1 Z.2
G1 E.5 F1800
;WIDTH:0.421986
G1 F3000
G1 X72.664 Y82.216 E.01343
G1 X73.051 Y82.538 E.01469
G1 X72.34 Y82.578 E.02078
G1 X72.34 Y81.949 E.01834
G1 X72.421 Y81.197 F21000
;WIDTH:0.499999
G1 F3000
G1 X72.183 Y80.66 E.02067
G1 X72.14 Y80.499 E.0059
;WIDTH:0.492788
G1 X72.139 Y80.372 E.00439
;WIDTH:0.454283
G1 X72.139 Y80.245 E.00402
;WIDTH:0.415777
G1 X72.139 Y80.118 E.00364
;WIDTH:0.377272
G1 X72.139 Y79.991 E.00327
;WIDTH:0.344995
G1 X72.146 Y79.491 E.01164
;WIDTH:0.391462
G1 X72.179 Y79.222 E.00726
;WIDTH:0.437929
G1 X72.212 Y78.954 E.00823
;WIDTH:0.468964
G1 X72.306 Y78.685 E.00933
;WIDTH:0.499999
G1 X72.401 Y78.417 E.01001
G1 X72.699 Y77.958 E.01925
G1 X73.054 Y77.587 E.01808
G1 X73.468 Y77.283 E.01808
G1 X73.929 Y77.055 E.01809
G1 X74.181 Y77.003 E.00906
;WIDTH:0.457897
G1 X74.433 Y76.951 E.00823
;WIDTH:0.415794
G1 X74.976 Y76.928 E.0156
;WIDTH:0.379835
G1 X75.343 Y76.943 E.00952
;WIDTH:0.373051
G1 X75.894 Y77.062 E.01433
G1 X76.388 Y77.274 E.01367
;WIDTH:0.370052
G1 X76.805 Y77.554 E.01266
;WIDTH:0.368297
G1 X77.167 Y77.903 E.01259
;WIDTH:0.36684
G1 X77.464 Y78.308 E.01254
;WIDTH:0.365669
G1 X77.755 Y78.968 E.01792
G1 X77.863 Y79.489 E.01323
;WIDTH:0.364692
G1 X77.87 Y80.057 E.01408
;WIDTH:0.362952
G1 X77.779 Y80.562 E.01263
;WIDTH:0.371859
G1 X77.54 Y81.161 E.01634
G1 X77.247 Y81.607 E.0135
;WIDTH:0.369171
G1 X76.9 Y81.969 E.01262
;WIDTH:0.370371
G1 X76.495 Y82.267 E.01266
G1 X76.042 Y82.486 E.01269
;WIDTH:0.373398
G1 X75.346 Y82.662 E.01827
;WIDTH:0.388937
G1 X74.59 Y82.662 E.02013
;WIDTH:0.424606
G1 X74.412 Y82.639 E.00528
;WIDTH:0.460275
G1 X74.234 Y82.615 E.00578
;WIDTH:0.495944
G1 X74.056 Y82.592 E.00627
;WIDTH:0.499999
G1 X73.585 Y82.387 E.01807
G1 X73.157 Y82.102 E.01808
G1 X72.786 Y81.747 E.01808
G1 X72.481 Y81.333 E.0181
G1 X72.445 Y81.252 E.0031
G1 E-.5
G1 Z.4 F21000
G1 X72.009 Y83.135
G1 Z.2
G1 E.5 F1800
G1 F3000
G1 X71.913 Y83.177 E.0037
G1 X71.92 Y80.518 E.0936
;WIDTH:0.492788
G1 X71.901 Y80.386 E.00461
;WIDTH:0.454283
G1 X71.881 Y80.254 E.00421
;WIDTH:0.415777
G1 X71.862 Y80.123 E.00382
;WIDTH:0.377272
G1 X71.843 Y79.991 E.00343
;WIDTH:0.344995
G1 X71.847 Y79.465 E.01225
;WIDTH:0.391462
G1 X71.87 Y79.177 E.00773
;WIDTH:0.437929
G1 X71.893 Y78.89 E.00877
;WIDTH:0.468964
G1 X71.894 Y78.65 E.00789
;WIDTH:0.499999
G1 X71.896 Y78.409 E.00847
G1 X71.841 Y78.163 E.00888
G1 X71.656 Y77.604 E.0207
G1 X71.402 Y77.164 E.01788
G1 X70.914 Y76.649 E.02499
G1 X74.008 Y76.651 E.1089
G1 X74.2 Y76.632 E.00678
;WIDTH:0.462782
G1 X74.392 Y76.614 E.00623
;WIDTH:0.425565
G1 X74.584 Y76.596 E.00568
;WIDTH:0.388347
G1 X75.393 Y76.625 E.02154
;WIDTH:0.372591
G1 X76 Y76.751 E.01572
G1 X76.562 Y76.996 E.01556
;WIDTH:0.370294
G1 X77.036 Y77.319 E.01446
;WIDTH:0.369579
G1 X77.397 Y77.674 E.01273
;WIDTH:0.366839
G1 X77.737 Y78.136 E.0143
;WIDTH:0.379356
G1 X77.983 Y78.624 E.01416
G1 X78.155 Y79.216 E.01599
;WIDTH:0.373635
G1 X78.209 Y79.817 E.01537
G1 X78.149 Y80.418 E.01538
;WIDTH:0.379352
G1 X77.973 Y81.005 E.01588
G1 X77.736 Y81.476 E.01365
;WIDTH:0.369529
G1 X77.41 Y81.921 E.01387
;WIDTH:0.370432
G1 X76.996 Y82.316 E.01443
G1 X76.535 Y82.618 E.0139
;WIDTH:0.368771
G1 X75.987 Y82.847 E.0149
;WIDTH:0.373398
G1 X75.413 Y82.986 E.01503
;WIDTH:0.379965
G1 X74.971 Y83.011 E.01149
;WIDTH:0.404154
G1 X74.388 Y83.001 E.01621
;WIDTH:0.452077
G1 X74.114 Y82.977 E.00868
;WIDTH:0.499999
G1 X73.839 Y82.954 E.00969
G1 X72.666 Y82.957 E.04131
G1 X72.311 Y83.003 E.01257
G1 X72.064 Y83.111 E.00948
G1 E-.5
G1 Z.4 F21000
G1 X72.74 Y80.699
G1 Z.2
G1 E.5 F1800
;TYPE:Outer wall
;WIDTH:0.585841
G1 F3000
G1 X72.645 Y80.469 E.01042
G1 X72.558 Y79.991 E.02031
G1 X72.562 Y79.564 E.01785
G1 X72.679 Y79.05 E.02203
G1 X72.878 Y78.577 E.02147
G1 X73.155 Y78.193 E.01978
G1 X73.444 Y77.91 E.01692
G1 X73.796 Y77.669 E.01785
G1 X74.185 Y77.492 E.01785
G1 X74.61 Y77.385 E.01835
G1 X75.178 Y77.36 E.02377
G1 X75.799 Y77.488 E.0265
G1 X76.245 Y77.692 E.0205
G1 X76.592 Y77.94 E.01785
G1 X76.891 Y78.245 E.01785
G1 X77.138 Y78.609 E.01835
G1 X77.355 Y79.134 E.02376
G1 X77.442 Y79.611 E.0203
G1 X77.441 Y80.017 E.01694
