; HEADER_BLOCK_START
; generated by OrcaSlicer 1.6.3 on 2023-06-08 at 14:37:08
; total layer number: 25
; HEADER_BLOCK_END

; THUMBNAIL_BLOCK_START
; THUMBNAIL_BLOCK_END

; external perimeters extrusion width = 0.40mm
; perimeters extrusion width = 0.45mm
; infill extrusion width = 0.45mm
; solid infill extrusion width = 0.40mm
; top infill extrusion width = 0.40mm
; support material extrusion width = 0.40mm
; first layer extrusion width = 0.50mm

; external perimeters extrusion width = 0.40mm
; perimeters extrusion width = 0.45mm
; infill extrusion width = 0.45mm
; solid infill extrusion width = 0.40mm
; top infill extrusion width = 0.40mm
; support material extrusion width = 0.40mm
; first layer extrusion width = 0.50mm

; external perimeters extrusion width = 0.40mm
; perimeters extrusion width = 0.45mm
; infill extrusion width = 0.45mm
; solid infill extrusion width = 0.40mm
; top infill extrusion width = 0.40mm
; support material extrusion width = 0.40mm
; first layer extrusion width = 0.50mm

; external perimeters extrusion width = 0.40mm
; perimeters extrusion width = 0.45mm
; infill extrusion width = 0.45mm
; solid infill extrusion width = 0.40mm
; top infill extrusion width = 0.40mm
; support material extrusion width = 0.40mm
; first layer extrusion width = 0.50mm

; external perimeters extrusion width = 0.40mm
; perimeters extrusion width = 0.45mm
; infill extrusion width = 0.45mm
; solid infill extrusion width = 0.40mm
; top infill extrusion width = 0.40mm
; support material extrusion width = 0.40mm
; first layer extrusion width = 0.50mm

; EXECUTABLE_BLOCK_START
EXCLUDE_OBJECT_DEFINE NAME=duct_spacer_for_5015-MGN12.stl_id_0_copy_0 CENTER=82.1985,92.4039 POLYGON=[[63.1985,90.6037],[63.2063,90.3525],[63.2299,90.1024],[63.2691,89.8542],[63.3239,89.609],[63.3939,89.3677],[63.4789,89.1313],[63.5786,88.9007],[63.6926,88.6768],[63.8204,88.4605],[63.9616,88.2527],[64.1155,88.0541],[64.2815,87.8656],[64.4591,87.6878],[64.6475,87.5216],[64.846,87.3675],[65.0537,87.2262],[65.2699,87.0982],[65.4937,86.9841],[65.7243,86.8842],[65.9606,86.799],[66.2018,86.7288],[66.447,86.6738],[66.6951,86.6344],[66.9453,86.6106],[67.1964,86.6026],[97.2006,86.6026],[97.4517,86.6106],[97.7019,86.6344],[97.95,86.6738],[98.1952,86.7288],[98.4364,86.799],[98.6727,86.8842],[98.9033,86.9841],[99.1271,87.0982],[99.3433,87.2262],[99.551,87.3675],[99.7495,87.5216],[99.9379,87.6878],[100.115,87.8656],[100.282,88.0541],[100.435,88.2527],[100.577,88.4605],[100.704,88.6768],[100.818,88.9007],[100.918,89.1313],[101.003,89.3677],[101.073,89.609],[101.128,89.8542],[101.167,90.1024],[101.191,90.3525],[101.198,90.6037],[101.191,90.8548],[101.167,91.1049],[101.127,91.353],[101.073,91.5982],[101.002,91.8395],[100.917,92.0759],[100.817,92.3064],[100.703,92.5302],[100.575,92.7465],[100.434,92.9543],[100.28,93.1528],[100.114,93.3412],[99.9363,93.5188],[99.7478,93.685],[99.5493,93.8389],[99.3415,93.9801],[99.1252,94.108],[92.8082,97.7803],[92.6874,97.8481],[92.5684,97.9078],[92.5569,97.9131],[92.4519,97.9602],[92.4221,97.9726],[92.3384,98.0058],[92.2845,98.0256],[92.2244,98.0464],[92.1445,98.0718],[92.1089,98.0824],[92.0024,98.1113],[91.992,98.1139],[91.8739,98.1407],[91.8586,98.1439],[91.7549,98.1628],[91.7134,98.1694],[91.6351,98.1801],[91.5671,98.1878],[91.5147,98.1926],[91.4202,98.1989],[91.394,98.2001],[91.273,98.2026],[73.7229,98.2052],[73.6643,98.2052],[73.603,98.205],[73.5023,98.2046],[73.4905,98.2045],[73.385,98.2036],[73.3545,98.2032],[73.2861,98.2022],[73.2195,98.201],[73.1934,98.2004],[73.1064,98.1979],[73.096,98.1975],[73.0247,98.1948],[72.983,98.1928],[72.9477,98.1909],[72.8791,98.1866],[72.8066,98.1808],[72.783,98.1787],[72.7677,98.1771],[72.747,98.1749],[72.6795,98.1671],[72.5628,98.1492],[72.453,98.1266],[72.3466,98.0988],[72.2401,98.0654],[72.1299,98.0256],[72.0124,97.9792],[71.8865,97.9243],[71.8778,97.9202],[71.7565,97.8601],[71.7466,97.8549],[71.6271,97.7882],[65.2718,94.108],[65.0555,93.9801],[64.8477,93.8389],[64.6492,93.685],[64.4607,93.5188],[64.283,93.3412],[64.1168,93.1528],[63.9628,92.9543],[63.8216,92.7465],[63.6936,92.5302],[63.5795,92.3064],[63.4797,92.0759],[63.3945,91.8395],[63.3244,91.5982],[63.2695,91.353],[63.2302,91.1049],[63.2065,90.8548],[63.1985,90.6037]]
EXCLUDE_OBJECT_DEFINE NAME=duct_spacer_for_5015-MGN12.stl_id_1_copy_0 CENTER=82.1985,70.8013 POLYGON=[[63.1985,69.0011],[63.2063,68.7499],[63.2299,68.4998],[63.2691,68.2516],[63.3239,68.0064],[63.3939,67.7651],[63.4789,67.5287],[63.5786,67.2981],[63.6926,67.0742],[63.8204,66.8579],[63.9616,66.6501],[64.1155,66.4515],[64.2815,66.263],[64.4591,66.0852],[64.6475,65.919],[64.846,65.7649],[65.0537,65.6236],[65.2699,65.4956],[65.4937,65.3815],[65.7243,65.2816],[65.9606,65.1964],[66.2018,65.1262],[66.447,65.0712],[66.6951,65.0318],[66.9453,65.008],[67.1964,65],[97.2006,65],[97.4517,65.008],[97.7019,65.0318],[97.95,65.0712],[98.1952,65.1262],[98.4364,65.1964],[98.6727,65.2816],[98.9033,65.3815],[99.1271,65.4956],[99.3433,65.6236],[99.551,65.7649],[99.7495,65.919],[99.9379,66.0852],[100.115,66.263],[100.282,66.4515],[100.435,66.6501],[100.577,66.8579],[100.704,67.0742],[100.818,67.2981],[100.918,67.5287],[101.003,67.7651],[101.073,68.0064],[101.128,68.2516],[101.167,68.4998],[101.191,68.7499],[101.198,69.0011],[101.191,69.2522],[101.167,69.5023],[101.127,69.7504],[101.073,69.9956],[101.002,70.2369],[100.917,70.4732],[100.817,70.7038],[100.703,70.9276],[100.575,71.1439],[100.434,71.3517],[100.28,71.5502],[100.114,71.7386],[99.9363,71.9162],[99.7478,72.0823],[99.5493,72.2363],[99.3415,72.3775],[99.1252,72.5054],[92.8082,76.1777],[92.6874,76.2455],[92.5684,76.3052],[92.5569,76.3105],[92.4519,76.3576],[92.4221,76.37],[92.3384,76.4032],[92.2845,76.423],[92.2244,76.4438],[92.1445,76.4692],[92.1089,76.4798],[92.0024,76.5087],[91.992,76.5113],[91.8739,76.5381],[91.8586,76.5413],[91.7549,76.5602],[91.7134,76.5668],[91.6351,76.5775],[91.5671,76.5852],[91.5147,76.59],[91.4202,76.5963],[91.394,76.5975],[91.273,76.6],[73.7229,76.6026],[73.6643,76.6026],[73.603,76.6024],[73.5023,76.602],[73.4905,76.6019],[73.385,76.601],[73.3545,76.6006],[73.2861,76.5996],[73.2195,76.5984],[73.1934,76.5978],[73.1064,76.5953],[73.096,76.5949],[73.0247,76.5922],[72.983,76.5902],[72.9477,76.5883],[72.8791,76.584],[72.8066,76.5782],[72.783,76.5761],[72.7677,76.5745],[72.747,76.5723],[72.6795,76.5645],[72.5628,76.5466],[72.453,76.524],[72.3466,76.4962],[72.2401,76.4628],[72.1299,76.423],[72.0124,76.3766],[71.8865,76.3217],[71.8778,76.3176],[71.7565,76.2575],[71.7466,76.2523],[71.6271,76.1856],[65.2718,72.5054],[65.0555,72.3775],[64.8477,72.2363],[64.6492,72.0823],[64.4607,71.9162],[64.283,71.7386],[64.1168,71.5502],[63.9628,71.3517],[63.8216,71.1439],[63.6936,70.9276],[63.5795,70.7038],[63.4797,70.4732],[63.3945,70.2369],[63.3244,69.9956],[63.2695,69.7504],[63.2302,69.5023],[63.2065,69.2522],[63.1985,69.0011]]
EXCLUDE_OBJECT_DEFINE NAME=duct_spacer_for_5015-MGN12.stl_id_2_copy_0 CENTER=82.1985,49.1987 POLYGON=[[63.1985,47.3985],[63.2063,47.1473],[63.2299,46.8972],[63.2691,46.649],[63.3239,46.4038],[63.3939,46.1625],[63.4789,45.9261],[63.5786,45.6955],[63.6926,45.4716],[63.8204,45.2553],[63.9616,45.0475],[64.1155,44.8489],[64.2815,44.6604],[64.4591,44.4826],[64.6475,44.3164],[64.846,44.1623],[65.0537,44.021],[65.2699,43.893],[65.4937,43.7789],[65.7243,43.679],[65.9606,43.5938],[66.2018,43.5236],[66.447,43.4686],[66.6951,43.4292],[66.9453,43.4054],[67.1964,43.3974],[97.2006,43.3974],[97.4517,43.4054],[97.7019,43.4292],[97.95,43.4686],[98.1952,43.5236],[98.4364,43.5938],[98.6727,43.679],[98.9033,43.7789],[99.1271,43.893],[99.3433,44.021],[99.551,44.1623],[99.7495,44.3164],[99.9379,44.4826],[100.115,44.6604],[100.282,44.8489],[100.435,45.0475],[100.577,45.2553],[100.704,45.4716],[100.818,45.6955],[100.918,45.9261],[101.003,46.1625],[101.073,46.4038],[101.128,46.649],[101.167,46.8972],[101.191,47.1473],[101.198,47.3985],[101.191,47.6496],[101.167,47.8997],[101.127,48.1478],[101.073,48.393],[101.002,48.6343],[100.917,48.8706],[100.817,49.1012],[100.703,49.325],[100.575,49.5413],[100.434,49.7491],[100.28,49.9476],[100.114,50.136],[99.9363,50.3136],[99.7478,50.4797],[99.5493,50.6337],[99.3415,50.7749],[99.1252,50.9028],[92.8082,54.5751],[92.6874,54.6429],[92.5684,54.7026],[92.5569,54.7079],[92.4519,54.755],[92.4221,54.7674],[92.3384,54.8005],[92.2845,54.8204],[92.2244,54.8412],[92.1445,54.8666],[92.1089,54.8772],[92.0024,54.9061],[91.992,54.9087],[91.8739,54.9355],[91.8586,54.9387],[91.7549,54.9576],[91.7134,54.9642],[91.6351,54.9749],[91.5671,54.9826],[91.5147,54.9874],[91.4202,54.9937],[91.394,54.9949],[91.273,54.9974],[73.7229,55],[73.6643,54.9999],[73.603,54.9998],[73.5023,54.9994],[73.4905,54.9993],[73.385,54.9984],[73.3545,54.998],[73.2861,54.997],[73.2195,54.9958],[73.1934,54.9952],[73.1064,54.9927],[73.096,54.9923],[73.0247,54.9896],[72.983,54.9876],[72.9477,54.9857],[72.8791,54.9814],[72.8066,54.9756],[72.783,54.9735],[72.7677,54.9719],[72.747,54.9697],[72.6795,54.9619],[72.5628,54.944],[72.453,54.9214],[72.3466,54.8936],[72.2401,54.8602],[72.1299,54.8204],[72.0124,54.774],[71.8865,54.7191],[71.8778,54.715],[71.7565,54.6549],[71.7466,54.6497],[71.6271,54.583],[65.2718,50.9028],[65.0555,50.7749],[64.8477,50.6337],[64.6492,50.4797],[64.4607,50.3136],[64.283,50.136],[64.1168,49.9476],[63.9628,49.7491],[63.8216,49.5413],[63.6936,49.325],[63.5795,49.1012],[63.4797,48.8706],[63.3945,48.6343],[63.3244,48.393],[63.2695,48.1478],[63.2302,47.8997],[63.2065,47.6496],[63.1985,47.3985]]
EXCLUDE_OBJECT_DEFINE NAME=duct_spacer_for_5015-MGN12.stl_id_3_copy_0 CENTER=82.1985,27.5961 POLYGON=[[63.1985,25.7959],[63.2063,25.5447],[63.2299,25.2946],[63.2691,25.0464],[63.3239,24.8012],[63.3939,24.5599],[63.4789,24.3235],[63.5786,24.0929],[63.6926,23.869],[63.8204,23.6527],[63.9616,23.4449],[64.1155,23.2463],[64.2815,23.0578],[64.4591,22.88],[64.6475,22.7138],[64.846,22.5597],[65.0537,22.4184],[65.2699,22.2904],[65.4937,22.1763],[65.7243,22.0764],[65.9606,21.9912],[66.2018,21.921],[66.447,21.866],[66.6951,21.8266],[66.9453,21.8028],[67.1964,21.7948],[97.2006,21.7948],[97.4517,21.8028],[97.7019,21.8266],[97.95,21.866],[98.1952,21.921],[98.4364,21.9912],[98.6727,22.0764],[98.9033,22.1763],[99.1271,22.2904],[99.3433,22.4184],[99.551,22.5597],[99.7495,22.7138],[99.9379,22.88],[100.115,23.0578],[100.282,23.2463],[100.435,23.4449],[100.577,23.6527],[100.704,23.869],[100.818,24.0929],[100.918,24.3235],[101.003,24.5599],[101.073,24.8012],[101.128,25.0464],[101.167,25.2946],[101.191,25.5447],[101.198,25.7959],[101.191,26.047],[101.167,26.2971],[101.127,26.5452],[101.073,26.7904],[101.002,27.0317],[100.917,27.268],[100.817,27.4986],[100.703,27.7224],[100.575,27.9387],[100.434,28.1465],[100.28,28.3449],[100.114,28.5334],[99.9363,28.711],[99.7478,28.8771],[99.5493,29.0311],[99.3415,29.1723],[99.1252,29.3002],[92.8082,32.9725],[92.6874,33.0403],[92.5684,33.1],[92.5569,33.1053],[92.4519,33.1524],[92.4221,33.1648],[92.3384,33.1979],[92.2845,33.2178],[92.2244,33.2386],[92.1445,33.264],[92.1089,33.2746],[92.0024,33.3035],[91.992,33.3061],[91.8739,33.3329],[91.8586,33.3361],[91.7549,33.355],[91.7134,33.3616],[91.6351,33.3723],[91.5671,33.38],[91.5147,33.3848],[91.4202,33.3911],[91.394,33.3923],[91.273,33.3948],[73.7229,33.3974],[73.6643,33.3973],[73.603,33.3972],[73.5023,33.3968],[73.4905,33.3967],[73.385,33.3958],[73.3545,33.3954],[73.2861,33.3944],[73.2195,33.3932],[73.1934,33.3926],[73.1064,33.3901],[73.096,33.3897],[73.0247,33.387],[72.983,33.385],[72.9477,33.3831],[72.8791,33.3788],[72.8066,33.373],[72.783,33.3709],[72.7677,33.3693],[72.747,33.3671],[72.6795,33.3593],[72.5628,33.3414],[72.453,33.3188],[72.3466,33.291],[72.2401,33.2575],[72.1299,33.2178],[72.0124,33.1714],[71.8865,33.1164],[71.8778,33.1124],[71.7565,33.0523],[71.7466,33.0471],[71.6271,32.9804],[65.2718,29.3002],[65.0555,29.1723],[64.8477,29.0311],[64.6492,28.8771],[64.4607,28.711],[64.283,28.5334],[64.1168,28.3449],[63.9628,28.1465],[63.8216,27.9387],[63.6936,27.7224],[63.5795,27.4986],[63.4797,27.268],[63.3945,27.0317],[63.3244,26.7904],[63.2695,26.5452],[63.2302,26.2971],[63.2065,26.047],[63.1985,25.7959]]
EXCLUDE_OBJECT_DEFINE NAME=duct_spacer_for_5015-MGN12.stl_id_4_copy_0 CENTER=37.8015,60 POLYGON=[[18.8015,58.1998],[18.8093,57.9486],[18.8329,57.6985],[18.8721,57.4503],[18.9269,57.2051],[18.9969,56.9638],[19.0819,56.7274],[19.1816,56.4968],[19.2956,56.2729],[19.4234,56.0566],[19.5646,55.8488],[19.7185,55.6502],[19.8845,55.4617],[20.0621,55.2839],[20.2505,55.1177],[20.449,54.9636],[20.6567,54.8223],[20.8729,54.6943],[21.0967,54.5802],[21.3273,54.4803],[21.5636,54.3951],[21.8048,54.3249],[22.05,54.2699],[22.2981,54.2305],[22.5483,54.2067],[22.7994,54.1987],[52.8036,54.1987],[53.0547,54.2067],[53.3049,54.2305],[53.553,54.2699],[53.7982,54.3249],[54.0394,54.3951],[54.2757,54.4803],[54.5063,54.5802],[54.7301,54.6943],[54.9463,54.8223],[55.154,54.9636],[55.3525,55.1177],[55.5409,55.2839],[55.7185,55.4617],[55.8845,55.6502],[56.0384,55.8488],[56.1796,56.0566],[56.3074,56.2729],[56.4214,56.4968],[56.5211,56.7274],[56.6061,56.9638],[56.6761,57.2051],[56.7309,57.4503],[56.7701,57.6985],[56.7937,57.9486],[56.8015,58.1998],[56.7935,58.4509],[56.7698,58.701],[56.7305,58.9491],[56.6756,59.1943],[56.6055,59.4356],[56.5203,59.6719],[56.4205,59.9025],[56.3064,60.1263],[56.1784,60.3426],[56.0372,60.5504],[55.8832,60.7489],[55.717,60.9373],[55.5393,61.1149],[55.3508,61.281],[55.1523,61.435],[54.9445,61.5762],[54.7282,61.7041],[48.4112,65.3764],[48.2904,65.4442],[48.1714,65.5039],[48.1599,65.5092],[48.0549,65.5563],[48.0251,65.5687],[47.9414,65.6018],[47.8875,65.6217],[47.8274,65.6425],[47.7475,65.6679],[47.7119,65.6785],[47.6054,65.7074],[47.595,65.71],[47.4769,65.7368],[47.4616,65.74],[47.3579,65.7589],[47.3164,65.7655],[47.2381,65.7762],[47.1701,65.7839],[47.1177,65.7887],[47.0232,65.795],[46.997,65.7962],[46.876,65.7987],[29.3259,65.8013],[29.2673,65.8012],[29.206,65.8011],[29.1054,65.8007],[29.0935,65.8006],[28.988,65.7997],[28.9575,65.7993],[28.8891,65.7983],[28.8225,65.7971],[28.7964,65.7965],[28.7094,65.794],[28.699,65.7936],[28.6277,65.7909],[28.586,65.7889],[28.5508,65.787],[28.4821,65.7827],[28.4096,65.7769],[28.386,65.7748],[28.3707,65.7732],[28.35,65.771],[28.2825,65.7632],[28.1658,65.7453],[28.056,65.7227],[27.9496,65.6949],[27.8431,65.6615],[27.7329,65.6217],[27.6154,65.5753],[27.4895,65.5203],[27.4808,65.5163],[27.3595,65.4562],[27.3496,65.451],[27.2301,65.3843],[20.8748,61.7041],[20.6585,61.5762],[20.4507,61.435],[20.2522,61.281],[20.0637,61.1149],[19.886,60.9373],[19.7198,60.7489],[19.5658,60.5504],[19.4246,60.3426],[19.2966,60.1263],[19.1825,59.9025],[19.0827,59.6719],[18.9975,59.4356],[18.9274,59.1943],[18.8725,58.9491],[18.8332,58.701],[18.8095,58.4509],[18.8015,58.1998]]
M73 P0 R15
;TYPE:Custom
START_PRINT T_BED=110 T_EXTRUDER=260
G90
G21
M83 ; use relative distances for extrusion
; Filament gcode

    PRESSURE_ADVANCE_SELECT FILAMENT=ABS
M106 S0
;LAYER_CHANGE
;Z:0.2
;HEIGHT:0.2
;BEFORE_LAYER_CHANGE
;0.2
G92 E0

;AFTER_LAYER_CHANGE
;0.2
SET_VELOCITY_LIMIT ACCEL_TO_DECEL=500
M204 S1000
G1 E-.5 F3000
G1 Z.2 F21000
G1 X31.614 Y43.244
G1 E.5 F1800
;TYPE:Skirt
;WIDTH:0.5
G1 F3000
G1 X63.128 Y20.206 E1.37387
G1 X63.946 Y19.694 E.03394
G1 X64.736 Y19.335 E.03055
G1 X65.565 Y19.077 E.03055
G1 X67.103 Y18.882 E.05458
G1 X97.211 Y18.881 E1.05961
G1 X98.407 Y18.988 E.04227
G1 X99.661 Y19.335 E.04579
G1 X100.828 Y19.911 E.04579
G1 X101.866 Y20.695 E.04579
G1 X102.585 Y21.461 E.03698
G1 X103.301 Y22.547 E.04579
G1 X103.802 Y23.748 E.04578
G1 X104.068 Y25.021 E.04579
G1 X104.103 Y90.947 E2.32019
G1 X103.916 Y92.235 E.04579
G1 X103.492 Y93.464 E.04579
G1 X102.844 Y94.593 E.04579
G1 X101.997 Y95.58 E.04579
G1 X100.825 Y96.489 E.0522
G1 X93.994 Y100.453 E.27796
G1 X92.646 Y100.954 E.05061
G1 X91.273 Y101.117 E.04864
G1 X73.082 Y101.112 E.64023
G1 X71.715 Y100.946 E.04846
G1 X70.444 Y100.461 E.04789
G1 X63.13 Y96.193 E.29803
G1 X18.733 Y63.789 E1.93442
G1 X17.534 Y62.676 E.05755
G1 X16.7 Y61.45 E.0522
G1 X16.256 Y60.423 E.03937
G1 X15.994 Y59.406 E.03698
