; HEADER_BLOCK_START
; generated by OrcaSlicer 1.7.0-beta on 2023-09-30 at 18:23:36
; total layer number: 8
; HEADER_BLOCK_END

; THUMBNAIL_BLOCK_START
; THUMBNAIL_BLOCK_END

; external perimeters extrusion width = 0.15mm
; perimeters extrusion width = 0.17mm
; infill extrusion width = 0.24mm
; solid infill extrusion width = 0.21mm
; top infill extrusion width = 0.15mm
; first layer extrusion width = 0.19mm

; external perimeters extrusion width = 0.15mm
; perimeters extrusion width = 0.17mm
; infill extrusion width = 0.24mm
; solid infill extrusion width = 0.21mm
; top infill extrusion width = 0.15mm
; first layer extrusion width = 0.19mm

; external perimeters extrusion width = 0.15mm
; perimeters extrusion width = 0.17mm
; infill extrusion width = 0.24mm
; solid infill extrusion width = 0.21mm
; top infill extrusion width = 0.15mm
; first layer extrusion width = 0.19mm

; external perimeters extrusion width = 0.15mm
; perimeters extrusion width = 0.17mm
; infill extrusion width = 0.24mm
; solid infill extrusion width = 0.21mm
; top infill extrusion width = 0.15mm
; first layer extrusion width = 0.19mm

; external perimeters extrusion width = 0.15mm
; perimeters extrusion width = 0.17mm
; infill extrusion width = 0.24mm
; solid infill extrusion width = 0.21mm
; top infill extrusion width = 0.15mm
; first layer extrusion width = 0.19mm

; external perimeters extrusion width = 0.15mm
; perimeters extrusion width = 0.17mm
; infill extrusion width = 0.24mm
; solid infill extrusion width = 0.21mm
; top infill extrusion width = 0.15mm
; first layer extrusion width = 0.19mm

; external perimeters extrusion width = 0.15mm
; perimeters extrusion width = 0.17mm
; infill extrusion width = 0.24mm
; solid infill extrusion width = 0.21mm
; top infill extrusion width = 0.15mm
; first layer extrusion width = 0.19mm

; external perimeters extrusion width = 0.15mm
; perimeters extrusion width = 0.17mm
; infill extrusion width = 0.24mm
; solid infill extrusion width = 0.21mm
; top infill extrusion width = 0.15mm
; first layer extrusion width = 0.19mm

; external perimeters extrusion width = 0.15mm
; perimeters extrusion width = 0.17mm
; infill extrusion width = 0.24mm
; solid infill extrusion width = 0.21mm
; top infill extrusion width = 0.15mm
; first layer extrusion width = 0.19mm

; EXECUTABLE_BLOCK_START
EXCLUDE_OBJECT_DEFINE NAME=ears.stl_id_0_copy_0 CENTER=84.4006,82.8282 POLYGON=[[76.164,83.5696],[76.1857,82.6897],[76.225,82.4743],[76.2826,82.2626],[76.3503,82.054],[76.4361,81.8525],[76.5497,81.6634],[76.6896,81.4922],[76.8522,81.3442],[77.0348,81.2239],[87.0854,76.1004],[87.2559,76.0182],[87.6133,75.8837],[87.982,75.781],[88.1683,75.7536],[88.3549,75.7512],[88.5412,75.7773],[88.7264,75.8219],[89.0879,75.9373],[89.4293,76.0984],[89.7616,76.2808],[90.0917,76.4661],[90.3996,76.686],[90.7025,76.9125],[90.9905,77.1558],[91.2538,77.4287],[91.5043,77.7108],[91.707,78.0296],[92.2284,79.0412],[92.3876,79.3852],[92.5185,79.7413],[92.6063,80.1101],[92.6296,80.2976],[92.6371,80.486],[92.6276,80.6743],[92.602,80.8616],[92.5077,81.2299],[92.3626,81.5824],[92.2704,81.7482],[92.1643,81.9042],[91.9143,82.1863],[91.6404,82.4481],[91.4345,82.6025],[80.6615,89.7221],[79.8315,89.9053],[79.4023,89.802],[79.1899,89.745],[78.9849,89.67],[78.7905,89.5699],[78.6052,89.4509],[78.4282,89.3198],[78.2669,89.172],[77.7139,88.4892],[77.2414,87.7487],[77.0199,87.37],[76.8194,86.9794],[76.6404,86.5777],[76.4819,86.1667],[76.3459,85.7482],[76.2449,85.3217],[76.1889,84.8871],[76.1656,84.4479],[76.164,83.5696]]
EXCLUDE_OBJECT_DEFINE NAME=ears.stl_id_1_copy_0 CENTER=84.4006,66.8578 POLYGON=[[76.164,67.5992],[76.1857,66.7193],[76.225,66.5039],[76.2826,66.2922],[76.3503,66.0836],[76.4361,65.8821],[76.5497,65.693],[76.6896,65.5218],[76.8522,65.3738],[77.0348,65.2535],[87.0854,60.13],[87.2559,60.0478],[87.6133,59.9133],[87.982,59.8106],[88.1683,59.7832],[88.3549,59.7808],[88.5412,59.8069],[88.7263,59.8515],[89.0879,59.9669],[89.4293,60.128],[89.7616,60.3104],[90.0917,60.4957],[90.3996,60.7156],[90.7025,60.9421],[90.9905,61.1854],[91.2538,61.4583],[91.5043,61.7404],[91.707,62.0592],[92.2284,63.0708],[92.3876,63.4148],[92.5185,63.7709],[92.6063,64.1397],[92.6296,64.3272],[92.6371,64.5156],[92.6276,64.7039],[92.602,64.8912],[92.5077,65.2595],[92.3626,65.612],[92.2704,65.7777],[92.1643,65.9338],[91.9143,66.2159],[91.6404,66.4777],[91.4345,66.6321],[80.6615,73.7517],[79.8315,73.9349],[79.4023,73.8316],[79.1899,73.7745],[78.9849,73.6996],[78.7905,73.5995],[78.6052,73.4805],[78.4281,73.3494],[78.2669,73.2016],[77.7139,72.5188],[77.2414,71.7783],[77.0199,71.3995],[76.8194,71.009],[76.6404,70.6073],[76.4819,70.1963],[76.3459,69.7778],[76.2449,69.3513],[76.1889,68.9166],[76.1656,68.4775],[76.164,67.5992]]
EXCLUDE_OBJECT_DEFINE NAME=ears.stl_id_2_copy_0 CENTER=73.5116,57.1653 POLYGON=[[65.2751,57.9067],[65.2967,57.0268],[65.336,56.8114],[65.3936,56.5997],[65.4613,56.3911],[65.5471,56.1896],[65.6607,56.0005],[65.8007,55.8293],[65.9633,55.6813],[66.1459,55.561],[76.1965,50.4375],[76.3669,50.3553],[76.7243,50.2208],[77.093,50.1181],[77.2793,50.0907],[77.4659,50.0883],[77.6522,50.1144],[77.8374,50.159],[78.199,50.2744],[78.5403,50.4355],[78.8727,50.6179],[79.2027,50.8032],[79.5107,51.0232],[79.8135,51.2496],[80.1016,51.4929],[80.3649,51.7658],[80.6154,52.0479],[80.8181,52.3667],[81.3395,53.3783],[81.4986,53.7223],[81.6296,54.0784],[81.7173,54.4472],[81.7407,54.6347],[81.7482,54.8231],[81.7386,55.0114],[81.713,55.1987],[81.6187,55.567],[81.4736,55.9195],[81.3814,56.0853],[81.2753,56.2414],[81.0253,56.5234],[80.7514,56.7852],[80.5455,56.9396],[69.7726,64.0592],[68.9426,64.2424],[68.5134,64.1391],[68.3009,64.0821],[68.0959,64.0071],[67.9015,63.907],[67.7162,63.788],[67.5392,63.6569],[67.3779,63.5091],[66.8249,62.8263],[66.3524,62.0858],[66.1309,61.7071],[65.9305,61.3165],[65.7514,60.9148],[65.593,60.5039],[65.4569,60.0853],[65.356,59.6588],[65.3,59.2242],[65.2767,58.785],[65.2751,57.9067]]
EXCLUDE_OBJECT_DEFINE NAME=ears.stl_id_3_copy_0 CENTER=65.4444,78.8035 POLYGON=[[57.2078,79.5448],[57.2295,78.665],[57.2688,78.4496],[57.3264,78.2379],[57.394,78.0293],[57.4799,77.8278],[57.5934,77.6387],[57.7334,77.4674],[57.896,77.3195],[58.0786,77.1991],[68.1292,72.0756],[68.2997,71.9935],[68.657,71.8589],[69.0258,71.7562],[69.212,71.7288],[69.3987,71.7265],[69.585,71.7526],[69.7701,71.7972],[70.1317,71.9126],[70.4731,72.0737],[70.8054,72.2561],[71.1355,72.4414],[71.4434,72.6613],[71.7463,72.8877],[72.0343,73.131],[72.2976,73.4039],[72.5481,73.686],[72.7508,74.0049],[73.2722,75.0165],[73.4313,75.3605],[73.5623,75.7165],[73.65,76.0854],[73.6734,76.2729],[73.6809,76.4612],[73.6714,76.6495],[73.6457,76.8368],[73.5515,77.2051],[73.4064,77.5576],[73.3142,77.7234],[73.2081,77.8795],[72.9581,78.1616],[72.6842,78.4234],[72.4783,78.5777],[61.7053,85.6974],[60.8753,85.8805],[60.4461,85.7773],[60.2337,85.7202],[60.0287,85.6452],[59.8343,85.5451],[59.649,85.4261],[59.4719,85.2951],[59.3107,85.1473],[58.7576,84.4645],[58.2852,83.724],[58.0636,83.3452],[57.8632,82.9547],[57.6841,82.553],[57.5257,82.142],[57.3897,81.7235],[57.2887,81.297],[57.2327,80.8623],[57.2094,80.4232],[57.2078,79.5448]]
EXCLUDE_OBJECT_DEFINE NAME=ears.stl_id_4_copy_0 CENTER=54.5554,69.111 POLYGON=[[46.3189,69.8523],[46.3405,68.9725],[46.3798,68.7571],[46.4374,68.5454],[46.5051,68.3368],[46.5909,68.1353],[46.7045,67.9462],[46.8444,67.7749],[47.0071,67.627],[47.1897,67.5066],[57.2403,62.3832],[57.4107,62.301],[57.7681,62.1664],[58.1368,62.0637],[58.3231,62.0364],[58.5097,62.034],[58.696,62.0601],[58.8812,62.1047],[59.2427,62.2201],[59.5841,62.3812],[59.9164,62.5636],[60.2465,62.7489],[60.5545,62.9688],[60.8573,63.1952],[61.1454,63.4385],[61.4086,63.7114],[61.6591,63.9935],[61.8619,64.3124],[62.3832,65.324],[62.5424,65.668],[62.6734,66.024],[62.7611,66.3929],[62.7844,66.5804],[62.7919,66.7688],[62.7824,66.957],[62.7568,67.1443],[62.6625,67.5126],[62.5174,67.8651],[62.4252,68.0309],[62.3191,68.187],[62.0691,68.4691],[61.7952,68.7309],[61.5893,68.8852],[50.8163,76.0049],[49.9863,76.188],[49.5571,76.0848],[49.3447,76.0277],[49.1397,75.9528],[48.9453,75.8526],[48.76,75.7336],[48.583,75.6026],[48.4217,75.4548],[47.8687,74.772],[47.3962,74.0315],[47.1747,73.6527],[46.9742,73.2622],[46.7952,72.8605],[46.6367,72.4495],[46.5007,72.031],[46.3998,71.6045],[46.3437,71.1698],[46.3204,70.7307],[46.3189,69.8523]]
EXCLUDE_OBJECT_DEFINE NAME=ears.stl_id_5_copy_0 CENTER=54.5554,53.1406 POLYGON=[[46.3189,53.8819],[46.3405,53.0021],[46.3798,52.7867],[46.4374,52.575],[46.5051,52.3664],[46.5909,52.1649],[46.7045,51.9758],[46.8444,51.8045],[47.0071,51.6566],[47.1897,51.5362],[57.2403,46.4127],[57.4107,46.3306],[57.7681,46.196],[58.1368,46.0933],[58.3231,46.0659],[58.5097,46.0636],[58.696,46.0897],[58.8812,46.1343],[59.2427,46.2497],[59.5841,46.4108],[59.9164,46.5932],[60.2465,46.7785],[60.5545,46.9984],[60.8573,47.2248],[61.1454,47.4681],[61.4086,47.741],[61.6591,48.0231],[61.8619,48.342],[62.3832,49.3536],[62.5424,49.6976],[62.6734,50.0536],[62.7611,50.4225],[62.7844,50.61],[62.7919,50.7983],[62.7824,50.9866],[62.7568,51.1739],[62.6625,51.5422],[62.5174,51.8947],[62.4252,52.0605],[62.3191,52.2166],[62.0691,52.4987],[61.7952,52.7605],[61.5893,52.9148],[50.8163,60.0345],[49.9863,60.2176],[49.5571,60.1144],[49.3447,60.0573],[49.1397,59.9823],[48.9453,59.8822],[48.76,59.7632],[48.583,59.6322],[48.4217,59.4844],[47.8687,58.8016],[47.3962,58.0611],[47.1747,57.6823],[46.9743,57.2918],[46.7952,56.8901],[46.6367,56.4791],[46.5007,56.0606],[46.3998,55.6341],[46.3437,55.1994],[46.3204,54.7603],[46.3189,53.8819]]
EXCLUDE_OBJECT_DEFINE NAME=ears.stl_id_6_copy_0 CENTER=73.5116,41.1949 POLYGON=[[65.2751,41.9363],[65.2967,41.0564],[65.336,40.841],[65.3936,40.6293],[65.4613,40.4207],[65.5471,40.2192],[65.6607,40.0301],[65.8007,39.8589],[65.9633,39.7109],[66.1459,39.5906],[76.1965,34.4671],[76.3669,34.3849],[76.7243,34.2504],[77.093,34.1477],[77.2793,34.1203],[77.466,34.1179],[77.6522,34.144],[77.8374,34.1886],[78.199,34.304],[78.5403,34.4651],[78.8727,34.6475],[79.2027,34.8328],[79.5107,35.0527],[79.8136,35.2792],[80.1016,35.5225],[80.3649,35.7954],[80.6154,36.0775],[80.8181,36.3963],[81.3395,37.4079],[81.4986,37.7519],[81.6296,38.108],[81.7173,38.4768],[81.7407,38.6643],[81.7482,38.8527],[81.7386,39.041],[81.713,39.2283],[81.6187,39.5966],[81.4736,39.9491],[81.3814,40.1149],[81.2753,40.2709],[81.0254,40.553],[80.7514,40.8148],[80.5455,40.9692],[69.7726,48.0888],[68.9426,48.272],[68.5134,48.1687],[68.3009,48.1116],[68.0959,48.0367],[67.9015,47.9366],[67.7162,47.8176],[67.5392,47.6865],[67.3779,47.5387],[66.8249,46.8559],[66.3524,46.1154],[66.1309,45.7366],[65.9305,45.3461],[65.7514,44.9444],[65.593,44.5334],[65.4569,44.1149],[65.356,43.6884],[65.3,43.2538],[65.2767,42.8146],[65.2751,41.9363]]
EXCLUDE_OBJECT_DEFINE NAME=ears.stl_id_7_copy_0 CENTER=54.5554,37.1702 POLYGON=[[46.3189,37.9115],[46.3405,37.0317],[46.3798,36.8163],[46.4374,36.6046],[46.5051,36.396],[46.5909,36.1945],[46.7045,36.0054],[46.8444,35.8341],[47.0071,35.6862],[47.1897,35.5658],[57.2403,30.4423],[57.4107,30.3602],[57.7681,30.2256],[58.1368,30.1229],[58.3231,30.0955],[58.5097,30.0932],[58.696,30.1193],[58.8812,30.1639],[59.2427,30.2793],[59.5841,30.4404],[59.9164,30.6228],[60.2465,30.8081],[60.5545,31.028],[60.8573,31.2544],[61.1454,31.4977],[61.4086,31.7706],[61.6591,32.0527],[61.8619,32.3716],[62.3832,33.3832],[62.5424,33.7272],[62.6734,34.0832],[62.7611,34.4521],[62.7844,34.6396],[62.7919,34.8279],[62.7824,35.0162],[62.7568,35.2035],[62.6625,35.5718],[62.5174,35.9243],[62.4252,36.0901],[62.3191,36.2462],[62.0691,36.5283],[61.7952,36.7901],[61.5893,36.9444],[50.8163,44.0641],[49.9863,44.2472],[49.5571,44.144],[49.3447,44.0869],[49.1397,44.0119],[48.9453,43.9118],[48.76,43.7928],[48.583,43.6618],[48.4217,43.514],[47.8687,42.8312],[47.3962,42.0907],[47.1747,41.7119],[46.9743,41.3214],[46.7952,40.9197],[46.6367,40.5087],[46.5007,40.0902],[46.3998,39.6637],[46.3437,39.229],[46.3204,38.7899],[46.3189,37.9115]]
EXCLUDE_OBJECT_DEFINE NAME=ears.stl_id_8_copy_0 CENTER=35.5992,65.0863 POLYGON=[[27.3626,65.8276],[27.3843,64.9477],[27.4236,64.7324],[27.4812,64.5206],[27.5489,64.312],[27.6347,64.1106],[27.7483,63.9214],[27.8882,63.7502],[28.0508,63.6022],[28.2334,63.4819],[38.284,58.3584],[38.4545,58.2762],[38.8119,58.1417],[39.1806,58.039],[39.3669,58.0116],[39.5535,58.0092],[39.7398,58.0353],[39.9249,58.0799],[40.2865,58.1953],[40.6279,58.3565],[40.9602,58.5389],[41.2903,58.7241],[41.5982,58.9441],[41.9011,59.1705],[42.1891,59.4138],[42.4524,59.6867],[42.7029,59.9688],[42.9056,60.2877],[43.427,61.2992],[43.5862,61.6433],[43.7171,61.9993],[43.8048,62.3681],[43.8282,62.5557],[43.8357,62.744],[43.8262,62.9323],[43.8005,63.1196],[43.7063,63.4879],[43.5612,63.8404],[43.469,64.0062],[43.3629,64.1623],[43.1129,64.4443],[42.839,64.7061],[42.6331,64.8605],[31.8601,71.9801],[31.0301,72.1633],[30.6009,72.06],[30.3885,72.003],[30.1835,71.928],[29.9891,71.8279],[29.8038,71.7089],[29.6267,71.5778],[29.4655,71.4301],[28.9125,70.7472],[28.44,70.0067],[28.2185,69.628],[28.018,69.2374],[27.839,68.8357],[27.6805,68.4248],[27.5445,68.0063],[27.4435,67.5797],[27.3875,67.1451],[27.3642,66.706],[27.3626,65.8276]]
M73 P0 R13
;TYPE:Custom
START_PRINT T_BED=60 T_EXTRUDER=220
G90
G21
M83 ; use relative distances for extrusion
; filament start gcode

    PRESSURE_ADVANCE_SELECT FILAMENT=PLA
M106 S0
;LAYER_CHANGE
;Z:0.1
;HEIGHT:0.1
;BEFORE_LAYER_CHANGE
;0.1
G92 E0

;AFTER_LAYER_CHANGE
;0.1
;_SET_FAN_SPEED_CHANGING_LAYER
SET_VELOCITY_LIMIT ACCEL=500 ACCEL_TO_DECEL=250
G1 E-.8 F3000
G1 Z.2 F21000
G1 X44.899 Y34.53
G1 Z.2
G1 Z.1
G1 E.8 F1800
;TYPE:Skirt
;WIDTH:0.1875
G1 F3000
G1 X45.437 Y33.961 E.0053
G1 X46.131 Y33.488 E.00568
G1 X56.227 Y28.342 E.07667
G1 X57.511 Y27.876 E.00924
G1 X58.294 Y27.764 E.00535
G1 X58.833 Y27.784 E.00365
G1 X78.371 Y31.918 E.1351
G1 X79.194 Y32.195 E.00588
G1 X80.344 Y32.799 E.00879
G1 X81.78 Y33.903 E.01225
G1 X82.583 Y34.826 E.00828
G1 X83.615 Y36.773 E.0149
G1 X94.707 Y62.966 E.19243
G1 X94.92 Y63.851 E.00616
G1 X94.969 Y64.516 E.00451
G1 X94.969 Y80.486 E.10804
G1 X94.861 Y81.44 E.00649
G1 X94.519 Y82.47 E.00734
G1 X93.91 Y83.451 E.00781
G1 X92.833 Y84.468 E.01002
G1 X81.947 Y91.668 E.08829
G1 X81.164 Y91.999 E.00575
G1 X80.334 Y92.183 E.00575
G1 X79.347 Y92.186 E.00668
G1 X60.391 Y88.162 E.1311
G1 X59.228 Y87.836 E.00817
G1 X28.921 Y73.901 E.22566
G1 X27.89 Y73.149 E.00863
G1 X27.1 Y72.215 E.00828
G1 X26.144 Y70.693 E.01216
G1 X25.463 Y69.146 E.01144
G1 X25.174 Y68.117 E.00723
G1 X25.075 Y67.443 E.00461
G1 X25.053 Y64.89 E.01727
G1 X25.231 Y63.908 E.00675
G1 X25.635 Y62.91 E.00729
G1 X44.89 Y34.542 E.23194
G1 X45.027 Y34.635 F21000
G1 F3000
G1 X45.027 Y34.635 E0
G1 X45.549 Y34.084 E.00513
G1 X46.206 Y33.636 E.00538
G1 X56.3 Y28.491 E.07664
G1 X57.556 Y28.036 E.00904
G1 X58.296 Y27.93 E.00506
G1 X58.81 Y27.948 E.00348
G1 X78.333 Y32.08 E.135
G1 X79.124 Y32.345 E.00564
G1 X80.263 Y32.944 E.00871
G1 X81.66 Y34.019 E.01193
G1 X82.443 Y34.915 E.00805
G1 X83.464 Y36.843 E.01475
G1 X94.551 Y63.023 E.19234
G1 X94.756 Y63.872 E.00591
G1 X94.803 Y64.516 E.00437
G1 X94.803 Y80.486 E.10804
G1 X94.7 Y81.399 E.00621
G1 X94.366 Y82.407 E.00719
G1 X93.785 Y83.341 E.00744
G1 X92.734 Y84.336 E.00979
G1 X81.856 Y91.529 E.08823
G1 X81.128 Y91.837 E.00534
G1 X80.298 Y92.02 E.00575
G1 X79.382 Y92.024 E.0062
G1 X60.425 Y87.999 E.1311
G1 X59.285 Y87.68 E.00801
G1 X28.997 Y73.753 E.22552
M73 P1 R13
G1 X28.002 Y73.027 E.00834
G1 X27.229 Y72.11 E.00811
G1 X26.291 Y70.617 E.01193
G1 X25.621 Y69.094 E.01126
G1 X25.336 Y68.079 E.00714
G1 X25.239 Y67.422 E.00449
G1 X25.219 Y64.894 E.0171
G1 X25.391 Y63.952 E.00648
G1 X25.778 Y62.996 E.00698
G1 X45.019 Y34.647 E.23178
; printing object ears.stl id:8 copy 0
G1 E-.8
EXCLUDE_OBJECT_START NAME=ears.stl_id_8_copy_0
G1 Z.3 F21000
G1 X34.157 Y68.009 Z.3
G1 Z.1
G1 E.8 F1800
;TYPE:Outer wall
G1 F3000
G1 X34.253 Y68.132 E.00106
G1 X34.207 Y68.447 E.00215
G1 X33.98 Y68.954 E.00376
G1 X33.961 Y68.946 E.00014
G3 X31.815 Y71.894 I-7.538 J-3.232 E.02487
G1 X31.031 Y72.067 E.00543
