; HEADER_BLOCK_START
; generated by OrcaSlicer 1.6.6 on 2023-08-31 at 19:42:39
; total layer number: 6
; HEADER_BLOCK_END

; THUMBNAIL_BLOCK_START
; THUMBNAIL_BLOCK_END

; external perimeters extrusion width = 0.15mm
; perimeters extrusion width = 0.17mm
; infill extrusion width = 0.24mm
; solid infill extrusion width = 0.21mm
; top infill extrusion width = 0.15mm
; first layer extrusion width = 0.19mm

; external perimeters extrusion width = 0.15mm
; perimeters extrusion width = 0.17mm
; infill extrusion width = 0.24mm
; solid infill extrusion width = 0.21mm
; top infill extrusion width = 0.15mm
; first layer extrusion width = 0.19mm

; EXECUTABLE_BLOCK_START
EXCLUDE_OBJECT_DEFINE NAME=ears2.stl_id_0_copy_0 CENTER=59.6634,59.9761 POLYGON=[[51.5894,61.0754],[51.5901,60.712],[51.5905,60.5803],[51.5935,60.2989],[51.601,60.0349],[51.607,59.9274],[51.615,59.8415],[51.6154,59.8385],[51.6535,59.6305],[51.6798,59.521],[51.7189,59.3877],[51.7527,59.2856],[51.7763,59.2185],[51.8,59.1563],[51.8604,59.0211],[51.9494,58.8687],[51.9717,58.8358],[52.0668,58.7143],[52.1088,58.668],[52.199,58.5806],[52.2682,58.5229],[52.3227,58.4827],[52.4279,58.4158],[52.4472,58.405],[62.3437,53.3597],[62.4336,53.3169],[62.4638,53.3035],[62.5473,53.2676],[62.6999,53.2076],[62.8803,53.1458],[63.0775,53.0912],[63.1754,53.071],[63.2803,53.0527],[63.3579,53.0441],[63.4769,53.0394],[63.5408,53.0418],[63.6603,53.0556],[63.7234,53.0674],[63.855,53.098],[63.9048,53.1111],[64.0756,53.1631],[64.2592,53.2242],[64.5256,53.3473],[64.5937,53.3821],[64.952,53.5714],[65.2429,53.7424],[65.4616,53.8969],[65.5447,53.9579],[65.7634,54.1202],[65.9045,54.2269],[66.0245,54.3257],[66.1237,54.4183],[66.1459,54.4389],[66.2899,54.5874],[66.3818,54.6857],[66.4279,54.7372],[66.6273,54.9622],[66.7067,55.0825],[66.8259,55.2747],[66.9401,55.4953],[67.3369,56.266],[67.4273,56.4523],[67.4928,56.6031],[67.5317,56.698],[67.6212,56.9521],[67.6864,57.2034],[67.7071,57.3135],[67.7273,57.4668],[67.73,57.4973],[67.7365,57.6167],[67.7374,57.6819],[67.7339,57.7858],[67.7281,57.8664],[67.715,57.9744],[67.7029,58.05],[67.6754,58.1827],[67.6463,58.2946],[67.6105,58.4109],[67.6013,58.439],[67.5303,58.6236],[67.4683,58.7563],[67.4283,58.8325],[67.378,58.9188],[67.2909,59.049],[67.274,59.0718],[67.1288,59.2454],[67.029,59.3482],[66.7606,59.6048],[66.6322,59.7061],[66.5225,59.7789],[56.0013,66.7333],[55.1879,66.9128],[54.7695,66.8179],[54.5779,66.7689],[54.3745,66.6924],[54.2628,66.6376],[54.1677,66.5841],[54.1416,66.5686],[53.9861,66.4675],[53.8938,66.3998],[53.8126,66.3391],[53.6546,66.1942],[53.1126,65.525],[52.8486,65.1209],[52.6496,64.7994],[52.4325,64.4282],[52.2361,64.0455],[52.1627,63.8861],[52.103,63.7522],[52.0606,63.6518],[52.041,63.6049],[51.9708,63.4286],[51.8969,63.2291],[51.772,62.8389],[51.7562,62.7833],[51.6985,62.5485],[51.6741,62.4265],[51.6731,62.4209],[51.6512,62.2858],[51.6305,62.1197],[51.6182,61.9949],[51.6131,61.9218],[51.5998,61.686],[51.5953,61.5646],[51.5916,61.406],[51.5894,61.0754]]
EXCLUDE_OBJECT_DEFINE NAME=ears2.stl_id_1_copy_0 CENTER=57.8859,37.787 POLYGON=[[49.8119,38.8863],[49.8126,38.5229],[49.813,38.3912],[49.8159,38.1098],[49.8234,37.8457],[49.8295,37.7382],[49.8374,37.6524],[49.8378,37.6493],[49.876,37.4413],[49.9022,37.3319],[49.9414,37.1986],[49.9752,37.0965],[49.9987,37.0294],[50.0224,36.9672],[50.0828,36.832],[50.1718,36.6796],[50.1941,36.6466],[50.2893,36.5251],[50.3313,36.4788],[50.4214,36.3915],[50.4907,36.3338],[50.5451,36.2936],[50.6504,36.2267],[50.6696,36.2159],[60.5661,31.1706],[60.656,31.1278],[60.6862,31.1143],[60.7698,31.0785],[60.9223,31.0185],[61.1027,30.9567],[61.2999,30.902],[61.3978,30.8818],[61.5027,30.8636],[61.5804,30.855],[61.6993,30.8503],[61.7633,30.8527],[61.8827,30.8665],[61.9458,30.8783],[62.0774,30.9088],[62.1273,30.922],[62.2981,30.9739],[62.4816,31.035],[62.7481,31.1582],[62.8162,31.1929],[63.1745,31.3823],[63.4653,31.5533],[63.6841,31.7078],[63.7671,31.7688],[63.9858,31.931],[64.1269,32.0377],[64.2469,32.1366],[64.3462,32.2291],[64.3683,32.2498],[64.5123,32.3983],[64.6042,32.4966],[64.6504,32.5481],[64.8497,32.773],[64.9292,32.8933],[65.0484,33.0855],[65.1625,33.3062],[65.5593,34.0769],[65.6497,34.2631],[65.7153,34.414],[65.7542,34.5088],[65.8436,34.7629],[65.9089,35.0142],[65.9296,35.1244],[65.9497,35.2776],[65.9525,35.3082],[65.9589,35.4276],[65.9598,35.4927],[65.9563,35.5967],[65.9505,35.6773],[65.9375,35.7853],[65.9254,35.8608],[65.8978,35.9936],[65.8688,36.1054],[65.833,36.2218],[65.8238,36.2498],[65.7527,36.4345],[65.6908,36.5672],[65.6508,36.6433],[65.6004,36.7297],[65.5133,36.8599],[65.4965,36.8826],[65.3512,37.0563],[65.2515,37.1591],[64.983,37.4156],[64.8547,37.517],[64.745,37.5898],[54.2237,44.5441],[53.4104,44.7236],[52.992,44.6288],[52.8004,44.5797],[52.597,44.5032],[52.4853,44.4485],[52.3902,44.3949],[52.364,44.3794],[52.2085,44.2783],[52.1162,44.2106],[52.035,44.1499],[51.877,44.0051],[51.3351,43.3359],[51.0711,42.9317],[50.872,42.6102],[50.6549,42.239],[50.4585,41.8563],[50.3851,41.697],[50.3254,41.5631],[50.283,41.4626],[50.2635,41.4158],[50.1932,41.2395],[50.1193,41.04],[49.9944,40.6498],[49.9786,40.5942],[49.921,40.3594],[49.8965,40.2373],[49.8955,40.2317],[49.8736,40.0966],[49.853,39.9305],[49.8406,39.8058],[49.8356,39.7327],[49.8223,39.4969],[49.8178,39.3755],[49.8141,39.2168],[49.8119,38.8863]]
M73 P0 R2
;TYPE:Custom
START_PRINT T_BED=60 T_EXTRUDER=220
G90
G21
M83 ; use relative distances for extrusion
; filament start gcode

    PRESSURE_ADVANCE_SELECT FILAMENT=PLA
M106 S0
;LAYER_CHANGE
;Z:0.1
;HEIGHT:0.1
;BEFORE_LAYER_CHANGE
;0.1
G92 E0

;AFTER_LAYER_CHANGE
;0.1
SET_VELOCITY_LIMIT ACCEL=500 ACCEL_TO_DECEL=250
SET_VELOCITY_LIMIT SQUARE_CORNER_VELOCITY=9
G1 E-.8 F3000
G1 Z.2 F21000
G1 X47.549 Y37.205
G1 Z.2
G1 Z.1
G1 E.8 F1800
;TYPE:Skirt
;WIDTH:0.1875
G1 F3000
G1 X47.797 Y36.262 E.0066
G1 X48.177 Y35.475 E.00591
G1 X48.718 Y34.796 E.00587
G1 X49.389 Y34.266 E.00578
G1 X59.743 Y28.983 E.07864
G1 X60.96 Y28.592 E.00865
G1 X61.937 Y28.528 E.00662
G1 X62.793 Y28.688 E.00589
G1 X63.778 Y29.067 E.00714
G1 X64.761 Y29.618 E.00763
G1 X65.887 Y30.478 E.00959
G1 X66.546 Y31.172 E.00648
G1 X67.024 Y31.847 E.00559
G1 X67.733 Y33.217 E.01044
G1 X68.107 Y34.201 E.00712
G1 X68.276 Y35.107 E.00623
G1 X70.053 Y57.296 E.15059
M73 P1 R2
G1 X70 Y58.448 E.00781
G1 X69.662 Y59.561 E.00787
G1 X69.234 Y60.336 E.00599
G1 X68.7 Y60.974 E.00563
G1 X67.863 Y61.688 E.00745
G1 X57.287 Y68.679 E.08576
G1 X56.504 Y69.011 E.00576
G1 X55.69 Y69.19 E.00563
G1 X54.657 Y69.184 E.00699
G1 X53.757 Y68.949 E.00629
G1 X53.072 Y68.642 E.00508
G1 X52.319 Y68.126 E.00617
G1 X51.796 Y67.603 E.00501
G1 X51.121 Y66.737 E.00743
G1 X50.203 Y65.191 E.01216
G1 X49.722 Y64.069 E.00826
G1 X49.403 Y62.954 E.00784
G1 X47.513 Y39.956 E.15611
G1 X47.484 Y38.311 E.01113
G1 X47.548 Y37.22 E.00739
G1 X47.711 Y37.237 F21000
G1 F3000
G1 X47.953 Y36.319 E.00642
M73 P2 R2
G1 X48.319 Y35.559 E.00571
G1 X48.836 Y34.912 E.0056
G1 X49.479 Y34.405 E.00554
G1 X59.813 Y29.133 E.07848
G1 X60.988 Y28.756 E.00835
G1 X61.922 Y28.694 E.00633
G1 X62.744 Y28.847 E.00565
G1 X63.707 Y29.217 E.00698
G1 X64.672 Y29.757 E.00748
G1 X65.774 Y30.599 E.00938
G1 X66.422 Y31.283 E.00637
G1 X66.883 Y31.935 E.0054
G1 X67.582 Y33.285 E.01028
G1 X67.946 Y34.241 E.00692
G1 X68.11 Y35.12 E.00605
G1 X69.888 Y57.309 E.15059
G1 X69.837 Y58.417 E.00751
G1 X69.508 Y59.499 E.00765
G1 X69.095 Y60.246 E.00577
G1 X68.584 Y60.854 E.00538
G1 X67.771 Y61.55 E.00724
G1 X57.196 Y68.54 E.08576
G1 X56.468 Y68.848 E.00535
G1 X55.655 Y69.028 E.00563
G1 X54.695 Y69.022 E.00649
G1 X53.815 Y68.793 E.00615
G1 X53.149 Y68.495 E.00493
G1 X52.429 Y68.001 E.00591
G1 X51.925 Y67.499 E.00481
G1 X51.26 Y66.647 E.00731
M73 P3 R2
G1 X50.35 Y65.114 E.01206
G1 X49.877 Y64.01 E.00813
G1 X49.564 Y62.917 E.00769
G1 X47.679 Y39.943 E.15594
G1 X47.711 Y37.252 E.0182
; printing object ears2.stl id:0 copy 0
G1 E-.8
EXCLUDE_OBJECT_START NAME=ears2.stl_id_0_copy_0
G1 Z.3 F21000
G1 X58.255 Y62.848 Z.3
G1 Z.1
G1 E.8 F1800
;TYPE:Outer wall
;WIDTH:0.187499
G1 F3000
G1 X58.345 Y62.962 E.00098
G1 X58.335 Y63.032 E.00047
G1 X58.299 Y63.27 E.00163
G3 X56.772 Y65.83 I-9.523 J-3.946 E.02024
G3 X55.956 Y66.647 I-5.853 J-5.026 E.00782
G1 X55.189 Y66.817 E.00532
G3 X54.203 Y66.495 I.693 J-3.8 E.00704
G1 X53.747 Y66.148 E.00387
G3 X51.99 Y63.209 I7.408 J-6.423 E.02329
M73 P4 R2
G1 X51.766 Y62.407 E.00563
G1 X51.691 Y61.62 E.00534
G3 X51.709 Y59.853 I24.566 J-.644 E.01196
G1 X51.814 Y59.436 E.00291
G1 X52.038 Y58.906 E.00389
G1 X52.353 Y58.578 E.00307
G1 X52.645 Y58.416 E.00226
G1 X53.331 Y58.229 E.00481
G1 X54.064 Y58.173 E.00497
G1 X54.69 Y58.221 E.00424
G1 X55.121 Y58.314 E.00299
G1 X55.602 Y58.54 E.0036
G1 X55.729 Y58.65 E.00113
G1 X55.756 Y58.805 E.00107
G1 X55.56 Y59.244 E.00326
G3 X55.003 Y60.015 I-21.655 J-15.069 E.00643
G1 X54.682 Y60.585 E.00442
G1 X54.543 Y61.071 E.00342
G2 X54.631 Y61.804 I1.649 J.173 E.00504
G1 X54.849 Y62.298 E.00365
G1 X55.131 Y62.649 E.00305
G2 X55.76 Y63.121 I3.275 J-3.712 E.00532
G1 X56.245 Y63.244 E.00339
G2 X56.974 Y63.183 I-.64 J-12.103 E.00495
G2 X58.017 Y62.854 I-3.738 J-13.686 E.0074
G1 X58.24 Y62.848 E.00151
G1 X58.17 Y63.011 F21000
;TYPE:Inner wall
G1 F3000
G1 X58.139 Y63.223 E.00145
G3 X56.646 Y65.721 I-9.338 J-3.883 E.01976
G3 X55.876 Y66.495 I-5.536 J-4.741 E.00739
G1 X55.191 Y66.646 E.00475
G3 X54.288 Y66.352 I.63 J-3.461 E.00644
G1 X53.863 Y66.028 E.00362
G3 X52.147 Y63.155 I7.273 J-6.292 E.02276
G1 X51.93 Y62.376 E.00547
G1 X51.857 Y61.612 E.00519
G3 X51.869 Y60.025 I23.14 J-.622 E.01074
G1 X51.975 Y59.477 E.00378
G1 X52.176 Y59.003 E.00348
G1 X52.455 Y58.711 E.00273
G1 X52.708 Y58.571 E.00196
G1 X53.36 Y58.393 E.00457
G1 X54.064 Y58.34 E.00478
G1 X54.677 Y58.386 E.00416
G1 X55.082 Y58.475 E.00281
G1 X55.526 Y58.688 E.00333
G1 X55.592 Y58.763 E.00068
G3 X55.183 Y59.49 I-1.967 J-.628 E.00568
G2 X54.521 Y60.539 I3.886 J3.184 E.00841
G1 X54.383 Y61.026 E.00343
G1 X54.378 Y61.425 E.0027
G1 X54.486 Y61.909 E.00336
G1 X54.699 Y62.369 E.00343
G1 X55.002 Y62.754 E.00332
G1 X55.213 Y62.934 E.00188
G1 X55.732 Y63.286 E.00424
G1 X56.287 Y63.411 E.00385
G1 X56.972 Y63.352 E.00465
G2 X57.957 Y63.05 I-3.143 J-12.014 E.00697
M73 P5 R2
G1 X58.155 Y63.014 E.00136
G1 X57.956 Y63.225 F21000
G1 F3000
G3 X56.52 Y65.613 I-9.081 J-3.833 E.01891
G3 X55.796 Y66.342 I-5.76 J-4.992 E.00696
G1 X55.193 Y66.476 E.00418
G3 X54.374 Y66.208 I.742 J-3.657 E.00584
G1 X53.979 Y65.908 E.00336
G3 X52.305 Y63.101 I7.139 J-6.162 E.02222
G1 X52.094 Y62.346 E.0053
G3 X52.02 Y60.681 I9.054 J-1.235 E.01129
G1 X52.035 Y60.03 E.0044
G1 X52.13 Y59.544 E.00335
G1 X52.314 Y59.099 E.00326
G1 X52.558 Y58.844 E.00238
G1 X52.771 Y58.726 E.00165
G1 X53.388 Y58.558 E.00433
G1 X54.064 Y58.506 E.00459
G1 X54.664 Y58.552 E.00407
G1 X55.044 Y58.636 E.00263
G1 X55.408 Y58.814 E.00275
G3 X55.049 Y59.391 I-2.116 J-.916 E.00462
G1 X54.714 Y59.852 E.00386
G1 X54.365 Y60.482 E.00487
G1 X54.224 Y60.981 E.00351
G1 X54.214 Y61.461 E.00325
G1 X54.328 Y61.964 E.00349
G1 X54.549 Y62.441 E.00355
G1 X54.874 Y62.859 E.00358
G1 X55.116 Y63.069 E.00217
G1 X55.691 Y63.447 E.00466
G1 X56.301 Y63.577 E.00422
G1 X56.986 Y63.517 E.00465
G2 X57.941 Y63.23 I-2.664 J-10.609 E.00675
G1 X57.625 Y63.382 F21000
;TYPE:Bottom surface
;WIDTH:0.190961
G1 F6300
G1 X57.711 Y63.468 E.00084
G1 X57.636 Y63.633 E.00125
G1 X57.5 Y63.497 E.00133
G1 X57.315 Y63.552 E.00133
G1 X57.555 Y63.791 E.00234
G1 X57.472 Y63.948 E.00123
G1 X57.13 Y63.606 E.00334
G3 X56.931 Y63.646 I-.199 J-.472 E.00142
G1 X57.389 Y64.105 E.00448
G3 X57.302 Y64.258 I-1.812 J-.926 E.00121
G1 X56.71 Y63.666 E.00578
G1 X56.49 Y63.685 E.00153
G1 X57.214 Y64.409 E.00707
G1 X57.126 Y64.561 E.00121
G1 X56.262 Y63.697 E.00843
G3 X55.97 Y63.644 I.006 J-.872 E.00206
G1 X57.035 Y64.71 E.01041
G1 X56.938 Y64.853 E.00119
G1 X55.472 Y63.387 E.01432
M73 P6 R2
G1 E-.8 F3000
G1 Z.3 F21000
G1 X54.876 Y62.615 Z.3
G1 X54.719 Y62.386
G1 X54.599 Y62.16
G1 X54.503 Y61.933
G1 X54.432 Y61.695
G1 X54.39 Y61.452
G1 X54.38 Y61.328
G1 X54.379 Y61.193
G1 X54.386 Y61.068
G1 X54.417 Y60.869
G1 X54.786 Y58.626
G1 Z.1
G1 E.8 F1800
G1 F6300
G1 X55.168 Y59.008 E.00373
G3 X55.072 Y59.151 I-.496 J-.23 E.0012
G1 X54.593 Y58.671 E.00468
G1 X54.333 Y58.652 E.0018
G1 X54.97 Y59.289 E.00622
G1 X54.868 Y59.427 E.00118
G1 X54.08 Y58.638 E.0077
G1 X53.855 Y58.653 E.00156
G1 X54.767 Y59.565 E.00891
G1 X54.665 Y59.703 E.00118
G1 X53.629 Y58.667 E.01012
G2 X53.405 Y58.682 I-.075 J.555 E.00156
G1 X54.574 Y59.851 E.01142
G1 X54.487 Y60.004 E.00121
G1 X53.217 Y58.734 E.01241
G1 X53.028 Y58.785 E.00135
G1 X54.4 Y60.157 E.0134
G1 X54.313 Y60.31 E.00121
G1 X52.84 Y58.837 E.01439
G2 X52.682 Y58.918 I.088 J.365 E.00124
G1 X54.245 Y60.481 E.01527
G1 X54.189 Y60.665 E.00133
G1 X52.553 Y59.029 E.01598
M73 P7 R2
G1 X52.436 Y59.152 E.00117
G1 X54.133 Y60.849 E.01658
G2 X54.09 Y61.045 I.589 J.234 E.00139
G1 X52.351 Y59.306 E.01699
G2 X52.277 Y59.472 I.356 J.259 E.00126
G1 X54.086 Y61.282 E.01768
G2 X54.104 Y61.539 I.624 J.086 E.00179
G1 X52.228 Y59.663 E.01833
G1 X52.179 Y59.854 E.00136
G1 X54.174 Y61.849 E.01948
G2 X54.318 Y62.232 I1.004 J-.158 E.00285
G1 X52.158 Y60.073 E.0211
G1 X52.151 Y60.305 E.0016
G1 X56.841 Y64.995 E.04581
G3 X56.742 Y65.135 I-.981 J-.592 E.00119
G1 X52.144 Y60.538 E.0449
G1 X52.145 Y60.778 E.00166
G1 X56.635 Y65.269 E.04386
G1 X56.529 Y65.402 E.00118
G1 X52.146 Y61.019 E.04281
M73 P8 R2
G1 X52.147 Y61.259 E.00166
G1 X56.422 Y65.535 E.04176
G1 X56.307 Y65.66 E.00117
G1 X52.147 Y61.5 E.04063
G2 X52.163 Y61.755 I1.4 J.044 E.00177
G1 X56.192 Y65.784 E.03935
G1 X56.076 Y65.908 E.00117
G1 X52.188 Y62.02 E.03798
G1 X52.213 Y62.285 E.00184
G1 X55.954 Y66.026 E.03654
G1 X55.83 Y66.141 E.00117
G1 X52.296 Y62.608 E.03451
G1 X52.389 Y62.94 E.00238
G1 X55.688 Y66.239 E.03222
G1 X55.491 Y66.282 E.00139
G1 X52.529 Y63.32 E.02893
M73 P9 R2
G1 X52.696 Y63.727 E.00304
G1 X55.295 Y66.326 E.02538
G3 X55.04 Y66.311 I-.112 J-.267 E.00182
G1 X52.953 Y64.223 E.02039
G2 X53.332 Y64.842 I8.298 J-4.659 E.00501
G1 X54.715 Y66.225 E.0135
G1 X54.438 Y66.1 E.0021
G1 X54.073 Y65.822 E.00317
G1 X53.538 Y65.288 E.00522
G1 E-.8 F3000
G1 Z.3 F21000
G1 X55.865 Y63.322 Z.3
G1 X58.745 Y60.889
G1 X61.784 Y58.253
G1 X61.921 Y58.207
G1 Z.1
G1 E.8 F1800
;TYPE:Outer wall
;WIDTH:0.187499
G1 F3000
G1 X61.973 Y58.326 E.00088
G3 X62.004 Y58.985 I-3.505 J.498 E.00447
G1 X61.973 Y59.311 E.00221
G1 X61.844 Y59.587 E.00206
G3 X61.181 Y60.545 I-6.091 J-3.503 E.00789
G1 X60.808 Y60.893 E.00345
G1 X60.452 Y61.101 E.00279
G1 X60.063 Y61.197 E.00271
G3 X59.097 Y61.149 I-.351 J-2.681 E.00657
G1 X58.46 Y60.93 E.00456
G1 X58.071 Y60.671 E.00317
G1 X57.762 Y60.328 E.00312
G1 X57.56 Y59.949 E.0029
G1 X57.442 Y59.488 E.00322
G3 X57.587 Y57.832 I4.2 J-.468 E.01132
G1 X57.89 Y57.294 E.00418
G3 X58.828 Y56.547 I2.346 J1.982 E.00816
G1 X59.351 Y56.366 E.00375
G1 X59.901 Y56.294 E.00375
G1 X60.322 Y56.314 E.00285
G1 X60.671 Y56.413 E.00246
G1 X60.986 Y56.684 E.00281
G1 X61.37 Y57.173 E.00421
G1 X61.753 Y57.815 E.00506
M73 P10 R2
G1 X61.915 Y58.193 E.00278
G1 X61.769 Y58.272 F21000
;TYPE:Inner wall
G1 F3000
G1 X61.81 Y58.368 E.00071
G1 X61.839 Y58.969 E.00407
G1 X61.811 Y59.266 E.00202
G1 X61.693 Y59.517 E.00187
G3 X60.959 Y60.539 I-5.287 J-3.022 E.00853
G1 X60.635 Y60.813 E.00287
G1 X60.264 Y60.998 E.0028
G1 X59.708 Y61.055 E.00378
G1 X59.131 Y60.986 E.00393
G1 X58.538 Y60.782 E.00424
G1 X58.18 Y60.544 E.00291
G1 X57.899 Y60.232 E.00284
G1 X57.716 Y59.889 E.00263
G1 X57.607 Y59.463 E.00297
G3 X57.741 Y57.897 I3.986 J-.449 E.0107
G1 X58.025 Y57.393 E.00391
G1 X58.371 Y57.024 E.00342
G1 X58.896 Y56.698 E.00418
G1 X59.393 Y56.527 E.00356
G1 X59.914 Y56.459 E.00356
G1 X60.305 Y56.479 E.00265
G1 X60.586 Y56.558 E.00197
G1 X60.865 Y56.799 E.00249
G1 X61.233 Y57.267 E.00403
G1 X61.605 Y57.89 E.00491
G1 X61.763 Y58.258 E.00271
G1 X61.618 Y58.347 F21000
G1 F3000
G1 X61.647 Y58.41 E.00047
G1 X61.673 Y58.954 E.00368
G1 X61.648 Y59.222 E.00182
G1 X61.493 Y59.553 E.00248
G3 X60.728 Y60.542 I-4.674 J-2.824 E.00847
G1 X60.328 Y60.793 E.0032
G1 X59.99 Y60.872 E.00235
G1 X59.436 Y60.879 E.00375
G1 X58.86 Y60.732 E.00402
