; HEADER_BLOCK_START
; generated by OrcaSlicer 1.7.0-beta on 2023-09-21 at 14:57:12
; total layer number: 115
; HEADER_BLOCK_END

; THUMBNAIL_BLOCK_START
; THUMBNAIL_BLOCK_END

; external perimeters extrusion width = 0.40mm
; perimeters extrusion width = 0.46mm
; infill extrusion width = 0.64mm
; solid infill extrusion width = 0.56mm
; top infill extrusion width = 0.40mm
; first layer extrusion width = 0.50mm

; EXECUTABLE_BLOCK_START
EXCLUDE_OBJECT_DEFINE NAME=ebb36.stl_id_0_copy_0 CENTER=60,60 POLYGON=[[33.93,49.8014],[33.9485,49.3946],[33.9801,49.1321],[34.0044,48.9868],[34.0986,48.5812],[34.1291,48.4776],[34.2317,48.1813],[34.3738,47.8527],[34.4025,47.7941],[34.6093,47.4239],[34.7088,47.2711],[34.8511,47.0735],[49.0555,28.9101],[49.4289,28.4877],[49.8747,28.1426],[50.3772,27.8871],[50.9187,27.73],[51.48,27.677],[68.52,27.677],[69.0813,27.73],[69.6228,27.8871],[70.1253,28.1426],[70.5711,28.4877],[70.9445,28.9101],[85.147,47.071],[85.2912,47.2711],[85.3889,47.421],[85.5956,47.7904],[85.6262,47.8527],[85.7663,48.1763],[85.8709,48.4776],[85.8999,48.5757],[85.995,48.9836],[86.0199,49.1321],[86.0514,49.3933],[86.07,49.8014],[86.07,53.0396],[86.0493,53.5378],[86.0199,53.8131],[85.9869,54.0353],[85.8822,54.5294],[85.8706,54.5736],[85.7346,55.0174],[85.6244,55.3086],[85.5443,55.4955],[68.0001,92.3229],[66.2588,92.323],[61.2551,92.323],[51.9999,92.3229],[34.455,55.4942],[34.3756,55.3086],[34.265,55.0165],[34.1294,54.5736],[34.1178,54.5292],[34.0132,54.0352],[33.9801,53.8131],[33.9507,53.537],[33.93,53.0396],[33.93,49.8014]]
M73 P0 R30
;TYPE:Custom
START_PRINT T_BED=110 T_EXTRUDER=260
G90
G21
M83 ; use relative distances for extrusion
; Filament gcode

    PRESSURE_ADVANCE_SELECT FILAMENT=ABS
M106 S0
;LAYER_CHANGE
;Z:0.2
;HEIGHT:0.2
;BEFORE_LAYER_CHANGE
;0.2
G92 E0

;AFTER_LAYER_CHANGE
;0.2
;_SET_FAN_SPEED_CHANGING_LAYER
SET_VELOCITY_LIMIT ACCEL=1000 ACCEL_TO_DECEL=500
SET_VELOCITY_LIMIT SQUARE_CORNER_VELOCITY=9
G1 E-.5 F3000
G1 Z.2 F21000
G1 X42.189 Y32.965
G1 Z.2
G1 E.5 F1800
;TYPE:Skirt
;WIDTH:0.5
G1 F3000
G1 X46.759 Y27.116 E.26125
G1 X47.651 Y26.179 E.04552
G1 X48.554 Y25.545 E.03882
G1 X49.056 Y25.29 E.01984
G1 X50.107 Y24.931 E.03907
G1 X51.48 Y24.763 E.04869
G1 X68.794 Y24.776 E.60934
G1 X69.893 Y24.931 E.03907
G1 X70.944 Y25.29 E.03907
G1 X71.909 Y25.838 E.03907
G1 X72.755 Y26.558 E.03907
G1 X87.817 Y45.817 E.86047
G1 X88.34 Y46.79 E.03889
G1 X88.584 Y47.415 E.02362
G1 X88.926 Y48.915 E.05413
G1 X88.984 Y53.04 E.14518
G1 X88.928 Y54.001 E.0339
G1 X88.73 Y55.135 E.04051
G1 X88.256 Y56.561 E.0529
G1 X70.631 Y93.576 E1.44281
G1 X69.648 Y94.727 E.05327
G1 X68 Y95.237 E.06071
G1 X52 Y95.237 E.56311
G1 X50.538 Y94.844 E.05327
G1 X49.369 Y93.576 E.06071
G1 X31.744 Y56.561 E1.44281
G1 X31.27 Y55.135 E.0529
G1 X31.121 Y54.375 E.02728
G1 X31.022 Y53.228 E.04051
G1 X31.024 Y49.584 E.12824
G1 X31.139 Y48.485 E.03889
G1 X31.288 Y47.831 E.02362
G1 X31.66 Y46.79 E.03889
G1 X32.412 Y45.477 E.05326
G1 X42.164 Y32.997 E.55741
G1 X42.524 Y33.278 F21000
G1 F3000
G1 X47.119 Y27.397 E.26266
G1 X47.93 Y26.54 E.04153
G1 X48.761 Y25.953 E.0358
G1 X49.263 Y25.697 E.01984
G1 X50.234 Y25.37 E.03605
G1 X51.48 Y25.22 E.04416
G1 X68.751 Y25.231 E.60783
G1 X69.766 Y25.37 E.03605
G1 X70.737 Y25.697 E.03605
G1 X71.629 Y26.2 E.03605
G1 X72.412 Y26.86 E.03605
G1 X87.42 Y46.045 E.85724
G1 X87.755 Y46.626 E.02362
G1 X88.159 Y47.582 E.0365
G1 X88.47 Y48.949 E.04934
G1 X88.527 Y53.04 E.14398
G1 X88.472 Y53.972 E.03286
G1 X88.282 Y55.047 E.03843
G1 X87.843 Y56.365 E.04888
G1 X70.219 Y93.379 E1.44281
G1 X69.292 Y94.413 E.04884
G1 X68 Y94.78 E.04728
G1 X52 Y94.78 E.56311
G1 X50.669 Y94.388 E.04884
G1 X49.781 Y93.379 E.04728
G1 X32.157 Y56.365 E1.44281
G1 X31.718 Y55.047 E.04888
G1 X31.569 Y54.287 E.02728
G1 X31.478 Y53.198 E.03843
G1 X31.48 Y49.618 E.126
G1 X31.584 Y48.586 E.0365
G1 X31.733 Y47.932 E.02362
G1 X32.086 Y46.957 E.0365
G1 X32.773 Y45.758 E.04862
G1 X42.5 Y33.31 E.556
; printing object ebb36.stl id:0 copy 0
G1 E-.5
EXCLUDE_OBJECT_START NAME=ebb36.stl_id_0_copy_0
G1 Z.4 F21000
G1 X53.727 Y37.827 Z.4
G1 Z.2
G1 E.5 F1800
;TYPE:Outer wall
G1 F3000
G1 X66.427 Y37.827 E.44696
G1 X66.427 Y28.027 E.3449
G1 X68.504 Y28.027 E.07308
G1 X69.016 Y28.075 E.0181
G1 X69.494 Y28.214 E.01752
G1 X69.937 Y28.44 E.01752
G1 X70.331 Y28.744 E.01752
G1 X70.66 Y29.117 E.01752
G1 X70.914 Y29.545 E.01752
G1 X71.092 Y30.035 E.01835
G1 X71.403 Y31.062 E.03777
G1 X71.807 Y32.082 E.03861
G1 X72.3 Y33.077 E.03907
G1 X72.857 Y34.006 E.03812
G1 X73.498 Y34.896 E.0386
G1 X74.204 Y35.726 E.03835
G1 X84.608 Y46.974 E.53922
G1 X85.001 Y47.468 E.02224
G1 X85.31 Y48.005 E.02178
G1 X85.535 Y48.581 E.02178
G1 X85.673 Y49.184 E.02178
G1 X85.72 Y49.814 E.02224
G1 X85.72 Y53.028 E.11311
G1 X85.672 Y53.768 E.02608
G1 X85.532 Y54.484 E.02568
G1 X85.3 Y55.176 E.02568
G1 X84.981 Y55.832 E.02568
G1 X84.58 Y56.442 E.02568
G1 X84.103 Y56.995 E.02568
G1 X83.551 Y57.49 E.02608
G1 X72.077 Y66.504 E.51354
G1 X71.255 Y67.244 E.03893
G1 X70.519 Y68.049 E.03837
G1 X69.865 Y68.904 E.03789
G1 X69.284 Y69.801 E.03762
G1 X68.771 Y70.735 E.0375
G1 X68.327 Y71.704 E.0375
G1 X67.954 Y72.706 E.03763
G1 X67.65 Y73.776 E.03914
G1 X67.65 Y91.973 E.64043
G1 X52.35 Y91.973 E.53847
G1 X52.35 Y73.776 E.64043
G1 X52.046 Y72.706 E.03914
G1 X51.673 Y71.704 E.03763
G1 X51.229 Y70.735 E.0375
G1 X50.716 Y69.801 E.0375
G1 X50.135 Y68.904 E.03762
G1 X49.481 Y68.049 E.03789
G1 X48.745 Y67.244 E.03837
G1 X47.923 Y66.504 E.03893
G1 X36.449 Y57.49 E.51354
G1 X35.897 Y56.995 E.02608
G1 X35.42 Y56.442 E.02568
G1 X35.019 Y55.832 E.02568
G1 X34.7 Y55.176 E.02568
G1 X34.468 Y54.484 E.02568
G1 X34.328 Y53.768 E.02568
G1 X34.28 Y53.028 E.02608
G1 X34.28 Y49.814 E.11311
G1 X34.327 Y49.184 E.02224
G1 X34.465 Y48.581 E.02178
G1 X34.69 Y48.005 E.02178
G1 X34.999 Y47.468 E.02178
G1 X35.392 Y46.974 E.02224
G1 X45.796 Y35.726 E.53922
G1 X46.502 Y34.896 E.03835
G1 X47.143 Y34.006 E.0386
G1 X47.333 Y33.688 E.01304
G1 X47.707 Y33.066 E.02556
G1 X48.193 Y32.082 E.0386
G1 X48.597 Y31.062 E.0386
G1 X48.908 Y30.035 E.03777
G1 X49.086 Y29.545 E.01835
G1 X49.339 Y29.118 E.0175
G1 X49.675 Y28.74 E.01776
G1 X50.063 Y28.44 E.01728
G1 X50.506 Y28.214 E.01752
G1 X50.984 Y28.075 E.01752
G1 X51.496 Y28.027 E.0181
G1 X53.727 Y28.027 E.0785
G1 X53.727 Y37.787 E.34349
G1 X53.227 Y37.827 F21000
;TYPE:Inner wall
G1 F3000
G1 X53.227 Y38.327 E.0176
G1 X66.927 Y38.327 E.48216
G1 X66.927 Y28.527 E.3449
G1 X68.48 Y28.527 E.05465
G1 X68.922 Y28.569 E.01561
G1 X69.309 Y28.681 E.01419
G1 X69.668 Y28.864 E.01419
G1 X69.987 Y29.111 E.01419
G1 X70.255 Y29.413 E.01419
G1 X70.46 Y29.76 E.01419
G1 X70.617 Y30.193 E.01623
G1 X70.931 Y31.227 E.03802
G1 X71.35 Y32.286 E.04006
G1 X71.86 Y33.317 E.04052
G1 X72.439 Y34.281 E.03956
G1 X73.104 Y35.205 E.04005
G1 X73.83 Y36.058 E.03943
G1 X84.228 Y47.3 E.53893
G1 X84.586 Y47.75 E.02027
G1 X84.858 Y48.222 E.01915
G1 X85.056 Y48.728 E.01915
G1 X85.177 Y49.259 E.01915
G1 X85.22 Y49.833 E.02027
G1 X85.22 Y53.012 E.11188
G1 X85.175 Y53.703 E.02438
G1 X85.047 Y54.356 E.02341
G1 X84.836 Y54.986 E.02341
G1 X84.545 Y55.585 E.02341
G1 X84.18 Y56.14 E.02341
G1 X83.746 Y56.644 E.02341
G1 X83.23 Y57.106 E.02437
G1 X71.755 Y66.121 E.51357
G1 X70.903 Y66.889 E.04037
G1 X70.136 Y67.727 E.03999
G1 X69.456 Y68.615 E.03935
G1 X68.854 Y69.544 E.03895
G1 X68.324 Y70.51 E.03877
G1 X67.864 Y71.512 E.03879
G1 X67.479 Y72.55 E.03899
G1 X67.15 Y73.706 E.04228
G1 X67.15 Y91.473 E.62529
G1 X52.85 Y91.473 E.50328
G1 X52.85 Y73.706 E.62529
G1 X52.521 Y72.55 E.04228
G1 X52.136 Y71.512 E.03899
G1 X51.676 Y70.51 E.03879
G1 X51.146 Y69.544 E.03877
G1 X50.544 Y68.615 E.03895
G1 X49.864 Y67.727 E.03935
G1 X49.097 Y66.889 E.03999
G1 X48.245 Y66.121 E.04037
G1 X36.77 Y57.106 E.51357
G1 X36.254 Y56.644 E.02437
G1 X35.82 Y56.14 E.02341
G1 X35.455 Y55.585 E.02341
G1 X35.164 Y54.986 E.02341
G1 X34.953 Y54.356 E.02341
G1 X34.825 Y53.703 E.02341
G1 X34.78 Y53.012 E.02438
G1 X34.78 Y49.833 E.11188
G1 X34.823 Y49.259 E.02027
G1 X34.944 Y48.728 E.01915
G1 X35.142 Y48.222 E.01915
G1 X35.414 Y47.75 E.01915
G1 X35.772 Y47.3 E.02027
G1 X46.17 Y36.058 E.53893
G1 X46.896 Y35.205 E.03943
G1 X47.561 Y34.281 E.04005
G1 X48.147 Y33.306 E.04005
G1 X48.651 Y32.285 E.04005
G1 X49.069 Y31.227 E.04005
G1 X49.383 Y30.193 E.03802
G1 X49.54 Y29.76 E.01623
G1 X49.745 Y29.414 E.01416
G1 X50.017 Y29.107 E.01444
G1 X50.332 Y28.864 E.01398
G1 X50.691 Y28.681 E.01419
G1 X51.078 Y28.569 E.01419
G1 X51.52 Y28.527 E.01561
G1 X53.227 Y28.527 E.06008
G1 X53.227 Y37.787 E.3259
G1 E-.5
G1 Z.4 F21000
G1 X53.391 Y38.163 Z.4
G1 X60.941 Y39.417
G1 X61.44 Y39.544
G1 X81.928 Y49.314
G1 X81.972 Y49.647
G1 Z.2
M73 P1 R30
G1 E.5 F1800
;TYPE:Outer wall
G1 F3000
G1 X82 Y49.643 E.00101
G1 X82.473 Y49.705 E.01679
G1 X82.914 Y49.888 E.01679
G1 X83.293 Y50.178 E.01679
G1 X83.583 Y50.557 E.01679
G1 X83.766 Y50.998 E.01679
G1 X83.828 Y51.471 E.01679
G1 X83.766 Y51.944 E.01679
G1 X83.583 Y52.385 E.0168
G1 X83.293 Y52.764 E.01679
G1 X82.914 Y53.054 E.01679
G1 X82.473 Y53.237 E.01679
G1 X82 Y53.299 E.01679
G1 X81.527 Y53.237 E.01679
G1 X81.086 Y53.054 E.01679
G1 X80.707 Y52.764 E.01679
G1 X80.417 Y52.385 E.01679
G1 X80.234 Y51.944 E.01679
G1 X80.172 Y51.471 E.01679
G1 X80.234 Y50.998 E.01679
G1 X80.417 Y50.557 E.01679
G1 X80.707 Y50.178 E.01679
G1 X81.086 Y49.888 E.01679
G1 X81.527 Y49.705 E.01679
G1 X81.932 Y49.652 E.01438
G1 X81.95 Y49.145 F21000
;TYPE:Inner wall
G1 F3000
G1 X82 Y49.139 E.00176
G1 X82.604 Y49.218 E.02143
G1 X83.166 Y49.451 E.02143
G1 X83.649 Y49.822 E.02143
G1 X84.02 Y50.305 E.02143
G1 X84.253 Y50.867 E.02143
G1 X84.332 Y51.471 E.02143
G1 X84.253 Y52.075 E.02143
G1 X84.02 Y52.637 E.02143
G1 X83.649 Y53.12 E.02143
G1 X83.166 Y53.491 E.02143
G1 X82.604 Y53.724 E.02143
G1 X82 Y53.803 E.02143
G1 X81.396 Y53.724 E.02143
G1 X80.834 Y53.491 E.02143
G1 X80.351 Y53.12 E.02143
G1 X79.98 Y52.637 E.02143
G1 X79.747 Y52.075 E.02143
G1 X79.668 Y51.471 E.02143
G1 X79.747 Y50.867 E.02143
G1 X79.98 Y50.305 E.02143
G1 X80.351 Y49.822 E.02143
G1 X80.834 Y49.451 E.02143
G1 X81.396 Y49.218 E.02143
G1 X81.911 Y49.15 E.01826
G1 E-.5
G1 Z.4 F21000
G1 X60.47 Y46.565 Z.4
G1 X59.934 Y46.543
G1 X38 Y49.304
G1 X37.928 Y49.314
G1 X37.972 Y49.647
G1 Z.2
G1 E.5 F1800
;TYPE:Outer wall
G1 F3000
G1 X38 Y49.643 E.00099
G1 X38.473 Y49.705 E.01679
G1 X38.914 Y49.888 E.01679
G1 X39.293 Y50.178 E.01679
G1 X39.583 Y50.557 E.01679
G1 X39.766 Y50.998 E.01679
G1 X39.828 Y51.471 E.01679
G1 X39.766 Y51.944 E.01679
G1 X39.583 Y52.385 E.0168
G1 X39.293 Y52.764 E.01679
G1 X38.914 Y53.054 E.01679
G1 X38.473 Y53.237 E.01679
G1 X38 Y53.299 E.01679
G1 X37.527 Y53.237 E.0168
G1 X37.086 Y53.054 E.01679
G1 X36.707 Y52.764 E.01679
G1 X36.417 Y52.385 E.01679
G1 X36.234 Y51.944 E.01679
G1 X36.172 Y51.471 E.01679
G1 X36.234 Y50.998 E.01679
G1 X36.417 Y50.557 E.01679
G1 X36.707 Y50.178 E.01679
G1 X37.086 Y49.888 E.01679
G1 X37.527 Y49.705 E.01679
G1 X37.932 Y49.652 E.0144
G1 X37.95 Y49.145 F21000
;TYPE:Inner wall
G1 F3000
G1 X38 Y49.139 E.00176
G1 X38.604 Y49.218 E.02143
G1 X39.166 Y49.451 E.02143
G1 X39.649 Y49.822 E.02143
G1 X40.02 Y50.305 E.02143
G1 X40.253 Y50.867 E.02143
G1 X40.332 Y51.471 E.02143
G1 X40.253 Y52.075 E.02143
G1 X40.02 Y52.637 E.02143
G1 X39.649 Y53.12 E.02143
G1 X39.166 Y53.491 E.02143
G1 X38.604 Y53.724 E.02143
G1 X38 Y53.803 E.02143
G1 X37.396 Y53.724 E.02143
G1 X36.834 Y53.491 E.02143
G1 X36.351 Y53.12 E.02143
G1 X35.98 Y52.637 E.02143
G1 X35.747 Y52.075 E.02143
G1 X35.668 Y51.471 E.02143
G1 X35.747 Y50.867 E.02143
G1 X35.98 Y50.305 E.02143
G1 X36.351 Y49.822 E.02143
G1 X36.834 Y49.451 E.02143
G1 X37.396 Y49.218 E.02143
G1 X37.911 Y49.15 E.01826
G1 E-.5
G1 Z.4 F21000
G1 X60.471 Y44.989 Z.4
G1 X60.985 Y44.872
G1 X61.469 Y44.665
G1 X61.91 Y44.374
G1 X62.297 Y44.001
G1 X62.6 Y43.584
G1 X62.828 Y43.11
G1 X63.562 Y41.37
G1 Z.2
G1 E.5 F1800
G1 F3000
G1 X63.412 Y40.825 E.01988
G1 X63.135 Y40.25 E.02248
G1 X62.76 Y39.733 E.02248
G1 X62.298 Y39.292 E.02248
G1 X61.825 Y38.979 E.01996
G1 X61.884 Y38.784 E.00718
G1 X67.384 Y38.784 E.19359
G1 X67.384 Y28.984 E.3449
G1 X68.458 Y28.984 E.03781
G1 X68.836 Y29.02 E.01333
G1 X69.14 Y29.108 E.01116
G1 X69.423 Y29.252 E.01116
G1 X69.673 Y29.446 E.01116
G1 X69.883 Y29.683 E.01116
G1 X70.045 Y29.956 E.01116
G1 X70.183 Y30.338 E.01428
G1 X70.499 Y31.378 E.03826
G1 X70.932 Y32.472 E.04139
G1 X71.459 Y33.537 E.04184
G1 X72.057 Y34.532 E.04088
G1 X72.743 Y35.487 E.04137
G1 X73.488 Y36.362 E.04043
G1 X83.881 Y47.597 E.53866
G1 X84.207 Y48.008 E.01846
G1 X84.445 Y48.42 E.01674
G1 X84.618 Y48.863 E.01674
G1 X84.724 Y49.327 E.01674
G1 X84.763 Y49.85 E.01846
G1 X84.763 Y50.327 E.0168
G1 X84.542 Y50.371 E.00792
G1 X84.419 Y50.074 E.01132
G1 X83.975 Y49.496 E.02566
G1 X83.397 Y49.052 E.02566
G1 X82.723 Y48.773 E.02566
G1 X82 Y48.678 E.02566
G1 X81.277 Y48.773 E.02566
G1 X80.603 Y49.052 E.02566
G1 X80.025 Y49.496 E.02566
G1 X79.581 Y50.074 E.02566
G1 X79.302 Y50.748 E.02566
G1 X79.207 Y51.471 E.02566
G1 X79.302 Y52.194 E.02566
G1 X79.581 Y52.868 E.02566
G1 X80.025 Y53.446 E.02566
G1 X80.603 Y53.89 E.02566
G1 X81.277 Y54.169 E.02566
G1 X82 Y54.264 E.02566
G1 X82.723 Y54.169 E.02566
G1 X83.397 Y53.89 E.02566
G1 X83.975 Y53.446 E.02566
G1 X84.419 Y52.868 E.02566
G1 X84.542 Y52.57 E.01132
G1 X84.763 Y52.614 E.00792
G1 X84.763 Y52.997 E.01348
G1 X84.721 Y53.644 E.02281
G1 X84.604 Y54.239 E.02132
G1 X84.412 Y54.813 E.02132
G1 X84.147 Y55.358 E.02132
G1 X83.814 Y55.864 E.02132
G1 X83.419 Y56.323 E.02132
G1 X82.936 Y56.756 E.02281
G1 X71.46 Y65.771 E.51359
G1 X70.58 Y66.564 E.04169
G1 X69.785 Y67.434 E.04147
G1 X69.082 Y68.352 E.04069
G1 X68.462 Y69.31 E.04017
G1 X67.916 Y70.305 E.03994
G1 X67.442 Y71.337 E.03997
G1 X67.044 Y72.408 E.04022
G1 X66.693 Y73.642 E.04516
G1 X66.693 Y91.016 E.61144
G1 X53.307 Y91.016 E.47111
G1 X53.307 Y73.642 E.61144
G1 X52.956 Y72.408 E.04516
G1 X52.558 Y71.337 E.04022
G1 X52.084 Y70.305 E.03997
G1 X51.538 Y69.31 E.03994
G1 X50.918 Y68.352 E.04017
G1 X50.215 Y67.434 E.04069
G1 X49.42 Y66.564 E.04147
G1 X48.54 Y65.771 E.04169
G1 X37.064 Y56.756 E.51359
G1 X36.581 Y56.323 E.02281
G1 X36.186 Y55.864 E.02132
G1 X35.853 Y55.358 E.02132
G1 X35.588 Y54.813 E.02132
G1 X35.396 Y54.239 E.02132
G1 X35.279 Y53.644 E.02132
G1 X35.237 Y52.997 E.02281
G1 X35.237 Y52.614 E.01348
G1 X35.458 Y52.57 E.00792
G1 X35.581 Y52.868 E.01132
G1 X36.025 Y53.446 E.02566
G1 X36.603 Y53.89 E.02566
G1 X37.277 Y54.169 E.02566
G1 X38 Y54.264 E.02566
G1 X38.723 Y54.169 E.02566
G1 X39.397 Y53.89 E.02566
G1 X39.975 Y53.446 E.02566
G1 X40.419 Y52.868 E.02566
G1 X40.698 Y52.194 E.02566
G1 X40.793 Y51.471 E.02566
G1 X40.698 Y50.748 E.02566
G1 X40.419 Y50.074 E.02566
G1 X39.975 Y49.496 E.02566
G1 X39.397 Y49.052 E.02566
G1 X38.723 Y48.773 E.02566
G1 X38 Y48.678 E.02566
G1 X37.277 Y48.773 E.02566
G1 X36.603 Y49.052 E.02566
G1 X36.025 Y49.496 E.02566
G1 X35.581 Y50.074 E.02566
G1 X35.458 Y50.371 E.01132
G1 X35.237 Y50.327 E.00792
G1 X35.237 Y49.85 E.0168
G1 X35.276 Y49.327 E.01846
G1 X35.382 Y48.863 E.01674
G1 X35.555 Y48.42 E.01674
G1 X35.793 Y48.008 E.01674
G1 X36.119 Y47.597 E.01846
G1 X46.512 Y36.362 E.53866
G1 X47.257 Y35.487 E.04043
G1 X47.943 Y34.532 E.04137
G1 X48.548 Y33.525 E.04137
G1 X49.069 Y32.471 E.04137
G1 X49.501 Y31.378 E.04137
G1 X49.817 Y30.338 E.03826
G1 X49.955 Y29.956 E.01428
G1 X50.116 Y29.685 E.0111
G1 X50.331 Y29.442 E.0114
G1 X50.577 Y29.252 E.01096
G1 X50.86 Y29.108 E.01116
G1 X51.164 Y29.02 E.01116
G1 X51.542 Y28.984 E.01333
G1 X52.77 Y28.984 E.04323
G1 X52.77 Y38.784 E.3449
G1 X58.272 Y38.784 E.19363
G1 X58.324 Y38.991 E.00752
G1 X58.115 Y39.104 E.00837
G1 X57.615 Y39.502 E.02248
G1 X57.195 Y39.983 E.02248
G1 X56.867 Y40.531 E.02248
G1 X56.643 Y41.129 E.02248
G1 X56.529 Y41.758 E.02248
G1 X56.529 Y42.396 E.02248
G1 X56.644 Y43.028 E.02258
G1 X56.874 Y43.634 E.02283
G1 X57.195 Y44.171 E.02202
G1 X57.615 Y44.652 E.02248
G1 X58.115 Y45.05 E.02248
G1 X58.677 Y45.353 E.02248
G1 X59.284 Y45.55 E.02248
G1 X59.917 Y45.636 E.02248
G1 X60.555 Y45.607 E.02248
G1 X61.178 Y45.465 E.02248
G1 X61.765 Y45.214 E.02248
G1 X62.301 Y44.861 E.02258
G1 X62.767 Y44.41 E.02283
G1 X63.135 Y43.904 E.02202
