; HEADER_BLOCK_START
; generated by OrcaSlicer 1.7.0-beta on 2023-09-21 at 16:36:16
; total layer number: 115
; HEADER_BLOCK_END

; THUMBNAIL_BLOCK_START
; THUMBNAIL_BLOCK_END

; external perimeters extrusion width = 0.40mm
; perimeters extrusion width = 0.46mm
; infill extrusion width = 0.64mm
; solid infill extrusion width = 0.56mm
; top infill extrusion width = 0.40mm
; first layer extrusion width = 0.50mm

; EXECUTABLE_BLOCK_START
EXCLUDE_OBJECT_DEFINE NAME=ebb36.stl_id_0_copy_0 CENTER=60,60 POLYGON=[[33.93,55.3014],[33.9485,54.8946],[33.9801,54.6321],[34.0044,54.4868],[34.0986,54.0812],[34.1291,53.9776],[34.2317,53.6813],[34.3738,53.3527],[34.4025,53.2941],[34.6093,52.9239],[34.7088,52.7711],[34.8511,52.5735],[49.0555,34.4101],[49.4289,33.9877],[49.8747,33.6426],[50.3772,33.3871],[50.9187,33.23],[51.48,33.177],[68.52,33.177],[69.0813,33.23],[69.6228,33.3871],[70.1253,33.6426],[70.5711,33.9877],[70.9445,34.4101],[85.147,52.571],[85.2912,52.7711],[85.3889,52.921],[85.5956,53.2904],[85.6262,53.3527],[85.7663,53.6763],[85.8709,53.9776],[85.8999,54.0757],[85.995,54.4836],[86.0199,54.6321],[86.0514,54.8933],[86.07,55.3014],[86.07,58.5396],[86.0493,59.0378],[86.0199,59.3131],[85.9869,59.5353],[85.8822,60.0294],[85.8706,60.0736],[85.7346,60.5174],[85.6244,60.8086],[85.5443,60.9955],[85.3137,61.4556],[85.2856,61.5057],[85.0442,61.8948],[68.0001,86.8229],[66.2588,86.823],[61.2551,86.823],[51.9999,86.8229],[34.9556,61.8945],[34.7144,61.5057],[34.6859,61.455],[34.455,60.9941],[34.3756,60.8086],[34.265,60.5165],[34.1294,60.0736],[34.1178,60.0292],[34.0132,59.5352],[33.9801,59.3131],[33.9507,59.037],[33.93,58.5396],[33.93,55.3014]]
M73 P0 R27
;TYPE:Custom
START_PRINT T_BED=110 T_EXTRUDER=260
G90
G21
M83 ; use relative distances for extrusion
; Filament gcode

    PRESSURE_ADVANCE_SELECT FILAMENT=ABS
M106 S0
;LAYER_CHANGE
;Z:0.2
;HEIGHT:0.2
;BEFORE_LAYER_CHANGE
;0.2
G92 E0

;AFTER_LAYER_CHANGE
;0.2
;_SET_FAN_SPEED_CHANGING_LAYER
SET_VELOCITY_LIMIT ACCEL=1000 ACCEL_TO_DECEL=500
SET_VELOCITY_LIMIT SQUARE_CORNER_VELOCITY=9
G1 E-.5 F3000
G1 Z.2 F21000
G1 X44.857 Y35.05
G1 Z.2
G1 E.5 F1800
;TYPE:Skirt
;WIDTH:0.5
G1 F3000
G1 X46.759 Y32.616 E.10872
G1 X47.651 Y31.679 E.04552
G1 X48.554 Y31.045 E.03882
G1 X49.056 Y30.79 E.01984
G1 X50.107 Y30.431 E.03907
G1 X51.48 Y30.263 E.04869
G1 X68.794 Y30.276 E.60934
G1 X69.893 Y30.431 E.03907
G1 X70.944 Y30.79 E.03907
G1 X71.909 Y31.338 E.03907
G1 X72.755 Y32.058 E.03907
G1 X87.817 Y51.317 E.86047
G1 X88.152 Y51.898 E.02362
G1 X88.584 Y52.915 E.03889
G1 X88.926 Y54.415 E.05413
G1 X88.978 Y58.728 E.1518
G1 X88.879 Y59.875 E.04051
G1 X88.634 Y60.999 E.04051
G1 X88.245 Y62.083 E.04051
G1 X87.907 Y62.78 E.02728
G1 X87.266 Y63.798 E.04233
G1 X70.406 Y88.467 E1.05161
G1 X69.257 Y89.452 E.05327
G1 X68 Y89.737 E.04535
G1 X52 Y89.737 E.56311
G1 X50.538 Y89.344 E.05327
G1 X49.594 Y88.467 E.04535
G1 X32.093 Y62.78 E1.09391
G1 X31.755 Y62.083 E.02728
G1 X31.366 Y60.999 E.04051
G1 X31.072 Y59.501 E.05372
G1 X31.024 Y55.084 E.15547
G1 X31.139 Y53.985 E.03889
G1 X31.416 Y52.915 E.03889
G1 X31.848 Y51.898 E.03889
G1 X32.412 Y50.977 E.03802
G1 X44.832 Y35.082 E.70993
G1 X45.193 Y35.363 F21000
G1 F3000
G1 X47.119 Y32.897 E.11013
G1 X47.93 Y32.04 E.04153
G1 X48.761 Y31.453 E.0358
G1 X49.263 Y31.197 E.01984
G1 X50.234 Y30.87 E.03605
G1 X51.48 Y30.72 E.04416
G1 X68.751 Y30.731 E.60783
G1 X69.766 Y30.87 E.03605
G1 X70.737 Y31.197 E.03605
G1 X71.629 Y31.7 E.03605
G1 X72.412 Y32.36 E.03605
G1 X87.42 Y51.545 E.85724
G1 X87.755 Y52.126 E.02362
G1 X88.159 Y53.082 E.0365
G1 X88.47 Y54.449 E.04934
G1 X88.522 Y58.698 E.14957
G1 X88.431 Y59.787 E.03843
G1 X88.2 Y60.854 E.03843
G1 X87.834 Y61.883 E.03843
G1 X87.495 Y62.58 E.02728
G1 X86.888 Y63.54 E.03997
G1 X70.029 Y88.209 E1.05161
G1 X68.954 Y89.087 E.04884
G1 X68 Y89.28 E.03425
G1 X52 Y89.28 E.56311
G1 X50.669 Y88.888 E.04884
G1 X49.971 Y88.209 E.03425
G1 X32.505 Y62.58 E1.09155
G1 X32.166 Y61.883 E.02728
G1 X31.8 Y60.854 E.03843
G1 X31.528 Y59.472 E.04957
G1 X31.48 Y55.118 E.15323
G1 X31.584 Y54.086 E.0365
G1 X31.841 Y53.082 E.0365
G1 X32.245 Y52.126 E.0365
G1 X32.773 Y51.258 E.03576
G1 X45.168 Y35.395 E.70852
; printing object ebb36.stl id:0 copy 0
G1 E-.5
EXCLUDE_OBJECT_START NAME=ebb36.stl_id_0_copy_0
G1 Z.4 F21000
G1 X66.427 Y43.327 Z.4
G1 Z.2
G1 E.5 F1800
;TYPE:Outer wall
G1 F3000
G1 X66.427 Y33.527 E.3449
G1 X68.504 Y33.527 E.07308
G1 X69.016 Y33.575 E.0181
G1 X69.494 Y33.714 E.01752
G1 X69.937 Y33.94 E.01752
G1 X70.331 Y34.244 E.01752
G1 X70.66 Y34.617 E.01752
G1 X70.914 Y35.045 E.01752
G1 X71.092 Y35.535 E.01835
G1 X71.403 Y36.562 E.03777
G1 X71.807 Y37.582 E.03861
G1 X72.3 Y38.577 E.03907
G1 X72.857 Y39.506 E.03812
G1 X73.498 Y40.396 E.0386
G1 X74.204 Y41.226 E.03835
G1 X84.608 Y52.474 E.53922
G1 X85.001 Y52.968 E.02224
G1 X85.31 Y53.505 E.02178
G1 X85.535 Y54.081 E.02178
G1 X85.673 Y54.684 E.02178
G1 X85.72 Y55.314 E.02224
G1 X85.72 Y58.528 E.11311
G1 X85.672 Y59.268 E.02608
G1 X85.532 Y59.984 E.02568
G1 X85.3 Y60.676 E.02568
G1 X84.981 Y61.332 E.02568
G1 X84.58 Y61.942 E.02568
G1 X84.103 Y62.495 E.02568
G1 X83.551 Y62.99 E.02608
G1 X72.077 Y72.004 E.51354
G1 X71.255 Y72.744 E.03893
G1 X70.519 Y73.549 E.03837
G1 X69.865 Y74.404 E.03789
G1 X69.284 Y75.301 E.03762
G1 X68.771 Y76.235 E.0375
G1 X68.327 Y77.204 E.0375
G1 X67.954 Y78.206 E.03763
G1 X67.65 Y79.276 E.03914
G1 X67.65 Y86.473 E.2533
G1 X52.35 Y86.473 E.53847
G1 X52.35 Y79.276 E.2533
G1 X52.046 Y78.206 E.03914
G1 X51.673 Y77.204 E.03763
G1 X51.229 Y76.235 E.0375
G1 X50.716 Y75.301 E.0375
G1 X50.135 Y74.404 E.03762
G1 X49.481 Y73.549 E.03789
G1 X48.745 Y72.744 E.03837
G1 X47.923 Y72.004 E.03893
G1 X36.449 Y62.99 E.51354
G1 X35.897 Y62.495 E.02608
G1 X35.42 Y61.942 E.02568
G1 X35.019 Y61.332 E.02568
G1 X34.7 Y60.676 E.02568
G1 X34.468 Y59.984 E.02568
G1 X34.328 Y59.268 E.02568
G1 X34.28 Y58.528 E.02608
G1 X34.28 Y55.314 E.11311
G1 X34.327 Y54.684 E.02224
G1 X34.465 Y54.081 E.02178
G1 X34.69 Y53.505 E.02178
G1 X34.999 Y52.968 E.02178
G1 X35.392 Y52.474 E.02224
G1 X45.796 Y41.226 E.53922
G1 X46.502 Y40.396 E.03835
G1 X47.143 Y39.506 E.0386
G1 X47.333 Y39.188 E.01304
G1 X47.707 Y38.566 E.02556
G1 X48.193 Y37.582 E.0386
G1 X48.597 Y36.562 E.0386
G1 X48.908 Y35.535 E.03777
G1 X49.086 Y35.045 E.01835
G1 X49.339 Y34.618 E.0175
G1 X49.675 Y34.24 E.01776
G1 X50.063 Y33.94 E.01728
G1 X50.506 Y33.714 E.01752
G1 X50.984 Y33.575 E.01752
G1 X51.496 Y33.527 E.0181
G1 X53.727 Y33.527 E.0785
G1 X53.727 Y43.327 E.3449
G1 X66.387 Y43.327 E.44555
G1 X66.927 Y43.827 F21000
;TYPE:Inner wall
G1 F3000
G1 X66.927 Y34.027 E.3449
G1 X68.48 Y34.027 E.05465
G1 X68.922 Y34.069 E.01561
G1 X69.309 Y34.181 E.01419
G1 X69.668 Y34.364 E.01419
G1 X69.987 Y34.611 E.01419
G1 X70.255 Y34.913 E.01419
G1 X70.46 Y35.26 E.01419
G1 X70.617 Y35.693 E.01623
G1 X70.931 Y36.727 E.03802
G1 X71.35 Y37.786 E.04006
G1 X71.86 Y38.817 E.04052
G1 X72.439 Y39.781 E.03956
G1 X73.104 Y40.705 E.04005
G1 X73.83 Y41.558 E.03943
G1 X84.228 Y52.8 E.53893
G1 X84.586 Y53.25 E.02027
G1 X84.858 Y53.722 E.01915
G1 X85.056 Y54.228 E.01915
G1 X85.177 Y54.759 E.01915
G1 X85.22 Y55.333 E.02027
G1 X85.22 Y58.512 E.11188
G1 X85.175 Y59.203 E.02438
G1 X85.047 Y59.856 E.02341
G1 X84.836 Y60.486 E.02341
G1 X84.545 Y61.085 E.02341
G1 X84.18 Y61.64 E.02341
G1 X83.746 Y62.144 E.02341
G1 X83.23 Y62.606 E.02438
G1 X71.755 Y71.621 E.51357
G1 X70.903 Y72.389 E.04037
G1 X70.136 Y73.227 E.03999
G1 X69.456 Y74.115 E.03935
G1 X68.854 Y75.044 E.03895
G1 X68.324 Y76.01 E.03877
G1 X67.864 Y77.012 E.03879
G1 X67.479 Y78.05 E.03899
G1 X67.15 Y79.206 E.04228
G1 X67.15 Y85.973 E.23815
G1 X52.85 Y85.973 E.50328
G1 X52.85 Y79.206 E.23815
G1 X52.521 Y78.05 E.04228
G1 X52.136 Y77.012 E.03899
G1 X51.676 Y76.01 E.03879
G1 X51.146 Y75.044 E.03877
G1 X50.544 Y74.115 E.03895
G1 X49.864 Y73.227 E.03935
G1 X49.097 Y72.389 E.03999
G1 X48.245 Y71.621 E.04037
G1 X36.77 Y62.606 E.51357
G1 X36.254 Y62.144 E.02437
G1 X35.82 Y61.64 E.02341
G1 X35.455 Y61.085 E.02341
G1 X35.164 Y60.486 E.02341
G1 X34.953 Y59.856 E.02341
G1 X34.825 Y59.203 E.02341
G1 X34.78 Y58.512 E.02438
G1 X34.78 Y55.333 E.11188
G1 X34.823 Y54.759 E.02027
G1 X34.944 Y54.228 E.01915
G1 X35.142 Y53.722 E.01915
G1 X35.414 Y53.25 E.01915
G1 X35.772 Y52.8 E.02027
G1 X46.17 Y41.558 E.53893
G1 X46.896 Y40.705 E.03943
G1 X47.561 Y39.781 E.04005
G1 X48.147 Y38.806 E.04005
G1 X48.651 Y37.785 E.04005
G1 X49.069 Y36.727 E.04005
G1 X49.383 Y35.693 E.03802
G1 X49.54 Y35.26 E.01623
G1 X49.745 Y34.914 E.01416
G1 X50.017 Y34.607 E.01444
G1 X50.332 Y34.364 E.01398
G1 X50.691 Y34.181 E.01419
G1 X51.078 Y34.069 E.01419
G1 X51.52 Y34.027 E.01561
G1 X53.227 Y34.027 E.06008
G1 X53.227 Y43.827 E.3449
G1 X66.887 Y43.827 E.48075
G1 E-.5
G1 Z.4 F21000
G1 X81.972 Y55.147 Z.4
G1 Z.2
G1 E.5 F1800
;TYPE:Outer wall
G1 F3000
G1 X82 Y55.143 E.001
G1 X82.473 Y55.205 E.01679
G1 X82.914 Y55.388 E.01679
G1 X83.293 Y55.678 E.0168
G1 X83.583 Y56.057 E.01679
G1 X83.766 Y56.498 E.01679
G1 X83.828 Y56.971 E.01679
G1 X83.766 Y57.444 E.01679
G1 X83.583 Y57.885 E.0168
G1 X83.293 Y58.264 E.01679
M73 P1 R27
G1 X82.914 Y58.554 E.01679
G1 X82.473 Y58.737 E.01679
G1 X82 Y58.799 E.0168
G1 X81.527 Y58.737 E.01679
G1 X81.086 Y58.554 E.01679
G1 X80.707 Y58.264 E.01679
G1 X80.417 Y57.885 E.01679
G1 X80.234 Y57.444 E.01679
G1 X80.172 Y56.971 E.01679
G1 X80.234 Y56.498 E.01679
G1 X80.417 Y56.057 E.01679
G1 X80.707 Y55.678 E.01679
G1 X81.086 Y55.388 E.01679
G1 X81.527 Y55.205 E.01679
G1 X81.932 Y55.152 E.01439
G1 X81.95 Y54.645 F21000
;TYPE:Inner wall
G1 F3000
G1 X82 Y54.639 E.00176
G1 X82.604 Y54.718 E.02143
G1 X83.166 Y54.951 E.02143
G1 X83.649 Y55.322 E.02143
G1 X84.02 Y55.805 E.02143
G1 X84.253 Y56.367 E.02143
G1 X84.332 Y56.971 E.02143
G1 X84.253 Y57.575 E.02143
G1 X84.02 Y58.137 E.02143
G1 X83.649 Y58.62 E.02143
G1 X83.166 Y58.991 E.02143
G1 X82.604 Y59.224 E.02143
G1 X82 Y59.303 E.02143
G1 X81.396 Y59.224 E.02143
G1 X80.834 Y58.991 E.02143
G1 X80.351 Y58.62 E.02143
G1 X79.98 Y58.137 E.02143
G1 X79.747 Y57.575 E.02143
G1 X79.668 Y56.971 E.02143
G1 X79.747 Y56.367 E.02143
G1 X79.98 Y55.805 E.02143
G1 X80.351 Y55.322 E.02143
G1 X80.834 Y54.951 E.02143
G1 X81.396 Y54.718 E.02143
G1 X81.911 Y54.65 E.01826
G1 E-.5
G1 Z.4 F21000
G1 X60.696 Y57.849 Z.4
G1 X60.194 Y57.743
G1 X59.749 Y57.54
G1 X59.369 Y57.289
G1 X39.58 Y58.44
G1 X39.314 Y58.236
G1 Z.2
G1 E.5 F1800
;TYPE:Outer wall
G1 F3000
G1 X39.293 Y58.264 E.00122
G1 X38.914 Y58.554 E.01679
G1 X38.473 Y58.737 E.01679
G1 X38 Y58.799 E.01679
G1 X37.527 Y58.737 E.01679
G1 X37.086 Y58.554 E.01679
G1 X36.707 Y58.264 E.01679
G1 X36.417 Y57.885 E.01679
G1 X36.234 Y57.444 E.01679
G1 X36.172 Y56.971 E.01679
G1 X36.234 Y56.498 E.01679
G1 X36.417 Y56.057 E.01679
G1 X36.707 Y55.678 E.01679
G1 X37.086 Y55.388 E.01679
G1 X37.527 Y55.205 E.01679
G1 X38 Y55.143 E.0168
G1 X38.473 Y55.205 E.01679
G1 X38.914 Y55.388 E.01679
G1 X39.293 Y55.678 E.0168
G1 X39.583 Y56.057 E.01679
G1 X39.766 Y56.498 E.01679
G1 X39.828 Y56.971 E.01679
G1 X39.766 Y57.444 E.01679
G1 X39.583 Y57.885 E.0168
G1 X39.338 Y58.204 E.01416
G1 X39.609 Y58.651 F21000
;TYPE:Inner wall
G1 F3000
G1 X39.166 Y58.991 E.01962
G1 X38.604 Y59.224 E.02143
G1 X38 Y59.303 E.02143
G1 X37.396 Y59.224 E.02143
G1 X36.834 Y58.991 E.02143
G1 X36.351 Y58.62 E.02143
G1 X35.98 Y58.137 E.02143
G1 X35.747 Y57.575 E.02143
G1 X35.668 Y56.971 E.02143
G1 X35.747 Y56.367 E.02143
G1 X35.98 Y55.805 E.02143
G1 X36.351 Y55.322 E.02143
G1 X36.834 Y54.951 E.02143
G1 X37.396 Y54.718 E.02143
G1 X38 Y54.639 E.02143
G1 X38.604 Y54.718 E.02143
G1 X39.166 Y54.951 E.02143
G1 X39.649 Y55.322 E.02143
G1 X40.02 Y55.805 E.02143
G1 X40.253 Y56.367 E.02143
G1 X40.332 Y56.971 E.02143
G1 X40.253 Y57.575 E.02143
G1 X40.02 Y58.137 E.02143
G1 X39.649 Y58.62 E.02143
G1 X39.64 Y58.627 E.0004
G1 E-.5
G1 Z.4 F21000
G1 X58.969 Y50.956 Z.4
G1 Z.2
G1 E.5 F1800
G1 F3000
G1 X59.034 Y50.983 E.00248
G1 X59.625 Y51.11 E.02126
G1 X60.228 Y51.136 E.02126
G1 X60.827 Y51.059 E.02126
G1 X61.405 Y50.882 E.02126
G1 X61.944 Y50.61 E.02126
G1 X62.43 Y50.251 E.02126
G1 X62.848 Y49.815 E.02126
G1 X63.187 Y49.314 E.02126
G1 X63.435 Y48.764 E.02126
G1 X63.588 Y48.179 E.02126
G1 X63.639 Y47.577 E.02126
G1 X63.588 Y46.975 E.02126
G1 X63.435 Y46.39 E.02126
G1 X63.187 Y45.84 E.02126
G1 X62.848 Y45.339 E.02126
G1 X62.43 Y44.903 E.02126
G1 X61.944 Y44.544 E.02126
G1 X61.847 Y44.495 E.00384
G1 X61.897 Y44.284 E.00763
G1 X67.384 Y44.284 E.19311
G1 X67.384 Y34.484 E.3449
G1 X68.458 Y34.484 E.03781
G1 X68.836 Y34.52 E.01333
G1 X69.14 Y34.608 E.01116
G1 X69.423 Y34.752 E.01116
G1 X69.673 Y34.946 E.01116
G1 X69.883 Y35.183 E.01116
G1 X70.045 Y35.456 E.01116
G1 X70.183 Y35.838 E.01428
G1 X70.499 Y36.878 E.03826
G1 X70.932 Y37.972 E.04139
G1 X71.459 Y39.037 E.04184
G1 X72.057 Y40.032 E.04088
G1 X72.743 Y40.987 E.04137
G1 X73.488 Y41.862 E.04043
G1 X83.881 Y53.097 E.53866
G1 X84.207 Y53.508 E.01846
G1 X84.445 Y53.92 E.01674
G1 X84.618 Y54.363 E.01674
G1 X84.724 Y54.827 E.01674
G1 X84.763 Y55.35 E.01846
G1 X84.763 Y55.827 E.0168
G1 X84.542 Y55.871 E.00792
G1 X84.419 Y55.574 E.01132
G1 X83.975 Y54.996 E.02566
G1 X83.397 Y54.552 E.02566
G1 X82.723 Y54.273 E.02566
G1 X82 Y54.178 E.02566
G1 X81.277 Y54.273 E.02566
G1 X80.603 Y54.552 E.02566
G1 X80.025 Y54.996 E.02566
G1 X79.581 Y55.574 E.02566
G1 X79.302 Y56.248 E.02566
G1 X79.207 Y56.971 E.02566
G1 X79.302 Y57.694 E.02566
G1 X79.581 Y58.368 E.02566
G1 X80.025 Y58.946 E.02566
G1 X80.603 Y59.39 E.02566
G1 X81.277 Y59.669 E.02566
G1 X82 Y59.764 E.02566
G1 X82.723 Y59.669 E.02566
G1 X83.397 Y59.39 E.02566
G1 X83.975 Y58.946 E.02566
G1 X84.419 Y58.368 E.02566
G1 X84.542 Y58.07 E.01132
G1 X84.763 Y58.114 E.00792
G1 X84.763 Y58.497 E.01348
G1 X84.721 Y59.144 E.02281
G1 X84.604 Y59.739 E.02132
G1 X84.412 Y60.313 E.02132
G1 X84.147 Y60.858 E.02132
G1 X83.814 Y61.364 E.02132
G1 X83.419 Y61.823 E.02132
G1 X82.936 Y62.256 E.02281
G1 X71.46 Y71.271 E.51359
G1 X70.58 Y72.064 E.04169
G1 X69.785 Y72.934 E.04147
G1 X69.082 Y73.852 E.04069
G1 X68.462 Y74.81 E.04017
G1 X67.916 Y75.805 E.03994
G1 X67.442 Y76.837 E.03997
G1 X67.044 Y77.908 E.04022
G1 X66.693 Y79.142 E.04516
G1 X66.693 Y85.516 E.22431
G1 X53.307 Y85.516 E.47111
G1 X53.307 Y79.142 E.22431
G1 X52.956 Y77.908 E.04516
G1 X52.558 Y76.837 E.04022
G1 X52.084 Y75.805 E.03997
G1 X51.538 Y74.81 E.03994
G1 X50.918 Y73.852 E.04017
G1 X50.215 Y72.934 E.04069
G1 X49.42 Y72.064 E.04147
G1 X48.54 Y71.271 E.04169
G1 X37.064 Y62.256 E.51359
G1 X36.581 Y61.824 E.02281
G1 X36.186 Y61.364 E.02132
G1 X35.853 Y60.858 E.02132
G1 X35.588 Y60.313 E.02132
G1 X35.396 Y59.739 E.02132
G1 X35.279 Y59.144 E.02132
G1 X35.237 Y58.497 E.02281
G1 X35.237 Y58.114 E.01348
G1 X35.458 Y58.07 E.00792
G1 X35.581 Y58.368 E.01132
G1 X36.025 Y58.946 E.02566
G1 X36.603 Y59.39 E.02566
G1 X37.277 Y59.669 E.02566
G1 X38 Y59.764 E.02566
G1 X38.723 Y59.669 E.02566
G1 X39.397 Y59.39 E.02566
G1 X39.975 Y58.946 E.02566
G1 X40.419 Y58.368 E.02566
G1 X40.698 Y57.694 E.02566
G1 X40.793 Y56.971 E.02566
G1 X40.698 Y56.248 E.02566
G1 X40.419 Y55.574 E.02566
G1 X39.975 Y54.996 E.02566
G1 X39.397 Y54.552 E.02566
G1 X38.723 Y54.273 E.02566
G1 X38 Y54.178 E.02566
G1 X37.277 Y54.273 E.02566
G1 X36.603 Y54.552 E.02566
G1 X36.025 Y54.996 E.02566
G1 X35.581 Y55.574 E.02566
G1 X35.458 Y55.871 E.01132
G1 X35.237 Y55.827 E.00792
G1 X35.237 Y55.35 E.0168
G1 X35.276 Y54.827 E.01846
G1 X35.382 Y54.363 E.01674
G1 X35.555 Y53.92 E.01674
G1 X35.793 Y53.508 E.01674
G1 X36.119 Y53.097 E.01846
G1 X46.512 Y41.862 E.53866
G1 X47.257 Y40.987 E.04043
G1 X47.943 Y40.032 E.04137
G1 X48.548 Y39.025 E.04137
G1 X49.069 Y37.971 E.04137
G1 X49.501 Y36.878 E.04137
G1 X49.817 Y35.838 E.03826
G1 X49.955 Y35.456 E.01428
G1 X50.116 Y35.185 E.0111
G1 X50.331 Y34.942 E.0114
G1 X50.577 Y34.752 E.01096
G1 X50.86 Y34.608 E.01116
G1 X51.164 Y34.52 E.01116
G1 X51.542 Y34.484 E.01333
G1 X52.77 Y34.484 E.04323
G1 X52.77 Y44.284 E.3449
G1 X58.276 Y44.284 E.19377
G1 X58.332 Y44.484 E.0073
G1 X57.959 Y44.713 E.01542
G1 X57.506 Y45.112 E.02126
G1 X57.126 Y45.583 E.02126
G1 X56.831 Y46.11 E.02126
G1 X56.63 Y46.68 E.02126
G1 X56.528 Y47.275 E.02126
G1 X56.528 Y47.879 E.02126
