; HEADER_BLOCK_START
; generated by OrcaSlicer 1.7.0-beta on 2023-09-11 at 09:34:14
; total layer number: 105
; HEADER_BLOCK_END

; THUMBNAIL_BLOCK_START
; THUMBNAIL_BLOCK_END

; external perimeters extrusion width = 0.40mm
; perimeters extrusion width = 0.46mm
; infill extrusion width = 0.64mm
; solid infill extrusion width = 0.56mm
; top infill extrusion width = 0.40mm
; first layer extrusion width = 0.50mm

; EXECUTABLE_BLOCK_START
EXCLUDE_OBJECT_DEFINE NAME=ebbforprinted.stl_id_0_copy_0 CENTER=60,60 POLYGON=[[33.93,44.3014],[33.9485,43.8946],[33.9801,43.6321],[34.0044,43.4868],[34.0986,43.0812],[34.1291,42.9777],[34.2317,42.6813],[34.3738,42.3527],[34.4025,42.2941],[34.6093,41.9239],[34.7088,41.7711],[34.8511,41.5735],[49.0555,23.4101],[49.4289,22.9877],[49.8747,22.6427],[50.3772,22.3871],[50.9187,22.23],[51.48,22.177],[68.52,22.177],[69.0813,22.23],[69.6228,22.3871],[70.1253,22.6427],[70.5711,22.9877],[70.9445,23.4101],[85.147,41.571],[85.2912,41.7711],[85.3889,41.921],[85.5956,42.2904],[85.6262,42.3527],[85.7663,42.6763],[85.8709,42.9777],[85.8999,43.0757],[85.995,43.4836],[86.0199,43.6321],[86.0514,43.8933],[86.07,44.3014],[86.07,47.5396],[86.0493,48.0379],[86.0199,48.3131],[85.9869,48.5353],[85.8822,49.0294],[85.8706,49.0736],[85.7346,49.5174],[68,97.823],[52,97.823],[34.265,49.5165],[34.1294,49.0736],[34.1178,49.0292],[34.0132,48.5352],[33.9801,48.3131],[33.9507,48.037],[33.93,47.5396],[33.93,44.3014]]
M73 P0 R29
;TYPE:Custom
START_PRINT T_BED=110 T_EXTRUDER=260
G90
G21
M83 ; use relative distances for extrusion
; Filament gcode

    PRESSURE_ADVANCE_SELECT FILAMENT=ABS
M106 S0
;LAYER_CHANGE
;Z:0.2
;HEIGHT:0.2
;BEFORE_LAYER_CHANGE
;0.2
G92 E0

;AFTER_LAYER_CHANGE
;0.2
;_SET_FAN_SPEED_CHANGING_LAYER
SET_VELOCITY_LIMIT ACCEL=500 ACCEL_TO_DECEL=250
G1 E-.5 F3000
G1 Z.2 F21000
G1 X39.52 Y30.88
G1 Z.2
G1 E.5 F1800
;TYPE:Skirt
;WIDTH:0.5
G1 F3000
G1 X46.759 Y21.616 E.41378
G1 X47.645 Y20.683 E.04527
G1 X48.554 Y20.045 E.03907
G1 X49.565 Y19.588 E.03907
G1 X50.107 Y19.431 E.01984
G1 X51.48 Y19.263 E.04869
G1 X68.794 Y19.276 E.60934
G1 X69.893 Y19.431 E.03907
G1 X70.944 Y19.79 E.03907
G1 X71.909 Y20.338 E.03907
G1 X72.755 Y21.058 E.03907
G1 X87.817 Y40.317 E.86047
G1 X88.152 Y40.898 E.02362
G1 X88.584 Y41.915 E.03889
G1 X88.926 Y43.415 E.05413
G1 X88.984 Y47.54 E.14518
G1 X88.928 Y48.501 E.0339
G1 X88.73 Y49.635 E.04051
G1 X88.36 Y50.813 E.04344
G1 X70.736 Y98.827 E1.80005
G1 X69.863 Y100.064 E.05327
G1 X68 Y100.737 E.06971
G1 X52 Y100.737 E.5631
G1 X50.538 Y100.344 E.05327
G1 X49.264 Y98.827 E.06971
G1 X31.64 Y50.813 E1.80005
G1 X31.27 Y49.635 E.04344
G1 X31.072 Y48.501 E.04051
G1 X31.022 Y47.728 E.02728
G1 X31.016 Y44.301 E.12059
G1 X31.139 Y42.985 E.04653
G1 X31.288 Y42.331 E.02362
G1 X31.66 Y41.29 E.03889
G1 X32.412 Y39.977 E.05327
G1 X39.496 Y30.912 E.40488
G1 X39.856 Y31.193 F21000
G1 F3000
G1 X47.119 Y21.897 E.41518
G1 X47.925 Y21.045 E.04128
G1 X48.761 Y20.453 E.03605
G1 X49.263 Y20.197 E.01984
G1 X50.234 Y19.87 E.03605
G1 X51.48 Y19.72 E.04416
G1 X68.751 Y19.731 E.60783
G1 X69.766 Y19.87 E.03605
G1 X70.737 Y20.197 E.03605
G1 X71.629 Y20.7 E.03605
G1 X72.412 Y21.36 E.03605
G1 X87.42 Y40.545 E.85724
G1 X87.914 Y41.457 E.0365
G1 X88.159 Y42.082 E.02362
G1 X88.47 Y43.449 E.04934
G1 X88.527 Y47.54 E.14398
G1 X88.472 Y48.472 E.03286
G1 X88.282 Y49.547 E.03843
G1 X87.931 Y50.655 E.04091
G1 X70.307 Y98.67 E1.80005
G1 X69.48 Y99.784 E.04884
G1 X68 Y100.28 E.05493
G1 X52 Y100.28 E.5631
G1 X50.669 Y99.888 E.04884
G1 X49.693 Y98.67 E.05493
G1 X32.069 Y50.655 E1.80005
G1 X31.718 Y49.547 E.04091
G1 X31.528 Y48.472 E.03843
G1 X31.478 Y47.698 E.02728
G1 X31.473 Y44.301 E.11955
G1 X31.584 Y43.086 E.04294
G1 X31.841 Y42.082 E.0365
G1 X32.086 Y41.457 E.02362
G1 X32.773 Y40.258 E.04862
G1 X39.831 Y31.225 E.40347
; printing object ebbforprinted.stl id:0 copy 0
G1 E-.5
EXCLUDE_OBJECT_START NAME=ebbforprinted.stl_id_0_copy_0
G1 Z.4 F21000
G1 X66.327 Y32.227 Z.4
G1 Z.2
G1 E.5 F1800
;TYPE:Outer wall
G1 F3000
G1 X66.327 Y22.427 E.3449
G1 X68.508 Y22.427 E.07677
G1 X69.034 Y22.477 E.0186
G1 X69.53 Y22.621 E.01818
G1 X69.991 Y22.855 E.01818
G1 X70.399 Y23.171 E.01818
G1 X70.742 Y23.558 E.01818
G1 X71.005 Y24.002 E.01818
G3 X71.498 Y25.529 I-14.143 J5.406 E.0565
G2 X74.279 Y30.16 I12.982 J-4.646 E.19132
G1 X84.684 Y41.409 E.53928
G1 X85.084 Y41.912 E.02263
G3 X85.772 Y43.669 I-4.01 J2.584 E.06686
G1 X85.82 Y44.311 E.02264
G1 X85.82 Y47.532 E.11335
G1 X85.772 Y48.281 E.02642
G1 X85.628 Y49.01 E.02614
G1 X85.393 Y49.714 E.02614
G1 X85.068 Y50.382 E.02614
G1 X84.66 Y51.002 E.02614
G1 X84.175 Y51.565 E.02614
G1 X83.616 Y52.066 E.02642
G1 X72.141 Y61.08 E.51354
G1 X71.326 Y61.815 E.03864
G2 X67.75 Y68.29 I10.121 J9.814 E.26337
G1 X67.75 Y97.573 E1.03059
G1 X52.25 Y97.573 E.54551
G1 X52.25 Y68.29 E1.03059
G2 X48.674 Y61.815 I-13.713 J3.349 E.26336
G1 X47.859 Y61.08 E.03864
G1 X36.384 Y52.066 E.51354
G1 X35.825 Y51.565 E.02642
G1 X35.34 Y51.002 E.02614
G1 X34.932 Y50.382 E.02614
G1 X34.607 Y49.714 E.02614
G1 X34.372 Y49.01 E.02614
G1 X34.228 Y48.281 E.02614
G1 X34.18 Y47.532 E.02642
G1 X34.18 Y44.311 E.11335
G1 X34.228 Y43.669 E.02264
G3 X34.916 Y41.912 I4.698 J.826 E.06686
G1 X35.316 Y41.409 E.02263
G1 X45.721 Y30.16 E.53928
G2 X48.813 Y24.504 I-9.719 J-8.986 E.22915
G1 X48.995 Y24.002 E.01878
G1 X49.258 Y23.558 E.01818
G1 X49.601 Y23.171 E.01818
G1 X50.009 Y22.855 E.01818
G1 X50.47 Y22.621 E.01818
G1 X50.966 Y22.477 E.01818
G1 X51.492 Y22.427 E.0186
G1 X53.827 Y22.427 E.08219
G1 X53.827 Y32.227 E.3449
G1 X66.287 Y32.227 E.43852
G1 X66.784 Y32.684 F21000
;TYPE:Inner wall
G1 F3000
G1 X66.784 Y22.884 E.3449
G1 X68.487 Y22.884 E.05992
G3 X70.753 Y24.648 I-.007 J2.346 E.10877
G2 X73.937 Y30.463 I13.224 J-3.461 E.23567
G1 X84.336 Y41.706 E.53901
G3 X85.363 Y44.328 I-2.939 J2.662 E.10128
G1 X85.363 Y47.517 E.11223
G3 X83.322 Y51.716 I-5.406 J-.032 E.16991
G1 X71.847 Y60.73 E.51356
G1 X71.003 Y61.491 E.03996
G1 X70.245 Y62.319 E.03953
G2 X67.293 Y68.226 I11.413 J9.395 E.23437
G1 X67.293 Y97.116 E1.01675
G1 X52.707 Y97.116 E.51333
M73 P1 R29
G1 X52.707 Y68.226 E1.01675
G2 X48.997 Y61.491 I-14.197 J3.431 E.27386
G1 X48.153 Y60.73 E.03996
G1 X36.678 Y51.716 E.51356
G3 X34.637 Y47.517 I3.365 J-4.231 E.16991
G1 X34.637 Y44.328 E.11223
G3 X35.664 Y41.706 I3.965 J.041 E.10128
G1 X46.063 Y30.463 E.53901
G2 X49.247 Y24.648 I-10.04 J-9.276 E.23567
G3 X49.914 Y23.506 I2.521 J.707 E.04707
G3 X51.513 Y22.884 I1.586 J1.712 E.06183
G1 X53.37 Y22.884 E.06534
G1 X53.37 Y32.684 E.3449
G1 X66.744 Y32.684 E.47069
G1 X67.241 Y33.141 F21000
G1 F3000
G1 X67.241 Y23.341 E.3449
G1 X68.465 Y23.341 E.04308
G3 X70.319 Y24.792 I.014 J1.892 E.08943
G1 X70.634 Y25.831 E.03819
G2 X73.595 Y30.767 I13.864 J-4.961 E.20388
G1 X83.989 Y42.004 E.53874
G3 X84.906 Y44.345 I-2.59 J2.364 E.09048
G1 X84.906 Y45.957 E.05672
G1 X84.688 Y45.971 E.0077
G1 X84.906 Y45.985 E.0077
G1 X84.906 Y47.502 E.05338
G3 X83.028 Y51.366 I-4.948 J-.017 E.15639
G1 X71.552 Y60.381 E.51359
G1 X70.681 Y61.166 E.04128
G1 X69.895 Y62.026 E.04101
G2 X67.18 Y66.953 I12.381 J10.033 E.19902
G1 X66.836 Y68.162 E.04426
G1 X66.836 Y96.659 E1.0029
G1 X53.164 Y96.659 E.48116
G1 X53.164 Y68.162 E1.0029
G1 X52.82 Y66.953 E.04426
G2 X49.319 Y61.166 I-14.337 J4.722 E.24007
G1 X48.448 Y60.381 E.04128
G1 X36.972 Y51.366 E.51358
G3 X35.094 Y47.502 I3.07 J-3.881 E.15639
G1 X35.094 Y45.985 E.05338
G1 X35.312 Y45.971 E.00768
G1 X35.094 Y45.957 E.00768
G1 X35.094 Y44.345 E.05672
G3 X36.011 Y42.004 I3.506 J.023 E.09048
G1 X46.405 Y30.767 E.53874
G1 X47.144 Y29.899 E.04011
G2 X49.681 Y24.792 I-11.63 J-8.961 E.20195
G3 X51.535 Y23.341 I1.84 J.441 E.08943
G1 X52.913 Y23.341 E.0485
G1 X52.913 Y33.141 E.3449
G1 X67.201 Y33.141 E.50286
G1 E-.5
G1 Z.4 F21000
G1 X81.952 Y44.25 Z.4
G1 Z.2
G1 E.5 F1800
;TYPE:Outer wall
G1 F3000
G1 X82 Y44.244 E.00171
G1 X82.447 Y44.303 E.01587
G1 X82.864 Y44.475 E.01587
G1 X83.221 Y44.75 E.01587
G1 X83.496 Y45.107 E.01587
G1 X83.668 Y45.524 E.01587
G1 X83.727 Y45.971 E.01587
G1 X83.668 Y46.418 E.01587
G1 X83.496 Y46.834 E.01587
G1 X83.221 Y47.192 E.01587
G1 X82.864 Y47.467 E.01587
G1 X82.447 Y47.639 E.01587
G1 X82 Y47.698 E.01587
G1 X81.553 Y47.639 E.01587
G1 X81.136 Y47.467 E.01587
G1 X80.779 Y47.192 E.01587
G1 X80.504 Y46.834 E.01587
G1 X80.332 Y46.418 E.01587
G1 X80.273 Y45.971 E.01587
G1 X80.332 Y45.524 E.01587
G1 X80.504 Y45.107 E.01587
G1 X80.779 Y44.75 E.01587
G1 X81.136 Y44.475 E.01587
G1 X81.553 Y44.303 E.01587
G1 X81.912 Y44.255 E.01275
G1 X82.048 Y43.789 F21000
;TYPE:Inner wall
G1 F3000
G1 X82.566 Y43.857 E.01838
G1 X83.094 Y44.076 E.0201
G1 X83.547 Y44.424 E.0201
G1 X83.895 Y44.877 E.0201
G1 X84.114 Y45.405 E.0201
G1 X84.188 Y45.971 E.0201
G1 X84.114 Y46.537 E.0201
G1 X83.895 Y47.065 E.0201
G1 X83.547 Y47.518 E.0201
G1 X83.094 Y47.866 E.0201
G1 X82.566 Y48.085 E.0201
G1 X82 Y48.159 E.0201
G1 X81.434 Y48.085 E.0201
G1 X80.906 Y47.866 E.0201
G1 X80.453 Y47.518 E.0201
G1 X80.105 Y47.065 E.0201
G1 X79.886 Y46.537 E.0201
G1 X79.812 Y45.971 E.0201
G1 X79.886 Y45.405 E.0201
G1 X80.105 Y44.877 E.0201
G1 X80.453 Y44.424 E.0201
G1 X80.906 Y44.076 E.0201
G1 X81.434 Y43.857 E.0201
G1 X82 Y43.783 E.0201
G1 X82.009 Y43.784 E.00031
G1 X82.097 Y43.334 F21000
G1 F3000
G1 X82.686 Y43.412 E.02089
G1 X83.325 Y43.677 E.02434
G1 X83.873 Y44.098 E.02434
G1 X84.294 Y44.646 E.02434
G1 X84.559 Y45.285 E.02434
G1 X84.649 Y45.971 E.02434
G1 X84.559 Y46.657 E.02434
G1 X84.294 Y47.296 E.02434
G1 X83.873 Y47.844 E.02434
G1 X83.325 Y48.265 E.02434
G1 X82.686 Y48.53 E.02434
G1 X82 Y48.62 E.02434
G1 X81.314 Y48.53 E.02434
G1 X80.675 Y48.265 E.02434
G1 X80.127 Y47.844 E.02434
G1 X79.706 Y47.296 E.02434
G1 X79.441 Y46.657 E.02434
G1 X79.351 Y45.971 E.02434
G1 X79.441 Y45.285 E.02434
G1 X79.706 Y44.646 E.02434
G1 X80.127 Y44.098 E.02434
G1 X80.675 Y43.677 E.02434
G1 X81.314 Y43.412 E.02434
G1 X82 Y43.322 E.02434
G1 X82.057 Y43.329 E.00204
G1 E-.5
G1 Z.4 F21000
G1 X60.44 Y41.918 Z.4
G1 X59.955 Y41.89
G1 X38 Y43.804
G1 X37.895 Y43.818
G1 X37.952 Y44.25
G1 Z.2
G1 E.5 F1800
;TYPE:Outer wall
G1 F3000
G1 X38 Y44.244 E.00171
G1 X38.447 Y44.303 E.01587
G1 X38.864 Y44.475 E.01587
G1 X39.221 Y44.75 E.01587
G1 X39.496 Y45.107 E.01587
G1 X39.668 Y45.524 E.01587
G1 X39.727 Y45.971 E.01587
G1 X39.668 Y46.418 E.01587
G1 X39.496 Y46.834 E.01587
G1 X39.221 Y47.192 E.01587
G1 X38.864 Y47.467 E.01587
G1 X38.447 Y47.639 E.01587
G1 X38 Y47.698 E.01587
G1 X37.553 Y47.639 E.01587
G1 X37.136 Y47.467 E.01587
G1 X36.779 Y47.192 E.01587
G1 X36.504 Y46.834 E.01587
G1 X36.332 Y46.418 E.01587
G1 X36.273 Y45.971 E.01587
G1 X36.332 Y45.524 E.01587
G1 X36.504 Y45.107 E.01587
G1 X36.779 Y44.75 E.01587
G1 X37.136 Y44.475 E.01587
G1 X37.553 Y44.303 E.01587
G1 X37.912 Y44.255 E.01275
G1 X37.952 Y43.789 F21000
;TYPE:Inner wall
G1 F3000
G1 X38 Y43.783 E.00172
G1 X38.566 Y43.857 E.0201
G1 X39.094 Y44.076 E.0201
G1 X39.547 Y44.424 E.0201
G1 X39.895 Y44.877 E.0201
G1 X40.114 Y45.405 E.0201
G1 X40.188 Y45.971 E.0201
G1 X40.114 Y46.537 E.0201
G1 X39.895 Y47.065 E.0201
G1 X39.547 Y47.518 E.0201
G1 X39.094 Y47.866 E.0201
G1 X38.566 Y48.085 E.0201
G1 X38 Y48.159 E.0201
G1 X37.434 Y48.085 E.0201
G1 X36.906 Y47.866 E.0201
G1 X36.453 Y47.518 E.0201
G1 X36.105 Y47.065 E.0201
G1 X35.886 Y46.537 E.0201
G1 X35.812 Y45.971 E.0201
G1 X35.886 Y45.405 E.0201
G1 X36.105 Y44.877 E.0201
G1 X36.453 Y44.424 E.0201
G1 X36.906 Y44.076 E.0201
G1 X37.434 Y43.857 E.0201
G1 X37.912 Y43.794 E.01698
G1 X37.903 Y43.334 F21000
G1 F3000
G1 X38 Y43.322 E.00345
G1 X38.686 Y43.412 E.02434
G1 X39.325 Y43.677 E.02434
G1 X39.873 Y44.098 E.02434
G1 X40.294 Y44.646 E.02434
G1 X40.559 Y45.285 E.02434
G1 X40.649 Y45.971 E.02434
G1 X40.559 Y46.657 E.02434
G1 X40.294 Y47.296 E.02434
G1 X39.873 Y47.844 E.02434
G1 X39.325 Y48.265 E.02434
G1 X38.686 Y48.53 E.02434
G1 X38 Y48.62 E.02434
G1 X37.314 Y48.53 E.02434
G1 X36.675 Y48.265 E.02434
G1 X36.127 Y47.844 E.02434
G1 X35.706 Y47.296 E.02434
G1 X35.441 Y46.657 E.02434
G1 X35.351 Y45.971 E.02434
G1 X35.441 Y45.285 E.02434
G1 X35.706 Y44.646 E.02434
G1 X36.127 Y44.098 E.02434
G1 X36.675 Y43.677 E.02434
G1 X37.314 Y43.412 E.02434
G1 X37.863 Y43.34 E.01948
G1 E-.5
G1 Z.4 F21000
G1 X60.471 Y39.571 Z.4
G1 Z.2
G1 E.5 F1800
G1 F3000
G1 X60.604 Y39.563 E.00468
G1 X61.278 Y39.361 E.02478
G1 X61.888 Y39.009 E.02478
G1 X62.4 Y38.526 E.02478
G1 X62.787 Y37.938 E.02478
G1 X63.028 Y37.276 E.02478
G1 X63.109 Y36.577 E.02478
G1 X63.028 Y35.878 E.02478
G1 X62.787 Y35.216 E.02478
G1 X62.4 Y34.628 E.02478
G1 X61.888 Y34.145 E.02478
G1 X61.293 Y33.802 E.02416
G1 X61.348 Y33.598 E.00741
G1 X67.698 Y33.598 E.2235
G1 X67.698 Y23.798 E.3449
G1 X68.444 Y23.798 E.02623
G3 X69.885 Y24.937 I.019 J1.458 E.06994
G1 X70.202 Y25.981 E.03842
G1 X70.644 Y27.098 E.04228
G1 X71.176 Y28.176 E.04228
G1 X71.795 Y29.205 E.04228
G1 X72.496 Y30.181 E.04228
G1 X73.253 Y31.07 E.04111
G1 X83.642 Y42.302 E.53847
G3 X84.429 Y43.948 I-2.218 J2.071 E.06521
G1 X83.555 Y43.277 E.03877
G1 X82.805 Y42.967 E.02858
G1 X82 Y42.861 E.02857
G1 X81.195 Y42.967 E.02857
G1 X80.445 Y43.277 E.02858
G1 X79.801 Y43.772 E.02858
G1 X79.306 Y44.416 E.02857
G1 X78.996 Y45.166 E.02858
G1 X78.89 Y45.971 E.02857
G1 X78.996 Y46.776 E.02857
G1 X79.306 Y47.526 E.02858
G1 X79.801 Y48.17 E.02858
G1 X80.445 Y48.664 E.02857
G1 X81.195 Y48.975 E.02858
G1 X82 Y49.081 E.02858
G1 X82.805 Y48.975 E.02858
G1 X83.555 Y48.664 E.02858
G1 X84.431 Y47.993 E.03884
G3 X83.873 Y49.703 I-5.045 J-.699 E.06363
G3 X82.734 Y51.015 I-4.284 J-2.567 E.06149
G1 X71.258 Y60.031 E.51361
G1 X70.359 Y60.841 E.0426
G1 X69.544 Y61.732 E.04249
G2 X66.745 Y66.81 I12.752 J10.338 E.20515
G1 X66.379 Y68.099 E.04713
G1 X66.379 Y96.202 E.98906
M73 P1 R28
G1 X53.621 Y96.202 E.44899
G1 X53.621 Y68.099 E.98906
G1 X53.255 Y66.81 E.04713
G2 X49.641 Y60.841 I-14.775 J4.866 E.24768
G1 X48.742 Y60.031 E.0426
G1 X37.266 Y51.015 E.51361
G3 X35.7 Y48.658 I2.845 J-3.589 E.10125
G1 X35.569 Y47.993 E.02387
G1 X36.445 Y48.664 E.03884
G1 X37.195 Y48.975 E.02858
G1 X38 Y49.081 E.02858
G1 X38.805 Y48.975 E.02858
G1 X39.555 Y48.664 E.02857
G1 X40.199 Y48.17 E.02858
G1 X40.694 Y47.526 E.02857
G1 X41.004 Y46.776 E.02858
G1 X41.11 Y45.971 E.02857
G1 X41.004 Y45.166 E.02857
G1 X40.694 Y44.416 E.02858
G1 X40.199 Y43.772 E.02858
G1 X39.555 Y43.277 E.02857
G1 X38.805 Y42.967 E.02858
G1 X38 Y42.861 E.02857
G1 X37.195 Y42.967 E.02857
G1 X36.445 Y43.277 E.02858
G1 X35.571 Y43.948 E.03877
G3 X36.358 Y42.302 I3.004 J.425 E.06522
G1 X46.747 Y31.07 E.53847
M73 P2 R28
G1 X47.504 Y30.181 E.04111
G1 X48.205 Y29.205 E.04228
G1 X48.824 Y28.176 E.04228
G1 X49.356 Y27.098 E.04228
G1 X49.798 Y25.981 E.04228
G3 X50.24 Y24.591 I13.324 J3.47 E.05138
G3 X51.556 Y23.798 I1.284 J.643 E.05706
G1 X52.456 Y23.798 E.03165
G1 X52.456 Y33.598 E.3449
G1 X58.826 Y33.598 E.2242
G1 X58.871 Y33.817 E.00786
G1 X58.561 Y33.951 E.0119
G1 X57.996 Y34.371 E.02478
G1 X57.544 Y34.911 E.02478
G1 X57.228 Y35.54 E.02478
G1 X57.065 Y36.225 E.02478
G1 X57.065 Y36.929 E.02478
G1 X57.228 Y37.614 E.02478
G1 X57.544 Y38.243 E.02478
G1 X57.996 Y38.783 E.02478
G1 X58.561 Y39.203 E.02478
G1 X59.207 Y39.482 E.02478
G1 X59.901 Y39.604 E.02478
G1 X60.431 Y39.573 E.0187
G1 X60.506 Y40.027 F21000
G1 F3000
G1 X60.683 Y40.016 E.00624
G1 X61.46 Y39.784 E.02854
G1 X62.163 Y39.378 E.02854
G1 X62.752 Y38.822 E.02854
G1 X63.198 Y38.144 E.02854
G1 X63.475 Y37.382 E.02854
G1 X63.569 Y36.577 E.02854
G1 X63.475 Y35.772 E.02854
G1 X63.198 Y35.01 E.02854
G1 X62.752 Y34.332 E.02854
G1 X62.459 Y34.055 E.0142
G1 X68.155 Y34.055 E.20048
G1 X68.155 Y24.255 E.3449
G3 X68.855 Y24.328 I.134 J2.102 E.02489
G3 X69.451 Y25.081 I-.442 J.962 E.03506
G1 X69.77 Y26.132 E.03865
G1 X70.226 Y27.284 E.0436
G1 X70.774 Y28.395 E.0436
G1 X71.413 Y29.457 E.0436
G1 X72.136 Y30.463 E.0436
G1 X72.911 Y31.374 E.0421
G1 X83.264 Y42.566 E.53657
G1 X82 Y42.4 E.04486
G1 X81.076 Y42.521 E.03281
G1 X80.214 Y42.878 E.03281
G1 X79.475 Y43.446 E.03281
G1 X78.907 Y44.185 E.03281
G1 X78.55 Y45.047 E.03281
G1 X78.429 Y45.971 E.03281
G1 X78.55 Y46.895 E.03281
G1 X78.907 Y47.757 E.03281
G1 X79.475 Y48.496 E.03281
G1 X80.214 Y49.064 E.03281
G1 X81.076 Y49.42 E.03281
G1 X82 Y49.542 E.03281
