; HEADER_BLOCK_START
; generated by OrcaSlicer 1.7.0-beta on 2023-10-01 at 20:06:52
; total layer number: 121
; HEADER_BLOCK_END

; THUMBNAIL_BLOCK_START
; THUMBNAIL_BLOCK_END

; external perimeters extrusion width = 0.40mm
; perimeters extrusion width = 0.46mm
; infill extrusion width = 0.64mm
; solid infill extrusion width = 0.56mm
; top infill extrusion width = 0.40mm
; first layer extrusion width = 0.50mm

; EXECUTABLE_BLOCK_START
EXCLUDE_OBJECT_DEFINE NAME=ebbtest2.stl_id_0_copy_0 CENTER=60,60 POLYGON=[[33.93,45.8014],[33.9485,45.3946],[33.9801,45.1321],[34.0044,44.9868],[34.0986,44.5812],[34.1291,44.4777],[34.2317,44.1813],[34.3738,43.8527],[34.4025,43.7941],[34.6093,43.4239],[34.7088,43.2711],[34.8511,43.0735],[35.1265,42.7457],[43.5148,33.677],[76.4852,33.677],[84.8735,42.7457],[85.147,43.071],[85.2912,43.2711],[85.3889,43.421],[85.5956,43.7904],[85.6262,43.8527],[85.7663,44.1763],[85.8709,44.4777],[85.8999,44.5757],[85.995,44.9836],[86.0199,45.1321],[86.0514,45.3933],[86.07,45.8014],[86.07,49.0396],[86.0493,49.5379],[86.0199,49.8131],[85.9869,50.0353],[85.8822,50.5294],[85.8706,50.5736],[85.7346,51.0174],[85.6244,51.3086],[85.5443,51.4955],[85.3137,51.9557],[68.0002,86.323],[51.9998,86.323],[34.6859,51.955],[34.455,51.4942],[34.3756,51.3086],[34.265,51.0165],[34.1294,50.5736],[34.1178,50.5292],[34.0132,50.0352],[33.9801,49.8131],[33.9507,49.537],[33.93,49.0396],[33.93,45.8014]]
M73 P0 R31
;TYPE:Custom
START_PRINT T_BED=110 T_EXTRUDER=260
G90
G21
M83 ; use relative distances for extrusion
; Filament gcode

    PRESSURE_ADVANCE_SELECT FILAMENT=ABS
M106 S0
;LAYER_CHANGE
;Z:0.2
;HEIGHT:0.2
;BEFORE_LAYER_CHANGE
;0.2
G92 E0

;AFTER_LAYER_CHANGE
;0.2
;_SET_FAN_SPEED_CHANGING_LAYER
SET_VELOCITY_LIMIT ACCEL=1000 ACCEL_TO_DECEL=500
SET_VELOCITY_LIMIT SQUARE_CORNER_VELOCITY=9
G1 E-.5 F3000
G1 Z.2 F21000
G1 X38.099 Y35.24
G1 Z.2
G1 E.5 F1800
;TYPE:Skirt
;WIDTH:0.5
G1 F3000
G1 X41.375 Y31.698 E.16981
G1 X42.657 Y30.892 E.05327
G1 X43.515 Y30.763 E.03054
G1 X76.485 Y30.763 E1.16036
G1 X77.947 Y31.156 E.05327
G1 X78.625 Y31.698 E.03054
G1 X87.013 Y40.767 E.43476
G1 X87.817 Y41.817 E.04653
G1 X88.328 Y42.767 E.03798
G1 X88.712 Y43.831 E.0398
G1 X88.926 Y44.915 E.03889
G1 X88.984 Y49.04 E.14518
G1 X88.928 Y50.001 E.0339
G1 X88.73 Y51.135 E.04051
G1 X88.245 Y52.583 E.05372
G1 X70.603 Y87.634 E1.38104
G1 X69.594 Y88.763 E.05327
G1 X68 Y89.237 E.05853
G1 X52 Y89.237 E.56311
G1 X50.538 Y88.844 E.05327
G1 X49.397 Y87.634 E.05853
G1 X31.755 Y52.583 E1.38104
G1 X31.27 Y51.135 E.05372
G1 X31.072 Y50.001 E.04051
G1 X31.016 Y49.04 E.0339
G1 X31.074 Y44.915 E.14518
G1 X31.288 Y43.831 E.03889
G1 X31.66 Y42.79 E.03889
G1 X32.183 Y41.817 E.03889
G1 X32.987 Y40.767 E.04653
G1 X38.072 Y35.27 E.26354
G1 X38.407 Y35.58 F21000
G1 F3000
G1 X41.711 Y32.009 E.17122
G1 X43.515 Y31.22 E.06928
G1 X76.485 Y31.22 E1.16036
G1 X78.289 Y32.009 E.06928
G1 X86.677 Y41.077 E.43476
G1 X87.42 Y42.045 E.04294
G1 X87.903 Y42.935 E.03564
G1 X88.267 Y43.932 E.03735
G1 X88.47 Y44.949 E.0365
G1 X88.522 Y49.198 E.14957
G1 X88.472 Y49.972 E.02728
G1 X88.282 Y51.047 E.03843
G1 X87.954 Y52.089 E.03843
G1 X87.495 Y53.08 E.03843
G1 X70.195 Y87.428 E1.35354
G1 X69.246 Y88.441 E.04884
G1 X68 Y88.78 E.04543
G1 X52 Y88.78 E.56311
G1 X50.669 Y88.388 E.04884
G1 X49.805 Y87.428 E.04543
G1 X32.046 Y52.089 E1.39195
G1 X31.718 Y51.047 E.03843
G1 X31.528 Y49.972 E.03843
G1 X31.473 Y45.801 E.14679
G1 X31.53 Y44.949 E.03007
G1 X31.733 Y43.932 E.0365
G1 X32.245 Y42.626 E.04934
G1 X32.786 Y41.742 E.0365
G1 X33.323 Y41.077 E.03007
G1 X38.38 Y35.61 E.26213
; printing object ebbtest2.stl id:0 copy 0
G1 E-.5
EXCLUDE_OBJECT_START NAME=ebbtest2.stl_id_0_copy_0
G1 Z.4 F21000
G1 X53.65 Y41.928 Z.4
G1 Z.2
G1 E.5 F1800
;TYPE:Outer wall
G1 F3000
G1 X66.35 Y41.952 E.44697
G1 X66.35 Y34.027 E.27891
G1 X76.332 Y34.027 E.35131
G1 X84.608 Y42.974 E.42891
G1 X85.001 Y43.468 E.02224
G1 X85.302 Y43.991 E.02124
G1 X85.536 Y44.581 E.02233
G1 X85.673 Y45.184 E.02176
G1 X85.72 Y45.814 E.02224
G1 X85.72 Y49.028 E.11311
G1 X85.672 Y49.768 E.02608
G1 X85.532 Y50.484 E.02568
G1 X85.3 Y51.176 E.02568
G1 X84.981 Y51.832 E.02568
G1 X84.58 Y52.442 E.02568
G1 X84.103 Y52.995 E.02568
G1 X83.551 Y53.49 E.02608
G1 X72.077 Y62.504 E.51354
G1 X71.255 Y63.244 E.03893
G1 X70.519 Y64.049 E.03837
G1 X69.865 Y64.904 E.03789
G1 X69.284 Y65.801 E.03762
G1 X68.771 Y66.735 E.0375
G1 X68.327 Y67.704 E.0375
G1 X67.954 Y68.706 E.03763
G1 X67.65 Y69.776 E.03914
G1 X67.65 Y85.973 E.57004
G1 X52.35 Y85.973 E.53848
G1 X52.35 Y69.776 E.57004
G1 X52.046 Y68.706 E.03914
G1 X51.673 Y67.704 E.03763
G1 X51.229 Y66.735 E.0375
G1 X50.716 Y65.801 E.0375
G1 X50.135 Y64.904 E.03762
G1 X49.481 Y64.049 E.03789
G1 X48.745 Y63.244 E.03837
G1 X47.923 Y62.504 E.03893
G1 X36.449 Y53.49 E.51354
G1 X35.897 Y52.995 E.02608
G1 X35.42 Y52.442 E.02568
G1 X35.019 Y51.832 E.02568
G1 X34.7 Y51.176 E.02568
G1 X34.468 Y50.484 E.02568
G1 X34.328 Y49.768 E.02568
G1 X34.28 Y49.028 E.02608
G1 X34.28 Y45.814 E.11311
G1 X34.327 Y45.184 E.02224
G1 X34.465 Y44.581 E.02178
G1 X34.69 Y44.005 E.02178
G1 X34.999 Y43.468 E.02178
G1 X35.392 Y42.974 E.02224
G1 X43.668 Y34.027 E.42891
G1 X53.65 Y34.027 E.35131
G1 X53.65 Y41.888 E.27665
G1 E-.5
G1 Z.4 F21000
G1 X53.314 Y41.888 Z.4
G1 X53.314 Y42.263
G1 X60.508 Y43.134
G1 X60.899 Y43.203
G1 X61.297 Y43.321
G1 X61.698 Y43.498
G1 X62.093 Y43.746
G1 X62.447 Y44.082
G1 X62.617 Y44.533
G1 X62.86 Y45.542
G1 Z.2
G1 E.5 F1800
;TYPE:Inner wall
G1 F3000
G1 X62.867 Y45.504 E.00133
G1 X62.867 Y44.993 E.018
G1 X62.776 Y44.49 E.018
G1 X62.596 Y44.011 E.018
G1 X62.333 Y43.571 E.018
G1 X61.997 Y43.186 E.018
G1 X61.597 Y42.867 E.018
G1 X61.192 Y42.65 E.01617
G1 X61.245 Y42.442 E.00753
G1 X66.85 Y42.453 E.19727
G1 X66.85 Y34.527 E.27894
G1 X76.114 Y34.527 E.32602
G1 X84.228 Y43.3 E.42056
G1 X84.586 Y43.75 E.02027
G1 X84.851 Y44.209 E.01864
G1 X85.057 Y44.73 E.0197
G1 X85.177 Y45.259 E.0191
G1 X85.22 Y45.833 E.02027
G1 X85.22 Y49.012 E.11188
G1 X85.175 Y49.703 E.02438
G1 X85.047 Y50.356 E.02341
G1 X84.836 Y50.986 E.02341
G1 X84.545 Y51.585 E.02341
G1 X84.18 Y52.14 E.02341
G1 X83.746 Y52.644 E.02341
G1 X83.23 Y53.106 E.02437
G1 X71.755 Y62.121 E.51357
G1 X70.903 Y62.889 E.04037
G1 X70.136 Y63.727 E.03999
G1 X69.456 Y64.615 E.03935
G1 X68.854 Y65.544 E.03895
G1 X68.324 Y66.51 E.03877
G1 X67.864 Y67.512 E.03879
G1 X67.479 Y68.55 E.03899
G1 X67.15 Y69.706 E.04228
G1 X67.15 Y85.473 E.5549
G1 X52.85 Y85.473 E.50328
G1 X52.85 Y69.706 E.5549
G1 X52.521 Y68.55 E.04228
G1 X52.136 Y67.512 E.03898
G1 X51.676 Y66.51 E.03879
G1 X51.146 Y65.544 E.03877
G1 X50.544 Y64.615 E.03895
G1 X49.864 Y63.727 E.03935
G1 X49.097 Y62.889 E.03999
G1 X48.245 Y62.121 E.04037
G1 X36.77 Y53.106 E.51357
G1 X36.254 Y52.644 E.02437
G1 X35.82 Y52.14 E.02341
G1 X35.455 Y51.585 E.02341
G1 X35.164 Y50.986 E.02341
G1 X34.953 Y50.356 E.02341
G1 X34.825 Y49.703 E.02341
G1 X34.78 Y49.012 E.02438
G1 X34.78 Y45.833 E.11188
G1 X34.823 Y45.259 E.02027
G1 X34.944 Y44.728 E.01915
G1 X35.142 Y44.222 E.01915
G1 X35.414 Y43.75 E.01915
G1 X35.772 Y43.3 E.02027
G1 X43.886 Y34.527 E.42056
G1 X53.15 Y34.527 E.32602
G1 X53.15 Y42.427 E.27802
G1 X58.814 Y42.438 E.19934
G1 X58.858 Y42.657 E.00787
G1 X58.673 Y42.736 E.0071
G1 X58.246 Y43.018 E.018
G1 X57.876 Y43.371 E.018
G1 X57.575 Y43.785 E.018
G1 X57.354 Y44.246 E.018
G1 X57.217 Y44.739 E.018
G1 X57.172 Y45.249 E.018
G1 X57.217 Y45.758 E.018
G1 X57.354 Y46.251 E.018
G1 X57.575 Y46.712 E.018
G1 X57.876 Y47.126 E.018
G1 X58.246 Y47.48 E.018
G1 X58.673 Y47.761 E.018
G1 X59.143 Y47.962 E.018
G1 X59.642 Y48.076 E.018
G1 X60.153 Y48.099 E.018
G1 X60.66 Y48.031 E.018
G1 X61.146 Y47.872 E.018
G1 X61.597 Y47.63 E.018
G1 X61.997 Y47.311 E.018
G1 X62.327 Y46.934 E.01764
G1 X62.595 Y46.488 E.0183
G1 X62.776 Y46.008 E.01807
G1 X62.853 Y45.581 E.01526
G1 E-.5
G1 Z.4 F21000
G1 X81.973 Y45.647 Z.4
G1 Z.2
G1 E.5 F1800
;TYPE:Outer wall
G1 F3000
G1 X82 Y45.643 E.00098
G1 X82.473 Y45.705 E.01679
G1 X82.914 Y45.888 E.01679
G1 X83.293 Y46.178 E.01679
G1 X83.583 Y46.557 E.01679
G1 X83.766 Y46.998 E.01679
G1 X83.828 Y47.471 E.01679
G1 X83.766 Y47.944 E.01679
G1 X83.583 Y48.385 E.0168
G1 X83.293 Y48.764 E.01679
G1 X82.914 Y49.054 E.01679
G1 X82.473 Y49.237 E.01679
G1 X82 Y49.299 E.01679
G1 X81.527 Y49.237 E.01679
G1 X81.086 Y49.054 E.01679
G1 X80.707 Y48.764 E.01679
G1 X80.417 Y48.385 E.0168
G1 X80.234 Y47.944 E.01679
G1 X80.172 Y47.471 E.01679
G1 X80.234 Y46.998 E.01679
G1 X80.417 Y46.557 E.01679
G1 X80.707 Y46.178 E.01679
G1 X81.086 Y45.888 E.0168
G1 X81.527 Y45.705 E.01679
G1 X81.933 Y45.652 E.01441
G1 X81.95 Y45.145 F21000
;TYPE:Inner wall
G1 F3000
G1 X82 Y45.139 E.00176
G1 X82.604 Y45.218 E.02143
G1 X83.166 Y45.451 E.02143
G1 X83.649 Y45.822 E.02143
G1 X84.02 Y46.305 E.02143
G1 X84.253 Y46.867 E.02143
G1 X84.332 Y47.471 E.02143
G1 X84.253 Y48.075 E.02143
G1 X84.02 Y48.637 E.02143
G1 X83.649 Y49.12 E.02143
G1 X83.166 Y49.491 E.02143
G1 X82.604 Y49.724 E.02143
M73 P0 R30
G1 X82 Y49.803 E.02143
G1 X81.396 Y49.724 E.02143
G1 X80.834 Y49.491 E.02143
G1 X80.351 Y49.12 E.02143
G1 X79.98 Y48.637 E.02143
G1 X79.747 Y48.075 E.02143
G1 X79.668 Y47.471 E.02143
G1 X79.747 Y46.867 E.02143
G1 X79.98 Y46.305 E.02143
G1 X80.351 Y45.822 E.02143
G1 X80.834 Y45.451 E.02143
G1 X81.396 Y45.218 E.02143
G1 X81.911 Y45.15 E.01826
G1 E-.5
G1 Z.4 F21000
G1 X60.623 Y47.87 Z.4
M73 P1 R30
G1 X60.144 Y47.905
G1 X59.667 Y47.892
G1 X38 Y45.304
G1 X37.928 Y45.314
G1 X37.972 Y45.647
G1 Z.2
G1 E.5 F1800
;TYPE:Outer wall
G1 F3000
G1 X38 Y45.643 E.00099
G1 X38.473 Y45.705 E.01679
G1 X38.914 Y45.888 E.01679
G1 X39.293 Y46.178 E.01679
G1 X39.583 Y46.557 E.0168
G1 X39.766 Y46.998 E.01679
G1 X39.828 Y47.471 E.01679
G1 X39.766 Y47.944 E.01679
G1 X39.583 Y48.385 E.01679
G1 X39.293 Y48.764 E.01679
G1 X38.914 Y49.054 E.01679
G1 X38.473 Y49.237 E.01679
G1 X38 Y49.299 E.01679
G1 X37.527 Y49.237 E.01679
G1 X37.086 Y49.054 E.01679
G1 X36.707 Y48.764 E.01679
G1 X36.417 Y48.385 E.0168
G1 X36.234 Y47.944 E.01679
G1 X36.172 Y47.471 E.01679
G1 X36.234 Y46.998 E.01679
G1 X36.417 Y46.557 E.01679
G1 X36.707 Y46.178 E.01679
G1 X37.086 Y45.888 E.0168
G1 X37.527 Y45.705 E.01679
G1 X37.932 Y45.652 E.01439
G1 X38.05 Y45.145 F21000
;TYPE:Inner wall
G1 F3000
G1 X38.604 Y45.218 E.01967
G1 X39.166 Y45.451 E.02143
G1 X39.649 Y45.822 E.02143
G1 X40.02 Y46.305 E.02143
G1 X40.253 Y46.867 E.02143
G1 X40.332 Y47.471 E.02143
G1 X40.253 Y48.075 E.02143
G1 X40.02 Y48.637 E.02143
G1 X39.649 Y49.12 E.02143
G1 X39.166 Y49.491 E.02143
G1 X38.604 Y49.724 E.02143
G1 X38 Y49.803 E.02143
G1 X37.396 Y49.724 E.02143
G1 X36.834 Y49.491 E.02143
G1 X36.351 Y49.12 E.02143
G1 X35.98 Y48.637 E.02143
G1 X35.747 Y48.075 E.02143
G1 X35.668 Y47.471 E.02143
G1 X35.747 Y46.867 E.02143
G1 X35.98 Y46.305 E.02143
G1 X36.351 Y45.822 E.02143
G1 X36.834 Y45.451 E.02143
G1 X37.396 Y45.218 E.02143
G1 X38 Y45.139 E.02143
G1 X38.01 Y45.14 E.00035
G1 E-.5
G1 Z.4 F21000
G1 X59.745 Y43.114 Z.4
G1 X60.121 Y43.105
G1 X60.508 Y43.134
G1 X60.899 Y43.203
G1 X61.297 Y43.321
G1 X61.698 Y43.498
G1 X62.093 Y43.746
G1 X62.447 Y44.082
G1 X63.311 Y45.618
G1 Z.2
G1 E.5 F1800
G1 F3000
G1 X63.324 Y45.546 E.0026
G1 X63.324 Y44.952 E.0209
G1 X63.218 Y44.367 E.0209
G1 X63.009 Y43.811 E.0209
G1 X62.705 Y43.302 E.0209
G1 X62.355 Y42.901 E.01871
G1 X67.307 Y42.911 E.17429
G1 X67.307 Y34.984 E.27897
G1 X75.914 Y34.984 E.3029
G1 X83.881 Y43.597 E.41293
G1 X84.207 Y44.008 E.01846
G1 X84.438 Y44.408 E.01626
G1 X84.619 Y44.865 E.0173
G1 X84.724 Y45.327 E.01666
G1 X84.763 Y45.85 E.01846
G1 X84.763 Y46.327 E.0168
G1 X84.542 Y46.371 E.00792
G1 X84.419 Y46.074 E.01132
G1 X83.975 Y45.496 E.02566
G1 X83.397 Y45.052 E.02566
G1 X82.723 Y44.773 E.02566
G1 X82 Y44.678 E.02566
G1 X81.277 Y44.773 E.02566
G1 X80.603 Y45.052 E.02566
G1 X80.025 Y45.496 E.02566
G1 X79.581 Y46.074 E.02566
G1 X79.302 Y46.748 E.02566
G1 X79.207 Y47.471 E.02566
G1 X79.302 Y48.194 E.02566
G1 X79.581 Y48.868 E.02566
G1 X80.025 Y49.446 E.02566
G1 X80.603 Y49.89 E.02566
G1 X81.277 Y50.169 E.02566
G1 X82 Y50.264 E.02566
G1 X82.723 Y50.169 E.02566
G1 X83.397 Y49.89 E.02566
G1 X83.975 Y49.446 E.02566
G1 X84.419 Y48.868 E.02566
G1 X84.542 Y48.57 E.01132
G1 X84.763 Y48.614 E.00792
G1 X84.763 Y48.997 E.01348
G1 X84.721 Y49.644 E.02281
G1 X84.604 Y50.239 E.02132
G1 X84.412 Y50.813 E.02132
G1 X84.147 Y51.358 E.02132
G1 X83.814 Y51.864 E.02132
G1 X83.419 Y52.324 E.02132
G1 X82.936 Y52.756 E.02281
G1 X71.46 Y61.771 E.51359
G1 X70.58 Y62.564 E.04169
G1 X69.785 Y63.434 E.04147
G1 X69.082 Y64.352 E.04069
G1 X68.462 Y65.31 E.04017
G1 X67.916 Y66.305 E.03994
G1 X67.442 Y67.337 E.03997
G1 X67.044 Y68.408 E.04022
G1 X66.693 Y69.642 E.04516
G1 X66.693 Y85.016 E.54105
G1 X53.307 Y85.016 E.47111
G1 X53.307 Y69.642 E.54105
G1 X52.956 Y68.408 E.04516
G1 X52.558 Y67.337 E.04022
G1 X52.084 Y66.305 E.03997
G1 X51.538 Y65.31 E.03994
G1 X50.918 Y64.352 E.04017
G1 X50.215 Y63.434 E.04069
G1 X49.42 Y62.564 E.04147
G1 X48.54 Y61.771 E.04169
G1 X37.064 Y52.756 E.51359
G1 X36.581 Y52.324 E.02281
G1 X36.186 Y51.864 E.02132
G1 X35.853 Y51.358 E.02132
G1 X35.588 Y50.813 E.02132
G1 X35.396 Y50.239 E.02132
G1 X35.279 Y49.644 E.02132
G1 X35.237 Y48.997 E.02281
G1 X35.237 Y48.614 E.01348
G1 X35.458 Y48.57 E.00792
G1 X35.581 Y48.868 E.01132
G1 X36.025 Y49.446 E.02566
G1 X36.603 Y49.89 E.02566
G1 X37.277 Y50.169 E.02566
G1 X38 Y50.264 E.02566
G1 X38.723 Y50.169 E.02566
G1 X39.397 Y49.89 E.02566
G1 X39.975 Y49.446 E.02566
G1 X40.419 Y48.868 E.02566
G1 X40.698 Y48.194 E.02566
G1 X40.793 Y47.471 E.02566
G1 X40.698 Y46.748 E.02566
G1 X40.419 Y46.074 E.02566
G1 X39.975 Y45.496 E.02566
G1 X39.397 Y45.052 E.02566
G1 X38.723 Y44.773 E.02566
G1 X38 Y44.678 E.02566
G1 X37.277 Y44.773 E.02566
G1 X36.603 Y45.052 E.02566
G1 X36.025 Y45.496 E.02566
G1 X35.581 Y46.074 E.02566
G1 X35.458 Y46.371 E.01132
G1 X35.237 Y46.327 E.00792
G1 X35.237 Y45.85 E.0168
G1 X35.276 Y45.327 E.01846
G1 X35.382 Y44.863 E.01674
G1 X35.555 Y44.42 E.01674
G1 X35.793 Y44.008 E.01674
G1 X36.119 Y43.597 E.01846
G1 X44.086 Y34.984 E.41293
G1 X52.693 Y34.984 E.3029
G1 X52.693 Y42.883 E.27799
G1 X57.659 Y42.892 E.17478
G1 X57.181 Y43.55 E.02859
G1 X56.924 Y44.085 E.0209
G1 X56.766 Y44.657 E.0209
G1 X56.713 Y45.249 E.0209
G1 X56.766 Y45.84 E.0209
G1 X56.924 Y46.413 E.0209
G1 X57.181 Y46.948 E.0209
G1 X57.531 Y47.428 E.0209
G1 X57.96 Y47.838 E.0209
G1 X58.455 Y48.166 E.0209
G1 X59.001 Y48.399 E.0209
G1 X59.318 Y48.471 E.01141
G1 X59.325 Y48.682 E.00743
G1 X58.751 Y48.855 E.02109
G1 X58.221 Y49.129 E.021
G1 X57.751 Y49.492 E.0209
G1 X57.353 Y49.932 E.0209
G1 X57.04 Y50.437 E.0209
G1 X56.822 Y50.989 E.0209
G1 X56.706 Y51.572 E.0209
G1 X56.696 Y52.166 E.0209
G1 X56.793 Y52.752 E.0209
G1 X56.992 Y53.311 E.0209
G1 X57.288 Y53.826 E.0209
G1 X57.672 Y54.279 E.0209
G1 X58.13 Y54.657 E.0209
G1 X58.648 Y54.947 E.0209
G1 X59.209 Y55.14 E.0209
G1 X59.796 Y55.23 E.0209
G1 X60.39 Y55.213 E.0209
G1 X60.971 Y55.09 E.0209
G1 X61.521 Y54.866 E.0209
G1 X62.022 Y54.547 E.0209
G1 X62.458 Y54.144 E.0209
G1 X62.815 Y53.669 E.0209
G1 X63.081 Y53.139 E.0209
G1 X63.246 Y52.58 E.0205
G1 X63.312 Y51.981 E.02119
G1 X63.268 Y51.386 E.021
G1 X63.12 Y50.811 E.0209
G1 X62.871 Y50.272 E.0209
G1 X62.53 Y49.786 E.0209
G1 X62.108 Y49.368 E.0209
G1 X61.618 Y49.033 E.0209
G1 X61.076 Y48.791 E.0209
G1 X60.716 Y48.702 E.01304
G1 X60.708 Y48.495 E.00729
G1 X61.327 Y48.294 E.02289
G1 X61.85 Y48.013 E.0209
G1 X62.314 Y47.643 E.0209
G1 X62.697 Y47.204 E.0205
G1 X63.008 Y46.688 E.0212
G1 X63.218 Y46.13 E.021
G1 X63.304 Y45.658 E.0169
G1 X63.762 Y45.695 F21000
G1 F3000
G1 X63.781 Y45.587 E.00386
G1 X63.781 Y44.911 E.02379
G1 X63.66 Y44.245 E.0238
G1 X63.423 Y43.612 E.0238
G1 X63.272 Y43.36 E.01034
G1 X67.764 Y43.369 E.1581
G1 X67.764 Y35.441 E.279
G1 X75.714 Y35.441 E.27978
G1 X83.534 Y43.895 E.4053
G1 X83.828 Y44.266 E.01666
G1 X84.025 Y44.608 E.01388
G1 X84.08 Y44.747 E.00526
G1 X83.914 Y44.872 E.00734
G1 X83.627 Y44.653 E.0127
G1 X82.842 Y44.327 E.0299
G1 X82 Y44.217 E.0299
G1 X81.158 Y44.327 E.0299
G1 X80.373 Y44.653 E.0299
G1 X79.699 Y45.17 E.0299
G1 X79.182 Y45.844 E.0299
G1 X78.857 Y46.629 E.0299
G1 X78.746 Y47.471 E.0299
G1 X78.857 Y48.313 E.0299
