; HEADER_BLOCK_START
; generated by OrcaSlicer 1.6.6 on 2023-09-06 at 21:03:39
; total layer number: 45
; HEADER_BLOCK_END

; THUMBNAIL_BLOCK_START
; THUMBNAIL_BLOCK_END

; external perimeters extrusion width = 0.15mm
; perimeters extrusion width = 0.17mm
; infill extrusion width = 0.24mm
; solid infill extrusion width = 0.21mm
; top infill extrusion width = 0.15mm
; first layer extrusion width = 0.19mm

; EXECUTABLE_BLOCK_START
EXCLUDE_OBJECT_DEFINE NAME=EulaKC.stl_id_0_copy_0 CENTER=60,60 POLYGON=[[39.6629,58.9697],[39.663,58.9463],[39.6645,58.9231],[39.6675,58.9],[39.6719,58.8771],[39.6778,58.8546],[44.0897,44.5526],[44.0942,44.5395],[44.0994,44.5267],[44.1053,44.5142],[44.112,44.502],[44.1194,44.4901],[44.1275,44.4787],[44.1362,44.4679],[44.1455,44.4576],[44.1554,44.4479],[44.1658,44.4388],[44.1766,44.4303],[44.188,44.4224],[48.2753,41.8357],[48.2868,41.8288],[48.2985,41.8226],[48.3105,41.817],[65.4878,34.7094],[67.3943,34.1185],[69.3496,33.8155],[71.3014,33.75],[73.1972,33.8716],[74.9847,34.1297],[76.6114,34.4738],[78.025,34.8536],[79.1731,35.2184],[79.1908,35.2249],[79.208,35.2323],[79.2246,35.2406],[79.2408,35.2499],[79.2564,35.26],[79.2714,35.2709],[79.2857,35.2827],[79.2994,35.2953],[79.3124,35.3086],[79.3247,35.3227],[79.3361,35.3374],[79.3468,35.3529],[79.3566,35.3689],[79.3654,35.3854],[79.3733,35.4023],[79.3802,35.4196],[79.3861,35.4372],[79.391,35.4551],[79.3949,35.4733],[79.3978,35.4916],[79.3997,35.5101],[80.0622,50.3347],[80.0639,50.3752],[80.3371,76.9249],[80.315,77.3969],[80.2322,77.7538],[80.1176,78.0085],[80.0001,78.1743],[79.9085,78.2642],[79.8715,78.2912],[61.3223,85.9823],[61.1354,86.0549],[60.9446,86.1163],[60.7504,86.1664],[60.5532,86.205],[60.3535,86.2319],[60.1519,86.247],[59.9488,86.25],[59.7459,86.2409],[59.5449,86.2197],[59.3461,86.1868],[59.1501,86.1423],[58.9575,86.0864],[58.7686,86.0193],[58.584,85.9411],[58.4042,85.8522],[58.2297,85.7525],[58.061,85.6425],[57.8985,85.5222],[57.7429,85.3918],[47.1715,76.1031],[45.3669,74.0392],[43.9656,71.8486],[42.9174,69.6125],[42.1721,67.4117],[39.6773,59.0625],[39.6716,59.0398],[39.6672,59.0166],[39.6643,58.9931],[39.6629,58.9697]]
M73 P0 R28
M73 C21
;TYPE:Custom
START_PRINT T_BED=60 T_EXTRUDER=220
G90
G21
M83 ; use relative distances for extrusion
; filament start gcode

    PRESSURE_ADVANCE_SELECT FILAMENT=PLA
M106 S0
;LAYER_CHANGE
;Z:0.1
;HEIGHT:0.1
;BEFORE_LAYER_CHANGE
;0.1
G92 E0

;AFTER_LAYER_CHANGE
;0.1
SET_VELOCITY_LIMIT ACCEL=500 ACCEL_TO_DECEL=250
SET_VELOCITY_LIMIT SQUARE_CORNER_VELOCITY=9
G1 E-.8 F3000
G1 Z.2 F21000
G1 X42.388 Y42.927
G1 Z.2
G1 Z.1
G1 E.8 F1800
;TYPE:Skirt
;WIDTH:0.1875
G1 F3000
G1 X42.896 Y42.482 E.00457
G1 X47.35 Y39.693 E.03555
G1 X64.596 Y32.555 E.12627
G1 X67.037 Y31.814 E.01726
G1 X69.271 Y31.485 E.01528
G1 X71.451 Y31.423 E.01475
G1 X73.53 Y31.563 E.0141
G1 X75.467 Y31.848 E.01324
G1 X77.216 Y32.222 E.0121
G1 X79.879 Y32.996 E.01876
G1 X80.414 Y33.235 E.00396
G1 X81.014 Y33.715 E.0052
G1 X81.321 Y34.115 E.00341
G1 X81.644 Y34.856 E.00547
G1 X81.73 Y35.425 E.00389
G1 X82.396 Y50.351 E.10108
G1 X82.669 Y76.901 E.17962
G1 X82.587 Y77.924 E.00694
G1 X82.359 Y78.71 E.00554
G1 X81.903 Y79.523 E.00631
G1 X81.286 Y80.146 E.00593
G1 X80.765 Y80.445 E.00406
G1 X61.98 Y88.229 E.13756
G1 X61.198 Y88.455 E.0055
G1 X60.325 Y88.573 E.00596
G1 X58.83 Y88.461 E.01015
G1 X58.176 Y88.284 E.00458
G1 X57.37 Y87.942 E.00593
G1 X56.246 Y87.18 E.00919
G1 X45.632 Y77.855 E.09558
G1 X43.402 Y75.296 E.02296
G1 X41.854 Y72.838 E.01965
G1 X40.709 Y70.361 E.01847
G1 X39.938 Y68.079 E.01629
G1 X37.424 Y59.659 E.05945
M73 P0 R27
G1 X37.335 Y59.085 E.00392
G1 X37.443 Y58.19 E.0061
G1 X41.891 Y43.777 E.10204
G1 X42.381 Y42.94 E.00656
G1 X42.512 Y43.039 F21000
G1 F3000
G1 X42.987 Y42.622 E.00428
G1 X47.419 Y39.844 E.03539
G1 X64.66 Y32.708 E.12623
G1 X67.063 Y31.978 E.01699
G1 X69.277 Y31.651 E.01514
G1 X71.44 Y31.588 E.01464
G1 X73.507 Y31.728 E.01401
G1 X75.433 Y32.011 E.01317
G1 X77.173 Y32.382 E.01204
G1 X79.829 Y33.154 E.01871
G1 X80.331 Y33.379 E.00372
G1 X80.892 Y33.827 E.00486
G1 X81.182 Y34.205 E.00322
G1 X81.484 Y34.9 E.00512
G1 X81.564 Y35.432 E.00364
G1 X82.23 Y50.353 E.10104
G1 X82.503 Y76.903 E.17962
G1 X82.425 Y77.886 E.00668
G1 X82.208 Y78.642 E.00532
G1 X81.767 Y79.427 E.00609
G1 X81.188 Y80.012 E.00557
G1 X80.701 Y80.292 E.0038
G1 X61.92 Y88.074 E.13753
G1 X61.166 Y88.292 E.00531
G1 X60.313 Y88.407 E.00582
G1 X58.866 Y88.299 E.00981
G1 X58.232 Y88.127 E.00445
G1 X57.443 Y87.793 E.00579
G1 X56.352 Y87.052 E.00892
G1 X45.742 Y77.73 E.09555
G1 X43.542 Y75.206 E.02265
G1 X42.004 Y72.768 E.0195
G1 X40.866 Y70.307 E.01834
G1 X40.097 Y68.032 E.01625
G1 X37.585 Y59.618 E.0594
G1 X37.501 Y59.076 E.00371
G1 X37.602 Y58.239 E.0057
G1 X42.048 Y43.831 E.10201
G1 X42.504 Y43.052 E.00611
; printing object EulaKC.stl id:0 copy 0
G1 E-.8
EXCLUDE_OBJECT_START NAME=EulaKC.stl_id_0_copy_0
G1 Z.3 F21000
G1 X74.606 Y37.137 Z.3
G1 Z.1
G1 E.8 F1800
;TYPE:Outer wall
;WIDTH:0.187499
G1 F3000
G1 X74.696 Y37.198 E.00073
G1 X75.47 Y37.111 E.00527
G1 X76.245 Y37.159 E.00525
G1 X76.92 Y37.322 E.0047
G3 X78.219 Y38.045 I-1.413 J4.066 E.01011
G3 X78.109 Y38.404 I-.219 J.13 E.00286
G2 X77.086 Y38.495 I43.028 J490.029 E.00695
G1 X76.301 Y38.674 E.00544
G2 X73.169 Y40.312 I2.89 J9.335 E.02405
G2 X71.153 Y42.233 I7.942 J10.356 E.01887
G1 X71.165 Y42.323 E.00061
G1 X72.366 Y43.717 E.01245
G3 X73.071 Y43.972 I-.213 J1.692 E.00511
G1 X73.538 Y44.374 E.00417
G1 X74.134 Y45.067 E.00618
G3 X74.962 Y46.397 I-8.544 J6.244 E.01061
G1 X75.18 Y46.76 E.00286
G1 X75.273 Y46.726 E.00067
G3 X76.47 Y45.807 I4.46 J4.569 E.01023
G1 X76.932 Y45.583 E.00347
G1 X77.582 Y45.432 E.00452
G1 X78.019 Y45.463 E.00296
G1 X78.481 Y45.61 E.00328
G1 X78.892 Y45.897 E.00339
G3 X78.895 Y46.154 I-.18 J.131 E.00186
G1 X78.429 Y46.467 E.0038
G1 X78.11 Y46.801 E.00313
G2 X77.449 Y48.188 I4.126 J2.819 E.01043
G2 X77.02 Y50.639 I12.468 J3.444 E.01686
G1 X77.199 Y51.558 E.00633
G1 X77.349 Y51.61 E.00107
G1 X77.432 Y51.567 E.00063
G1 X77.687 Y51.091 E.00365
G1 X78.082 Y50.589 E.00432
G1 X78.563 Y50.168 E.00432
G1 X79.026 Y49.896 E.00363
G1 X79.391 Y49.788 E.00258
G1 X79.659 Y49.862 E.00188
G1 X79.864 Y50.048 E.00187
G1 X79.963 Y50.307 E.00187
G3 X79.618 Y52.071 I-7.972 J-.644 E.01219
G3 X78.251 Y55.495 I-27.975 J-9.176 E.02496
G1 X78.698 Y57.886 E.01645
G1 X78.957 Y60.081 E.01496
G1 X79.058 Y62.086 E.01358
G1 X79.029 Y63.897 E.01225
G1 X78.898 Y65.508 E.01094
G3 X78.177 Y69.112 I-23.17 J-2.759 E.02489
G3 X77.503 Y70.888 I-14.364 J-4.439 E.01286
G1 X77.5 Y70.988 E.00068
G1 X78.449 Y72.429 E.01167
G1 X79.159 Y73.667 E.00966
G3 X79.683 Y74.774 I-11.942 J6.333 E.00828
G1 X80.008 Y75.664 E.00641
G1 X80.183 Y76.396 E.00509
G1 X80.241 Y76.979 E.00397
G3 X80.144 Y77.72 I-2.338 J.071 E.00508
G1 X79.875 Y78.162 E.00349
G1 X76.293 Y74.526 E.03453
G1 X76.21 Y74.505 E.00058
G1 X76.15 Y74.588 E.00069
G3 X76.163 Y77.017 I-21.454 J1.324 E.01644
G1 X76.046 Y77.795 E.00532
G1 X75.9 Y78.157 E.00264
G1 X75.798 Y78.249 E.00093
G1 X75.729 Y78.252 E.00046
G2 X74.444 Y76.351 I-326.359 J219.319 E.01552
G1 X74.34 Y76.341 E.00071
G3 X66.429 Y80.265 I-15.471 J-21.257 E.06003
G3 X62.82 Y81.011 I-7.227 J-25.858 E.02494
G1 X62.803 Y81.109 E.00067
G1 X63.092 Y81.714 E.00454
G1 X63.248 Y82.297 E.00408
G1 X63.297 Y82.857 E.00381
G1 X63.244 Y83.444 E.00398
G1 X63.088 Y84.011 E.00398
G1 X62.836 Y84.537 E.00394
G1 X62.494 Y85.011 E.00395
G1 X62.071 Y85.42 E.00398
G1 X61.582 Y85.747 E.00398
G1 X61.048 Y85.981 E.00395
G1 X60.405 Y86.122 E.00445
G3 X58.75 Y85.906 I-.368 J-3.619 E.01139
G1 X58.206 Y85.618 E.00416
G1 X57.764 Y85.278 E.00377
G1 X57.37 Y84.843 E.00397
G1 X57.061 Y84.348 E.00395
G1 X56.843 Y83.807 E.00395
G1 X56.725 Y83.23 E.00398
G1 X56.71 Y82.642 E.00398
G1 X56.799 Y82.065 E.00395
G3 X57.26 Y80.972 I4.32 J1.177 E.00805
G1 X57.194 Y80.904 E.00064
G3 X52.235 Y79.444 I2.599 J-17.973 E.03509
G1 X49.483 Y77.882 E.02141
G1 X47.237 Y76.036 E.01967
G1 X45.442 Y73.983 E.01845
G1 X44.048 Y71.803 E.0175
G1 X43.005 Y69.577 E.01663
G1 X42.262 Y67.386 E.01565
G1 X41.771 Y65.309 E.01443
G1 X41.482 Y63.429 E.01287
G1 X41.344 Y61.826 E.01088
G3 X41.339 Y59.483 I25.216 J-1.228 E.01586
G1 X41.277 Y59.398 E.00071
G1 X40.668 Y59.244 E.00424
G1 X40.034 Y59.239 E.00429
G1 X39.848 Y59.15 E.0014
G1 X39.779 Y59.025 E.00096
G1 X39.793 Y58.85 E.00119
G3 X40.5 Y58.08 I2.49 J1.579 E.00711
G3 X41.497 Y57.469 I3.131 J3.988 E.00793
G1 X41.786 Y57.078 E.00329
G2 X42.225 Y55.815 I-5.502 J-2.62 E.00906
G2 X42.956 Y51.217 I-36.962 J-8.237 E.03152
G2 X43.195 Y48.564 I-80.837 J-8.624 E.01802
G1 X43.245 Y48.435 E.00093
G1 X43.351 Y48.393 E.00077
G3 X43.903 Y48.59 I-.247 J1.565 E.00399
G1 X44.293 Y48.934 E.00352
G1 X44.58 Y49.421 E.00382
G1 X44.825 Y50.076 E.00473
G2 X45.025 Y50.032 I.073 J-.144 E.00149
G2 X45.399 Y47.049 I-5.235 J-2.172 E.02058
G1 X45.143 Y46.154 E.0063
G2 X44.714 Y45.352 I-12.55 J6.195 E.00615
G1 X44.227 Y44.723 E.00539
G3 X44.23 Y44.525 I.117 J-.097 E.00146
G1 X44.746 Y44.389 E.00361
G1 X45.219 Y44.393 E.0032
G1 X45.552 Y44.465 E.00231
G1 X46.11 Y44.686 E.00406
G1 X46.556 Y44.97 E.00358
G1 X47.215 Y45.581 E.00608
G3 X47.972 Y46.615 I-4.758 J4.279 E.00869
G1 X48.039 Y46.653 E.00052
G1 X48.122 Y46.593 E.00069
G2 X48.493 Y43.027 I-8.075 J-2.642 E.02444
G2 X48.272 Y42.005 I-12.078 J2.069 E.00708
G1 X48.34 Y41.913 E.00077
G1 X48.455 Y41.9 E.00078
G1 X48.994 Y42.003 E.00371
G1 X49.576 Y42.241 E.00425
G1 X50.043 Y42.559 E.00382
G1 X50.343 Y42.869 E.00292
G3 X50.911 Y44.245 I-2.885 J1.996 E.01014
G1 X50.954 Y44.303 E.00049
G1 X51.054 Y44.285 E.00068
G1 X51.77 Y43.469 E.00734
G1 X52.569 Y42.817 E.00698
G1 X53.441 Y42.294 E.00688
G1 X54.355 Y41.884 E.00678
G3 X59.404 Y41.057 I4.764 J13.25 E.0348
G1 X59.478 Y41.012 E.00059
G1 X60.664 Y38.767 E.01718
G1 X62.097 Y37.024 E.01527
G1 X63.734 Y35.718 E.01417
G1 X65.523 Y34.797 E.01362
G1 X67.415 Y34.21 E.0134
G1 X69.358 Y33.909 E.0133
G1 X71.3 Y33.844 E.01314
G1 X73.187 Y33.965 E.0128
G1 X74.968 Y34.222 E.01217
G3 X79.089 Y35.293 I-5.991 J31.527 E.02882
G3 X79.291 Y35.51 I-.079 J.276 E.00211
G1 X79.247 Y35.686 E.00122
G1 X79.054 Y35.779 E.00145
G2 X74.59 Y36.965 I2.922 J19.999 E.03132
G1 X74.605 Y37.122 E.00107
G1 X74.472 Y37.218 F21000
;TYPE:Inner wall
G1 F3000
G1 X74.541 Y37.318 E.00082
G2 X74.938 Y37.338 I.225 J-.506 E.00275
G1 X75.538 Y37.282 E.00407
G1 X76.272 Y37.336 E.00498
G1 X76.903 Y37.494 E.0044
G1 X77.44 Y37.722 E.00395
G1 X78.06 Y38.13 E.00502
G1 X78.081 Y38.214 E.00059
G3 X77.049 Y38.333 I-1.196 J-5.838 E.00703
G2 X74.467 Y39.259 I1.568 J8.441 E.01864
G2 X73.065 Y40.184 I7.762 J13.289 E.01137
G2 X71.043 Y42.102 I8.152 J10.614 E.01889
G1 X70.979 Y42.255 E.00112
G1 X71.039 Y42.431 E.00126
G2 X72.27 Y43.855 I188.949 J-162.088 E.01273
G1 X72.695 Y43.97 E.00297
G1 X72.865 Y44.055 E.00128
G1 X73.276 Y44.336 E.00337
G1 X73.862 Y44.968 E.00583
G3 X74.98 Y46.794 I-9.737 J7.216 E.0145
G1 X75.076 Y46.895 E.00094
G1 X75.267 Y46.92 E.0013
G1 X75.384 Y46.85 E.00092
G3 X76.985 Y45.741 I4.079 J4.18 E.01324
G1 X77.508 Y45.619 E.00363
G1 X78.007 Y45.629 E.00338
G1 X78.422 Y45.765 E.00295
G1 X78.739 Y45.99 E.00263
G1 X78.754 Y46.049 E.00041
G1 X78.336 Y46.329 E.0034
G1 X77.96 Y46.724 E.00369
G2 X77.288 Y48.144 I4.351 J2.928 E.01067
G2 X76.857 Y50.67 I12.203 J3.385 E.01737
G1 X77.027 Y51.564 E.00615
G1 X77.129 Y51.722 E.00127
G1 X77.33 Y51.775 E.00141
G1 X77.481 Y51.745 E.00104
G1 X77.578 Y51.645 E.00094
G1 X77.826 Y51.182 E.00356
G1 X78.203 Y50.703 E.00412
G1 X78.661 Y50.304 E.00411
G1 X79.11 Y50.04 E.00353
G1 X79.385 Y49.959 E.00194
G3 X79.793 Y50.329 I-.05 J.465 E.00398
G3 X79.458 Y52.023 I-7.732 J-.648 E.01171
G3 X78.108 Y55.375 I-22.124 J-6.967 E.02447
G1 X78.088 Y55.524 E.00101
G1 X78.534 Y57.911 E.01643
G1 X78.791 Y60.095 E.01488
G1 X78.891 Y62.089 E.01351
G1 X78.863 Y63.889 E.01217
G1 X78.733 Y65.49 E.01087
G3 X78.018 Y69.065 I-22.985 J-2.736 E.02469
G3 X77.321 Y70.921 I-15.42 J-4.732 E.01342
G1 X77.361 Y71.08 E.00111
G1 X78.308 Y72.516 E.01163
G1 X79.012 Y73.745 E.00958
G3 X79.528 Y74.831 I-11.733 J6.229 E.00814
G1 X79.847 Y75.704 E.00629
G1 X80.018 Y76.414 E.00494
G1 X80.075 Y76.972 E.00379
G3 X79.993 Y77.635 I-2.046 J.084 E.00454
G1 X79.853 Y77.903 E.00204
G1 X76.372 Y74.377 E.03352
G1 X76.163 Y74.345 E.00143
G1 X76.046 Y74.42 E.00094
G1 X75.985 Y74.594 E.00125
G3 X75.997 Y77 I-21.285 J1.317 E.01629
G1 X75.882 Y77.77 E.00526
G1 X75.776 Y78.024 E.00186
G1 X74.592 Y76.271 E.01431
M73 P1 R27
G1 X74.398 Y76.162 E.0015
G1 X74.245 Y76.205 E.00108
G3 X66.382 Y80.105 I-15.377 J-21.123 E.05966
G3 X62.842 Y80.825 I-6.168 J-21.272 E.02446
G1 X62.708 Y80.889 E.00101
G1 X62.628 Y81.069 E.00133
G1 X62.654 Y81.183 E.00079
G1 X62.921 Y81.718 E.00404
G1 X63.076 Y82.25 E.00375
G1 X63.134 Y82.802 E.00375
G1 X63.094 Y83.36 E.00378
G1 X62.955 Y83.902 E.00378
G1 X62.724 Y84.407 E.00375
G1 X62.408 Y84.863 E.00375
G1 X62.012 Y85.259 E.00378
G1 X61.553 Y85.578 E.00379
G1 X61.048 Y85.809 E.00375
G1 X60.511 Y85.948 E.00376
G1 X59.953 Y85.989 E.00379
G1 X59.396 Y85.931 E.00379
G1 X58.863 Y85.776 E.00376
G1 X58.366 Y85.53 E.00375
G1 X57.916 Y85.197 E.00379
G1 X57.533 Y84.789 E.00378
G1 X57.231 Y84.324 E.00375
G1 X57.015 Y83.813 E.00375
G1 X56.892 Y83.267 E.00378
G1 X56.869 Y82.708 E.00378
G1 X56.944 Y82.158 E.00375
G1 X57.115 Y81.63 E.00375
G1 X57.361 Y81.171 E.00353
G1 X57.424 Y80.945 E.00159
G1 X57.362 Y80.818 E.00095
G1 X57.223 Y80.741 E.00107
G3 X52.312 Y79.297 I2.573 J-17.821 E.03475
G1 X49.577 Y77.745 E.02127
G1 X47.353 Y75.916 E.01948
G1 X45.575 Y73.883 E.01827
G1 X44.194 Y71.723 E.01735
G1 X43.159 Y69.515 E.01649
G1 X42.422 Y67.34 E.01554
G1 X41.934 Y65.278 E.01434
G1 X41.647 Y63.409 E.01279
G1 X41.51 Y61.817 E.01081
G3 X41.505 Y59.492 I24.983 J-1.219 E.01573
G1 X41.461 Y59.337 E.00109
G1 X41.318 Y59.237 E.00118
G1 X40.67 Y59.078 E.00451
G1 X40.078 Y59.073 E.004
G1 X39.966 Y59.033 E.00081
G1 X39.942 Y58.927 E.00073
G1 X40.252 Y58.525 E.00343
G3 X41.159 Y57.835 I3.148 J3.202 E.00773
G1 X41.633 Y57.573 E.00366
G1 X41.939 Y57.142 E.00358
G2 X42.575 Y55.015 I-9.35 J-3.953 E.01504
G2 X43.365 Y48.568 I-59.893 J-10.61 E.04397
G1 X43.773 Y48.711 E.00293
G1 X44.166 Y49.043 E.00348
G1 X44.423 Y49.477 E.00341
G1 X44.6 Y49.993 E.00369
G1 X44.764 Y50.23 E.00195
G2 X45.094 Y50.205 I.137 J-.379 E.00231
G1 X45.181 Y50.088 E.00099
G2 X45.558 Y47.004 I-5.355 J-2.22 E.02128
G1 X45.303 Y46.109 E.0063
G2 X44.848 Y45.254 I-10.137 J4.845 E.00655
G1 X44.374 Y44.639 E.00525
G1 X44.781 Y44.552 E.00282
G1 X45.213 Y44.559 E.00292
G1 X45.511 Y44.626 E.00206
G1 X46.04 Y44.836 E.00385
G3 X46.649 Y45.282 I-1.189 J2.26 E.00512
G1 X47.138 Y45.751 E.00458
G3 X47.857 Y46.737 I-5.334 J4.644 E.00827
G1 X48.018 Y46.818 E.00122
G1 X48.167 Y46.786 E.00104
G1 X48.282 Y46.638 E.00126
G2 X48.632 Y42.87 I-8.098 J-2.652 E.02581
G1 X48.459 Y42.069 E.00555
G3 X49.743 Y42.533 I-.331 J2.924 E.00932
G1 X50.21 Y42.97 E.00432
G3 X50.748 Y44.276 I-2.689 J1.871 E.00963
G1 X50.86 Y44.44 E.00135
G1 X51.033 Y44.475 E.00119
G1 X51.18 Y44.393 E.00114
G1 X51.885 Y43.589 E.00724
G1 X52.664 Y42.954 E.0068
G1 X53.518 Y42.441 E.00673
G1 X54.415 Y42.039 E.00665
G3 X58.235 Y41.248 I4.664 J12.917 E.02648
G3 X59.479 Y41.211 I1.24 J20.58 E.00842
G1 X59.625 Y41.09 E.00128
G1 X60.803 Y38.86 E.01706
G1 X62.214 Y37.143 E.01503
G1 X63.824 Y35.858 E.01394
G1 X65.586 Y34.951 E.01341
G1 X67.453 Y34.372 E.01322
G1 X69.374 Y34.075 E.01315
G1 X71.297 Y34.01 E.01302
G1 X73.17 Y34.13 E.0127
G1 X74.939 Y34.386 E.01209
G3 X79.054 Y35.456 I-5.969 J31.397 E.02879
G1 X79.128 Y35.547 E.0008
G1 X79.026 Y35.615 E.00083
G2 X74.571 Y36.778 I3.353 J21.969 E.03121
G2 X74.416 Y36.954 I.088 J.233 E.00165
G1 X74.446 Y37.18 E.00154
G1 X74.464 Y37.206 E.00022
G1 X74.339 Y37.3 F21000
G1 F3000
G1 X74.444 Y37.453 E.00126
G1 X74.733 Y37.528 E.00202
G1 X75.479 Y37.444 E.00508
G1 X76.196 Y37.489 E.00486
G1 X76.793 Y37.633 E.00416
G1 X77.129 Y37.769 E.00245
G1 X77.754 Y38.102 E.00479
G1 X77.012 Y38.171 E.00504
G2 X74.38 Y39.117 I1.606 J8.604 E.019
G2 X72.96 Y40.055 I7.805 J13.362 E.01152
G2 X70.853 Y42.091 I7.783 J10.161 E.01986
G1 X70.816 Y42.314 E.00153
G1 X70.914 Y42.54 E.00166
