; generated by SuperSlicer 2.5.59 on 2023-01-12 at 02:04:05 UTC


;
;

;
;
; 

; external perimeters extrusion width = 0.40mm
; perimeters extrusion width = 0.46mm
; infill extrusion width = 0.64mm
; solid infill extrusion width = 0.56mm
; top infill extrusion width = 0.40mm
; first layer extrusion width = 0.50mm

; object:{"name":"extruder_motor_plate(1)","id":"extruder_motor_plate(1).stl id:0 copy 0","object_center":[60.000000,60.000000,0.000000],"boundingbox_center":[60.000000,60.000000,6.850142],"boundingbox_size":[59.853119,44.200012,13.700284]}
; plater:{"center":[60.000000,60.000000,0.000000],"boundingbox_center":[60.000000,60.000000,6.850142],"boundingbox_size":[59.853119,44.200012,13.700284]}

M73 P0 R35
;TYPE:Custom
; custom gcode: start_gcode
START_PRINT T_BED=110 T_EXTRUDER=240
; custom gcode end: start_gcode
M107
G21 ; set units to millimeters
G90 ; use absolute coordinates
M83 ; use relative distances for extrusion
; custom gcode: start_filament_gcode
; Filament gcode

    PRESSURE_ADVANCE_SELECT FILAMENT=ABS
; custom gcode end: start_filament_gcode
;_TOOLCHANGE 0
M104 S240 ; set temperature
M109 S240 ; set temperature and wait for it to be reached
M190 S110 ; set bed temperature and wait for it to be reached
;LAYER_CHANGE
;Z:0.2
;HEIGHT:0.2
G1 Z0.2 F12000
G92 E0
M73 P0 R35
G1 E-0.5 F1800
M204 S2000
G1 X33.699 Y36.62 F12000
G1 E0.5 F1800
;TYPE:Skirt
;WIDTH:0.52
G1 X32.791 Y37.714 E0.05303
G1 X32.04 Y39.138 E0.06002
G1 X27.013 Y52.006 E0.51514
G1 X26.758 Y53.358 E0.05131
G1 X26.758 Y66.641 E0.49533
G1 X27.014 Y67.996 E0.05142
G1 X32.166 Y81.151 E0.5268
G1 X32.862 Y82.395 E0.05315
G1 X33.598 Y83.279 E0.04291
G1 X34.583 Y84.116 E0.04821
G1 X35.729 Y84.768 E0.04917
G1 X37.224 Y85.263 E0.05872
G1 X38.511 Y85.412 E0.04831
G1 X82.167 Y85.416 E1.62789
G1 X83.572 Y85.278 E0.05262
G1 X85.163 Y84.771 E0.06229
G1 X86.287 Y84.145 E0.04797
G1 X87.425 Y83.189 E0.05541
G1 X88.542 Y81.953 E0.06213
G1 X89.555 Y80.629 E0.06217
G1 X90.378 Y79.357 E0.05649
G1 X91.172 Y77.891 E0.06217
G1 X92.181 Y75.438 E0.0989
G1 X92.647 Y73.837 E0.06217
G1 X92.981 Y72.204 E0.06217
G1 X93.179 Y70.548 E0.06217
G1 X93.242 Y68.957 E0.05937
G1 X93.242 Y51.043 E0.66802
G1 X93.097 Y48.622 E0.09043
G1 X92.647 Y46.163 E0.09323
G1 X91.843 Y43.635 E0.0989
G1 X91.172 Y42.109 E0.06217
G1 X90.456 Y40.774 E0.05649
G1 X88.969 Y38.578 E0.0989
G1 X87.257 Y36.646 E0.09626
G1 X86.546 Y36.04 E0.03484
G1 X85.755 Y35.526 E0.03518
G1 X84.807 Y35.08 E0.03904
G1 X83.872 Y34.787 E0.03653
G1 X82.167 Y34.584 E0.06403
G1 X38.511 Y34.588 E1.62789
G1 X37.167 Y34.75 E0.05049
G1 X35.828 Y35.187 E0.05251
G1 X34.584 Y35.883 E0.05319
G1 X33.699 Y36.62 E0.04291
G1 X34.041 Y36.954 F12000
G1 F1800
G1 X33.196 Y37.966 E0.04917
G1 X32.485 Y39.312 E0.05675
G1 X27.457 Y52.179 E0.51514
G1 X27.235 Y53.358 E0.04472
G1 X27.235 Y66.641 E0.49533
G1 X27.458 Y67.822 E0.04482
G1 X32.61 Y80.977 E0.5268
G1 X33.258 Y82.128 E0.04927
G1 X33.932 Y82.938 E0.03927
G1 X34.849 Y83.72 E0.04497
G1 X35.943 Y84.342 E0.04691
G1 X37.332 Y84.799 E0.05452
G1 X38.533 Y84.935 E0.04508
G1 X82.167 Y84.939 E1.62708
G1 X83.47 Y84.812 E0.04882
G1 X84.98 Y84.331 E0.05907
G1 X86.027 Y83.745 E0.04475
G1 X87.079 Y82.86 E0.05125
G1 X88.17 Y81.654 E0.06067
G1 X89.16 Y80.361 E0.06071
G1 X90.04 Y78.992 E0.06071
G1 X90.747 Y77.674 E0.05576
G1 X91.726 Y75.293 E0.09598
G1 X92.182 Y73.73 E0.06071
G1 X92.487 Y72.266 E0.05576
G1 X92.692 Y70.651 E0.06071
G1 X92.765 Y68.957 E0.06323
G1 X92.765 Y51.043 E0.66802
G1 X92.692 Y49.349 E0.06323
G1 X92.335 Y46.934 E0.09104
G1 X91.932 Y45.356 E0.06071
G1 X91.45 Y43.941 E0.05576
G1 X90.375 Y41.602 E0.09598
G1 X89.083 Y39.53 E0.09103
G1 X88.17 Y38.346 E0.05576
M73 P1 R34
G1 X87.079 Y37.14 E0.06067
G1 X85.769 Y36.087 E0.06265
G1 X84.98 Y35.669 E0.03331
G1 X84.039 Y35.324 E0.03734
G1 X83.197 Y35.141 E0.03214
G1 X82.167 Y35.061 E0.03851
G1 X38.533 Y35.065 E1.62708
G1 X37.282 Y35.213 E0.04698
G1 X36.002 Y35.631 E0.05021
G1 X34.85 Y36.279 E0.0493
G1 X34.041 Y36.954 E0.03927
G1 E-0.5
; printing object extruder_motor_plate(1).stl id:0 copy 0
; acceleration to travel
M204 S4000
G1 X38.869 Y60.975 F12000
; decel to extrusion
M204 S2000
G1 X41.284 Y72.986
; end travel
G1 E0.5 F1800
;TYPE:Internal perimeter
;WIDTH:0.5
G1 X41.326 Y72.725 E0.00944
G1 X41.609 Y72.68 E0.01023
G1 X41.963 Y72.583 E0.01314
G1 X42.306 Y72.449 E0.01314
G1 X42.632 Y72.28 E0.01314
G1 X42.939 Y72.076 E0.01314
G1 X43.234 Y71.831 E0.01371
G1 X43.646 Y71.374 E0.02199
G1 X43.858 Y71.054 E0.01373
G1 X44.031 Y70.721 E0.01339
G1 X44.191 Y70.291 E0.01638
G1 X44.316 Y69.685 E0.02212
G1 X44.336 Y69.3 E0.01378
G1 X44.317 Y68.932 E0.01314
G1 X44.258 Y68.569 E0.01314
G1 X44.157 Y68.198 E0.01376
G1 X43.907 Y67.63 E0.02215
G1 X43.659 Y67.244 E0.01641
G1 X43.42 Y66.956 E0.01336
G1 X43.146 Y66.688 E0.0137
G1 X42.647 Y66.327 E0.02199
G1 X42.306 Y66.15 E0.01374
G1 X41.963 Y66.016 E0.01314
G1 X41.609 Y65.919 E0.01314
G1 X41.246 Y65.861 E0.01314
G1 X40.879 Y65.841 E0.01313
G1 X40.585 Y65.857 E0.0105
G1 X40.156 Y65.917 E0.01549
G1 X39.793 Y66.016 E0.01342
G1 X39.451 Y66.15 E0.01314
G1 X39.124 Y66.32 E0.01314
G1 X38.818 Y66.523 E0.01314
G1 X38.535 Y66.757 E0.01314
G1 X38.267 Y67.032 E0.0137
G1 X37.906 Y67.531 E0.02199
G1 X37.729 Y67.872 E0.01373
G1 X37.595 Y68.214 E0.01314
G1 X37.498 Y68.569 E0.01314
G1 X37.44 Y68.932 E0.01314
G1 X37.42 Y69.3 E0.01314
G1 X37.44 Y69.667 E0.01314
G1 X37.498 Y70.03 E0.01314
G1 X37.595 Y70.385 E0.01314
G1 X37.729 Y70.727 E0.01314
G1 X37.898 Y71.054 E0.01314
G1 X38.101 Y71.36 E0.01314
G1 X38.346 Y71.656 E0.01371
G1 X38.804 Y72.067 E0.02199
G1 X39.124 Y72.28 E0.01372
G1 X39.577 Y72.515 E0.01823
G1 X39.532 Y72.778 E0.00954
G1 X39.256 Y72.817 E0.00997
G1 X38.893 Y72.916 E0.01342
G1 X38.551 Y73.05 E0.01314
G1 X38.224 Y73.219 E0.01314
G1 X37.918 Y73.422 E0.01314
G1 X37.635 Y73.657 E0.01314
G1 X37.367 Y73.932 E0.0137
G1 X37.006 Y74.43 E0.02199
G1 X36.829 Y74.771 E0.01374
G1 X36.695 Y75.114 E0.01314
G1 X36.598 Y75.469 E0.01314
G1 X36.54 Y75.832 E0.01314
G1 X36.52 Y76.199 E0.01314
G1 X36.54 Y76.566 E0.01314
G1 X36.598 Y76.929 E0.01314
G1 X36.695 Y77.284 E0.01314
G1 X36.829 Y77.627 E0.01314
G1 X36.998 Y77.953 E0.01314
G1 X37.201 Y78.26 E0.01314
G1 X37.446 Y78.555 E0.01371
G1 X37.904 Y78.967 E0.02199
G1 X38.224 Y79.179 E0.01373
G1 X38.557 Y79.352 E0.01339
G1 X38.987 Y79.511 E0.01638
G1 X39.593 Y79.637 E0.02212
G1 X39.978 Y79.657 E0.01378
G1 X40.346 Y79.638 E0.01314
G1 X40.709 Y79.579 E0.01314
G1 X41.063 Y79.483 E0.01314
G1 X41.406 Y79.349 E0.01314
G1 X41.732 Y79.179 E0.01314
G1 X42.039 Y78.976 E0.01314
G1 X42.334 Y78.731 E0.01371
G1 X42.746 Y78.273 E0.02199
G1 X42.958 Y77.953 E0.01372
G1 X43.131 Y77.621 E0.01339
G1 X43.291 Y77.191 E0.01639
G1 X43.416 Y76.584 E0.02212
G1 X43.436 Y76.199 E0.01378
G1 X43.417 Y75.832 E0.01314
G1 X43.358 Y75.469 E0.01314
G1 X43.257 Y75.097 E0.01376
G1 X43.007 Y74.53 E0.02215
G1 X42.759 Y74.143 E0.01641
G1 X42.52 Y73.855 E0.01336
G1 X42.246 Y73.588 E0.0137
G1 X41.747 Y73.227 E0.02199
G1 X41.284 Y72.986 E0.01865
G1 X41.512 Y72.232 F12000
;TYPE:External perimeter
G1 F1800
G1 X41.82 Y72.148 E0.0114
G1 X42.117 Y72.032 E0.0114
G1 X42.4 Y71.885 E0.0114
G1 X42.666 Y71.709 E0.0114
G1 X42.917 Y71.501 E0.01165
G1 X43.284 Y71.093 E0.01959
G1 X43.464 Y70.821 E0.01165
G1 X43.612 Y70.535 E0.01151
G1 X43.75 Y70.164 E0.01414
G1 X43.861 Y69.626 E0.01965
G1 X43.879 Y69.3 E0.01168
G1 X43.862 Y68.981 E0.0114
G1 X43.811 Y68.666 E0.0114
G1 X43.725 Y68.351 E0.01167
G1 X43.503 Y67.847 E0.01966
G1 X43.289 Y67.514 E0.01415
G1 X43.084 Y67.266 E0.01149
G1 X42.851 Y67.039 E0.01164
G1 X42.406 Y66.717 E0.0196
G1 X42.117 Y66.567 E0.01166
G1 X41.82 Y66.451 E0.0114
G1 X41.512 Y66.367 E0.0114
G1 X41.197 Y66.316 E0.0114
G1 X40.878 Y66.299 E0.01139
G1 X40.629 Y66.312 E0.00892
G1 X40.248 Y66.366 E0.01375
G1 X39.937 Y66.451 E0.01152
G1 X39.64 Y66.567 E0.0114
G1 X39.357 Y66.714 E0.0114
G1 X39.091 Y66.89 E0.0114
G1 X38.845 Y67.094 E0.0114
G1 X38.618 Y67.327 E0.01164
G1 X38.296 Y67.771 E0.0196
G1 X38.146 Y68.061 E0.01166
G1 X38.029 Y68.358 E0.0114
G1 X37.945 Y68.666 E0.0114
G1 X37.895 Y68.981 E0.0114
G1 X37.878 Y69.3 E0.0114
G1 X37.895 Y69.618 E0.0114
G1 X37.945 Y69.933 E0.0114
G1 X38.029 Y70.241 E0.0114
G1 X38.146 Y70.538 E0.0114
G1 X38.293 Y70.821 E0.0114
G1 X38.469 Y71.087 E0.0114
G1 X38.677 Y71.338 E0.01165
G1 X39.085 Y71.705 E0.01959
G1 X39.357 Y71.885 E0.01165
G1 X39.642 Y72.034 E0.01151
G1 X40.013 Y72.171 E0.01413
G1 X40.552 Y72.283 E0.01965
G1 X40.878 Y72.3 E0.01168
G1 X41.197 Y72.283 E0.0114
G1 X41.512 Y72.232 E0.0114
;WIPE_START
M204 S4000
G1 X41.786 Y72.524 F12000
;WIPE_END
G1 E-0.5 F1800
; acceleration to travel
G1 X41.003 Y76.929 F12000
; decel to extrusion
M204 S2000
G1 X40.612 Y79.132
; end travel
G1 E0.5 F1800
G1 X40.92 Y79.048 E0.0114
G1 X41.217 Y78.932 E0.0114
G1 X41.5 Y78.785 E0.0114
G1 X41.766 Y78.608 E0.0114
G1 X42.017 Y78.4 E0.01165
G1 X42.384 Y77.993 E0.0196
G1 X42.564 Y77.721 E0.01165
G1 X42.712 Y77.435 E0.01151
G1 X42.85 Y77.064 E0.01414
G1 X42.961 Y76.526 E0.01965
G1 X42.979 Y76.199 E0.01168
G1 X42.962 Y75.88 E0.0114
G1 X42.911 Y75.565 E0.0114
G1 X42.825 Y75.25 E0.01167
G1 X42.603 Y74.747 E0.01966
G1 X42.389 Y74.414 E0.01414
G1 X42.184 Y74.166 E0.01149
G1 X41.951 Y73.939 E0.01164
G1 X41.506 Y73.617 E0.01959
G1 X41.217 Y73.466 E0.01166
G1 X40.92 Y73.35 E0.0114
G1 X40.612 Y73.266 E0.0114
G1 X40.297 Y73.216 E0.0114
G1 X39.978 Y73.199 E0.01139
G1 X39.729 Y73.212 E0.00892
G1 X39.348 Y73.265 E0.01375
G1 X39.037 Y73.35 E0.01152
G1 X38.74 Y73.466 E0.0114
G1 X38.457 Y73.613 E0.0114
G1 X38.191 Y73.79 E0.0114
G1 X37.945 Y73.993 E0.0114
G1 X37.718 Y74.227 E0.01164
G1 X37.396 Y74.671 E0.01959
G1 X37.246 Y74.961 E0.01166
G1 X37.129 Y75.258 E0.0114
G1 X37.045 Y75.565 E0.0114
G1 X36.995 Y75.88 E0.0114
G1 X36.978 Y76.199 E0.0114
G1 X36.995 Y76.518 E0.0114
G1 X37.045 Y76.833 E0.0114
G1 X37.129 Y77.141 E0.0114
G1 X37.246 Y77.438 E0.0114
G1 X37.393 Y77.721 E0.0114
G1 X37.569 Y77.987 E0.0114
G1 X37.777 Y78.238 E0.01165
G1 X38.185 Y78.604 E0.01959
G1 X38.457 Y78.785 E0.01165
G1 X38.742 Y78.933 E0.01151
G1 X39.113 Y79.071 E0.01413
G1 X39.652 Y79.182 E0.01965
G1 X39.978 Y79.2 E0.01168
G1 X40.297 Y79.183 E0.0114
G1 X40.612 Y79.132 E0.0114
;WIPE_START
M204 S4000
G1 X40.886 Y79.423 F12000
;WIPE_END
G1 E-0.5 F1800
; acceleration to travel
G1 X40.458 Y57.57 F12000
; decel to extrusion
M204 S2000
G1 X40.244 Y46.643
; end travel
G1 E0.5 F1800
;TYPE:Internal perimeter
G1 X40.782 Y46.545 E0.01954
G1 X41.178 Y46.392 E0.01515
G1 X41.428 Y46.264 E0.01004
G1 X41.714 Y46.071 E0.01232
G1 X41.975 Y45.846 E0.01231
G1 X42.164 Y45.638 E0.01005
G1 X42.405 Y45.312 E0.01448
G1 X42.572 Y45 E0.01266
G1 X42.705 Y44.66 E0.01302
G1 X42.824 Y44.091 E0.02078
G1 X42.832 Y43.667 E0.01517
G1 X42.807 Y43.386 E0.01005
G1 X42.737 Y43.049 E0.0123
G1 X42.626 Y42.721 E0.01237
G1 X42.467 Y42.391 E0.01308
G1 X42.131 Y41.919 E0.02069
G1 X41.81 Y41.603 E0.01611
G1 X41.322 Y41.275 E0.02101
G1 X40.907 Y41.097 E0.01612
G1 X40.339 Y40.962 E0.02087
G1 X39.881 Y40.946 E0.01637
G1 X39.307 Y41.02 E0.02066
G1 X38.961 Y41.129 E0.01294
G1 X38.629 Y41.279 E0.01304
G1 X38.147 Y41.603 E0.02075
G1 X37.825 Y41.919 E0.01612
G1 X37.49 Y42.391 E0.02069
G1 X37.331 Y42.721 E0.01308
G1 X37.22 Y43.049 E0.01237
G1 X37.15 Y43.386 E0.0123
G1 X37.125 Y43.667 E0.01005
G1 X37.133 Y44.091 E0.01517
G1 X37.252 Y44.66 E0.02078
G1 X37.384 Y45 E0.01302
G1 X37.552 Y45.312 E0.01266
G1 X37.792 Y45.638 E0.01448
G1 X37.982 Y45.846 E0.01005
G1 X38.242 Y46.071 E0.0123
G1 X38.529 Y46.264 E0.01232
G1 X38.779 Y46.392 E0.01003
G1 X39.174 Y46.545 E0.01515
G1 X39.753 Y46.651 E0.02101
G1 X40.204 Y46.651 E0.01612
G1 X40.244 Y46.643 E0.00148
G1 X40.162 Y46.193 F12000
;TYPE:External perimeter
G1 F1800
G1 X40.658 Y46.103 E0.01799
G1 X40.99 Y45.974 E0.01274
G1 X41.195 Y45.869 E0.00822
G1 X41.436 Y45.707 E0.01037
G1 X41.655 Y45.518 E0.01036
G1 X41.811 Y45.348 E0.00822
G1 X42.017 Y45.067 E0.01246
G1 X42.157 Y44.808 E0.01051
G1 X42.265 Y44.53 E0.01067
G1 X42.367 Y44.04 E0.01789
G1 X42.374 Y43.683 E0.01275
G1 X42.354 Y43.453 E0.00822
G1 X42.295 Y43.17 E0.01036
G1 X42.201 Y42.894 E0.01039
G1 X42.072 Y42.624 E0.0107
G1 X41.782 Y42.217 E0.01785
G1 X41.519 Y41.959 E0.01316
G1 X41.102 Y41.678 E0.01799
G1 X40.763 Y41.532 E0.01316
G1 X40.277 Y41.418 E0.01784
G1 X39.902 Y41.404 E0.01341
G1 X39.406 Y41.469 E0.01788
G1 X39.124 Y41.557 E0.01053
G1 X38.852 Y41.68 E0.01068
G1 X38.437 Y41.959 E0.01787
G1 X38.174 Y42.217 E0.01316
G1 X37.885 Y42.624 E0.01785
G1 X37.755 Y42.894 E0.0107
G1 X37.662 Y43.17 E0.01039
G1 X37.603 Y43.453 E0.01036
G1 X37.582 Y43.683 E0.00822
G1 X37.589 Y44.04 E0.01275
G1 X37.691 Y44.53 E0.01789
G1 X37.8 Y44.808 E0.01067
G1 X37.939 Y45.067 E0.01051
G1 X38.146 Y45.348 E0.01245
G1 X38.301 Y45.518 E0.00822
G1 X38.521 Y45.707 E0.01036
G1 X38.761 Y45.869 E0.01037
G1 X38.966 Y45.974 E0.00822
G1 X39.299 Y46.103 E0.01275
G1 X39.794 Y46.193 E0.01799
G1 X40.162 Y46.193 E0.01317
;WIPE_START
M204 S4000
G1 X40.403 Y46.513 F12000
;WIPE_END
G1 E-0.5 F1800
; acceleration to travel
G1 X69.304 Y52.002 F12000
; decel to extrusion
M204 S2000
M73 P1 R34
G1 X83.755 Y54.746
; end travel
G1 E0.5 F1800
;TYPE:Internal perimeter
G1 X84.038 Y54.804 E0.01031
G1 X84.427 Y54.83 E0.01392
G1 X84.815 Y54.804 E0.01392
G1 X85.197 Y54.726 E0.01392
G1 X85.565 Y54.598 E0.01392
G1 X85.913 Y54.422 E0.01392
G1 X86.234 Y54.202 E0.01392
G1 X86.523 Y53.94 E0.01392
G1 X86.775 Y53.643 E0.01392
G1 X86.985 Y53.314 E0.01392
G1 X87.149 Y52.961 E0.01392
G1 X87.264 Y52.589 E0.01392
G1 X87.329 Y52.205 E0.01392
G1 X87.342 Y51.815 E0.01392
G1 X87.303 Y51.427 E0.01392
G1 X87.213 Y51.048 E0.01392
G1 X87.073 Y50.685 E0.01392
G1 X86.885 Y50.343 E0.01392
G1 X86.654 Y50.029 E0.01392
G1 X86.383 Y49.749 E0.01392
G1 X86.077 Y49.508 E0.01392
G1 X85.742 Y49.309 E0.01392
G1 X85.383 Y49.157 E0.01392
G1 X85.008 Y49.054 E0.01392
G1 X84.621 Y49.002 E0.01392
G1 X84.223 Y49.002 E0.01424
G1 X83.794 Y49.068 E0.01551
G1 X83.47 Y49.157 E0.012
G1 X83.111 Y49.309 E0.01392
G1 X82.776 Y49.508 E0.01392
G1 X82.47 Y49.749 E0.01392
G1 X82.199 Y50.029 E0.01392
G1 X81.968 Y50.343 E0.01392
G1 X81.781 Y50.685 E0.01392
G1 X81.641 Y51.048 E0.01392
G1 X81.55 Y51.427 E0.01392
G1 X81.511 Y51.815 E0.01392
G1 X81.524 Y52.205 E0.01392
G1 X81.589 Y52.589 E0.01392
G1 X81.704 Y52.961 E0.01392
G1 X81.869 Y53.314 E0.01392
G1 X82.078 Y53.643 E0.01392
G1 X82.33 Y53.94 E0.01392
G1 X82.619 Y54.202 E0.01392
G1 X82.94 Y54.422 E0.01392
G1 X83.288 Y54.598 E0.01392
G1 X83.656 Y54.726 E0.01392
G1 X83.755 Y54.746 E0.00361
G1 X83.846 Y54.298 F12000
G1 F1800
G1 X84.099 Y54.35 E0.00921
G1 X84.427 Y54.372 E0.01174
G1 X84.754 Y54.35 E0.01174
G1 X85.076 Y54.284 E0.01173
G1 X85.386 Y54.176 E0.01174
G1 X85.68 Y54.028 E0.01173
G1 X85.95 Y53.842 E0.01174
G1 X86.194 Y53.622 E0.01174
G1 X86.406 Y53.371 E0.01173
G1 X86.583 Y53.094 E0.01174
G1 X86.721 Y52.796 E0.01173
G1 X86.818 Y52.483 E0.01173
G1 X86.873 Y52.159 E0.01174
G1 X86.884 Y51.83 E0.01174
G1 X86.851 Y51.504 E0.01173
G1 X86.775 Y51.184 E0.01174
G1 X86.657 Y50.878 E0.01174
G1 X86.499 Y50.59 E0.01174
G1 X86.304 Y50.325 E0.01174
G1 X86.076 Y50.089 E0.01173
G1 X85.818 Y49.885 E0.01174
G1 X85.536 Y49.718 E0.01174
G1 X85.233 Y49.59 E0.01173
G1 X84.916 Y49.503 E0.01173
G1 X84.591 Y49.459 E0.01173
G1 X84.258 Y49.459 E0.01189
G1 X83.889 Y49.516 E0.01333
G1 X83.62 Y49.59 E0.00997
G1 X83.318 Y49.718 E0.01173
G1 X83.035 Y49.885 E0.01173
G1 X82.777 Y50.089 E0.01174
G1 X82.549 Y50.325 E0.01174
G1 X82.354 Y50.59 E0.01174
G1 X82.196 Y50.878 E0.01173
G1 X82.078 Y51.184 E0.01174
G1 X82.002 Y51.504 E0.01174
G1 X81.969 Y51.83 E0.01174
G1 X81.98 Y52.159 E0.01174
G1 X82.035 Y52.483 E0.01173
G1 X82.132 Y52.796 E0.01174
G1 X82.27 Y53.094 E0.01174
G1 X82.447 Y53.371 E0.01173
G1 X82.659 Y53.622 E0.01173
G1 X82.903 Y53.842 E0.01173
G1 X83.173 Y54.028 E0.01174
G1 X83.467 Y54.176 E0.01174
G1 X83.777 Y54.284 E0.01173
G1 X83.846 Y54.298 E0.00252
G1 X83.937 Y53.85 F12000
;TYPE:External perimeter
G1 F1800
G1 X84.16 Y53.896 E0.00812
G1 X84.427 Y53.913 E0.00955
G1 X84.693 Y53.896 E0.00955
G1 X84.955 Y53.842 E0.00955
G1 X85.208 Y53.755 E0.00955
G1 X85.446 Y53.634 E0.00955
G1 X85.667 Y53.483 E0.00955
