; generated by SuperSlicer 2.5.59 on 2023-02-01 at 21:22:29 UTC


;
;

;
;
; 

; external perimeters extrusion width = 0.40mm
; perimeters extrusion width = 0.46mm
; infill extrusion width = 0.64mm
; solid infill extrusion width = 0.56mm
; top infill extrusion width = 0.40mm
; first layer extrusion width = 0.50mm

; object:{"name":"Fan_Cover","id":"Fan_Cover.stl id:0 copy 0","object_center":[60.000001,59.999982,0.000000],"boundingbox_center":[60.000001,59.999982,7.500143],"boundingbox_size":[50.995163,50.999798,15.000286]}
; plater:{"center":[60.000001,59.999982,0.000000],"boundingbox_center":[60.000001,59.999982,7.500143],"boundingbox_size":[50.995163,50.999798,15.000286]}

M73 P0 R23
;TYPE:Custom
; custom gcode: start_gcode
START_PRINT T_BED=110 T_EXTRUDER=240
; custom gcode end: start_gcode
M107
G21 ; set units to millimeters
G90 ; use absolute coordinates
M82 ; use absolute distances for extrusion
G92 E0
; custom gcode: start_filament_gcode
; Filament gcode

    PRESSURE_ADVANCE_SELECT FILAMENT=ABS
; custom gcode end: start_filament_gcode
;_TOOLCHANGE 0
M104 S240 ; set temperature
M109 S240 ; set temperature and wait for it to be reached
M190 S110 ; set bed temperature and wait for it to be reached
;LAYER_CHANGE
;Z:0.2
;HEIGHT:0.2
G1 Z0.2 F12000
M73 P0 R23
G1 E-0.5 F3000
M204 S2000
G1 X39.653 Y39.598 F12000
G1 E0 F1800
;TYPE:Skirt
;WIDTH:0.52
G1 X37.489 Y42.014 E0.12352
G1 X36.329 Y43.569 E0.19738
G1 X35.375 Y45.038 E0.2641
G1 X33.849 Y47.9 E0.38762
G1 X33.088 Y49.704 E0.46217
G1 X32.101 Y52.793 E0.58569
G1 X31.613 Y55.086 E0.67494
G1 X31.245 Y58.144 E0.79225
G1 X31.219 Y61.387 E0.91576
G1 X31.355 Y63.116 E0.9818
G1 X31.594 Y64.833 E1.04784
G1 X33.784 Y79.25 E1.60315
G1 X34.021 Y80.267 E1.64291
G1 X34.393 Y81.27 E1.68366
G1 X34.921 Y82.274 E1.72686
G1 X35.579 Y83.198 E1.77007
G1 X36.356 Y84.025 E1.81328
G1 X37.241 Y84.743 E1.85669
G1 X38.206 Y85.329 E1.89968
G1 X39.246 Y85.783 E1.94288
G1 X40.678 Y86.162 E1.99929
G1 X56.717 Y88.626 E2.61729
G1 X59.937 Y88.814 E2.74012
G1 X63.375 Y88.616 E2.87126
G1 X79.518 Y86.031 E3.49385
G1 X80.621 Y85.731 E3.53738
G1 X82.15 Y85.021 E3.6016
G1 X83.602 Y83.926 E3.67084
G1 X84.701 Y82.658 E3.73474
G1 X85.574 Y81.073 E3.80365
G1 X86.057 Y79.482 E3.86697
G1 X88.382 Y64.966 E4.42682
M73 P0 R23
G1 X88.76 Y61.745 E4.55034
G1 X88.814 Y59.983 E4.61749
G1 X88.606 Y56.551 E4.7484
G1 X88.347 Y54.837 E4.81444
G1 X87.985 Y53.141 E4.88048
G1 X87.521 Y51.47 E4.94651
G1 X86.958 Y49.83 E5.01255
G1 X86.298 Y48.226 E5.07859
G1 X85.542 Y46.666 E5.14463
G1 X84.694 Y45.153 E5.21067
G1 X83.756 Y43.695 E5.27671
G1 X82.597 Y42.123 E5.35105
G1 X81.477 Y40.793 E5.41729
G1 X80.283 Y39.535 E5.48334
G1 X79.015 Y38.352 E5.54937
G1 X76.462 Y36.352 E5.67289
G1 X75.009 Y35.405 E5.73893
G1 X73.503 Y34.546 E5.80497
G1 X71.947 Y33.78 E5.87101
G1 X70.141 Y33.03 E5.94548
G1 X68.498 Y32.468 E6.01159
G1 X66.827 Y32.007 E6.07763
G1 X65.13 Y31.647 E6.14367
G1 X61.911 Y31.25 E6.26719
G1 X60.178 Y31.187 E6.33323
G1 X58.223 Y31.241 E6.40772
G1 X56.495 Y31.4 E6.47382
G1 X54.781 Y31.663 E6.53986
G1 X51.629 Y32.429 E6.66337
G1 X49.783 Y33.058 E6.73765
G1 X48.174 Y33.724 E6.80396
G1 X45.296 Y35.22 E6.92748
G1 X43.832 Y36.149 E6.99352
G1 X42.26 Y37.294 E7.06759
G1 X40.917 Y38.411 E7.1341
G1 X39.653 Y39.598 E7.20015
G1 X40.001 Y39.932 F12000
G1 F1800
G1 X38.957 Y41.021 E7.25761
G1 X37.732 Y42.474 E7.32997
G1 X36.507 Y44.165 E7.40949
G1 X35.038 Y46.586 E7.51733
G1 X34.277 Y48.112 E7.58228
G1 X33.538 Y49.862 E7.65464
G1 X32.56 Y52.925 E7.77707
G1 X32.084 Y55.16 E7.86409
G1 X31.722 Y58.162 E7.97926
G1 X31.696 Y61.377 E8.10168
G1 X32.066 Y64.766 E8.23151
G1 X34.255 Y79.178 E8.78667
M73 P1 R23
G1 X34.481 Y80.143 E8.82441
G1 X34.836 Y81.093 E8.86303
G1 X35.336 Y82.039 E8.90379
G1 X35.959 Y82.91 E8.94454
G1 X36.694 Y83.688 E8.98531
G1 X37.53 Y84.363 E9.02624
G1 X38.442 Y84.914 E9.06681
G1 X39.423 Y85.34 E9.10756
G1 X40.751 Y85.69 E9.15983
G1 X56.759 Y88.151 E9.77665
G1 X59.951 Y88.337 E9.89838
G1 X63.331 Y88.14 E10.02735
G1 X79.442 Y85.56 E10.6487
G1 X80.483 Y85.275 E10.68979
G1 X81.891 Y84.621 E10.74893
G1 X83.288 Y83.567 E10.81558
G1 X84.3 Y82.399 E10.87442
G1 X85.141 Y80.873 E10.94079
G1 X85.586 Y79.407 E10.99913
G1 X87.91 Y64.896 E11.55877
G1 X88.285 Y61.704 E11.6812
G1 X88.337 Y59.974 E11.7471
G1 X88.131 Y56.596 E11.87597
G1 X87.519 Y53.242 E12.00581
G1 X86.508 Y49.986 E12.13564
G1 X85.113 Y46.875 E12.26547
G1 X83.355 Y43.954 E12.3953
G1 X82.231 Y42.429 E12.46749
G1 X81.13 Y41.12 E12.5326
G1 X78.71 Y38.719 E12.66244
G1 X76.179 Y36.736 E12.78487
G1 X74.75 Y35.805 E12.84981
G1 X73.268 Y34.962 E12.91476
G1 X71.56 Y34.129 E12.98712
G1 X68.37 Y32.928 E13.11695
G1 X65.058 Y32.118 E13.24679
G1 X61.867 Y31.725 E13.36921
G1 X60.163 Y31.664 E13.43416
G1 X58.265 Y31.716 E13.50647
G1 X56.565 Y31.872 E13.57147
G1 X54.879 Y32.129 E13.63641
G1 X51.756 Y32.889 E13.75884
G1 X49.963 Y33.5 E13.83097
G1 X48.381 Y34.154 E13.89615
G1 X45.529 Y35.636 E14.01857
G1 X44.089 Y36.551 E14.08352
G1 X42.562 Y37.663 E14.15547
G1 X40.137 Y39.79 E14.2783
G1 X40.001 Y39.932 E14.28579
G92 E0
G1 E-0.5 F3000
; printing object Fan_Cover.stl id:0 copy 0
; acceleration to travel
M204 S4000
G1 X61.886 Y57.058 F12000
; decel to extrusion
M204 S2000
G1 X72.828 Y65.622
; end travel
G1 E0 F1800
;TYPE:Internal perimeter
;WIDTH:0.5
G1 X73.567 Y65.665 E0.027
G1 X74.254 Y65.616 E0.05211
G1 X75.165 Y65.415 E0.08614
G1 X75.808 Y65.175 E0.11119
G1 X76.521 Y64.794 E0.14069
G1 X77.188 Y64.304 E0.17089
G1 X77.843 Y63.633 E0.20511
G1 X78.253 Y63.085 E0.23008
G1 X78.646 Y62.374 E0.2597
G1 X78.933 Y61.611 E0.28946
G1 X79.108 Y60.814 E0.31922
G1 X79.167 Y60 E0.34899
G1 X79.108 Y59.187 E0.37875
G1 X78.933 Y58.39 E0.40851
G1 X78.646 Y57.627 E0.43826
G1 X78.251 Y56.912 E0.46807
G1 X77.759 Y56.262 E0.49779
G1 X77.178 Y55.69 E0.52754
G1 X76.526 Y55.21 E0.55708
G1 X75.924 Y54.881 E0.5821
G1 X75.045 Y54.548 E0.61642
G1 X74.244 Y54.384 E0.64624
G1 X73.568 Y54.336 E0.67099
G1 X73.17 Y54.359 E0.68553
G1 X72.753 Y54.383 E0.70076
G1 X71.834 Y54.586 E0.7351
G1 X71.191 Y54.826 E0.76015
G1 X70.477 Y55.206 E0.78965
G1 X69.811 Y55.697 E0.81985
G1 X69.155 Y56.368 E0.85407
G1 X68.745 Y56.916 E0.87904
G1 X68.353 Y57.627 E0.90867
G1 X68.065 Y58.39 E0.93843
G1 X67.89 Y59.186 E0.96818
G1 X67.832 Y60 E0.99795
G1 X67.89 Y60.814 E1.02771
G1 X68.065 Y61.61 E1.05747
G1 X68.352 Y62.371 E1.08713
G1 X68.648 Y62.913 E1.10965
G1 X68.754 Y63.098 E1.11743
G1 X69.239 Y63.738 E1.14675
G1 X69.82 Y64.311 E1.17651
G1 X70.472 Y64.79 E1.20604
G1 X71.074 Y65.119 E1.23107
G1 X71.954 Y65.452 E1.26538
G1 X72.763 Y65.618 E1.29551
G1 X72.828 Y65.622 E1.29792
G1 X72.855 Y65.166 F12000
G1 F1800
G1 X73.564 Y65.207 E1.32384
G1 X74.188 Y65.162 E1.34665
G1 X75.035 Y64.975 E1.3783
G1 X75.619 Y64.757 E1.40107
G1 X76.277 Y64.406 E1.42825
G1 X76.887 Y63.958 E1.45588
G1 X77.495 Y63.335 E1.48765
G1 X77.868 Y62.836 E1.51037
G1 X78.229 Y62.182 E1.53764
G1 X78.494 Y61.48 E1.56499
G1 X78.654 Y60.748 E1.59234
G1 X78.708 Y60 E1.6197
G1 X78.655 Y59.253 E1.64705
G1 X78.494 Y58.52 E1.6744
G1 X78.23 Y57.819 E1.70175
G1 X77.867 Y57.162 E1.72915
G1 X77.415 Y56.565 E1.75646
G1 X76.881 Y56.038 E1.78381
G1 X76.28 Y55.597 E1.81102
G1 X75.733 Y55.298 E1.83378
G1 X74.917 Y54.988 E1.86561
G1 X74.182 Y54.838 E1.89299
G1 X73.564 Y54.794 E1.91557
G1 X73.196 Y54.815 E1.92903
G1 X72.816 Y54.837 E1.94293
G1 X71.964 Y55.025 E1.97478
G1 X71.379 Y55.243 E1.99755
G1 X70.722 Y55.594 E2.02473
G1 X70.112 Y56.043 E2.05236
G1 X69.503 Y56.666 E2.08413
G1 X69.13 Y57.164 E2.10685
G1 X68.769 Y57.819 E2.13412
G1 X68.505 Y58.52 E2.16147
G1 X68.344 Y59.252 E2.18882
G1 X68.29 Y60 E2.21618
G1 X68.344 Y60.748 E2.24353
G1 X68.505 Y61.48 E2.27089
G1 X68.768 Y62.18 E2.29817
G1 X69.046 Y62.689 E2.31933
G1 X69.136 Y62.844 E2.32588
G1 X69.584 Y63.436 E2.35294
G1 X70.118 Y63.962 E2.38029
G1 X70.718 Y64.404 E2.4075
G1 X71.266 Y64.703 E2.43026
G1 X72.081 Y65.012 E2.46209
G1 X72.822 Y65.164 E2.48967
G1 X72.855 Y65.166 E2.49088
G1 X72.881 Y64.709 F12000
;TYPE:External perimeter
G1 F1800
G1 X73.561 Y64.749 E2.51572
G1 X74.122 Y64.709 E2.53623
G1 X74.905 Y64.536 E2.56549
G1 X75.431 Y64.339 E2.58598
G1 X76.033 Y64.019 E2.61085
G1 X76.586 Y63.611 E2.63592
G1 X77.147 Y63.037 E2.66523
G1 X77.483 Y62.588 E2.6857
G1 X77.813 Y61.99 E2.71061
G1 X78.054 Y61.35 E2.73555
G1 X78.201 Y60.682 E2.76049
G1 X78.25 Y60 E2.78545
G1 X78.201 Y59.318 E2.81039
G1 X78.054 Y58.651 E2.83534
G1 X77.813 Y58.011 E2.86028
G1 X77.482 Y57.411 E2.88527
G1 X77.07 Y56.867 E2.91018
G1 X76.583 Y56.387 E2.93512
G1 X76.034 Y55.983 E2.96
G1 X75.541 Y55.714 E2.98049
G1 X74.789 Y55.429 E3.00983
G1 X74.119 Y55.292 E3.03479
G1 X73.561 Y55.252 E3.05519
G1 X73.223 Y55.271 E3.06757
G1 X72.879 Y55.291 E3.08014
G1 X72.093 Y55.465 E3.10949
G1 X71.567 Y55.661 E3.12998
G1 X70.966 Y55.982 E3.15485
G1 X70.412 Y56.389 E3.17991
G1 X69.851 Y56.964 E3.20923
G1 X69.515 Y57.413 E3.2297
G1 X69.185 Y58.01 E3.2546
G1 X68.944 Y58.65 E3.27955
G1 X68.797 Y59.318 E3.30449
G1 X68.748 Y60 E3.32945
G1 X68.797 Y60.682 E3.35439
G1 X68.944 Y61.35 E3.37934
G1 X69.185 Y61.989 E3.40426
G1 X69.445 Y62.465 E3.42405
G1 X69.517 Y62.591 E3.42935
G1 X69.928 Y63.133 E3.45418
G1 X70.415 Y63.613 E3.47912
G1 X70.964 Y64.017 E3.504
G1 X71.457 Y64.287 E3.52449
G1 X72.209 Y64.572 E3.55383
G1 X72.881 Y64.709 E3.57887
;WIPE_START
M204 S4000
G1 X73.044 Y65.075 F12000
;WIPE_END
G92 E0
G1 E-0.5 F3000
; acceleration to travel
G1 X64.373 Y77.648 F12000
; decel to extrusion
M204 S2000
G1 X60.038 Y83.935
; end travel
G1 E0 F1800
;TYPE:Internal perimeter
G1 X59.702 Y83.926 E0.01226
G1 X58.608 Y83.895 E0.05222
G1 X57.181 Y83.769 E0.10445
G1 X55.765 Y83.558 E0.15669
G1 X54.364 Y83.262 E0.20893
G1 X52.984 Y82.884 E0.26115
G1 X51.628 Y82.423 E0.31339
G1 X50.303 Y81.883 E0.36562
G1 X49.012 Y81.264 E0.41787
G1 X47.761 Y80.569 E0.47008
G1 X45.605 Y79.198 E0.56328
G1 X44.624 Y80.319 E0.61766
G1 X44.262 Y80.644 E0.63538
G1 X43.877 Y80.906 E0.65241
G1 X43.317 Y81.174 E0.67505
G1 X42.872 Y81.308 E0.69199
G1 X42.402 Y81.383 E0.70937
G1 X41.922 Y81.395 E0.72688
G1 X41.461 Y81.344 E0.74382
G1 X40.991 Y81.225 E0.76152
G1 X40.548 Y81.048 E0.7789
G1 X40.133 Y80.812 E0.79631
G1 X39.84 Y80.589 E0.80975
G1 X39.416 Y80.182 E0.8312
G1 X39.131 Y79.806 E0.84839
G1 X38.897 Y79.392 E0.86578
G1 X38.718 Y78.943 E0.88341
G1 X38.606 Y78.49 E0.90044
G1 X38.554 Y78.013 E0.91792
G1 X38.566 Y77.537 E0.9353
G1 X38.643 Y77.067 E0.95268
G1 X38.782 Y76.611 E0.97005
G1 X38.981 Y76.179 E0.98743
G1 X39.236 Y75.777 E1.0048
G1 X39.544 Y75.413 E1.02217
G1 X40.751 Y74.323 E1.08151
G1 X39.392 Y72.173 E1.17431
G1 X38.697 Y70.912 E1.22686
G1 X38.079 Y69.611 E1.27942
G1 X37.54 Y68.275 E1.33197
G1 X37.083 Y66.909 E1.38453
G1 X36.709 Y65.518 E1.43709
G1 X36.419 Y64.107 E1.48964
G1 X36.215 Y62.681 E1.5422
G1 X36.097 Y61.245 E1.59476
G1 X36.065 Y59.805 E1.64731
G1 X36.12 Y58.366 E1.69987
G1 X36.262 Y56.931 E1.75246
G1 X36.489 Y55.512 E1.80488
G1 X36.802 Y54.104 E1.85754
G1 X37.199 Y52.719 E1.91009
G1 X37.678 Y51.36 E1.96265
G1 X38.238 Y50.033 E2.01521
G1 X38.877 Y48.742 E2.06776
G1 X39.593 Y47.491 E2.12036
G1 X40.192 Y46.574 E2.16031
G1 X40.38 Y46.29 E2.17276
G1 X41.242 Y45.132 E2.22543
G1 X42.171 Y44.031 E2.27799
G1 X43.164 Y42.987 E2.33055
G1 X44.218 Y42.005 E2.38313
G1 X45.062 Y41.306 E2.42311
G1 X45.327 Y41.09 E2.43558
G1 X46.493 Y40.24 E2.48822
G1 X47.706 Y39.463 E2.54078
G1 X48.964 Y38.761 E2.59333
G1 X50.262 Y38.135 E2.64591
G1 X51.276 Y37.719 E2.68591
G1 X51.593 Y37.59 E2.6984
G1 X52.958 Y37.124 E2.75101
G1 X54.346 Y36.742 E2.80356
G1 X55.756 Y36.444 E2.85612
G1 X57.18 Y36.232 E2.90868
G1 X58.615 Y36.105 E2.96123
G1 X60.055 Y36.065 E3.01379
G1 X60.396 Y36.076 E3.02624
G1 X61.495 Y36.112 E3.06635
G1 X62.929 Y36.245 E3.11891
G1 X64.353 Y36.464 E3.17146
G1 X65.761 Y36.769 E3.22402
G1 X67.148 Y37.158 E3.27658
G1 X68.509 Y37.629 E3.32914
G1 X69.839 Y38.181 E3.38169
G1 X71.134 Y38.813 E3.43425
G1 X72.388 Y39.521 E3.48681
G1 X73.598 Y40.303 E3.53937
G1 X74.758 Y41.157 E3.59192
G1 X75.865 Y42.079 E3.64448
G1 X76.914 Y43.066 E3.69704
G1 X77.904 Y44.116 E3.74969
G1 X78.125 Y44.378 E3.76217
G1 X78.825 Y45.219 E3.80212
G1 X79.68 Y46.379 E3.85471
G1 X80.464 Y47.588 E3.90726
G1 X81.174 Y48.841 E3.95982
G1 X81.807 Y50.135 E4.01238
G1 X82.361 Y51.465 E4.06494
G1 X82.834 Y52.825 E4.11749
G1 X83.224 Y54.212 E4.17005
G1 X83.53 Y55.62 E4.22261
G1 X83.751 Y57.043 E4.27516
G1 X83.886 Y58.477 E4.32772
G1 X83.934 Y59.922 E4.38046
G1 X83.928 Y60.264 E4.39293
G1 X83.896 Y61.355 E4.43277
G1 X83.771 Y62.792 E4.48539
G1 X83.56 Y64.217 E4.53795
G1 X83.263 Y65.626 E4.5905
G1 X82.883 Y67.016 E4.64306
G1 X82.419 Y68.379 E4.69562
G1 X81.874 Y69.715 E4.74824
G1 X81.251 Y71.011 E4.80071
G1 X80.55 Y72.27 E4.85329
G1 X79.181 Y74.413 E4.94607
G1 X80.389 Y75.515 E5.00571
G1 X80.695 Y75.886 E5.02328
G1 X80.947 Y76.296 E5.04084
G1 X81.14 Y76.74 E5.05851
G1 X81.266 Y77.196 E5.07578
G1 X81.329 Y77.679 E5.09356
G1 X81.323 Y78.161 E5.11113
G1 X81.25 Y78.637 E5.1287
G1 X81.111 Y79.098 E5.14628
G1 X80.909 Y79.535 E5.16385
G1 X80.647 Y79.94 E5.18143
G1 X80.331 Y80.305 E5.19906
G1 X80.27 Y80.358 E5.202
G1 X79.969 Y80.62 E5.21656
G1 X79.564 Y80.882 E5.23415
G1 X79.127 Y81.085 E5.25173
G1 X78.666 Y81.225 E5.2693
G1 X78.19 Y81.298 E5.28688
G1 X77.709 Y81.305 E5.30445
G1 X77.231 Y81.244 E5.32202
G1 X76.767 Y81.116 E5.33959
G1 X76.325 Y80.925 E5.35716
G1 X75.914 Y80.674 E5.37473
G1 X75.542 Y80.368 E5.39229
G1 X74.439 Y79.161 E5.45195
G1 X72.305 Y80.529 E5.5444
G1 X71.056 Y81.228 E5.59664
G1 X69.767 Y81.851 E5.64887
M73 P2 R23
G1 X68.443 Y82.396 E5.70111
G1 X67.09 Y82.86 E5.7533
G1 X65.71 Y83.244 E5.80557
G1 X64.31 Y83.544 E5.8578
G1 X62.895 Y83.759 E5.91003
G1 X61.469 Y83.89 E5.96227
G1 X60.038 Y83.935 E6.01451
G1 X60.039 Y84.392 F12000
G1 F1800
G1 X59.689 Y84.383 E6.02728
G1 X58.581 Y84.351 E6.06773
G1 X57.128 Y84.223 E6.12097
G1 X55.685 Y84.008 E6.1742
G1 X54.257 Y83.707 E6.22744
G1 X52.85 Y83.321 E6.28066
G1 X51.468 Y82.852 E6.33389
G1 X50.118 Y82.301 E6.38712
G1 X48.802 Y81.67 E6.44037
G1 X47.527 Y80.962 E6.49358
G1 X45.691 Y79.794 E6.57297
G1 X44.95 Y80.641 E6.61403
G1 X44.545 Y81.004 E6.63388
G1 X44.105 Y81.303 E6.65329
G1 X43.483 Y81.601 E6.67846
G1 X42.975 Y81.755 E6.69782
G1 X42.444 Y81.84 E6.71746
G1 X41.903 Y81.852 E6.7372
G1 X41.487 Y81.809 E6.75244
G1 X41.379 Y81.794 E6.7564
G1 X40.849 Y81.661 E6.77637
G1 X40.35 Y81.46 E6.796
G1 X39.881 Y81.194 E6.81566
G1 X39.543 Y80.937 E6.83116
G1 X39.455 Y80.869 E6.83521
G1 X39.074 Y80.487 E6.85491
G1 X38.748 Y80.058 E6.87455
G1 X38.484 Y79.589 E6.89419
G1 X38.282 Y79.083 E6.91408
G1 X38.254 Y78.977 E6.91806
G1 X38.155 Y78.57 E6.93337
G1 X38.096 Y78.032 E6.9531
G1 X38.11 Y77.494 E6.97273
G1 X38.197 Y76.963 E6.99237
G1 X38.354 Y76.449 E7.012
G1 X38.579 Y75.96 E7.03163
G1 X38.867 Y75.506 E7.05126
G1 X39.214 Y75.095 E7.07088
G1 X40.158 Y74.242 E7.1173
G1 X38.998 Y72.406 E7.19655
G1 X38.29 Y71.12 E7.25011
G1 X37.66 Y69.794 E7.30367
G1 X37.111 Y68.433 E7.35723
G1 X36.645 Y67.041 E7.41079
G1 X36.264 Y65.623 E7.46435
G1 X35.969 Y64.185 E7.51791
G1 X35.761 Y62.732 E7.57147
G1 X35.64 Y61.269 E7.62503
G1 X35.608 Y59.801 E7.67859
G1 X35.664 Y58.334 E7.73215
G1 X35.808 Y56.873 E7.78575
G1 X35.981 Y55.777 E7.82621
G1 X36.04 Y55.427 E7.83917
G1 X36.359 Y53.991 E7.89284
G1 X36.763 Y52.58 E7.9464
G1 X37.252 Y51.195 E7.99996
G1 X37.822 Y49.843 E8.05352
G1 X38.474 Y48.527 E8.10708
G1 X39.203 Y47.253 E8.16067
G1 X39.81 Y46.323 E8.20116
G1 X40.006 Y46.027 E8.21413
G1 X40.884 Y44.848 E8.26776
G1 X41.83 Y43.725 E8.32133
G1 X42.842 Y42.662 E8.37489
G1 X43.916 Y41.661 E8.42846
G1 X44.772 Y40.953 E8.46897
G1 X45.047 Y40.728 E8.48196
G1 X46.235 Y39.862 E8.53557
G1 X47.471 Y39.071 E8.58913
G1 X48.753 Y38.355 E8.64269
G1 X50.075 Y37.718 E8.69626
G1 X51.103 Y37.296 E8.73678
G1 X51.433 Y37.161 E8.74979
G1 X52.823 Y36.687 E8.80338
G1 X54.238 Y36.298 E8.85694
G1 X55.675 Y35.994 E8.9105
G1 X57.127 Y35.777 E8.96406
G1 X58.589 Y35.649 E9.01762
G1 X60.056 Y35.608 E9.07118
G1 X60.411 Y35.619 E9.08413
G1 X61.523 Y35.655 E9.12474
G1 X62.985 Y35.791 E9.17831
G1 X64.436 Y36.015 E9.23187
G1 X65.871 Y36.325 E9.28543
G1 X67.285 Y36.721 E9.33899
