; generated by SuperSlicer 2.5.59 on 2023-01-09 at 02:07:41 UTC


;
;

;
;
; 

; external perimeters extrusion width = 0.40mm
; perimeters extrusion width = 0.46mm
; infill extrusion width = 0.64mm
; solid infill extrusion width = 0.56mm
; top infill extrusion width = 0.40mm
; first layer extrusion width = 0.50mm

; object:{"name":"Feet_Extension","id":"Feet_Extension.stl id:0 copy 0","object_center":[60.000000,60.000000,0.000000],"boundingbox_center":[60.000000,60.000000,18.500000],"boundingbox_size":[29.992447,29.996223,37.000000]}
; plater:{"center":[60.000000,60.000000,0.000000],"boundingbox_center":[60.000000,60.000000,18.500000],"boundingbox_size":[29.992447,29.996223,37.000000]}

M73 P0 R50
;TYPE:Custom
; custom gcode: start_gcode
START_PRINT T_BED=110 T_EXTRUDER=240
; custom gcode end: start_gcode
M107
G21 ; set units to millimeters
G90 ; use absolute coordinates
M83 ; use relative distances for extrusion
; custom gcode: start_filament_gcode
; Filament gcode

    PRESSURE_ADVANCE_SELECT FILAMENT=ABS
; custom gcode end: start_filament_gcode
;_TOOLCHANGE 0
M109 S240 ; set temperature and wait for it to be reached
M190 S110 ; set bed temperature and wait for it to be reached
;LAYER_CHANGE
;Z:0.2
;HEIGHT:0.2
G1 Z0.2 F12000
G92 E0
M73 P0 R50
G1 E-0.5 F3000
M204 S2000
G1 X47.592 Y47.411 F12000
G1 E0.5 F1800
;TYPE:Skirt
;WIDTH:0.52
G1 X46.598 Y48.475 E0.05775
G1 X45.378 Y50.068 E0.07958
G1 X44.61 Y51.306 E0.05781
G1 X43.724 Y53.104 E0.07953
G1 X43.211 Y54.47 E0.05786
G1 X42.693 Y56.405 E0.07948
G1 X42.455 Y57.845 E0.05791
G1 X42.324 Y59.843 E0.07942
G1 X42.372 Y61.31 E0.05822
G1 X42.645 Y63.357 E0.08192
G1 X42.963 Y64.712 E0.05521
G1 X43.627 Y66.663 E0.08176
G1 X44.207 Y67.94 E0.05563
G1 X45.237 Y69.722 E0.08166
G1 X46.056 Y70.863 E0.05573
G1 X47.412 Y72.409 E0.08156
G1 X48.439 Y73.371 E0.05583
G1 X50.068 Y74.621 E0.08146
G1 X51.265 Y75.366 E0.05592
G1 X53.117 Y76.28 E0.08192
G1 X54.479 Y76.789 E0.05772
G1 X56.418 Y77.307 E0.07962
G1 X57.856 Y77.543 E0.05777
G1 X59.857 Y77.673 E0.07957
G1 X61.314 Y77.624 E0.05782
G1 X63.301 Y77.362 E0.07951
G1 X64.722 Y77.03 E0.05787
G1 X66.618 Y76.386 E0.07946
G1 X67.892 Y75.811 E0.05541
G1 X69.735 Y74.747 E0.08443
G1 X70.871 Y73.932 E0.05546
G1 X72.42 Y72.57 E0.08182
G1 X73.376 Y71.547 E0.05556
G1 X74.629 Y69.911 E0.08172
G1 X75.369 Y68.719 E0.05566
G1 X76.278 Y66.873 E0.08162
G1 X76.773 Y65.557 E0.05576
G1 X77.305 Y63.572 E0.08152
G1 X77.534 Y62.183 E0.05586
G1 X77.669 Y60.135 E0.08142
G1 X77.618 Y58.668 E0.05821
G1 X77.355 Y56.678 E0.07965
G1 X77.022 Y55.261 E0.05773
G1 X76.375 Y53.361 E0.0796
G1 X75.772 Y52.035 E0.05779
G1 X74.769 Y50.299 E0.07955
G1 X73.919 Y49.115 E0.05784
G1 X72.597 Y47.608 E0.0795
G1 X71.532 Y46.611 E0.05789
G1 X69.943 Y45.392 E0.07944
G1 X68.697 Y44.617 E0.05822
G1 X66.843 Y43.707 E0.08192
G1 X65.54 Y43.219 E0.05519
G1 X63.548 Y42.688 E0.08179
G1 X62.161 Y42.46 E0.05577
G1 X60.16 Y42.328 E0.07954
G1 X58.704 Y42.374 E0.05781
G1 X56.657 Y42.645 E0.08192
G1 X55.298 Y42.962 E0.05535
G1 X53.353 Y43.623 E0.08149
G1 X52.069 Y44.204 E0.05591
G1 X50.28 Y45.237 E0.08192
G1 X49.1 Y46.086 E0.0577
G1 X47.592 Y47.411 E0.07964
G1 X47.918 Y47.76 F12000
G1 F1800
G1 X46.967 Y48.778 E0.05527
G1 X45.765 Y50.346 E0.07836
G1 X45.031 Y51.531 E0.05531
G1 X44.158 Y53.302 E0.07831
G1 X43.667 Y54.608 E0.05536
G1 X43.157 Y56.514 E0.07827
G1 X42.93 Y57.892 E0.05541
G1 X42.801 Y59.86 E0.07822
G1 X42.846 Y61.262 E0.05568
G1 X43.115 Y63.278 E0.08068
G1 X43.419 Y64.573 E0.05276
G1 X44.074 Y66.495 E0.08054
G1 X44.627 Y67.715 E0.05313
G1 X45.643 Y69.471 E0.08046
G1 X46.425 Y70.561 E0.05322
G1 X47.761 Y72.083 E0.08037
G1 X48.742 Y73.002 E0.05331
G1 X50.347 Y74.234 E0.08028
G1 X51.49 Y74.945 E0.05338
G1 X53.314 Y75.845 E0.08068
G1 X54.618 Y76.333 E0.05524
G1 X56.527 Y76.843 E0.07839
G1 X57.902 Y77.068 E0.05528
G1 X59.873 Y77.196 E0.07834
G1 X61.267 Y77.149 E0.05533
G1 X63.224 Y76.891 E0.0783
G1 X64.583 Y76.573 E0.05537
G1 X66.451 Y75.939 E0.07826
G1 X67.668 Y75.39 E0.05294
G1 X69.483 Y74.342 E0.08316
G1 X70.568 Y73.563 E0.05299
G1 X72.094 Y72.221 E0.0806
G1 X73.008 Y71.244 E0.05307
G1 X74.241 Y69.632 E0.08051
G1 X74.949 Y68.494 E0.05316
G1 X75.844 Y66.675 E0.08043
G1 X76.317 Y65.419 E0.05325
G1 X76.84 Y63.462 E0.08034
G1 X77.06 Y62.136 E0.05333
G1 X77.192 Y60.117 E0.08025
G1 X77.143 Y58.715 E0.05567
G1 X76.884 Y56.755 E0.07842
G1 X76.565 Y55.4 E0.05525
G1 X75.929 Y53.529 E0.07838
G1 X75.352 Y52.26 E0.0553
G1 X74.364 Y50.551 E0.07833
G1 X73.55 Y49.417 E0.05534
G1 X72.249 Y47.934 E0.07828
G1 X71.229 Y46.98 E0.05539
G1 X69.664 Y45.779 E0.07824
G1 X68.472 Y45.038 E0.05568
G1 X66.647 Y44.142 E0.08068
G1 X65.402 Y43.675 E0.05275
G1 X63.439 Y43.152 E0.08057
G1 X62.115 Y42.935 E0.05325
G1 X60.145 Y42.805 E0.07832
G1 X58.751 Y42.849 E0.05532
G1 X56.735 Y43.116 E0.08068
G1 X55.436 Y43.419 E0.05289
G1 X53.519 Y44.07 E0.08031
G1 X52.294 Y44.625 E0.05337
G1 X50.532 Y45.642 E0.08068
G1 X49.403 Y46.455 E0.05522
G1 X47.918 Y47.76 E0.07841
G1 E-0.5 F3000
; printing object Feet_Extension.stl id:0 copy 0
; acceleration to travel
M204 S4000
G1 X54.37 Y54.256 F12000
; decel to extrusion
M204 S2000
G1 X57.596 Y57.504
; end travel
G1 E0.5 F1800
;TYPE:Internal perimeter
;WIDTH:0.5
G1 X57.259 Y57.87 E0.01889
G1 X56.946 Y58.349 E0.02177
G1 X56.716 Y58.874 E0.02177
G1 X56.575 Y59.429 E0.02177
G1 X56.528 Y60 E0.02177
G1 X56.575 Y60.571 E0.02177
G1 X56.716 Y61.126 E0.02177
G1 X56.946 Y61.651 E0.02177
G1 X57.259 Y62.13 E0.02177
G1 X57.647 Y62.552 E0.02177
G1 X58.099 Y62.904 E0.02177
G1 X58.603 Y63.176 E0.02177
G1 X59.145 Y63.362 E0.02177
G1 X59.71 Y63.457 E0.02177
G1 X60.283 Y63.457 E0.02177
G1 X60.848 Y63.362 E0.02177
G1 X61.389 Y63.176 E0.02177
G1 X61.893 Y62.904 E0.02177
G1 X62.345 Y62.552 E0.02177
G1 X62.733 Y62.13 E0.02177
G1 X63.047 Y61.651 E0.02177
G1 X63.277 Y61.126 E0.02177
G1 X63.417 Y60.571 E0.02177
G1 X63.465 Y60 E0.02177
G1 X63.417 Y59.429 E0.02177
G1 X63.374 Y59.256 E0.00678
G1 X63.277 Y58.874 E0.01499
G1 X63.047 Y58.349 E0.02177
G1 X62.733 Y57.87 E0.02177
G1 X62.345 Y57.448 E0.02177
G1 X61.893 Y57.096 E0.02177
G1 X61.389 Y56.824 E0.02177
G1 X60.848 Y56.638 E0.02177
G1 X60.283 Y56.543 E0.02177
G1 X59.71 Y56.543 E0.02177
G1 X59.145 Y56.638 E0.02177
G1 X58.603 Y56.824 E0.02177
G1 X58.099 Y57.096 E0.02177
G1 X57.647 Y57.448 E0.02177
G1 X57.596 Y57.504 E0.00288
G1 X57.932 Y57.813 F12000
G1 F1800
G1 X57.621 Y58.151 E0.01745
G1 X57.349 Y58.567 E0.01889
G1 X57.149 Y59.023 E0.01889
G1 X57.027 Y59.505 E0.01889
G1 X56.986 Y60 E0.01889
G1 X57.027 Y60.495 E0.01889
G1 X57.149 Y60.977 E0.01889
G1 X57.349 Y61.433 E0.01889
G1 X57.621 Y61.849 E0.01889
G1 X57.958 Y62.214 E0.01889
G1 X58.35 Y62.52 E0.01889
G1 X58.787 Y62.756 E0.01889
G1 X59.257 Y62.918 E0.01889
G1 X59.473 Y62.954 E0.00831
G1 X59.748 Y63 E0.01058
G1 X60.245 Y63 E0.01889
G1 X60.735 Y62.918 E0.01889
G1 X61.205 Y62.756 E0.01889
G1 X61.642 Y62.52 E0.01889
G1 X62.035 Y62.214 E0.01889
G1 X62.235 Y61.997 E0.01125
G1 X62.371 Y61.849 E0.00764
G1 X62.643 Y61.433 E0.01889
G1 X62.843 Y60.977 E0.01889
G1 X62.965 Y60.495 E0.01889
G1 X63.006 Y60 E0.01889
G1 X62.965 Y59.505 E0.01889
G1 X62.931 Y59.368 E0.00534
G1 X62.843 Y59.023 E0.01356
G1 X62.643 Y58.567 E0.01889
G1 X62.371 Y58.151 E0.01889
G1 X62.035 Y57.786 E0.01889
G1 X61.642 Y57.48 E0.01889
G1 X61.205 Y57.244 E0.01889
G1 X60.735 Y57.082 E0.01889
G1 X60.519 Y57.046 E0.00831
G1 X60.245 Y57 E0.01058
G1 X59.748 Y57 E0.01889
G1 X59.257 Y57.082 E0.01889
G1 X58.787 Y57.244 E0.01889
G1 X58.35 Y57.48 E0.01889
G1 X57.958 Y57.786 E0.01889
G1 X57.932 Y57.813 E0.00144
G1 X58.268 Y58.123 F12000
;TYPE:External perimeter
G1 F1800
G1 X57.983 Y58.433 E0.01601
G1 X57.753 Y58.786 E0.01601
G1 X57.583 Y59.172 E0.01601
G1 X57.48 Y59.58 E0.01601
G1 X57.445 Y60 E0.01601
G1 X57.48 Y60.42 E0.01601
G1 X57.583 Y60.828 E0.01601
G1 X57.753 Y61.214 E0.01601
G1 X57.983 Y61.567 E0.01601
G1 X58.268 Y61.877 E0.01601
G1 X58.601 Y62.136 E0.01601
G1 X58.971 Y62.336 E0.01601
G1 X59.37 Y62.473 E0.01601
G1 X59.548 Y62.503 E0.00687
G1 X59.786 Y62.542 E0.00914
G1 X60.207 Y62.542 E0.01601
G1 X60.623 Y62.473 E0.01601
G1 X61.021 Y62.336 E0.01601
G1 X61.392 Y62.136 E0.01601
G1 X61.724 Y61.877 E0.01601
G1 X61.899 Y61.687 E0.00981
G1 X62.009 Y61.567 E0.0062
G1 X62.24 Y61.214 E0.01601
G1 X62.409 Y60.828 E0.01601
G1 X62.513 Y60.42 E0.01601
G1 X62.547 Y60 E0.01601
G1 X62.513 Y59.58 E0.01601
G1 X62.487 Y59.481 E0.0039
G1 X62.409 Y59.172 E0.01212
G1 X62.24 Y58.786 E0.01601
G1 X62.009 Y58.433 E0.01601
G1 X61.724 Y58.123 E0.01601
G1 X61.392 Y57.864 E0.01601
G1 X61.021 Y57.664 E0.01601
G1 X60.623 Y57.527 E0.01601
G1 X60.444 Y57.497 E0.00687
G1 X60.207 Y57.458 E0.00914
G1 X59.786 Y57.458 E0.01601
G1 X59.37 Y57.527 E0.01601
G1 X58.971 Y57.664 E0.01601
G1 X58.601 Y57.864 E0.01601
G1 X58.268 Y58.123 E0.01601
;WIPE_START
M204 S4000
G1 X57.883 Y58.014 F12000
;WIPE_END
G1 E-0.5 F3000
; acceleration to travel
M73 P0 R50
G1 X53.477 Y53.104 F12000
; decel to extrusion
M204 S2000
G1 X51.274 Y50.649
; end travel
G1 E0.5 F1800
;TYPE:Internal perimeter
G1 X51.564 Y50.377 E0.0151
G1 X52.168 Y49.882 E0.0297
G1 X52.891 Y49.36 E0.0339
G1 X53.599 Y48.92 E0.03168
G1 X54.336 Y48.526 E0.03176
G1 X55.095 Y48.181 E0.03168
G1 X55.931 Y47.87 E0.0339
G1 X56.678 Y47.643 E0.02969
G1 X57.492 Y47.453 E0.03177
G1 X58.317 Y47.316 E0.03176
G1 X59.142 Y47.234 E0.03151
G1 X60.223 Y47.212 E0.04111
G1 X60.818 Y47.232 E0.02262
G1 X61.65 Y47.313 E0.03179
G1 X62.473 Y47.448 E0.0317
G1 X63.341 Y47.651 E0.03387
G1 X64.088 Y47.878 E0.02967
G1 X64.872 Y48.171 E0.0318
G1 X65.633 Y48.514 E0.03176
G1 X66.37 Y48.906 E0.03171
G1 X67.125 Y49.376 E0.03381
G1 X67.804 Y49.864 E0.03175
G1 X68.407 Y50.359 E0.02967
G1 X69.058 Y50.968 E0.03387
G1 X69.628 Y51.578 E0.03173
G1 X70.123 Y52.182 E0.02968
G1 X70.643 Y52.905 E0.03388
G1 X71.083 Y53.614 E0.03172
G1 X71.451 Y54.303 E0.02968
G1 X71.821 Y55.114 E0.03389
G1 X72.115 Y55.895 E0.0317
G1 X72.341 Y56.643 E0.02969
G1 X72.546 Y57.511 E0.03389
G1 X72.682 Y58.333 E0.03168
G1 X72.758 Y59.111 E0.02969
G1 X72.791 Y60 E0.03382
G1 X72.758 Y60.889 E0.03381
G1 X72.682 Y61.667 E0.0297
G1 X72.546 Y62.489 E0.03168
G1 X72.341 Y63.357 E0.03389
G1 X72.115 Y64.105 E0.02969
G1 X71.821 Y64.886 E0.0317
G1 X71.451 Y65.697 E0.03389
G1 X71.083 Y66.386 E0.02968
G1 X70.643 Y67.095 E0.03172
G1 X70.123 Y67.818 E0.03388
G1 X69.628 Y68.422 E0.02968
G1 X69.058 Y69.032 E0.03173
G1 X68.407 Y69.641 E0.03387
G1 X67.804 Y70.136 E0.02967
G1 X67.125 Y70.624 E0.03175
G1 X66.37 Y71.094 E0.03381
G1 X65.633 Y71.486 E0.03171
G1 X64.872 Y71.829 E0.03176
G1 X64.088 Y72.122 E0.0318
G1 X63.341 Y72.349 E0.02967
G1 X62.473 Y72.552 E0.03387
G1 X61.649 Y72.687 E0.03173
G1 X60.873 Y72.764 E0.02967
G1 X59.982 Y72.794 E0.03388
G1 X59.148 Y72.766 E0.03171
G1 X58.37 Y72.69 E0.02968
G1 X57.49 Y72.547 E0.03389
G1 X56.678 Y72.357 E0.03169
G1 X55.931 Y72.13 E0.02969
G1 X55.095 Y71.819 E0.0339
G1 X54.336 Y71.474 E0.03168
G1 X53.599 Y71.08 E0.03176
G1 X52.891 Y70.64 E0.03168
G1 X52.168 Y70.118 E0.0339
G1 X51.564 Y69.623 E0.0297
G1 X50.955 Y69.053 E0.03169
G1 X50.347 Y68.401 E0.03389
G1 X49.852 Y67.797 E0.02969
G1 X49.365 Y67.119 E0.03171
G1 X48.896 Y66.361 E0.03389
G1 X48.528 Y65.672 E0.02968
G1 X48.183 Y64.913 E0.03172
G1 X47.87 Y64.078 E0.03387
G1 X47.643 Y63.331 E0.02967
G1 X47.452 Y62.517 E0.03179
G1 X47.314 Y61.692 E0.03176
G1 X47.231 Y60.862 E0.03171
G1 X47.202 Y59.973 E0.03381
G1 X47.231 Y59.138 E0.03176
G1 X47.308 Y58.361 E0.02966
G1 X47.452 Y57.482 E0.03387
G1 X47.643 Y56.669 E0.03174
G1 X47.87 Y55.922 E0.02967
G1 X48.183 Y55.087 E0.03387
G1 X48.528 Y54.328 E0.03172
G1 X48.896 Y53.639 E0.02968
G1 X49.365 Y52.881 E0.03389
G1 X49.852 Y52.203 E0.03171
G1 X50.347 Y51.599 E0.02969
G1 X50.955 Y50.947 E0.03389
G1 X51.274 Y50.649 E0.01659
G1 X50.962 Y50.315 F12000
G1 F1800
G1 X51.262 Y50.033 E0.01566
G1 X51.889 Y49.519 E0.0308
G1 X52.636 Y48.98 E0.03504
G1 X53.37 Y48.523 E0.03284
G1 X54.134 Y48.115 E0.0329
G1 X54.921 Y47.759 E0.03284
G1 X55.784 Y47.437 E0.03504
G1 X56.56 Y47.201 E0.0308
G1 X57.403 Y47.004 E0.0329
G1 X58.257 Y46.863 E0.03289
G1 X59.114 Y46.778 E0.03276
G1 X60.226 Y46.755 E0.04225
G1 X60.848 Y46.776 E0.02364
G1 X61.709 Y46.859 E0.03291
G1 X62.563 Y46.999 E0.03286
G1 X63.46 Y47.209 E0.03502
G1 X64.235 Y47.444 E0.03078
G1 X65.046 Y47.748 E0.03292
G1 X65.835 Y48.104 E0.03289
G1 X66.598 Y48.51 E0.03287
G1 X67.38 Y48.996 E0.03498
G1 X68.082 Y49.501 E0.03289
G1 X68.708 Y50.015 E0.03078
G1 X69.381 Y50.644 E0.03502
G1 X69.972 Y51.277 E0.03288
G1 X70.486 Y51.903 E0.03079
G1 X71.024 Y52.651 E0.03502
G1 X71.48 Y53.386 E0.03287
G1 X71.861 Y54.1 E0.03079
G1 X72.244 Y54.939 E0.03503
G1 X72.548 Y55.748 E0.03286
G1 X72.783 Y56.524 E0.0308
G1 X72.995 Y57.421 E0.03503
G1 X73.135 Y58.274 E0.03285
G1 X73.215 Y59.08 E0.0308
G1 X73.248 Y60 E0.03499
G1 X73.215 Y60.92 E0.03498
G1 X73.135 Y61.726 E0.0308
G1 X72.995 Y62.579 E0.03285
G1 X72.783 Y63.476 E0.03503
G1 X72.548 Y64.252 E0.0308
G1 X72.244 Y65.061 E0.03286
G1 X71.861 Y65.9 E0.03503
G1 X71.48 Y66.614 E0.03079
G1 X71.024 Y67.349 E0.03287
G1 X70.486 Y68.097 E0.03502
G1 X69.972 Y68.723 E0.03079
G1 X69.381 Y69.356 E0.03288
G1 X68.708 Y69.985 E0.03502
G1 X68.082 Y70.499 E0.03078
G1 X67.38 Y71.004 E0.03289
G1 X66.598 Y71.49 E0.03498
G1 X65.835 Y71.896 E0.03287
G1 X65.046 Y72.252 E0.03289
G1 X64.235 Y72.556 E0.03292
G1 X63.46 Y72.791 E0.03078
G1 X62.563 Y73.001 E0.03502
G1 X61.709 Y73.141 E0.03288
G1 X60.903 Y73.22 E0.03079
G1 X59.982 Y73.252 E0.03503
G1 X59.117 Y73.223 E0.03287
G1 X58.311 Y73.143 E0.03079
G1 X57.401 Y72.995 E0.03503
G1 X56.56 Y72.799 E0.03285
G1 X55.784 Y72.563 E0.0308
G1 X54.921 Y72.241 E0.03504
G1 X54.134 Y71.885 E0.03284
G1 X53.37 Y71.477 E0.0329
G1 X52.636 Y71.02 E0.03284
G1 X51.889 Y70.481 E0.03504
G1 X51.262 Y69.967 E0.0308
G1 X50.631 Y69.376 E0.03285
G1 X50.003 Y68.702 E0.03503
G1 X49.489 Y68.075 E0.03079
G1 X48.985 Y67.373 E0.03286
G1 X48.5 Y66.589 E0.03503
G1 X48.118 Y65.875 E0.03079
G1 X47.76 Y65.088 E0.03287
G1 X47.436 Y64.225 E0.03502
G1 X47.201 Y63.45 E0.03078
G1 X47.003 Y62.607 E0.03292
G1 X46.861 Y61.753 E0.03289
G1 X46.775 Y60.892 E0.03286
G1 X46.745 Y59.973 E0.03498
G1 X46.775 Y59.108 E0.03289
G1 X46.854 Y58.302 E0.03078
G1 X47.004 Y57.393 E0.03502
G1 X47.201 Y56.55 E0.03288
G1 X47.436 Y55.775 E0.03078
G1 X47.76 Y54.912 E0.03502
G1 X48.118 Y54.125 E0.03287
G1 X48.5 Y53.411 E0.03079
G1 X48.985 Y52.627 E0.03503
G1 X49.489 Y51.925 E0.03286
G1 X50.003 Y51.298 E0.03079
G1 X50.631 Y50.624 E0.03503
G1 X50.962 Y50.315 E0.01719
G1 X50.649 Y49.981 F12000
;TYPE:External perimeter
G1 F1800
G1 X50.961 Y49.689 E0.01623
G1 X51.61 Y49.157 E0.03191
G1 X52.382 Y48.6 E0.03617
G1 X53.142 Y48.127 E0.03401
G1 X53.931 Y47.705 E0.03403
G1 X54.746 Y47.336 E0.03401
G1 X55.638 Y47.003 E0.03618
G1 X56.441 Y46.76 E0.0319
G1 X57.313 Y46.556 E0.03403
G1 X58.197 Y46.409 E0.03403
G1 X59.087 Y46.321 E0.03401
G1 X60.229 Y46.298 E0.0434
G1 X60.877 Y46.319 E0.02466
G1 X61.769 Y46.406 E0.03404
G1 X62.652 Y46.551 E0.03401
G1 X63.578 Y46.768 E0.03617
G1 X64.381 Y47.011 E0.0319
G1 X65.22 Y47.325 E0.03404
G1 X66.036 Y47.693 E0.03403
G1 X66.826 Y48.114 E0.03402
G1 X67.634 Y48.616 E0.03615
G1 X68.361 Y49.139 E0.03403
G1 X69.01 Y49.671 E0.0319
G1 X69.705 Y50.321 E0.03617
G1 X70.316 Y50.975 E0.03402
G1 X70.848 Y51.624 E0.0319
G1 X71.404 Y52.397 E0.03617
G1 X71.876 Y53.158 E0.03402
G1 X72.271 Y53.898 E0.0319
G1 X72.666 Y54.764 E0.03617
G1 X72.981 Y55.602 E0.03401
G1 X73.224 Y56.405 E0.0319
G1 X73.443 Y57.331 E0.03617
G1 X73.589 Y58.214 E0.03401
G1 X73.671 Y59.049 E0.0319
G1 X73.705 Y60 E0.03615
G1 X73.671 Y60.951 E0.03615
G1 X73.589 Y61.786 E0.03191
G1 X73.443 Y62.669 E0.03401
G1 X73.224 Y63.595 E0.03617
G1 X72.981 Y64.398 E0.0319
G1 X72.666 Y65.236 E0.03401
G1 X72.271 Y66.102 E0.03617
G1 X71.876 Y66.842 E0.0319
G1 X71.404 Y67.603 E0.03402
G1 X70.848 Y68.376 E0.03617
G1 X70.316 Y69.025 E0.0319
G1 X69.705 Y69.679 E0.03402
G1 X69.01 Y70.329 E0.03617
G1 X68.361 Y70.861 E0.0319
G1 X67.634 Y71.384 E0.03403
G1 X66.826 Y71.886 E0.03615
G1 X66.036 Y72.307 E0.03402
G1 X65.22 Y72.675 E0.03403
G1 X64.381 Y72.989 E0.03404
G1 X63.578 Y73.232 E0.0319
G1 X62.652 Y73.449 E0.03617
G1 X61.768 Y73.594 E0.03402
