; generated by SuperSlicer 2.5.59 on 2023-01-01 at 21:59:05 UTC


;
;

;
;
; 

; external perimeters extrusion width = 0.40mm
; perimeters extrusion width = 0.46mm
; infill extrusion width = 0.64mm
; solid infill extrusion width = 0.56mm
; top infill extrusion width = 0.40mm
; first layer extrusion width = 0.50mm

; external perimeters extrusion width = 0.40mm
; perimeters extrusion width = 0.46mm
; infill extrusion width = 0.64mm
; solid infill extrusion width = 0.56mm
; top infill extrusion width = 0.40mm
; first layer extrusion width = 0.50mm

; object:{"name":"filament_feeder_nut","id":"filament_feeder_nut.stl id:0 copy 0","object_center":[60.000001,50.388000,0.000000],"boundingbox_center":[60.000001,50.388000,3.373500],"boundingbox_size":[15.270000,13.224000,6.747000]}
; object:{"name":"filament_feeder","id":"filament_feeder.stl id:1 copy 0","object_center":[60.000000,69.612000,0.000000],"boundingbox_center":[60.000000,69.612000,7.948500],"boundingbox_size":[15.270000,13.224000,15.897000]}
; plater:{"center":[60.000000,60.000000,0.000000],"boundingbox_center":[60.000000,60.000000,7.948500],"boundingbox_size":[15.270001,32.448000,15.897000]}

M73 P0 R14
;TYPE:Custom
; custom gcode: start_gcode
START_PRINT T_BED=110 T_EXTRUDER=240
; custom gcode end: start_gcode
M107
G21 ; set units to millimeters
G90 ; use absolute coordinates
M83 ; use relative distances for extrusion
; custom gcode: start_filament_gcode
; Filament gcode

    PRESSURE_ADVANCE_SELECT FILAMENT=ABS
; custom gcode end: start_filament_gcode
;_TOOLCHANGE 0
M104 S240 ; set temperature
M109 S240 ; set temperature and wait for it to be reached
M190 S110 ; set bed temperature and wait for it to be reached
;LAYER_CHANGE
;Z:0.2
;HEIGHT:0.2
G1 Z0.2 F12000
G92 E0
M73 P0 R14
G1 E-0.5 F3000
M204 S2000
G1 X53.023 Y42.018 F12000
G1 E0.5 F1800
;TYPE:Skirt
;WIDTH:0.52
G1 X49.263 Y48.53 E0.28637
G1 X48.765 Y50.388 E0.07325
G1 X48.765 Y69.612 E0.7321
G1 X49.263 Y71.47 E0.07325
G1 X53.023 Y77.982 E0.28637
G1 X54.574 Y79.445 E0.08121
G1 X56.241 Y79.84 E0.06521
G1 X63.76 Y79.84 E0.28636
G1 X65.803 Y79.228 E0.08122
G1 X66.978 Y77.982 E0.06521
G1 X70.737 Y71.47 E0.28635
G1 X71.235 Y69.612 E0.07324
G1 X71.235 Y50.388 E0.7321
G1 X70.737 Y48.53 E0.07324
G1 X66.978 Y42.018 E0.28635
G1 X65.427 Y40.555 E0.08122
G1 X63.76 Y40.16 E0.06521
G1 X56.241 Y40.16 E0.28636
G1 X54.198 Y40.772 E0.08121
G1 X53.023 Y42.018 E0.06521
G1 X53.436 Y42.257 F12000
G1 F1800
G1 X49.676 Y48.769 E0.28637
G1 X49.242 Y50.388 E0.06385
G1 X49.242 Y69.612 E0.7321
G1 X49.676 Y71.231 E0.06385
G1 X53.436 Y77.743 E0.28637
G1 X54.693 Y78.969 E0.06684
M73 P1 R14
G1 X56.241 Y79.363 E0.06082
G1 X63.76 Y79.363 E0.28636
G1 X65.45 Y78.887 E0.06686
G1 X66.565 Y77.743 E0.06082
G1 X70.324 Y71.231 E0.28635
G1 X70.758 Y69.612 E0.06384
G1 X70.758 Y50.388 E0.7321
G1 X70.324 Y48.769 E0.06384
G1 X66.565 Y42.257 E0.28635
G1 X65.308 Y41.031 E0.06686
G1 X63.76 Y40.637 E0.06082
G1 X56.241 Y40.637 E0.28636
G1 X54.551 Y41.113 E0.06684
G1 X53.436 Y42.257 E0.06082
G1 E-0.5 F3000
; printing object filament_feeder_nut.stl id:0 copy 0
; acceleration to travel
M204 S4000
G1 X55.503 Y45.164 F12000
; decel to extrusion
M204 S2000
G1 X56.537 Y46.618
; end travel
G1 E0.5 F1800
;TYPE:Internal perimeter
;WIDTH:0.5
G1 X56.493 Y46.648 E0.00195
G1 X55.927 Y47.276 E0.03083
G1 X55.491 Y47.96 E0.02962
G1 X55.25 Y48.491 E0.02126
G1 X55.09 Y48.925 E0.01689
G1 X54.915 Y49.752 E0.03084
G1 X54.882 Y50.483 E0.02669
G1 X54.972 Y51.323 E0.03081
G1 X55.111 Y51.929 E0.0227
G1 X55.362 Y52.543 E0.0242
G1 X55.837 Y53.385 E0.03527
G1 X56.556 Y54.191 E0.0394
G1 X57.505 Y54.857 E0.04229
G1 X57.734 Y54.984 E0.00958
G1 X58.549 Y55.296 E0.03183
G1 X59.201 Y55.45 E0.02445
G1 X59.611 Y55.498 E0.01505
G1 X60.646 Y55.464 E0.03779
G1 X61.001 Y55.407 E0.01312
G1 X61.788 Y55.18 E0.02985
G1 X62.069 Y55.077 E0.01092
G1 X62.605 Y54.792 E0.02216
G1 X63.048 Y54.494 E0.01948
G1 X63.572 Y54.049 E0.02508
G1 X63.937 Y53.66 E0.01949
G1 X64.602 Y52.644 E0.0443
G1 X64.913 Y51.765 E0.034
G1 X64.972 Y51.195 E0.02091
G1 X65.147 Y51.195 E0.00641
G1 X65.102 Y49.872 E0.04831
G1 X64.756 Y48.472 E0.05263
G1 X64.178 Y47.417 E0.04387
G1 X63.697 Y46.835 E0.02755
G1 X62.59 Y45.96 E0.05149
G1 X61.825 Y45.602 E0.03081
G1 X61.377 Y45.462 E0.01715
G1 X60.871 Y45.339 E0.01899
G1 X60.047 Y45.267 E0.03018
G1 X59.627 Y45.296 E0.01534
G1 X59.194 Y45.326 E0.01584
G1 X58.22 Y45.584 E0.03679
G1 X57.731 Y45.791 E0.01934
G1 X56.537 Y46.618 E0.05301
G1 X56.797 Y46.993 F12000
;TYPE:External perimeter
G1 F1800
G1 X56.292 Y47.554 E0.0275
G1 X55.893 Y48.179 E0.02705
G1 X55.673 Y48.665 E0.01948
G1 X55.53 Y49.052 E0.01507
G1 X55.37 Y49.81 E0.02827
G1 X55.34 Y50.469 E0.02406
G1 X55.423 Y51.247 E0.02854
G1 X55.548 Y51.791 E0.02034
G1 X55.774 Y52.343 E0.02179
G1 X56.211 Y53.117 E0.03242
G1 X56.862 Y53.847 E0.03568
G1 X57.748 Y54.469 E0.03949
G1 X57.928 Y54.569 E0.00751
G1 X58.684 Y54.858 E0.02954
G1 X59.281 Y54.999 E0.02237
G1 X59.63 Y55.04 E0.01283
G1 X60.602 Y55.008 E0.03549
G1 X60.901 Y54.96 E0.01105
G1 X61.645 Y54.746 E0.02824
G1 X61.882 Y54.659 E0.00919
G1 X62.37 Y54.4 E0.02016
G1 X62.772 Y54.129 E0.01767
G1 X63.256 Y53.717 E0.0232
G1 X63.577 Y53.376 E0.01709
G1 X64.19 Y52.44 E0.04083
G1 X64.464 Y51.664 E0.03001
G1 X64.559 Y50.738 E0.03397
G1 X64.674 Y50.738 E0.0042
G1 X64.647 Y49.935 E0.02931
G1 X64.326 Y48.639 E0.04872
G1 X63.798 Y47.675 E0.04011
G1 X63.376 Y47.164 E0.0242
G1 X62.348 Y46.352 E0.04779
G1 X61.659 Y46.029 E0.02775
G1 X61.255 Y45.902 E0.01547
G1 X60.797 Y45.792 E0.01719
G1 X60.042 Y45.725 E0.02763
G1 X59.659 Y45.752 E0.01403
G1 X59.269 Y45.779 E0.01425
G1 X58.368 Y46.018 E0.03402
G1 X57.953 Y46.193 E0.01645
G1 X56.797 Y46.993 E0.0513
;WIPE_START
M204 S4000
G1 X56.413 Y46.88 F12000
;WIPE_END
; acceleration to travel
G1 X56.746 Y45.654
; decel to extrusion
M204 S2000
G1 X56.913 Y45.04
; end travel
;TYPE:Internal perimeter
G1 F1800
G1 X57.581 Y45.04 E0.02436
G1 X57.64 Y45.333 E0.01091
G1 X57.51 Y45.388 E0.00515
G1 X56.73 Y45.928 E0.03461
G1 X56.515 Y45.73 E0.01068
G1 X56.913 Y45.04 E0.02905
G1 E-0.5 F3000
; acceleration to travel
M204 S4000
G1 X55.273 Y48.252 F12000
; decel to extrusion
M204 S2000
G1 X54.453 Y49.859
; end travel
G1 E0.5 F1800
G1 X54.423 Y50.497 E0.02332
G1 X54.469 Y50.924 E0.01567
G1 X54.187 Y51.016 E0.01082
G1 X53.825 Y50.388 E0.02646
G1 X54.177 Y49.778 E0.02571
G1 X54.453 Y49.859 E0.01048
G1 E-0.5 F3000
; acceleration to travel
M204 S4000
G1 X55.987 Y53.212 F12000
; decel to extrusion
M204 S2000
G1 X56.755 Y54.889
; end travel
G1 E0.5 F1800
G1 X57.261 Y55.244 E0.02259
G1 X57.652 Y55.462 E0.01633
G1 X57.581 Y55.736 E0.01032
G1 X56.913 Y55.736 E0.02439
G1 X56.538 Y55.087 E0.02734
G1 X56.755 Y54.889 E0.01072
G1 E-0.5 F3000
; acceleration to travel
M204 S4000
G1 X60.468 Y55.269 F12000
; decel to extrusion
M204 S2000
G1 X62.325 Y55.459
; end travel
G1 E0.5 F1800
G1 X62.84 Y55.185 E0.0213
G1 X63.231 Y54.922 E0.01717
G1 X63.443 Y55.121 E0.0106
G1 X63.088 Y55.736 E0.02592
G1 X62.394 Y55.736 E0.02533
G1 X62.325 Y55.459 E0.01043
G1 E-0.5 F3000
; acceleration to travel
M204 S4000
G1 X64.504 Y52.397 F12000
; decel to extrusion
M204 S2000
G1 X65.593 Y50.866
; end travel
G1 E0.5 F1800
G1 X65.56 Y49.876 E0.03615
G1 X65.834 Y49.797 E0.01042
G1 X66.175 Y50.388 E0.02489
G1 X65.861 Y50.933 E0.02295
G1 X65.593 Y50.866 E0.01006
G1 E-0.5 F3000
; acceleration to travel
M204 S4000
G1 X64.02 Y47.546 F12000
; decel to extrusion
M204 S2000
G1 X63.234 Y45.887
; end travel
G1 E0.5 F1800
G1 X62.832 Y45.569 E0.0187
G1 X62.314 Y45.326 E0.02084
G1 X62.378 Y45.04 E0.0107
G1 X63.088 Y45.04 E0.0259
G1 X63.463 Y45.689 E0.02733
G1 X63.234 Y45.887 E0.01103
G1 E-0.5 F3000
; acceleration to travel
M204 S4000
G1 X58.844 Y45.018 F12000
; decel to extrusion
M204 S2000
G1 X56.649 Y44.583
; end travel
G1 E0.5 F1800
G1 X63.352 Y44.583 E0.24457
G1 X66.703 Y50.388 E0.24456
G1 X63.352 Y56.193 E0.24456
G1 X56.649 Y56.193 E0.24457
G1 X53.297 Y50.388 E0.24457
G1 X56.649 Y44.583 E0.24457
G1 X56.385 Y44.126 F12000
;TYPE:External perimeter
G1 F1800
G1 X63.616 Y44.126 E0.26383
G1 X63.753 Y44.364 E0.01004
G1 X67.231 Y50.388 E0.25378
G1 X63.616 Y56.65 E0.26381
G1 X56.385 Y56.65 E0.26383
G1 X52.769 Y50.388 E0.26383
M73 P2 R14
G1 X56.385 Y44.126 E0.26383
;WIPE_START
M204 S4000
G1 X56.691 Y44.383 F12000
;WIPE_END
; acceleration to travel
G1 X57.44 Y44.883
; decel to extrusion
M204 S2000
G1 X57.814 Y45.133
; end travel
;TYPE:Gap fill
;WIDTH:0.707901
G1 F1800
G1 X57.931 Y45.115 E0.00625
;WIDTH:0.625688
G1 X58.108 Y45.09 E0.00831
G1 X58.252 Y45.071 E0.00677
;WIDTH:0.591259
G1 X58.396 Y45.052 E0.00637
;WIDTH:0.547397
G1 X58.54 Y45.033 E0.00586
;WIDTH:0.503535
G1 X58.685 Y45.015 E0.00535
;WIDTH:0.459673
G1 X58.829 Y44.996 E0.00484
;WIDTH:0.415811
G1 X58.973 Y44.977 E0.00433
;WIDTH:0.371553
G1 X59.148 Y44.956 E0.00463
G1 X59.594 Y44.94 E0.01169
;WIDTH:0.305385
G1 X60.039 Y44.925 E0.00934
G1 X60.06 Y44.925 E0.00043
G1 X60.49 Y44.944 E0.00901
;WIDTH:0.380834
G1 X60.92 Y44.963 E0.0116
G1 X60.945 Y44.965 E0.00069
G1 X61.081 Y44.981 E0.00369
;WIDTH:0.428147
G1 X61.217 Y44.997 E0.00421
;WIDTH:0.471314
G1 X61.352 Y45.013 E0.00468
;WIDTH:0.514705
G1 X61.504 Y45.032 E0.00574
G1 X61.679 Y45.058 E0.00667
;WIDTH:0.607821
G1 X61.854 Y45.085 E0.00799
;WIDTH:0.63288
G1 X61.998 Y45.105 E0.00683
;WIDTH:0.663662
G1 X62.142 Y45.13 E0.00728
; acceleration to travel
M204 S4000
G1 X63.038 Y45.675 F12000
; decel to extrusion
M204 S2000
G1 X63.486 Y45.947
; end travel
;WIDTH:0.745688
G1 F1800
G1 X63.584 Y46.06 E0.00839
;WIDTH:0.662061
G1 X63.682 Y46.173 E0.00739
;WIDTH:0.619858
G1 X63.8 Y46.31 E0.00834
;WIDTH:0.53467
G1 X63.918 Y46.447 E0.00711
;WIDTH:0.468884
G1 X64.005 Y46.551 E0.0046
G1 X64.119 Y46.716 E0.0068
;WIDTH:0.41396
G1 X64.234 Y46.88 E0.00593
;WIDTH:0.369375
G1 X64.348 Y47.044 E0.00521
;WIDTH:0.32479
G1 X64.462 Y47.209 E0.0045
G1 X64.476 Y47.231 E0.0006
G1 X64.782 Y47.776 E0.01406
;WIDTH:0.351054
G1 X65.089 Y48.321 E0.01537
G1 X65.106 Y48.357 E0.00099
G1 X65.156 Y48.481 E0.0033
;WIDTH:0.400096
G1 X65.206 Y48.606 E0.00382
;WIDTH:0.443016
G1 X65.256 Y48.73 E0.00428
;WIDTH:0.485937
G1 X65.307 Y48.854 E0.00474
;WIDTH:0.528858
G1 X65.357 Y48.979 E0.0052
;WIDTH:0.571778
G1 X65.407 Y49.103 E0.00566
;WIDTH:0.614699
G1 X65.457 Y49.228 E0.00612
;WIDTH:0.657619
G1 X65.507 Y49.352 E0.00658
G1 X65.556 Y49.498 E0.00755
;WIDTH:0.719088
G1 X65.605 Y49.644 E0.0083
; acceleration to travel
M204 S4000
G1 X65.495 Y50.578 F12000
; decel to extrusion
M204 S2000
G1 X65.439 Y51.044
; end travel
;WIDTH:0.614092
G1 F1800
G1 X65.448 Y51.237 E0.00881
G1 X65.456 Y51.42 E0.00834
;WIDTH:0.548177
G1 X65.421 Y51.608 E0.00768
G1 X65.406 Y51.673 E0.00271
G1 X65.353 Y51.836 E0.0069
;WIDTH:0.495797
G1 X65.333 Y51.887 E0.00199
G1 X65.251 Y52.066 E0.00713
;WIDTH:0.45049
G1 X65.168 Y52.245 E0.00642
;WIDTH:0.405183
G1 X65.086 Y52.425 E0.00571
;WIDTH:0.359876
G1 X65.003 Y52.604 E0.00499
;WIDTH:0.312488
G1 X64.92 Y52.783 E0.00425
G1 X64.905 Y52.812 E0.0007
G1 X64.575 Y53.348 E0.01354
;WIDTH:0.38691
G1 X64.246 Y53.884 E0.01728
G1 X64.144 Y54.022 E0.00472
;WIDTH:0.430866
G1 X64.06 Y54.136 E0.0044
;WIDTH:0.474495
G1 X63.975 Y54.25 E0.00489
;WIDTH:0.541077
G1 X63.89 Y54.364 E0.00565
G1 X63.77 Y54.51 E0.00751
;WIDTH:0.617825
G1 X63.666 Y54.635 E0.00744
;WIDTH:0.655478
G1 X63.567 Y54.745 E0.00725
;WIDTH:0.732489
G1 X63.468 Y54.856 E0.00817
; acceleration to travel
M204 S4000
G1 X62.59 Y55.373 F12000
; decel to extrusion
M204 S2000
G1 X62.151 Y55.631
; end travel
;WIDTH:0.693836
G1 F1800
G1 X62.049 Y55.651 E0.00539
;WIDTH:0.634662
G1 X61.947 Y55.671 E0.0049
G1 X61.86 Y55.687 E0.00419
G1 X61.733 Y55.704 E0.00604
;WIDTH:0.591731
G1 X61.606 Y55.722 E0.00561
;WIDTH:0.5488
G1 X61.48 Y55.74 E0.00517
;WIDTH:0.505869
G1 X61.353 Y55.758 E0.00473
;WIDTH:0.462938
G1 X61.226 Y55.776 E0.00429
;WIDTH:0.414992
G1 X61.1 Y55.794 E0.0038
G1 X61.077 Y55.796 E0.00068
G1 X60.884 Y55.812 E0.00575
;WIDTH:0.351526
G1 X60.691 Y55.827 E0.00477
G1 X60.672 Y55.828 E0.00048
G1 X60.139 Y55.837 E0.01312
;WIDTH:0.317412
G1 X59.607 Y55.846 E0.01167
G1 X59.586 Y55.845 E0.00045
G1 X59.366 Y55.832 E0.00484
;WIDTH:0.37171
G1 X59.146 Y55.82 E0.00579
G1 X58.987 Y55.802 E0.00418
;WIDTH:0.412619
G1 X58.848 Y55.785 E0.00414
;WIDTH:0.453341
G1 X58.709 Y55.769 E0.00459
;WIDTH:0.494064
G1 X58.57 Y55.753 E0.00505
;WIDTH:0.557305
G1 X58.43 Y55.736 E0.00576
G1 X58.261 Y55.706 E0.00706
;WIDTH:0.628622
G1 X58.124 Y55.681 E0.0065
;WIDTH:0.666487
G1 X57.977 Y55.648 E0.0075
;WIDTH:0.750762
G1 X57.83 Y55.614 E0.00851
; acceleration to travel
M204 S4000
G1 X56.946 Y55.093 F12000
; decel to extrusion
M204 S2000
G1 X56.504 Y54.832
; end travel
;WIDTH:0.666281
G1 F1800
G1 X56.409 Y54.728 E0.00705
;WIDTH:0.609614
G1 X56.313 Y54.623 E0.00641
;WIDTH:0.557378
G1 X56.223 Y54.52 E0.00562
G1 X56.113 Y54.367 E0.00775
;WIDTH:0.511094
G1 X56.002 Y54.214 E0.00706
;WIDTH:0.46481
G1 X55.891 Y54.061 E0.00636
;WIDTH:0.418525
G1 X55.781 Y53.908 E0.00566
;WIDTH:0.372241
G1 X55.67 Y53.755 E0.00496
;WIDTH:0.333912
G1 X55.559 Y53.602 E0.00439
G1 X55.543 Y53.577 E0.0007
G1 X55.046 Y52.706 E0.02329
G1 X55.037 Y52.69 E0.00042
G1 X54.884 Y52.378 E0.00808
;WIDTH:0.434169
G1 X54.731 Y52.066 E0.01086
G1 X54.672 Y51.919 E0.00496
;WIDTH:0.481992
G1 X54.625 Y51.8 E0.00445
;WIDTH:0.529179
G1 X54.579 Y51.682 E0.00493
;WIDTH:0.576366
G1 X54.532 Y51.564 E0.00541
;WIDTH:0.616532
G1 X54.486 Y51.445 E0.00582
G1 X54.426 Y51.288 E0.00772
;WIDTH:0.709217
G1 X54.383 Y51.173 E0.00649
; acceleration to travel
M204 S4000
G1 X54.39 Y50.139 F12000
; decel to extrusion
M204 S2000
G1 X54.393 Y49.622
; end travel
;WIDTH:0.692116
G1 F1800
G1 X54.439 Y49.481 E0.00765
;WIDTH:0.6331
G1 X54.485 Y49.341 E0.00695
G1 X54.525 Y49.238 E0.00522
;WIDTH:0.589524
G1 X54.565 Y49.134 E0.00483
;WIDTH:0.545948
G1 X54.604 Y49.031 E0.00445
;WIDTH:0.502372
G1 X54.644 Y48.927 E0.00406
;WIDTH:0.451422
G1 X54.683 Y48.824 E0.00361
G1 X54.695 Y48.796 E0.00099
G1 X54.799 Y48.575 E0.00795
;WIDTH:0.367464
G1 X54.903 Y48.355 E0.00631
G1 X54.908 Y48.344 E0.0003
G1 X55.046 Y48.075 E0.00785
;WIDTH:0.307121
G1 X55.184 Y47.805 E0.00639
G1 X55.194 Y47.789 E0.0004
G1 X55.413 Y47.428 E0.00891
;WIDTH:0.347928
G1 X55.632 Y47.067 E0.01028
G1 X55.646 Y47.046 E0.00061
G1 X55.751 Y46.902 E0.00434
;WIDTH:0.394495
G1 X55.856 Y46.757 E0.00501
;WIDTH:0.441062
G1 X55.96 Y46.613 E0.00567
;WIDTH:0.487629
G1 X56.065 Y46.469 E0.00633
;WIDTH:0.534196
G1 X56.17 Y46.325 E0.00699
;WIDTH:0.568031
G1 X56.289 Y46.191 E0.0075
;WIDTH:0.629352
G1 X56.384 Y46.087 E0.00659
;WIDTH:0.722978
G1 X56.48 Y45.984 E0.00764
G1 E-0.5 F3000
; stop printing object filament_feeder_nut.stl id:0 copy 0
; printing object filament_feeder.stl id:1 copy 0
; acceleration to travel
M204 S4000
G1 X58.827 Y59.277 F12000
; decel to extrusion
M204 S2000
G1 X60 Y65.924
; end travel
G1 E0.5 F1800
;TYPE:Internal perimeter
;WIDTH:0.5
G1 X59.276 Y66.118 E0.02735
G1 X58.156 Y66.419 E0.04229
G1 X56.807 Y67.768 E0.06964
G1 X56.312 Y69.612 E0.06964
G1 X56.807 Y71.456 E0.06964
G1 X58.157 Y72.806 E0.06966
G1 X60 Y73.299 E0.06961
G1 X61.843 Y72.806 E0.06961
G1 X63.193 Y71.456 E0.06966
G1 X63.688 Y69.612 E0.06964
G1 X63.193 Y67.768 E0.06964
G1 X61.844 Y66.419 E0.06964
G1 X60 Y65.924 E0.06964
G1 X60 Y66.397 F12000
G1 F1800
G1 X59.395 Y66.56 E0.02287
G1 X58.393 Y66.828 E0.03783
G1 X57.216 Y68.005 E0.06071
G1 X56.785 Y69.612 E0.0607
G1 X57.216 Y71.219 E0.0607
G1 X58.393 Y72.396 E0.06073
G1 X60 Y72.825 E0.06068
G1 X61.607 Y72.396 E0.06068
G1 X62.784 Y71.219 E0.06073
G1 X63.215 Y69.612 E0.0607
G1 X62.784 Y68.005 E0.0607
G1 X61.607 Y66.828 E0.06071
G1 X60 Y66.397 E0.0607
G1 X60 Y66.871 F12000
;TYPE:External perimeter
G1 F1800
G1 X59.513 Y67.001 E0.0184
G1 X58.63 Y67.238 E0.03336
G1 X57.626 Y68.242 E0.05178
G1 X57.259 Y69.612 E0.05176
G1 X57.626 Y70.982 E0.05176
G1 X58.63 Y71.986 E0.05179
G1 X60 Y72.352 E0.05175
G1 X61.37 Y71.986 E0.05175
G1 X62.374 Y70.982 E0.05179
G1 X62.741 Y69.612 E0.05176
G1 X62.374 Y68.242 E0.05176
G1 X61.37 Y67.238 E0.05178
G1 X60 Y66.871 E0.05176
;WIPE_START
M204 S4000
G1 X59.771 Y66.543 F12000
;WIPE_END
G1 E-0.5 F3000
; acceleration to travel
G1 X57.865 Y65.024 F12000
