; HEADER_BLOCK_START
; generated by OrcaSlicer 1.7.0-beta on 2023-09-16 at 19:25:29
; total layer number: 391
; HEADER_BLOCK_END

; THUMBNAIL_BLOCK_START
; THUMBNAIL_BLOCK_END

; external perimeters extrusion width = 0.40mm
; perimeters extrusion width = 0.46mm
; infill extrusion width = 0.64mm
; solid infill extrusion width = 0.56mm
; top infill extrusion width = 0.40mm
; support material extrusion width = 0.46mm
; first layer extrusion width = 0.50mm

; EXECUTABLE_BLOCK_START
EXCLUDE_OBJECT_DEFINE NAME=Frame_Support.stl_id_0_copy_0 CENTER=62.0607,58.5 POLYGON=[[29.5607,31],[94.5607,31],[94.5607,36],[82.0607,86],[42.0607,86],[29.5607,36],[29.5607,31]]
M73 P0 R53
;TYPE:Custom
START_PRINT T_BED=110 T_EXTRUDER=260
G90
G21
M83 ; use relative distances for extrusion
; Filament gcode

    PRESSURE_ADVANCE_SELECT FILAMENT=ABS
M106 S0
;LAYER_CHANGE
;Z:0.1
;HEIGHT:0.1
;BEFORE_LAYER_CHANGE
;0.1
G92 E0

;AFTER_LAYER_CHANGE
;0.1
;_SET_FAN_SPEED_CHANGING_LAYER
SET_VELOCITY_LIMIT ACCEL=500 ACCEL_TO_DECEL=250
G1 E-.5 F3000
G1 Z.2 F21000
G1 X25.513 Y25.361
G1 Z.2
G1 Z.1
G1 E.5 F1800
;TYPE:Skirt
;WIDTH:0.5
G1 F3000
G1 X26.279 Y24.59 E.02002
G1 X27.768 Y24.188 E.02841
G1 X96.354 Y24.188 E1.26357
G1 X97.827 Y24.582 E.0281
G1 X98.909 Y25.657 E.0281
G1 X99.311 Y27.145 E.02841
G1 X99.311 Y39.899 E.23497
G1 X99.167 Y40.81 E.01699
G1 X84.874 Y84.961 E.85495
G1 X84.046 Y86.241 E.0281
G1 X82.061 Y87.007 E.0392
G1 X42.061 Y87.007 E.73692
G1 X40.587 Y86.614 E.0281
G1 X39.247 Y84.961 E.0392
G1 X24.954 Y40.81 E.85495
G1 X24.811 Y39.899 E.01699
G1 X24.811 Y27.145 E.23497
G1 X25.204 Y25.672 E.0281
G1 X25.485 Y25.389 E.00734
G1 X25.776 Y25.725 F21000
G1 F3000
G1 X26.733 Y24.893 E.02335
G1 X27.768 Y24.667 E.01951
G1 X96.354 Y24.667 E1.26357
G1 X97.691 Y25.059 E.02568
G1 X98.606 Y26.111 E.02568
G1 X98.832 Y27.145 E.01951
G1 X98.832 Y39.899 E.23497
G1 X98.712 Y40.663 E.01424
G1 X84.419 Y84.813 E.85495
G1 X83.634 Y85.965 E.02568
G1 X82.061 Y86.529 E.03078
G1 X42.061 Y86.529 E.73692
G1 X40.723 Y86.137 E.02568
G1 X39.703 Y84.813 E.03078
G1 X25.41 Y40.663 E.85495
G1 X25.289 Y39.899 E.01424
G1 X25.289 Y27.145 E.23497
G1 X25.681 Y25.808 E.02568
G1 X25.746 Y25.751 E.00159
; printing object Frame Support.stl id:0 copy 0
G1 E-.5
EXCLUDE_OBJECT_START NAME=Frame_Support.stl_id_0_copy_0
G1 Z.3 F21000
G1 X46.399 Y39.899 Z.3
G1 Z.1
G1 E.5 F1800
;TYPE:Support
G1 F3000
G1 X27.768 Y39.899 E.34324
G1 X27.768 Y27.145 E.23497
G1 X46.399 Y27.145 E.34324
G1 X46.399 Y39.828 E.23365
G1 X45.968 Y39.469 F21000
G1 F3000
G1 X28.198 Y39.469 E.32737
G1 X28.198 Y27.576 E.2191
G1 X45.968 Y27.576 E.32737
G1 X45.968 Y39.469 E.2191
G1 X45.436 Y38.937 F21000
G1 F3000
G1 X28.73 Y38.937 E.30778
G1 X28.73 Y28.108 E.19951
G1 X45.436 Y28.108 E.30778
G1 X45.436 Y38.937 E.19951
G1 X44.905 Y38.405 F21000
G1 F3000
G1 X29.262 Y38.405 E.28819
G1 X29.262 Y28.64 E.17992
M73 P0 R52
G1 X44.905 Y28.64 E.28819
G1 X44.905 Y38.405 E.17992
G1 X44.373 Y37.874 F21000
G1 F3000
G1 X29.793 Y37.874 E.2686
G1 X29.793 Y29.171 E.16032
G1 X44.373 Y29.171 E.2686
G1 X44.373 Y37.874 E.16032
G1 X43.841 Y37.342 F21000
G1 F3000
G1 X30.325 Y37.342 E.24901
G1 X30.325 Y29.703 E.14073
G1 X43.841 Y29.703 E.24901
G1 X43.841 Y37.342 E.14073
G1 X43.309 Y36.81 F21000
G1 F3000
G1 X30.857 Y36.81 E.22942
G1 X30.857 Y30.235 E.12114
G1 X43.309 Y30.235 E.22942
G1 X43.309 Y36.81 E.12114
G1 X42.778 Y36.278 F21000
G1 F3000
G1 X31.389 Y36.278 E.20982
G1 X31.389 Y30.766 E.10155
G1 X42.778 Y30.766 E.20982
G1 X42.778 Y36.278 E.10155
G1 X42.246 Y35.747 F21000
G1 F3000
G1 X31.92 Y35.747 E.19023
G1 X31.92 Y31.298 E.08196
G1 X42.246 Y31.298 E.19023
G1 X42.246 Y35.747 E.08196
G1 X41.714 Y35.215 F21000
G1 F3000
G1 X32.452 Y35.215 E.17064
G1 X32.452 Y31.83 E.06237
G1 X41.714 Y31.83 E.17064
G1 X41.714 Y35.215 E.06237
G1 X41.183 Y34.683 F21000
G1 F3000
G1 X32.984 Y34.683 E.15105
G1 X32.984 Y32.361 E.04278
G1 X41.183 Y32.361 E.15105
G1 X41.183 Y34.683 E.04278
G1 X40.651 Y34.152 F21000
G1 F3000
G1 X33.515 Y34.152 E.13146
G1 X33.515 Y32.893 E.02318
G1 X40.651 Y32.893 E.13146
G1 X40.651 Y34.152 E.02318
G1 E-.5
G1 Z.3 F21000
G1 X64.03 Y39.899 Z.3
G1 Z.1
G1 E.5 F1800
G1 F3000
G1 X54.214 Y39.899 E.18083
G1 X54.214 Y30.084 E.18083
G1 X64.03 Y30.084 E.18083
G1 X64.03 Y39.828 E.17951
G1 X63.599 Y39.469 F21000
G1 F3000
G1 X54.645 Y39.469 E.16496
G1 X54.645 Y30.515 E.16496
G1 X63.599 Y30.515 E.16496
G1 X63.599 Y39.469 E.16496
G1 X63.068 Y38.937 F21000
G1 F3000
G1 X55.177 Y38.937 E.14537
G1 X55.177 Y31.046 E.14537
G1 X63.068 Y31.046 E.14537
G1 X63.068 Y38.937 E.14537
G1 X62.536 Y38.405 F21000
G1 F3000
G1 X55.709 Y38.405 E.12578
G1 X55.709 Y31.578 E.12578
G1 X62.536 Y31.578 E.12578
G1 X62.536 Y38.405 E.12578
G1 X62.004 Y37.874 F21000
G1 F3000
G1 X56.24 Y37.874 E.10619
G1 X56.24 Y32.11 E.10619
G1 X62.004 Y32.11 E.10619
G1 X62.004 Y37.874 E.10619
G1 X61.472 Y37.342 F21000
G1 F3000
G1 X56.772 Y37.342 E.0866
G1 X56.772 Y32.641 E.0866
G1 X61.472 Y32.641 E.0866
G1 X61.472 Y37.342 E.0866
G1 X60.941 Y36.81 F21000
G1 F3000
G1 X57.304 Y36.81 E.067
G1 X57.304 Y33.173 E.067
G1 X60.941 Y33.173 E.067
G1 X60.941 Y36.81 E.067
G1 X60.409 Y36.278 F21000
G1 F3000
G1 X57.835 Y36.278 E.04741
G1 X57.835 Y33.705 E.04741
G1 X60.409 Y33.705 E.04741
G1 X60.409 Y36.278 E.04741
G1 X59.877 Y35.747 F21000
G1 F3000
G1 X58.367 Y35.747 E.02782
G1 X58.367 Y34.237 E.02782
G1 X59.877 Y34.237 E.02782
G1 X59.877 Y35.747 E.02782
G1 E-.5
G1 Z.3 F21000
G1 X96.354 Y39.899 Z.3
G1 Z.1
G1 E.5 F1800
G1 F3000
G1 X77.723 Y39.899 E.34324
M73 P1 R52
G1 X77.723 Y27.145 E.23497
G1 X96.354 Y27.145 E.34324
G1 X96.354 Y39.828 E.23365
G1 X78.153 Y39.469 F21000
G1 F3000
G1 X78.153 Y27.576 E.2191
G1 X95.923 Y27.576 E.32737
G1 X95.923 Y39.469 E.2191
G1 X78.153 Y39.469 E.32737
G1 X78.685 Y38.937 F21000
G1 F3000
G1 X78.685 Y28.108 E.19951
G1 X95.391 Y28.108 E.30778
G1 X95.391 Y38.937 E.19951
G1 X78.685 Y38.937 E.30778
G1 X79.217 Y38.405 F21000
G1 F3000
G1 X79.217 Y28.64 E.17992
G1 X94.86 Y28.64 E.28819
G1 X94.86 Y38.405 E.17992
G1 X79.217 Y38.405 E.28819
G1 X79.749 Y37.874 F21000
G1 F3000
G1 X79.749 Y29.171 E.16032
G1 X94.328 Y29.171 E.2686
G1 X94.328 Y37.874 E.16032
G1 X79.749 Y37.874 E.2686
G1 X80.28 Y37.342 F21000
G1 F3000
G1 X80.28 Y29.703 E.14073
G1 X93.796 Y29.703 E.24901
G1 X93.796 Y37.342 E.14073
G1 X80.28 Y37.342 E.24901
G1 X80.812 Y36.81 F21000
G1 F3000
G1 X80.812 Y30.235 E.12114
G1 X93.265 Y30.235 E.22942
G1 X93.265 Y36.81 E.12114
G1 X80.812 Y36.81 E.22942
G1 X81.344 Y36.278 F21000
G1 F3000
G1 X81.344 Y30.766 E.10155
G1 X92.733 Y30.766 E.20982
G1 X92.733 Y36.278 E.10155
G1 X81.344 Y36.278 E.20982
G1 X81.875 Y35.747 F21000
G1 F3000
G1 X81.875 Y31.298 E.08196
G1 X92.201 Y31.298 E.19023
G1 X92.201 Y35.747 E.08196
G1 X81.875 Y35.747 E.19023
G1 X82.407 Y35.215 F21000
G1 F3000
G1 X82.407 Y31.83 E.06237
G1 X91.669 Y31.83 E.17064
G1 X91.669 Y35.215 E.06237
G1 X82.407 Y35.215 E.17064
G1 X82.939 Y34.683 F21000
G1 F3000
G1 X82.939 Y32.361 E.04278
G1 X91.138 Y32.361 E.15105
G1 X91.138 Y34.683 E.04278
G1 X82.939 Y34.683 E.15105
G1 X83.471 Y34.152 F21000
G1 F3000
G1 X83.471 Y32.893 E.02318
G1 X90.606 Y32.893 E.13146
G1 X90.606 Y34.152 E.02318
G1 X83.471 Y34.152 E.13146
G1 E-.5
G1 Z.3 F21000
G1 X42.311 Y41.208 Z.3
G1 Z.1
G1 E.5 F1800
;TYPE:Outer wall
G1 F3000
G1 X81.811 Y41.208 E.72771
G1 X81.811 Y83.8 E.78467
G1 X42.311 Y83.8 E.72771
G1 X42.311 Y41.248 E.78393
G1 E-.5
G1 Z.3 F21000
G1 X42.661 Y41.725 Z.3
G1 X51.323 Y49.439
G1 X51.646 Y49.906
G1 X72.385 Y82.189
G1 Z.1
G1 E.5 F1800
;TYPE:Inner wall
G1 F3000
G1 X72.702 Y82.647 E.01026
G1 X73.15 Y83.044 E.01103
G1 X73.262 Y83.103 E.00233
G1 X73.208 Y83.321 E.00414
G1 X50.913 Y83.321 E.41074
G1 X50.86 Y83.103 E.00414
G1 X50.972 Y83.044 E.00233
G1 X51.42 Y82.647 E.01103
G1 X51.76 Y82.154 E.01103
G1 X51.972 Y81.594 E.01103
G1 X52.039 Y81.044 E.01021
G1 X52.039 Y50.956 E.55432
G1 X51.972 Y50.406 E.01021
G1 X51.76 Y49.846 E.01103
G1 X51.42 Y49.353 E.01103
G1 X50.972 Y48.956 E.01103
G1 X50.442 Y48.678 E.01103
G1 X49.86 Y48.534 E.01103
G1 X49.261 Y48.534 E.01103
G1 X48.68 Y48.678 E.01103
G1 X48.15 Y48.956 E.01103
G1 X47.702 Y49.353 E.01103
G1 X47.361 Y49.846 E.01103
G1 X47.149 Y50.406 E.01103
G1 X47.082 Y50.956 E.01021
G1 X47.082 Y81.044 E.55432
G1 X47.149 Y81.594 E.01021
G1 X47.361 Y82.154 E.01103
G1 X47.702 Y82.647 E.01103
G1 X48.15 Y83.044 E.01103
G1 X48.262 Y83.103 E.00233
G1 X48.208 Y83.321 E.00414
G1 X42.789 Y83.321 E.09983
G1 X42.789 Y41.687 E.76704
G1 X81.332 Y41.687 E.71008
G1 X81.332 Y83.321 E.76704
G1 X75.913 Y83.321 E.09983
G1 X75.86 Y83.103 E.00414
G1 X75.972 Y83.044 E.00233
G1 X76.42 Y82.647 E.01103
G1 X76.76 Y82.154 E.01103
G1 X76.972 Y81.594 E.01103
G1 X77.039 Y81.044 E.01021
G1 X77.039 Y50.956 E.55432
G1 X76.972 Y50.406 E.01021
G1 X76.76 Y49.846 E.01103
G1 X76.42 Y49.353 E.01103
G1 X75.972 Y48.956 E.01103
G1 X75.442 Y48.678 E.01103
G1 X74.86 Y48.534 E.01103
G1 X74.261 Y48.534 E.01103
G1 X73.68 Y48.678 E.01103
G1 X73.15 Y48.956 E.01103
G1 X72.702 Y49.353 E.01103
G1 X72.361 Y49.846 E.01103
G1 X72.149 Y50.406 E.01103
G1 X72.082 Y50.956 E.01021
G1 X72.082 Y81.044 E.55432
G1 X72.149 Y81.594 E.01021
G1 X72.361 Y82.154 E.01103
G1 X72.362 Y82.156 E.00004
G1 X71.903 Y82.294 F21000
G1 F3000
G1 X71.935 Y82.378 E.00166
G1 X72.255 Y82.843 E.0104
G1 X51.866 Y82.843 E.37563
G1 X52.187 Y82.378 E.0104
G1 X52.44 Y81.71 E.01317
G1 X52.518 Y81.073 E.01182
G1 X52.518 Y50.927 E.55538
G1 X52.44 Y50.29 E.01182
G1 X52.187 Y49.622 E.01317
G1 X51.781 Y49.033 E.01317
G1 X51.246 Y48.559 E.01317
G1 X50.612 Y48.227 E.01317
G1 X49.918 Y48.056 E.01317
G1 X49.203 Y48.056 E.01317
G1 X48.509 Y48.227 E.01317
G1 X47.876 Y48.559 E.01317
G1 X47.341 Y49.033 E.01317
G1 X46.935 Y49.622 E.01317
G1 X46.681 Y50.29 E.01317
G1 X46.604 Y50.927 E.01182
G1 X46.604 Y81.073 E.55538
G1 X46.681 Y81.71 E.01182
G1 X46.935 Y82.378 E.01317
G1 X47.255 Y82.843 E.0104
G1 X43.268 Y82.843 E.07346
G1 X43.268 Y42.165 E.74941
G1 X80.854 Y42.165 E.69245
G1 X80.854 Y82.843 E.74941
G1 X76.866 Y82.843 E.07346
G1 X77.187 Y82.378 E.0104
G1 X77.44 Y81.71 E.01317
G1 X77.518 Y81.073 E.01182
G1 X77.518 Y50.927 E.55538
G1 X77.44 Y50.29 E.01182
G1 X77.187 Y49.622 E.01317
G1 X76.781 Y49.033 E.01317
G1 X76.246 Y48.559 E.01317
G1 X75.612 Y48.227 E.01317
G1 X74.918 Y48.056 E.01317
G1 X74.203 Y48.056 E.01317
G1 X73.509 Y48.227 E.01317
G1 X72.876 Y48.559 E.01317
G1 X72.341 Y49.033 E.01317
G1 X71.935 Y49.622 E.01317
G1 X71.681 Y50.29 E.01317
G1 X71.604 Y50.927 E.01182
G1 X71.604 Y81.073 E.55538
G1 X71.681 Y81.71 E.01182
G1 X71.888 Y82.257 E.01077
G1 E-.5
G1 Z.3 F21000
G1 X51.349 Y81.889 Z.3
G1 Z.1
G1 E.5 F1800
;TYPE:Outer wall
G1 F3000
G1 X51.333 Y81.93 E.00082
G1 X51.059 Y82.327 E.00889
G1 X50.698 Y82.647 E.00889
G1 X50.271 Y82.872 E.00889
G1 X49.802 Y82.987 E.00889
G1 X49.319 Y82.987 E.00889
G1 X48.851 Y82.872 E.00889
G1 X48.424 Y82.647 E.00889
G1 X48.062 Y82.327 E.00889
G1 X47.788 Y81.93 E.00889
G1 X47.617 Y81.479 E.00889
G1 X47.561 Y81.015 E.00861
G1 X47.561 Y50.985 E.55325
M73 P2 R52
G1 X47.617 Y50.521 E.00861
G1 X47.788 Y50.07 E.00889
G1 X48.062 Y49.673 E.00889
G1 X48.424 Y49.352 E.00889
G1 X48.851 Y49.128 E.00889
G1 X49.319 Y49.013 E.00889
G1 X49.802 Y49.013 E.00889
G1 X50.271 Y49.128 E.00889
G1 X50.698 Y49.352 E.00889
G1 X51.059 Y49.673 E.00889
G1 X51.333 Y50.07 E.00889
G1 X51.504 Y50.521 E.00889
G1 X51.561 Y50.985 E.00861
G1 X51.561 Y81.015 E.55325
G1 X51.504 Y81.479 E.00861
G1 X51.363 Y81.851 E.00733
G1 E-.5
G1 Z.3 F21000
G1 X72.773 Y81.889 Z.3
G1 Z.1
G1 E.5 F1800
G1 F3000
G1 X72.617 Y81.479 E.00808
G1 X72.561 Y81.015 E.00861
G1 X72.561 Y50.985 E.55325
G1 X72.617 Y50.521 E.00861
G1 X72.788 Y50.07 E.00889
G1 X73.062 Y49.673 E.00889
G1 X73.424 Y49.352 E.00889
G1 X73.851 Y49.128 E.00889
G1 X74.319 Y49.013 E.00889
G1 X74.802 Y49.013 E.00889
G1 X75.271 Y49.128 E.00889
G1 X75.698 Y49.352 E.00889
G1 X76.059 Y49.673 E.00889
G1 X76.333 Y50.07 E.00889
G1 X76.504 Y50.521 E.00889
G1 X76.561 Y50.985 E.00861
G1 X76.561 Y81.015 E.55325
G1 X76.504 Y81.479 E.00861
G1 X76.333 Y81.93 E.00889
G1 X76.059 Y82.327 E.00889
G1 X75.698 Y82.647 E.00889
G1 X75.271 Y82.872 E.00889
G1 X74.802 Y82.987 E.00889
G1 X74.319 Y82.987 E.00889
G1 X73.851 Y82.872 E.00889
G1 X73.424 Y82.647 E.00889
G1 X73.062 Y82.327 E.00889
G1 X72.788 Y81.93 E.00889
G1 X72.787 Y81.927 E.00007
G1 E-.5
G1 Z.3 F21000
G1 X73.533 Y83.002 Z.3
G1 Z.1
G1 E.5 F1800
;TYPE:Gap infill
;WIDTH:0.458489
G1 F3000
G1 X73.615 Y83.163 E.00304
;WIDTH:0.494967
G1 X73.698 Y83.324 E.00329
;WIDTH:0.450756
G1 X73.889 Y83.347 E.00319
;WIDTH:0.404376
G1 X74.07 Y83.369 E.00268
;WIDTH:0.360608
G1 X74.25 Y83.391 E.00237
;WIDTH:0.366931
G2 X75.052 Y83.369 I.194 J-7.603 E.01068
;WIDTH:0.448142
G1 X75.232 Y83.347 E.00298
;WIDTH:0.491908
G1 X75.412 Y83.325 E.00329
;WIDTH:0.460679
G1 X75.506 Y83.163 E.00317
;WIDTH:0.422017
G1 X75.588 Y83.002 E.00278
G1 E-.5
G1 Z.3 F21000
G1 X50.588 Y83.002 Z.3
G1 Z.1
G1 E.5 F1800
G1 F3000
G1 X50.506 Y83.163 E.00278
;WIDTH:0.460679
G1 X50.412 Y83.325 E.00317
;WIDTH:0.491908
G1 X50.232 Y83.347 E.00329
;WIDTH:0.448142
G1 X50.052 Y83.369 E.00298
;WIDTH:0.366932
G3 X49.25 Y83.391 I-.608 J-7.581 E.01068
;WIDTH:0.360608
G1 X49.07 Y83.369 E.00237
;WIDTH:0.404376
G1 X48.889 Y83.347 E.00268
;WIDTH:0.450756
G1 X48.698 Y83.324 E.00319
;WIDTH:0.494967
G1 X48.615 Y83.163 E.00329
;WIDTH:0.458489
G1 X48.533 Y83.002 E.00304
G1 E-.5
G1 Z.3 F21000
G1 X81.461 Y83.45 Z.3
G1 X79.734 Y42.309
G1 Z.1
G1 E.5 F1800
;TYPE:Bottom surface
;WIDTH:0.503935
G1 F6300
G1 X80.495 Y43.069 E.01997
G1 X80.495 Y43.752 E.01267
G1 X79.267 Y42.524 E.03224
G1 X78.585 Y42.524 E.01267
G1 X80.495 Y44.434 E.05016
G1 X80.495 Y45.116 E.01267
G1 X77.903 Y42.524 E.06809
G1 X77.22 Y42.524 E.01267
G1 X80.495 Y45.799 E.08601
G1 X80.495 Y46.481 E.01267
G1 X76.538 Y42.524 E.10393
G1 X75.856 Y42.524 E.01267
G1 X80.495 Y47.163 E.12186
G1 X80.495 Y47.846 E.01267
G1 X75.173 Y42.524 E.13978
G1 X74.491 Y42.524 E.01267
G1 X80.495 Y48.528 E.15771
G1 X80.495 Y49.21 E.01267
G1 X73.809 Y42.524 E.17563
G1 X73.127 Y42.524 E.01267
G1 X80.495 Y49.893 E.19355
G1 X80.495 Y50.575 E.01267
G1 X72.444 Y42.524 E.21148
G1 X71.762 Y42.524 E.01267
G1 X80.495 Y51.257 E.2294
G1 X80.495 Y51.939 E.01267
G1 X71.08 Y42.524 E.24732
G1 X70.397 Y42.524 E.01267
G1 X75.785 Y47.912 E.14153
G1 X76.451 Y48.262 E.01397
G1 X77.051 Y48.793 E.0149
G1 X77.507 Y49.454 E.0149
G1 X77.617 Y49.744 E.00578
G1 X80.495 Y52.622 E.07559
G1 X80.495 Y53.304 E.01267
G1 X77.846 Y50.656 E.06957
G3 X77.877 Y51.368 I-2.919 J.481 E.01328
G1 X80.495 Y53.986 E.06877
G1 X80.495 Y54.669 E.01267
G1 X77.877 Y52.051 E.06877
G1 X77.877 Y52.733 E.01267
G1 X80.495 Y55.351 E.06877
G1 X80.495 Y56.033 E.01267
G1 X77.877 Y53.415 E.06877
G1 X77.877 Y54.098 E.01267
G1 X80.495 Y56.716 E.06877
G1 X80.495 Y57.398 E.01267
G1 X77.877 Y54.78 E.06877
G1 X77.877 Y55.462 E.01267
G1 X80.495 Y58.08 E.06877
G1 X80.495 Y58.763 E.01267
G1 X77.877 Y56.145 E.06877
G1 X77.877 Y56.827 E.01267
G1 X80.495 Y59.445 E.06877
G1 X80.495 Y60.127 E.01267
G1 X77.877 Y57.509 E.06877
G1 X77.877 Y58.192 E.01267
G1 X80.495 Y60.81 E.06877
G1 X80.495 Y61.492 E.01267
G1 X77.877 Y58.874 E.06877
G1 X77.877 Y59.556 E.01267
G1 X80.495 Y62.174 E.06877
G1 X80.495 Y62.857 E.01267
G1 X77.877 Y60.239 E.06877
G1 X77.877 Y60.921 E.01267
G1 X80.495 Y63.539 E.06877
G1 X80.495 Y64.221 E.01267
G1 X77.877 Y61.603 E.06877
G1 X77.877 Y62.286 E.01267
G1 X80.495 Y64.904 E.06877
G1 X80.495 Y65.586 E.01267
G1 X77.877 Y62.968 E.06877
G1 X77.877 Y63.65 E.01267
G1 X80.495 Y66.268 E.06877
M73 P2 R51
G1 X80.495 Y66.951 E.01267
G1 X77.877 Y64.333 E.06877
G1 X77.877 Y65.015 E.01267
G1 X80.495 Y67.633 E.06877
G1 X80.495 Y68.315 E.01267
G1 X77.877 Y65.697 E.06877
G1 X77.877 Y66.38 E.01267
G1 X80.495 Y68.998 E.06877
G1 X80.495 Y69.68 E.01267
G1 X77.877 Y67.062 E.06877
G1 X77.877 Y67.744 E.01267
G1 X80.495 Y70.362 E.06877
G1 X80.495 Y71.045 E.01267
G1 X77.877 Y68.426 E.06877
G1 X77.877 Y69.109 E.01267
G1 X80.495 Y71.727 E.06877
G1 X80.495 Y72.409 E.01267
G1 X77.877 Y69.791 E.06877
G1 X77.877 Y70.473 E.01267
G1 X80.495 Y73.091 E.06877
G1 X80.495 Y73.774 E.01267
G1 X77.877 Y71.156 E.06877
G1 X77.877 Y71.838 E.01267
G1 X80.495 Y74.456 E.06877
G1 X80.495 Y75.138 E.01267
