; generated by SuperSlicer 2.5.59 on 2023-08-03 at 23:10:17 UTC


;
;

;
;
; 

; external perimeters extrusion width = 0.40mm
; perimeters extrusion width = 0.46mm
; infill extrusion width = 0.64mm
; solid infill extrusion width = 0.56mm
; top infill extrusion width = 0.40mm
; first layer extrusion width = 0.50mm

; object:{"name":"Front round standoff","id":"Front round standoff.stl id:0 copy 0","object_center":[60.000102,60.000001,0.000000],"boundingbox_center":[60.000102,60.000001,10.783501],"boundingbox_size":[55.000000,14.050001,21.567001]}
EXCLUDE_OBJECT_DEFINE NAME=Front_round_standoff_stl_id_0_copy_0 CENTER=60.000102,60.000001 POLYGON=[[32.500104,62.025000],[32.508228,61.655992],[32.511554,61.587860],[32.532684,61.287452],[32.545876,61.151916],[32.573612,60.919316],[32.602970,60.718368],[32.631104,60.551736],[32.682686,60.288400],[32.704608,60.188412],[32.784802,59.863196],[32.793564,59.830992],[32.897522,59.479928],[32.909038,59.443924],[33.016044,59.135672],[33.055054,59.031728],[33.148690,58.798692],[33.222450,58.627740],[33.295022,58.469420],[33.410762,58.233072],[33.454594,58.148332],[33.619484,57.848804],[33.626972,57.835860],[33.813612,57.529412],[33.848032,57.475992],[34.015956,57.227376],[34.095788,57.115656],[34.234152,56.930648],[34.362068,56.768780],[34.468340,56.640128],[34.646140,56.436320],[34.718660,56.356720],[34.947232,56.119196],[34.985256,56.081320],[35.264508,55.818260],[35.268272,55.814824],[35.567852,55.558136],[35.597108,55.534352],[35.882636,55.313304],[35.944116,55.268244],[36.209132,55.083504],[36.304572,55.020672],[36.546728,54.869280],[36.677500,54.792304],[36.894908,54.671084],[37.061876,54.583780],[37.253172,54.489376],[37.456636,54.395660],[37.621016,54.324600],[37.860708,54.228468],[37.997932,54.177212],[38.272972,54.082652],[38.383388,54.047672],[38.692308,53.958624],[38.775540,53.936820],[39.117560,53.856724],[39.173012,53.845156],[39.547568,53.777220],[39.575112,53.772920],[43.198264,53.225000],[43.377412,53.200092],[43.778260,53.149280],[44.043952,53.119136],[44.362000,53.086916],[44.712424,53.056116],[44.948612,53.038168],[45.382356,53.011064],[45.537696,53.003192],[46.053244,52.984020],[46.129776,52.982084],[46.724624,52.975004],[74.322672,52.975004],[74.694840,52.977772],[75.065584,52.986044],[75.092736,52.986868],[75.803104,53.018876],[75.862072,53.022440],[76.536624,53.073236],[76.629952,53.081704],[77.264896,53.148744],[77.395640,53.164584],[77.628784,53.194588],[77.993000,53.245912],[78.158400,53.271012],[78.357176,53.302700],[78.721160,53.364980],[78.917536,53.400888],[79.087104,53.433212],[79.455400,53.507592],[79.672304,53.554080],[79.825568,53.588168],[80.197192,53.675004],[80.422000,53.730452],[80.642048,53.786868],[81.074624,53.904032],[81.165904,53.929832],[81.495016,54.025940],[81.903304,54.152032],[82.263048,54.288212],[82.316528,54.310088],[82.614216,54.439856],[82.720824,54.489720],[82.956344,54.606448],[83.115096,54.690428],[83.289416,54.787724],[83.498232,54.911652],[83.613720,54.983692],[83.869160,55.152776],[83.928816,55.194084],[84.226856,55.413128],[84.234224,55.418616],[84.529456,55.657000],[84.570320,55.691992],[84.814056,55.908956],[84.898600,55.988576],[85.087536,56.174196],[85.210768,56.302068],[85.349440,56.452432],[85.505984,56.631584],[85.599288,56.743388],[85.783384,56.976220],[85.836104,57.046080],[86.042240,57.335008],[86.056704,57.355992],[86.260760,57.671860],[86.281808,57.706944],[86.448488,57.993084],[86.501416,58.091004],[86.620080,58.319072],[86.700472,58.486108],[86.775752,58.649224],[86.878392,58.891168],[86.915680,58.982936],[87.040104,59.319620],[87.149184,59.658660],[87.168984,59.726588],[87.243144,59.999472],[87.280832,60.154632],[87.322184,60.341452],[87.356160,60.512664],[87.369952,60.587980],[87.385752,60.679612],[87.410736,60.838688],[87.431528,60.989076],[87.436080,61.025420],[87.448528,61.129936],[87.462136,61.260460],[87.472768,61.379816],[87.480824,61.487176],[87.486728,61.581728],[87.490856,61.662628],[87.493632,61.729072],[87.495456,61.780376],[87.496696,61.820276],[87.497528,61.851340],[87.498064,61.874488],[87.498416,61.891428],[87.498544,61.897836],[87.498640,61.902964],[87.498728,61.907720],[87.500104,62.025000],[87.498432,62.154424],[87.497120,62.197588],[87.487920,62.373788],[87.485960,62.400812],[87.473312,62.541924],[87.461352,62.646288],[87.451448,62.720872],[87.425800,62.883796],[87.424664,62.890248],[87.390840,63.064560],[87.375992,63.132104],[87.354816,63.221580],[87.315456,63.371260],[87.306408,63.403192],[87.260688,63.553664],[87.243184,63.607144],[87.198560,63.735104],[87.159368,63.839172],[87.143880,63.878456],[87.067832,64.058684],[87.064216,64.066788],[87.004944,64.194420],[86.957944,64.289428],[86.914840,64.372360],[86.844544,64.500044],[86.840832,64.506560],[86.740344,64.674600],[86.713136,64.717652],[86.663440,64.793876],[86.575192,64.922180],[86.545192,64.963928],[86.462488,65.074508],[86.427320,65.119660],[86.330320,65.238936],[86.269896,65.309608],[86.242664,65.340616],[86.103296,65.491564],[86.096800,65.498292],[86.004992,65.590920],[85.927920,65.665068],[85.845760,65.740724],[85.750624,65.824228],[85.744192,65.829720],[85.578416,65.965056],[85.552576,65.985108],[85.480768,66.039436],[85.353520,66.130852],[85.296064,66.170188],[85.196704,66.235504],[85.147520,66.266600],[85.000104,66.355132],[84.935088,66.392020],[84.899792,66.411516],[84.716712,66.506812],[84.691952,66.518976],[84.591448,66.566620],[84.492952,66.610696],[84.373136,66.660920],[84.273136,66.700088],[84.264328,66.703416],[84.045192,66.780288],[84.031416,66.784736],[83.946368,66.811264],[83.794768,66.854476],[83.709720,66.876480],[83.612712,66.899644],[83.554976,66.912460],[83.368344,66.949044],[83.312624,66.958544],[83.273752,66.964792],[83.068272,66.992616],[83.022744,66.997612],[82.931104,67.006392],[82.822552,67.014596],[82.674600,67.021956],[82.586408,67.024260],[82.576048,67.024428],[37.500104,67.025000],[37.325608,67.021956],[37.158888,67.013352],[36.977460,66.997612],[36.819272,66.978432],[36.631864,66.949044],[36.482824,66.920424],[36.290492,66.876480],[36.151120,66.839592],[35.955016,66.780288],[35.825708,66.736304],[35.627072,66.660920],[35.508100,66.611060],[35.308248,66.518976],[35.199780,66.464432],[35.000104,66.355132],[34.902184,66.297104],[34.704140,66.170188],[34.616704,66.109856],[34.421796,65.965056],[34.344664,65.903564],[34.154448,65.740724],[34.087336,65.679184],[33.903404,65.498292],[33.845924,65.437768],[33.669880,65.238936],[33.621548,65.180444],[33.455018,64.963928],[33.415252,64.908400],[33.259862,64.674600],[33.228004,64.622924],[33.085366,64.372360],[33.060676,64.325332],[32.932376,64.058684],[32.914048,64.017012],[32.801640,63.735104],[32.788800,63.699404],[32.693794,63.403192],[32.685516,63.373984],[32.609364,63.064560],[32.604684,63.042284],[32.548764,62.720872],[32.546672,62.705836],[32.512284,62.373788],[32.511760,62.366220],[32.500104,62.025000]]
; plater:{"center":[60.000102,60.000001,0.000000],"boundingbox_center":[60.000102,60.000001,10.783501],"boundingbox_size":[55.000000,14.050001,21.567001]}

M73 P0 R12
;TYPE:Custom
; custom gcode: start_gcode
START_PRINT T_BED=110 T_EXTRUDER=260
; custom gcode end: start_gcode
M107
G21 ; set units to millimeters
G90 ; use absolute coordinates
M82 ; use absolute distances for extrusion
G92 E0
; custom gcode: start_filament_gcode
; filament start gcode

    PRESSURE_ADVANCE_SELECT FILAMENT=ABS
; custom gcode end: start_filament_gcode
;_TOOLCHANGE 0
M109 S260 ; set temperature and wait for it to be reached
M190 S110 ; set bed temperature and wait for it to be reached
;LAYER_CHANGE
;Z:0.2
;HEIGHT:0.2
G1 Z0.2 F12000
M73 P0 R12
G1 E-0.5 F2400
M204 S2000
G1 X33.545 Y52.437 F12000
G1 E0 F1800
;TYPE:Skirt
;WIDTH:0.52
G1 X32.649 Y53.177 E0.04266
G1 X31.55 Y54.329 E0.10114
G1 X30.795 Y55.333 E0.14731
G1 X30.149 Y56.411 E0.19348
G1 X29.479 Y57.914 E0.25391
G1 X28.974 Y59.728 E0.32308
G1 X28.797 Y60.974 E0.3693
G1 X28.755 Y62.288 E0.4176
G1 X29.007 Y64.121 E0.48556
G1 X29.659 Y65.897 E0.55505
G1 X30.191 Y66.809 E0.59385
G1 X30.851 Y67.679 E0.63394
G1 X31.836 Y68.655 E0.68488
G1 X32.683 Y69.277 E0.72349
G1 X33.641 Y69.816 E0.76389
G1 X34.934 Y70.319 E0.81486
G1 X35.958 Y70.552 E0.85344
G1 X37.052 Y70.664 E0.89381
G1 X83.021 Y70.66 E2.58245
G1 X84.288 Y70.506 E2.62932
G1 X84.995 Y70.335 E2.65605
G1 X86.192 Y69.893 E2.70293
G1 X87.311 Y69.28 E2.7498
G1 X88.667 Y68.197 E2.81352
G1 X89.301 Y67.497 E2.84823
G1 X89.99 Y66.53 E2.89183
G1 X90.728 Y64.996 E2.95437
G1 X90.998 Y64.097 E2.98887
G1 X91.205 Y62.926 E3.03254
G1 X91.205 Y61.022 E3.10246
G1 X90.828 Y58.909 E3.18132
G1 X90.147 Y57.028 E3.25481
G1 X89.046 Y55.126 E3.33551
G1 X87.828 Y53.663 E3.40545
G1 X86.894 Y52.801 E3.45215
G1 X85.875 Y52.043 E3.49879
G1 X84.479 Y51.242 E3.55791
G1 X82.998 Y50.644 E3.6166
G1 X80.435 Y49.968 E3.71394
G1 X77.159 Y49.459 E3.83574
G1 X74.429 Y49.324 E3.93616
G1 X62.466 Y49.228 E4.37562
G1 X45.955 Y49.333 E4.98213
G1 X44.449 Y49.41 E5.03754
G1 X42.751 Y49.591 E5.10026
G1 X37.84 Y50.39 E5.28302
G1 X36.639 Y50.759 E5.32919
G1 X35.219 Y51.38 E5.38611
G1 X33.545 Y52.437 E5.45885
G1 X33.845 Y52.808 F12000
G1 F1800
G1 X32.487 Y54.002 E5.52527
G1 X31.181 Y55.614 E5.60147
G1 X30.562 Y56.65 E5.6458
G1 X30.055 Y57.745 E5.69014
G1 X29.495 Y59.553 E5.75967
G1 X29.309 Y60.661 E5.80095
G1 X29.228 Y61.865 E5.84525
G1 X29.277 Y62.927 E5.88432
G1 X29.474 Y64.024 E5.92524
G1 X30.089 Y65.692 E5.99056
G1 X30.599 Y66.561 E6.02756
G1 X31.199 Y67.353 E6.06408
G1 X32.149 Y68.295 E6.11323
G1 X32.958 Y68.887 E6.15004
G1 X33.831 Y69.379 E6.18685
G1 X35.079 Y69.864 E6.23603
G1 X36.056 Y70.085 E6.27281
G1 X37.052 Y70.187 E6.30959
G1 X82.979 Y70.185 E7.99667
M73 P1 R12
G1 X84.176 Y70.042 E8.04095
G1 X84.883 Y69.871 E8.06769
G1 X86.442 Y69.239 E8.12949
G1 X87.462 Y68.596 E8.17377
G1 X88.323 Y67.866 E8.21523
G1 X88.919 Y67.211 E8.24777
G1 X89.575 Y66.293 E8.28922
G1 X90.275 Y64.845 E8.3483
G1 X90.531 Y64.002 E8.38064
G1 X90.729 Y62.89 E8.42215
G1 X90.731 Y61.081 E8.48859
G1 X90.563 Y59.873 E8.53342
G1 X90.268 Y58.689 E8.57822
G1 X89.71 Y57.22 E8.63596
G1 X89.18 Y56.213 E8.67773
G1 X88.132 Y54.715 E8.7449
G1 X86.603 Y53.179 E8.82452
G1 X84.877 Y51.991 E8.90149
G1 X83.217 Y51.224 E8.96867
G1 X81.388 Y50.682 E9.03873
G1 X78.832 Y50.153 E9.13461
G1 X77.1 Y49.932 E9.19874
G1 X74.425 Y49.801 E9.29715
G1 X62.462 Y49.705 E9.73661
G1 X45.959 Y49.81 E10.34283
G1 X44.474 Y49.887 E10.39744
G1 X42.822 Y50.063 E10.45848
G1 X38.79 Y50.677 E10.6083
G1 X36.786 Y51.213 E10.68451
G1 X35.447 Y51.8 E10.73822
G1 X33.845 Y52.808 E10.80775
G92 E0
G1 E-0.5 F2400
; printing object Front round standoff.stl id:0 copy 0
EXCLUDE_OBJECT_START NAME=Front_round_standoff_stl_id_0_copy_0
G1 X54.791 Y54.034 F12000
G1 E0 F1800
;TYPE:Internal perimeter
;WIDTH:0.5
G1 X54.725 Y53.751 E0.01022
G1 X46.235 Y53.756 E0.30904
G1 X46.247 Y54.213 E0.32513
G1 X53.014 Y54.209 E0.56326
G1 X53.097 Y54.46 E0.57256
G1 X52.516 Y54.892 E0.59802
G1 X48.252 Y54.892 E0.7481
G1 X47.396 Y54.945 E0.77828
G1 X46.534 Y55.11 E0.80916
G1 X46.065 Y55.246 E0.82636
G1 X45.249 Y55.569 E0.85724
G1 X44.462 Y56.002 E0.88882
G1 X43.736 Y56.529 E0.92041
G1 X43.097 Y57.13 E0.95129
G1 X42.774 Y57.496 E0.96848
G1 X42.258 Y58.206 E0.99937
G1 X41.826 Y58.993 E1.03095
G1 X41.495 Y59.827 E1.06253
G1 X41.272 Y60.696 E1.09412
G1 X41.162 Y61.566 E1.12497
G1 X41.114 Y62.526 E1.1588
G1 X41.006 Y63.049 E1.17762
G1 X40.834 Y63.533 E1.19568
G1 X40.588 Y64.008 E1.2145
G1 X40.47 Y64.187 E1.22203
G1 X40.137 Y64.597 E1.24063
G1 X39.741 Y64.966 E1.25968
G1 X39.571 Y65.095 E1.26719
G1 X39.12 Y65.37 E1.28579
G1 X38.643 Y65.577 E1.30409
G1 X38.142 Y65.718 E1.3224
G1 X37.654 Y65.785 E1.33972
G1 X37.112 Y65.785 E1.3588
G1 X36.893 Y65.762 E1.36655
G1 X36.355 Y65.65 E1.3859
G1 X36.145 Y65.583 E1.39365
G1 X35.641 Y65.364 E1.413
G1 X35.449 Y65.256 E1.42075
G1 X35 Y64.939 E1.4401
G1 X34.834 Y64.794 E1.44785
G1 X34.458 Y64.392 E1.46723
G1 X34.329 Y64.222 E1.47475
G1 X34.039 Y63.746 E1.49434
G1 X33.948 Y63.553 E1.50186
G1 X33.769 Y63.05 E1.52068
G1 X33.664 Y62.547 E1.53874
G1 X33.628 Y62.025 E1.55715
G1 X33.667 Y61.29 E1.58305
G1 X33.786 Y60.537 E1.6099
G1 X33.866 Y60.206 E1.62187
G1 X34.101 Y59.481 E1.64871
G1 X34.405 Y58.799 E1.67497
G1 X34.778 Y58.153 E1.70123
G1 X35.217 Y57.549 E1.72749
G1 X35.727 Y56.983 E1.75433
G1 X35.974 Y56.749 E1.7663
G1 X36.567 Y56.269 E1.79315
G1 X37.207 Y55.854 E1.81999
G1 X37.506 Y55.691 E1.83196
G1 X38.203 Y55.381 E1.8588
G1 X38.912 Y55.151 E1.88506
G1 X39.659 Y54.993 E1.91193
G1 X41.456 Y54.755 E1.97573
G1 X43.463 Y54.419 E2.04734
G1 X44.741 Y54.281 E2.09258
G1 X45.334 Y54.25 E2.11347
;WIDTH:0.384534
G1 X44.897 Y54.731 E2.13107
;WIDTH:0.5
G1 X43.525 Y54.872 E2.1796
G1 X41.524 Y55.207 E2.25101
G1 X39.737 Y55.444 E2.31446
G1 X39.031 Y55.593 E2.33986
G1 X38.367 Y55.809 E2.36444
G1 X37.708 Y56.102 E2.3898
G1 X37.441 Y56.247 E2.40051
G1 X36.836 Y56.639 E2.42588
G1 X36.276 Y57.093 E2.45125
G1 X36.055 Y57.302 E2.46195
G1 X35.572 Y57.838 E2.48732
M73 P2 R12
G1 X35.162 Y58.402 E2.51189
G1 X34.813 Y59.007 E2.53646
G1 X34.529 Y59.645 E2.56104
G1 X34.434 Y59.936 E2.57181
G1 X34.702 Y60.081 E2.58253
G1 X35.06 Y59.636 E2.60265
G1 X35.716 Y59.141 E2.63156
G1 X36.423 Y58.841 E2.65858
G1 X36.928 Y58.731 E2.67678
G1 X37.642 Y58.709 E2.70191
G1 X38.153 Y58.788 E2.72011
G1 X38.826 Y59.025 E2.74524
G1 X39.274 Y59.284 E2.76344
G1 X39.816 Y59.748 E2.78857
G1 X39.964 Y59.932 E2.79685
G1 X39.59 Y60.196 E2.81296
G1 X39.487 Y60.068 E2.81876
G1 X39.009 Y59.658 E2.84091
G1 X38.634 Y59.442 E2.85612
G1 X38.041 Y59.233 E2.87828
G1 X37.614 Y59.167 E2.89349
G1 X36.984 Y59.186 E2.91564
G1 X36.562 Y59.279 E2.93086
G1 X35.946 Y59.539 E2.9544
G1 X35.381 Y59.966 E2.97933
G1 X34.937 Y60.518 E3.00425
G1 X34.657 Y61.126 E3.0278
G1 X34.561 Y61.507 E3.04163
G1 X34.513 Y61.897 E3.05546
G1 X34.552 Y62.525 E3.07762
G1 X34.657 Y62.945 E3.09283
G1 X34.937 Y63.552 E3.11637
G1 X35.381 Y64.104 E3.1413
G1 X35.946 Y64.531 E3.16623
G1 X36.562 Y64.792 E3.18977
G1 X36.946 Y64.876 E3.2036
G1 X37.338 Y64.912 E3.21744
G1 X38.004 Y64.85 E3.24098
G1 X38.634 Y64.628 E3.26452
G1 X39.009 Y64.412 E3.27973
G1 X39.487 Y64.002 E3.30189
G1 X39.758 Y63.666 E3.3171
G1 X40.074 Y63.076 E3.34064
G1 X40.247 Y62.389 E3.36557
G1 X40.247 Y61.72 E3.38911
G1 X40.168 Y61.296 E3.40432
G1 X40.046 Y60.981 E3.41618
;WIDTH:0.498271
G1 X39.694 Y61.339 E3.43378
;WIDTH:0.5
G1 X39.726 Y61.421 E3.43687
G1 X39.79 Y61.763 E3.4491
G1 X39.79 Y62.333 E3.46916
G1 X39.645 Y62.91 E3.4901
G1 X39.375 Y63.412 E3.51016
G1 X39.157 Y63.683 E3.52239
G1 X38.744 Y64.037 E3.54157
G1 X38.443 Y64.211 E3.5538
G1 X37.905 Y64.4 E3.57386
G1 X37.565 Y64.432 E3.58587
G1 X37.565 Y63.973 E3.60203
;TYPE:External perimeter
G1 X37.806 Y63.95 E3.61056
G1 X38.251 Y63.794 E3.62714
G1 X38.478 Y63.663 E3.63639
G1 X38.828 Y63.363 E3.65258
G1 X38.993 Y63.158 E3.66183
G1 X39.215 Y62.743 E3.67841
G1 X39.333 Y62.276 E3.69537
G1 X39.333 Y61.805 E3.71194
G1 X39.285 Y61.547 E3.72119
G1 X39.118 Y61.118 E3.73738
G1 X38.986 Y60.903 E3.74625
G1 X38.828 Y60.707 E3.75512
G1 X38.478 Y60.408 E3.77131
G1 X38.251 Y60.276 E3.78056
G1 X37.817 Y60.123 E3.79676
G1 X37.557 Y60.083 E3.80601
G1 X37.097 Y60.097 E3.8222
G1 X36.84 Y60.154 E3.83145
G1 X36.407 Y60.337 E3.84803
G1 X36.022 Y60.628 E3.86499
G1 X35.72 Y61.003 E3.88195
G1 X35.523 Y61.431 E3.89852
G1 X35.462 Y61.675 E3.90739
G1 X35.431 Y61.925 E3.91626
G1 X35.459 Y62.385 E3.93245
G1 X35.523 Y62.639 E3.9417
G1 X35.72 Y63.067 E3.95828
G1 X36.022 Y63.443 E3.97524
G1 X36.407 Y63.733 E3.9922
G1 X36.84 Y63.917 E4.00877
G1 X37.11 Y63.973 E4.01846
;TYPE:Internal perimeter
G1 X37.11 Y64.432 E4.03462
G1 X36.701 Y64.354 E4.04926
G1 X36.176 Y64.132 E4.06932
G1 X35.702 Y63.773 E4.09026
G1 X35.328 Y63.31 E4.11121
G1 X35.09 Y62.792 E4.13126
G1 X35.005 Y62.455 E4.1435
G1 X34.972 Y61.911 E4.16267
G1 X35.012 Y61.591 E4.17402
G1 X35.09 Y61.278 E4.18537
G1 X35.328 Y60.761 E4.20543
G1 X35.701 Y60.297 E4.22638
G1 X36.176 Y59.938 E4.24732
G1 X36.701 Y59.716 E4.26738
G1 X37.041 Y59.642 E4.27961
G1 X37.585 Y59.625 E4.29878
G1 X37.929 Y59.678 E4.31101
G1 X38.443 Y59.859 E4.33019
