; HEADER_BLOCK_START
; generated by OrcaSlicer 1.6.2 on 2023-05-22 at 16:00:28
; total layer number: 77
; HEADER_BLOCK_END

; THUMBNAIL_BLOCK_START
; THUMBNAIL_BLOCK_END

; external perimeters extrusion width = 0.40mm
; perimeters extrusion width = 0.45mm
; infill extrusion width = 0.45mm
; solid infill extrusion width = 0.40mm
; top infill extrusion width = 0.40mm
; first layer extrusion width = 0.50mm

; EXECUTABLE_BLOCK_START
EXCLUDE_OBJECT_DEFINE NAME=Front_Idlers_Mount_right_TOP.stl_id_0_copy_0 CENTER=60,60 POLYGON=[[23.2958,56.2958],[48.7958,36.2958],[91.2042,36.2958],[91.4113,36.5029],[96.4971,41.5887],[96.7042,41.7958],[96.7042,80.8875],[93.8875,83.7042],[89.9042,83.7042],[28.7958,83.2958],[23.5029,78.0029],[23.4004,77.9004],[23.2958,77.7958],[23.2958,56.2958]]
M73 P0 R36
;TYPE:Custom
START_PRINT T_BED=110 T_EXTRUDER=260
G90
G21
M83 ; use relative distances for extrusion
; Filament gcode

    PRESSURE_ADVANCE_SELECT FILAMENT=ABS
M106 S0
;LAYER_CHANGE
;Z:0.2
;HEIGHT:0.2
;BEFORE_LAYER_CHANGE
;0.2
G92 E0

;AFTER_LAYER_CHANGE
;0.2
M204 S1000
G1 E-.5 F3000
G1 Z.2 F21000
G1 X35.92 Y44.27
G1 E.5 F1800
;TYPE:Skirt
;WIDTH:0.5
G1 F3000
G1 X47.584 Y34.806 E.52863
G1 X48.527 Y34.404 E.03606
G1 X49.462 Y34.282 E.03318
G1 X90.675 Y34.285 E1.45046
G1 X91.4 Y34.386 E.02577
G1 X92.059 Y34.616 E.02456
G1 X92.676 Y34.98 E.02521
G1 X93.099 Y35.342 E.0196
G1 X97.978 Y40.268 E.24401
G1 X98.505 Y41.237 E.03881
G1 X98.712 Y42.254 E.03653
G1 X98.712 Y80.429 E1.34351
G1 X98.505 Y81.446 E.03653
G1 X97.978 Y82.415 E.03881
G1 X95.782 Y84.658 E.11046
G1 X95.099 Y85.194 E.03056
G1 X94.157 Y85.595 E.03605
G1 X93.222 Y85.718 E.03319
G1 X29.254 Y85.303 E2.25133
G1 X28.564 Y85.197 E.02456
G1 X27.941 Y84.976 E.02327
G1 X27.052 Y84.391 E.03744
G1 X22.342 Y79.691 E.23419
G1 X21.806 Y79.007 E.03056
G1 X21.405 Y78.065 E.03605
G1 X21.285 Y77.267 E.0284
G1 X21.282 Y57.903 E.6815
G1 X21.43 Y56.848 E.03749
G1 X21.872 Y55.886 E.03727
G1 X22.569 Y55.104 E.03686
G1 X35.874 Y44.308 E.60301
G1 X36.16 Y44.661 F21000
G1 F3000
G1 X47.817 Y35.2 E.52839
G1 X48.64 Y34.847 E.0315
G1 X49.462 Y34.739 E.02916
G1 X90.654 Y34.741 E1.44971
G1 X91.287 Y34.829 E.0225
G1 X91.863 Y35.029 E.02147
G1 X92.776 Y35.666 E.03917
G1 X97.462 Y40.36 E.23342
G1 X97.971 Y41.137 E.03271
G1 X98.162 Y41.673 E.02002
G1 X98.255 Y42.276 E.02147
G1 X98.255 Y80.408 E1.34201
G1 X98.073 Y81.297 E.03194
G1 X97.612 Y82.141 E.03386
G1 X95.459 Y84.334 E.10816
G1 X94.866 Y84.8 E.02654
G1 X94.044 Y85.153 E.03149
G1 X93.222 Y85.261 E.02917
G1 X29.275 Y84.847 E2.25057
G1 X28.673 Y84.753 E.02144
G1 X28.137 Y84.563 E.02003
G1 X27.36 Y84.053 E.0327
G1 X22.666 Y79.368 E.23343
G1 X22.2 Y78.774 E.02654
G1 X21.847 Y77.952 E.03149
G1 X21.739 Y77.13 E.02918
G1 X21.739 Y57.903 E.67668
G1 X21.868 Y56.979 E.03282
G1 X22.25 Y56.141 E.03242
G1 X22.857 Y55.458 E.03214
G1 X36.114 Y44.699 E.60088
; printing object Front Idlers Mount right TOP.stl id:0 copy 0
EXCLUDE_OBJECT_START NAME=Front_Idlers_Mount_right_TOP.stl_id_0_copy_0
G1 E-.5
G1 Z.4 F21000
G1 X91.548 Y75.449
G1 Z.2
G1 E.5 F1800
;TYPE:Inner wall
;WIDTH:0.499999
G1 F3000
G1 X91.04 Y75.54 E.01816
G1 X90.615 Y75.678 E.01572
G1 X90.143 Y75.91 E.01852
G1 X89.775 Y76.158 E.01563
G1 X89.391 Y76.504 E.01817
G1 X89.106 Y76.844 E.01563
G1 X88.696 Y77.551 E.02873
G1 X88.543 Y78.064 E.01887
G1 X88.445 Y78.605 E.01933
G1 X88.286 Y78.516 E.0064
G1 X87.665 Y78.248 E.02378
G1 X87.08 Y78.175 E.02078
G1 X45.836 Y78.175 E1.45153
G1 X45.383 Y78.209 E.01598
G1 X44.846 Y78.335 E.01942
G1 X44.364 Y78.592 E.01923
G1 X44.061 Y78.829 E.01351
G1 X42.222 Y80.663 E.09144
G1 X29.879 Y80.671 E.43438
G1 X25.917 Y76.695 E.19755
G1 X25.917 Y58.998 E.62283
G1 X43.689 Y58.998 E.62546
G1 X44.156 Y58.941 E.01655
G1 X44.61 Y58.788 E.01686
G1 X45.031 Y58.509 E.01777
G1 X45.345 Y58.215 E.01514
G1 X45.661 Y57.701 E.02126
G1 X45.823 Y57.22 E.01786
G1 X45.917 Y56.525 E.02468
G1 X45.917 Y42.883 E.48012
G1 X49.896 Y38.917 E.19772
G1 X90.121 Y38.92 E1.41566
G1 X94.08 Y42.878 E.19702
G1 X94.072 Y54.222 E.39922
G1 X91.786 Y56.514 E.11391
G1 X91.516 Y56.914 E.01701
G1 X91.257 Y57.502 E.02262
G1 X91.175 Y58.12 E.02195
G1 X91.187 Y74.619 E.58066
G1 X91.304 Y75.05 E.01572
G1 X91.517 Y75.397 E.01432
G1 X92.322 Y75.932 F21000
G1 F3000
G1 X92.131 Y75.892 E.00685
G1 X91.628 Y75.9 E.01772
G1 X90.942 Y76.037 E.02461
G1 X90.49 Y76.249 E.01756
G1 X90.081 Y76.498 E.01687
G1 X89.697 Y76.844 E.01817
G1 X89.493 Y77.087 E.01117
G1 X89.158 Y77.636 E.02266
G1 X88.982 Y78.189 E.02043
G1 X88.899 Y78.64 E.01614
G1 X88.899 Y79.151 E.01798
G1 X89.031 Y79.775 E.02243
G1 X88.408 Y79.152 E.03101
G1 X88.09 Y78.929 E.01367
G1 X87.544 Y78.688 E.02101
G1 X87.08 Y78.632 E.01645
G1 X45.694 Y78.632 E1.45652
G1 X45.176 Y78.715 E.01846
G1 X44.806 Y78.859 E.01396
G1 X44.384 Y79.152 E.0181
G1 X42.411 Y81.12 E.09808
G1 X29.69 Y81.129 E.44772
G1 X25.46 Y76.884 E.21089
G1 X25.46 Y58.541 E.64556
G1 X43.72 Y58.541 E.64265
G1 X44.222 Y58.455 E.01792
G1 X44.539 Y58.297 E.01244
G1 X44.935 Y57.99 E.01763
G1 X45.241 Y57.516 E.01987
G1 X45.372 Y57.144 E.01387
G1 X45.46 Y56.525 E.02202
G1 X45.46 Y42.693 E.4868
G1 X49.708 Y38.46 E.21104
G1 X90.31 Y38.463 E1.42897
G1 X94.537 Y42.689 E.21036
G1 X94.529 Y54.411 E.41254
G1 X92.152 Y56.792 E.1184
G1 X91.929 Y57.11 E.01367
G1 X91.695 Y57.633 E.02017
G1 X91.632 Y58.12 E.01729
G1 X91.641 Y74.562 E.57864
G1 X91.724 Y74.87 E.01123
G1 X91.966 Y75.227 E.01518
G1 X92.764 Y76.024 E.03969
G1 X92.38 Y75.944 E.01379
G1 E-.5
G1 Z.4 F21000
G1 X92.21 Y74.653
G1 X90.522 Y37.882
G1 X44.543 Y57.726
G1 Z.2
G1 E.5 F1800
G1 F3000
G1 X44.57 Y57.708 E.00117
G1 X44.843 Y57.292 E.0175
G1 X44.921 Y57.069 E.00832
G1 X45.003 Y56.525 E.01936
G1 X45.003 Y42.569 E.49115
G1 X45.018 Y42.488 E.00293
G1 X49.519 Y38.003 E.2236
G1 X90.468 Y38.006 E1.44115
M73 P1 R36
G1 X90.517 Y38.023 E.00184
G1 X94.994 Y42.511 E.2231
G1 X94.986 Y54.6 E.42547
G1 X92.779 Y56.811 E.10993
G1 X92.384 Y57.229 E.02022
G1 X92.16 Y57.69 E.01806
G1 X92.089 Y58.12 E.01535
G1 X92.089 Y74.419 E.57361
G1 X92.144 Y74.69 E.00972
G1 X92.29 Y74.904 E.00911
G1 X93.381 Y75.995 E.05433
;WIDTH:0.525175
G1 X93.652 Y76.284 E.01469
;WIDTH:0.55035
G1 X93.923 Y76.573 E.01546
;WIDTH:0.576346
G1 X94.471 Y77.139 E.0324
G1 X94.734 Y77.375 E.01451
;WIDTH:0.538173
G1 X94.997 Y77.611 E.01347
;WIDTH:0.499999
G1 X94.997 Y77.771 E.00563
G1 X94.997 Y78.046 E.00967
;WIDTH:0.546804
G1 X94.974 Y78.835 E.03061
;WIDTH:0.571036
G1 X94.962 Y79.453 E.02514
G1 X94.979 Y79.735 E.0115
;WIDTH:0.535518
G1 X94.997 Y80.017 E.01072
;WIDTH:0.499999
G1 X94.971 Y80.206 E.00671
;WIDTH:0.544396
G1 X94.761 Y80.383 E.01062
;WIDTH:0.588793
G1 X94.551 Y80.56 E.01156
G1 X94.011 Y81.127 E.0329
;WIDTH:0.578799
G1 X93.589 Y81.521 E.02383
G1 X93.377 Y81.759 E.01314
;WIDTH:0.539399
G1 X93.165 Y81.997 E.01218
;WIDTH:0.499999
G1 X93.004 Y81.997 E.00565
;WIDTH:0.537059
G1 X92.729 Y81.979 E.0105
;WIDTH:0.574119
G1 X92.454 Y81.96 E.01128
G1 X91.665 Y81.971 E.03229
;WIDTH:0.588013
G1 X91.326 Y81.953 E.01424
;WIDTH:0.624791
G1 X90.987 Y81.935 E.0152
;WIDTH:0.661569
G1 X90.648 Y81.916 E.01616
G1 X90.283 Y81.591 E.0233
;WIDTH:0.611669
G1 X90.012 Y81.356 E.0157
;WIDTH:0.561768
G1 X89.449 Y80.795 E.03176
;WIDTH:0.560719
G1 X89.256 Y80.623 E.01031
;WIDTH:0.530359
G1 X89.063 Y80.452 E.0097
;WIDTH:0.499999
G1 X88.228 Y79.619 E.04148
G1 X87.894 Y79.342 E.01529
G1 X87.422 Y79.129 E.01823
G1 X87.08 Y79.089 E.01213
G1 X45.62 Y79.095 E1.45912
G1 X45.121 Y79.209 E.01803
G1 X44.707 Y79.476 E.01732
G1 X42.6 Y81.577 E.10473
G1 X29.51 Y81.586 E.46068
G1 X25.003 Y77.073 E.22448
G1 X25.003 Y58.084 E.66829
G1 X43.689 Y58.084 E.65763
G1 X44.127 Y58.004 E.01566
G1 X44.493 Y57.76 E.0155
G1 X44.315 Y57.264 F21000
;TYPE:Outer wall
G1 F3000
G1 X44.463 Y57.024 E.00994
G1 X44.546 Y56.525 E.0178
G1 X44.546 Y42.569 E.49115
G1 X44.564 Y42.42 E.0053
G1 X44.664 Y42.195 E.00865
G1 X49.272 Y37.604 E.22892
G1 X49.482 Y37.546 E.00769
G1 X90.564 Y37.549 E1.4458
G1 X90.81 Y37.669 E.00964
G1 X95.335 Y42.194 E.22523
G1 X95.451 Y42.437 E.00946
G1 X95.443 Y54.707 E.43186
G1 X95.335 Y54.898 E.0077
G1 X92.799 Y57.438 E.12632
G1 X92.583 Y57.863 E.01678
G1 X92.546 Y58.12 E.00915
G1 X92.546 Y74.419 E.57361
G1 X92.613 Y74.581 E.00616
G1 X95.454 Y77.422 E.14142
G1 X95.454 Y77.771 E.0123
G1 X95.454 Y79.628 E.06533
G1 X95.423 Y80.357 E.0257
G1 X95.331 Y80.492 E.00575
G1 X93.412 Y82.396 E.09514
G1 X93.201 Y82.454 E.00771
G1 X91.143 Y82.454 E.07241
G1 X90.435 Y82.423 E.02496
G1 X90.299 Y82.331 E.00578
G1 X87.762 Y79.799 E.12613
G1 X87.337 Y79.583 E.01678
G1 X87.08 Y79.546 E.00916
G1 X45.836 Y79.546 E1.45153
G1 X45.353 Y79.612 E.01715
G1 X45.03 Y79.799 E.01315
G1 X42.921 Y81.903 E.10483
G1 X42.707 Y82.034 E.00883
G1 X29.437 Y82.043 E.46705
G1 X29.194 Y81.927 E.00945
G1 X24.604 Y77.32 E.22887
G1 X24.546 Y77.109 E.0077
G1 X24.546 Y57.973 E.67347
G1 X24.593 Y57.726 E.00885
G1 X24.665 Y57.627 E.00431
G1 X43.39 Y57.627 E.659
G1 X43.918 Y57.59 E.01862
G1 X44.238 Y57.39 E.01327
G1 X44.284 Y57.315 E.0031
G1 X44.371 Y57.272
G1 E-.5
G1 Z.4 F21000
G1 X44.577 Y57.514
G1 X64.317 Y61.115
G1 X64.79 Y61.106
G1 X65.257 Y61.1
G1 X65.721 Y61.155
G1 X66.171 Y61.284
G1 X66.607 Y61.451
G1 X67.028 Y61.656
G1 X67.43 Y61.895
G1 X67.809 Y62.169
G1 X68.164 Y62.474
G1 X68.491 Y62.808
G1 X68.789 Y63.169
G1 X73.898 Y69.894
G1 X74.211 Y70.242
G1 X74.553 Y70.563
G1 X74.932 Y70.859
G1 X75.31 Y71.108
G1 X75.722 Y71.33
G1 X76.151 Y71.516
G1 X76.595 Y71.665
G1 X92.173 Y76.366
G1 Z.2
G1 E.5 F1800
;TYPE:Inner wall
G1 F3000
G1 X92.259 Y76.369 E.00305
G1 X92.765 Y76.496 E.01835
;WIDTH:0.54525
G1 X93.404 Y76.809 E.02754
;WIDTH:0.554821
G1 X93.921 Y77.298 E.02804
;WIDTH:0.576346
G1 X94.047 Y77.453 E.00822
G1 X94.154 Y77.695 E.01083
;WIDTH:0.538173
G1 X94.261 Y77.936 E.01006
;WIDTH:0.528053
G1 X94.361 Y78.278 E.01332
;WIDTH:0.556107
G1 X94.461 Y78.62 E.01409
G1 X94.472 Y78.768 E.00584
;WIDTH:0.56482
G1 X94.443 Y79.333 E.02273
G1 X94.341 Y79.608 E.01181
;WIDTH:0.53241
G1 X94.238 Y79.883 E.01107
;WIDTH:0.544396
G1 X94.188 Y80.045 E.00653
;WIDTH:0.588793
G1 X94.138 Y80.206 E.00711
G1 X93.817 Y80.612 E.02171
;WIDTH:0.574719
G1 X93.279 Y81.085 E.02936
G1 X92.614 Y81.364 E.02951
;WIDTH:0.574119
G1 X92.426 Y81.43 E.00816
G1 X91.906 Y81.471 E.02132
;WIDTH:0.571654
G1 X91.549 Y81.435 E.01463
;WIDTH:0.596687
G1 X91.191 Y81.399 E.01532
;WIDTH:0.629128
G1 X91.05 Y81.364 E.00659
;WIDTH:0.661569
G1 X90.908 Y81.329 E.00695
G1 X90.673 Y81.183 E.01319
;WIDTH:0.615062
G1 X90.437 Y81.038 E.0122
;WIDTH:0.568554
G1 X89.983 Y80.622 E.0249
;WIDTH:0.560719
G1 X89.852 Y80.474 E.00789
G1 X89.728 Y80.247 E.01031
;WIDTH:0.530359
G1 X89.604 Y80.02 E.0097
;WIDTH:0.499999
G1 X89.383 Y79.339 E.02522
G1 X89.356 Y78.64 E.0246
G1 X89.527 Y77.946 E.02515
G1 X89.881 Y77.329 E.02506
G1 X90.334 Y76.885 E.02234
G1 X90.544 Y76.731 E.00917
G1 X91.017 Y76.5 E.01852
G1 X91.707 Y76.35 E.02485
G1 X92.113 Y76.364 E.01427
G1 X92.088 Y76.811 F21000
;TYPE:Outer wall
G1 F3000
G1 X92.148 Y76.813 E.00214
G1 X92.654 Y76.939 E.01835
G1 X93.164 Y77.224 E.02056
G1 X93.573 Y77.635 E.02038
G1 X93.857 Y78.15 E.02074
G1 X93.992 Y78.768 E.02223
G1 X93.955 Y79.298 E.01872
G1 X93.762 Y79.855 E.02074
G1 X93.428 Y80.329 E.02039
G1 X92.974 Y80.696 E.02055
G1 X92.436 Y80.923 E.02057
G1 X91.856 Y80.994 E.02056
G1 X91.279 Y80.901 E.02057
G1 X90.75 Y80.653 E.02056
G1 X90.306 Y80.265 E.02076
G1 X89.992 Y79.778 E.02038
G1 X89.822 Y79.214 E.02075
G1 X89.813 Y78.64 E.02018
G1 X89.966 Y78.072 E.02073
G1 X90.268 Y77.571 E.02057
G1 X90.64 Y77.224 E.0179
G1 X91.218 Y76.91 E.02314
G1 X91.787 Y76.801 E.02039
G1 X92.028 Y76.809 E.00848
G1 X92.094 Y76.8
G1 E-.5
G1 Z.4 F21000
G1 X94.63 Y77.737
G1 Z.2
G1 E.5 F1800
;TYPE:Inner wall
;WIDTH:0.358644
G1 F3000
G1 X94.571 Y77.771 E.00166
G1 X94.63 Y77.805 E.00166
G1 X94.65 Y77.771 E.00096
G1 E-.5
G1 Z.4 F21000
G1 X94.626 Y79.982
G1 Z.2
G1 E.5 F1800
;WIDTH:0.36851
G1 F3000
G1 X94.565 Y80.017 E.00177
G1 X94.626 Y80.052 E.00177
G1 X94.646 Y80.017 E.00102
G1 E-.5
G1 Z.4 F21000
G1 X93.025 Y81.572
G1 Z.2
G1 E.5 F1800
;WIDTH:0.365868
G1 F3000
G1 X92.964 Y81.607 E.00174
G1 X93.025 Y81.642 E.00174
G1 X93.045 Y81.607 E.001
G1 E-.5
G1 Z.4 F21000
G1 X93.961 Y79.645
G1 X94.013 Y79.343
G1 X94.037 Y79.043
G1 X94.037 Y78.749
G1 X94.012 Y78.443
G1 X93.961 Y78.147
G1 X93.825 Y77.873
G1 X93.637 Y77.627
G1 X93.44 Y77.408
G1 X93.222 Y77.202
G1 X81.04 Y47.015
G1 X81.11 Y46.659
G1 X81.133 Y46.296
G1 X81.11 Y45.933
G1 X81.04 Y45.576
G1 X80.926 Y45.231
G1 X80.768 Y44.904
G1 X80.57 Y44.599
G1 X79.051 Y42.524
G1 Z.2
G1 E.5 F1800
;WIDTH:0.499999
G1 F3000
G1 X79.671 Y42.685 E.02254
G1 X80.045 Y42.851 E.0144
G1 X80.542 Y43.152 E.02045
G1 X80.861 Y43.407 E.0144
G1 X81.266 Y43.824 E.02045
G1 X81.51 Y44.152 E.0144
G1 X81.795 Y44.658 E.02045
G1 X81.949 Y45.038 E.0144
G1 X82.096 Y45.6 E.02045
G1 X82.149 Y46.005 E.0144
G1 X82.149 Y46.587 E.02049
G1 X82.096 Y46.992 E.01436
G1 X81.949 Y47.554 E.02045
G1 X81.795 Y47.933 E.0144
G1 X81.51 Y48.44 E.02045
G1 X81.266 Y48.767 E.0144
G1 X80.861 Y49.185 E.02045
G1 X80.514 Y49.457 E.01552
G1 X80.045 Y49.741 E.01931
G1 X79.552 Y49.942 E.01874
G1 X78.92 Y50.117 E.02307
G1 X78.129 Y50.156 E.02788
G1 X77.722 Y50.117 E.0144
G1 X77.155 Y49.987 E.02045
G1 X76.771 Y49.846 E.0144
G1 X76.256 Y49.577 E.02045
G1 X75.921 Y49.343 E.0144
G1 X75.491 Y48.953 E.02045
G1 X75.225 Y48.641 E.0144
G1 X74.908 Y48.154 E.02045
G1 X74.731 Y47.787 E.01436
G1 X74.549 Y47.241 E.02025
G1 X74.463 Y46.71 E.01892
G1 X74.429 Y46.154 E.01962
G1 X74.57 Y45.274 E.03134
G1 X74.698 Y44.887 E.01437
G1 X74.947 Y44.368 E.02025
G1 X75.169 Y44.027 E.01433
G1 X75.549 Y43.579 E.02064
G1 X75.853 Y43.302 E.0145
G1 X76.33 Y42.97 E.02045
G1 X76.693 Y42.78 E.0144
G1 X77.238 Y42.58 E.02045
G1 X77.636 Y42.489 E.01437
G1 X78.208 Y42.433 E.02025
G1 X78.808 Y42.46 E.02112
G1 X78.993 Y42.509 E.00672
G1 X78.946 Y42.964 F21000
G1 F3000
G1 X79.541 Y43.123 E.02166
G1 X80.305 Y43.543 E.03068
G1 X80.937 Y44.142 E.03068
G1 X81.112 Y44.376 E.01028
G1 X81.397 Y44.883 E.02045
G1 X81.507 Y45.153 E.01029
G1 X81.654 Y45.715 E.02045
G1 X81.692 Y46.005 E.01029
G1 X81.692 Y46.587 E.02048
G1 X81.654 Y46.876 E.01026
G1 X81.507 Y47.438 E.02045
G1 X81.241 Y47.986 E.02144
G1 X80.956 Y48.43 E.01857
G1 X80.533 Y48.867 E.02138
G1 X80.277 Y49.066 E.01141
G1 X79.808 Y49.35 E.01931
G1 X79.422 Y49.504 E.01462
G1 X78.845 Y49.666 E.02107
G1 X78.114 Y49.699 E.02575
G1 X77.823 Y49.671 E.01029
G1 X77.257 Y49.542 E.02045
G1 X76.468 Y49.172 E.03068
G1 X76.228 Y49.005 E.01029
G1 X75.798 Y48.614 E.02045
G1 X75.608 Y48.392 E.01029
G1 X75.291 Y47.905 E.02045
G1 X75.165 Y47.642 E.01026
G1 X74.983 Y47.096 E.02025
G1 X74.919 Y46.68 E.01483
G1 X74.886 Y46.153 E.01859
G1 X75.018 Y45.362 E.02822
G1 X75.11 Y45.085 E.01026
G1 X75.359 Y44.566 E.02025
G1 X75.518 Y44.322 E.01024
G1 X75.897 Y43.875 E.02064
G1 X76.115 Y43.677 E.01036
G1 X76.591 Y43.345 E.02045
G1 X77.396 Y43.009 E.03068
G1 X77.68 Y42.944 E.01026
G1 X78.253 Y42.888 E.02025
G1 X78.765 Y42.916 E.01807
G1 X78.888 Y42.948 E.00447
G1 X78.773 Y43.388 F21000
G1 F3000
G1 X78.853 Y43.396 E.00283
G1 X79.41 Y43.561 E.02045
G1 X80.068 Y43.933 E.02658
G1 X80.609 Y44.46 E.02658
G1 X80.999 Y45.107 E.02658
G1 X81.212 Y45.831 E.02658
G1 X81.235 Y46.586 E.02658
G1 X81.065 Y47.322 E.02658
G1 X80.714 Y47.991 E.02658
G1 X80.205 Y48.549 E.02658
G1 X79.571 Y48.959 E.02657
G1 X79.292 Y49.066 E.01051
G1 X78.771 Y49.215 E.01908
G1 X78.1 Y49.242 E.02363
G1 X77.359 Y49.096 E.02658
G1 X76.679 Y48.767 E.02658
G1 X76.105 Y48.276 E.02658
G1 X75.674 Y47.656 E.02658
G1 X75.417 Y46.952 E.02637
G1 X75.345 Y46.195 E.02675
G1 X75.467 Y45.449 E.02662
G1 X75.771 Y44.764 E.02637
G1 X76.246 Y44.171 E.02675
G1 X76.853 Y43.719 E.02662
G1 X77.554 Y43.438 E.02658
G1 X78.297 Y43.343 E.02637
G1 X78.714 Y43.383 E.01474
G1 X78.709 Y43.833 F21000
;TYPE:Outer wall
G1 F3000
G1 X78.723 Y43.834 E.00052
G1 X79.28 Y43.999 E.02045
G1 X79.831 Y44.324 E.02249
G1 X80.281 Y44.778 E.02249
G1 X80.601 Y45.331 E.02249
G1 X80.77 Y45.947 E.02249
G1 X80.777 Y46.586 E.02249
G1 X80.623 Y47.206 E.02249
G1 X80.316 Y47.767 E.02249
G1 X79.876 Y48.231 E.02249
G1 X79.334 Y48.568 E.02248
G1 X79.162 Y48.627 E.00641
G1 X78.666 Y48.767 E.01813
