; HEADER_BLOCK_START
; generated by OrcaSlicer 1.6.2 on 2023-05-22 at 15:27:46
; total layer number: 77
; HEADER_BLOCK_END

; THUMBNAIL_BLOCK_START
; THUMBNAIL_BLOCK_END

; external perimeters extrusion width = 0.40mm
; perimeters extrusion width = 0.45mm
; infill extrusion width = 0.45mm
; solid infill extrusion width = 0.40mm
; top infill extrusion width = 0.40mm
; first layer extrusion width = 0.50mm

; EXECUTABLE_BLOCK_START
EXCLUDE_OBJECT_DEFINE NAME=Front_Idlers_Mount_Left_TOP.stl_id_0_copy_0 CENTER=60,60 POLYGON=[[23.2958,41.7958],[23.4004,41.6913],[23.5029,41.5887],[28.7958,36.2958],[93.8875,36.2958],[96.7042,39.1125],[96.7042,78.2042],[96.4971,78.4113],[91.4113,83.4971],[91.2042,83.7042],[48.7958,83.7042],[23.2958,63.7042],[23.2958,41.7958]]
M73 P0 R36
;TYPE:Custom
START_PRINT T_BED=110 T_EXTRUDER=260
G90
G21
M83 ; use relative distances for extrusion
; Filament gcode

    PRESSURE_ADVANCE_SELECT FILAMENT=ABS
M106 S0
;LAYER_CHANGE
;Z:0.2
;HEIGHT:0.2
;BEFORE_LAYER_CHANGE
;0.2
G92 E0

;AFTER_LAYER_CHANGE
;0.2
M204 S1000
G1 E-.5 F3000
G1 Z.2 F21000
G1 X27 Y35.248
G1 E.5 F1800
;TYPE:Skirt
;WIDTH:0.5
G1 F3000
G1 X27.563 Y34.819 E.0249
G1 X28.237 Y34.495 E.02633
G1 X28.906 Y34.325 E.0243
G1 X29.462 Y34.282 E.0196
G1 X93.358 Y34.285 E2.24877
G1 X94.471 Y34.504 E.03992
G1 X95.121 Y34.819 E.02542
G1 X95.684 Y35.248 E.0249
G1 X98.02 Y37.641 E.1177
G1 X98.505 Y38.554 E.03639
G1 X98.685 Y39.292 E.02674
G1 X98.715 Y77.675 E1.35085
G1 X98.496 Y78.788 E.03992
G1 X98.213 Y79.384 E.02323
G1 X97.8 Y79.948 E.0246
G1 X93 Y84.752 E.23898
G1 X92.416 Y85.194 E.02578
G1 X91.787 Y85.497 E.02456
G1 X91.094 Y85.675 E.02521
G1 X90.538 Y85.718 E.0196
G1 X49.462 Y85.718 E1.44566
G1 X48.271 Y85.517 E.04248
G1 X47.649 Y85.232 E.02409
G1 X47.175 Y84.906 E.02025
G1 X22.592 Y64.916 E1.11513
G1 X21.983 Y64.276 E.03109
G1 X21.571 Y63.552 E.02931
G1 X21.361 Y62.874 E.02496
G1 X21.282 Y62.097 E.0275
G1 X21.282 Y42.462 E.69105
G1 X21.386 Y41.599 E.03056
G1 X21.768 Y40.649 E.03606
G1 X22.342 Y39.901 E.03318
G1 X26.957 Y35.29 E.22959
G1 X27.28 Y35.613 F21000
G1 F3000
G1 X27.308 Y35.586 E.00136
G1 X27.799 Y35.21 E.02177
G1 X28.387 Y34.927 E.02296
G1 X29.462 Y34.739 E.0384
G1 X93.337 Y34.741 E2.24802
G1 X94.318 Y34.934 E.03518
G1 X94.884 Y35.211 E.02219
G1 X95.376 Y35.586 E.02177
G1 X97.612 Y37.859 E.11222
G1 X97.971 Y38.454 E.02445
G1 X98.233 Y39.357 E.0331
G1 X98.259 Y77.654 E1.3478
G1 X98.066 Y78.635 E.03518
G1 X97.822 Y79.148 E.02001
G1 X97.462 Y79.64 E.02147
G1 X92.693 Y84.414 E.23748
G1 X92.183 Y84.8 E.02251
G1 X91.634 Y85.066 E.02146
G1 X90.538 Y85.261 E.03916
G1 X49.462 Y85.261 E1.44566
G1 X48.425 Y85.087 E.03701
G1 X47.464 Y84.551 E.03872
G1 X22.88 Y64.561 E1.11513
G1 X22.353 Y64.008 E.02687
G1 X21.991 Y63.369 E.02585
G1 X21.808 Y62.777 E.02183
G1 X21.739 Y62.097 E.02404
G1 X21.739 Y42.462 E.69105
G1 X21.829 Y41.713 E.02654
G1 X22.161 Y40.882 E.0315
G1 X22.666 Y40.224 E.02917
G1 X27.238 Y35.656 E.22747
; printing object Front Idlers Mount Left TOP.stl id:0 copy 0
EXCLUDE_OBJECT_START NAME=Front_Idlers_Mount_Left_TOP.stl_id_0_copy_0
G1 E-.5
G1 Z.4 F21000
G1 X63.452 Y69.547
G1 Z.2
G1 E.5 F1800
;TYPE:Inner wall
;WIDTH:0.499999
G1 F3000
G1 X63.212 Y69.521 E.0085
G1 X62.775 Y69.334 E.01674
G1 X62.061 Y68.709 E.03338
G1 X54.935 Y62.036 E.34359
G1 X54.684 Y61.734 E.0138
G1 X54.505 Y61.354 E.0148
G1 X54.431 Y60.94 E.01482
G1 X54.456 Y60.575 E.01286
G1 X54.646 Y60.026 E.02045
G1 X54.896 Y59.649 E.01592
G1 X55.271 Y59.34 E.0171
G1 X55.519 Y59.22 E.00968
G1 X55.891 Y59.127 E.01351
G1 X59.213 Y59.118 E.11693
G1 X59.762 Y59.179 E.01943
G1 X60.37 Y59.387 E.02259
G1 X60.769 Y59.243 E.01493
G1 X61.255 Y59.171 E.0173
G1 X60.783 Y58.889 E.01934
G1 X60.125 Y58.371 E.02948
G1 X59.364 Y57.56 E.03913
G1 X58.754 Y56.63 E.03913
G1 X58.365 Y55.737 E.03429
G1 X58.231 Y55.347 E.01451
G1 X58.052 Y54.529 E.02948
G1 X57.981 Y53.42 E.03913
G1 X58.1 Y52.314 E.03913
G1 X58.408 Y51.246 E.03913
G1 X58.893 Y50.246 E.03913
G1 X59.543 Y49.343 E.03912
G1 X60.338 Y48.566 E.03913
G1 X61.243 Y47.943 E.03868
G1 X62.262 Y47.474 E.03948
G1 X63.34 Y47.189 E.03923
G1 X64.435 Y47.094 E.03868
G1 X65.069 Y47.12 E.02232
G1 X66.099 Y47.308 E.03687
G1 X67.146 Y47.684 E.03913
G1 X68.112 Y48.233 E.03913
G1 X68.711 Y48.716 E.02707
G1 X69.118 Y49.084 E.01933
G1 X69.695 Y49.783 E.03188
G1 X70.265 Y50.738 E.03913
G1 X70.662 Y51.776 E.03913
G1 X70.783 Y52.335 E.02012
;WIDTH:0.53654
G1 X70.894 Y52.864 E.02056
;WIDTH:0.571622
G1 X70.919 Y52.957 E.0039
;WIDTH:0.606703
G1 X70.945 Y53.049 E.00416
;WIDTH:0.641784
G1 X70.97 Y53.142 E.00442
;WIDTH:0.64883
G1 X70.974 Y53.979 E.03908
G1 X70.939 Y54.264 E.0134
;WIDTH:0.628969
G1 X70.902 Y54.359 E.0046
;WIDTH:0.587847
G1 X70.865 Y54.454 E.00427
;WIDTH:0.546725
G1 X70.827 Y54.548 E.00395
;WIDTH:0.505603
G1 X70.732 Y55.078 E.01918
;WIDTH:0.499999
G1 X70.379 Y56.133 E.03913
G1 X70.096 Y56.68 E.02169
G1 X69.695 Y57.338 E.0271
G1 X69.163 Y57.984 E.02947
G1 X68.336 Y58.727 E.03914
G1 X67.717 Y59.122 E.02584
;WIDTH:0.497209
G1 X67.547 Y59.206 E.00662
;WIDTH:0.468249
G1 X67.378 Y59.291 E.0062
G1 X67.556 Y59.231 E.00615
;WIDTH:0.497209
G1 X67.734 Y59.171 E.00657
;WIDTH:0.499999
G1 X68.283 Y59.112 E.01945
G1 X71.159 Y59.115 E.10123
G1 X71.665 Y59.197 E.01801
G1 X72.074 Y59.403 E.01611
G1 X72.452 Y59.774 E.01864
G1 X72.591 Y60.016 E.00982
G1 X73.021 Y59.541 E.02255
G1 X73.371 Y59.296 E.01502
G1 X73.625 Y59.191 E.00968
G1 X74.359 Y59.11 E.02598
G1 X74.782 Y59.105 E.01491
G1 X74.206 Y58.711 E.02456
G1 X73.774 Y58.371 E.01935
G1 X73.014 Y57.56 E.03913
G1 X72.533 Y56.837 E.03056
G1 X72.279 Y56.386 E.01823
G1 X71.962 Y55.61 E.02948
G1 X71.817 Y55.055 E.02019
;WIDTH:0.505603
G1 X71.699 Y54.53 E.01918
;WIDTH:0.544924
G1 X71.67 Y54.454 E.00315
;WIDTH:0.584245
G1 X71.641 Y54.377 E.00339
;WIDTH:0.623566
G1 X71.613 Y54.301 E.00364
;WIDTH:0.662887
G1 X71.584 Y54.225 E.00389
G1 X71.562 Y53.423 E.03833
;WIDTH:0.64468
G1 X71.571 Y53.135 E.01331
G1 X71.601 Y53.04 E.00466
;WIDTH:0.608634
G1 X71.632 Y52.944 E.00438
;WIDTH:0.572587
G1 X71.662 Y52.848 E.0041
;WIDTH:0.53654
G1 X71.75 Y52.314 E.02056
;WIDTH:0.499999
G1 X72.057 Y51.246 E.03913
G1 X72.313 Y50.694 E.0214
G1 X72.543 Y50.245 E.01773
G1 X72.914 Y49.714 E.02282
G1 X73.284 Y49.233 E.02137
G1 X73.697 Y48.838 E.0201
G1 X74.204 Y48.396 E.02366
G1 X74.904 Y47.936 E.02947
G1 X75.915 Y47.472 E.03914
G1 X76.99 Y47.189 E.03913
G1 X78.085 Y47.094 E.03868
G1 X78.718 Y47.12 E.02232
G1 X79.749 Y47.308 E.03687
G1 X80.795 Y47.684 E.03913
G1 X81.762 Y48.233 E.03913
G1 X82.62 Y48.94 E.03913
G1 X83.095 Y49.478 E.02525
G1 X83.492 Y49.998 E.02302
G1 X83.913 Y50.736 E.02989
G1 X84.312 Y51.776 E.03923
G1 X84.526 Y52.868 E.03913
G1 X84.549 Y53.979 E.03913
G1 X84.382 Y55.078 E.03913
G1 X84.029 Y56.133 E.03913
G1 X83.501 Y57.111 E.03913
G1 X82.878 Y57.905 E.03551
G1 X82.62 Y58.181 E.01329
G1 X81.985 Y58.727 E.02948
G1 X81.043 Y59.317 E.03913
G1 X79.934 Y59.764 E.04209
G1 X78.927 Y59.974 E.0362
G1 X77.816 Y60.021 E.03913
G1 X76.633 Y59.886 E.04191
G1 X76.844 Y60.13 E.01136
G1 X77.109 Y60.558 E.01772
G1 X77.246 Y60.888 E.01258
G1 X77.362 Y61.4 E.01848
G1 X77.337 Y62.189 E.02776
G1 X77.156 Y62.742 E.02047
G1 X76.881 Y63.188 E.01845
G1 X76.533 Y63.609 E.01923
G1 X68.617 Y70.954 E.38006
G1 X68.256 Y71.31 E.01782
G1 X67.942 Y71.549 E.0139
G1 X67.43 Y71.805 E.02012
G1 X66.834 Y71.919 E.02137
G1 X66.455 Y71.934 E.01335
G1 X65.796 Y71.799 E.0237
G1 X65.189 Y71.511 E.02364
G1 X64.883 Y71.312 E.01283
G1 X64.396 Y70.908 E.02228
G1 X63.801 Y70.267 E.03079
G1 X63.6 Y69.984 E.01223
G1 X63.505 Y69.782 E.00784
G1 X63.465 Y69.605 E.00639
G1 X63.896 Y69.147 F21000
G1 F3000
G1 X63.939 Y69.001 E.00536
G1 X63.669 Y69.115 E.01032
G1 X63.177 Y69.028 E.01757
G1 X62.825 Y68.798 E.01482
G1 X55.248 Y61.702 E.36533
G1 X54.997 Y61.358 E.015
G1 X54.902 Y61.058 E.01107
G1 X54.906 Y60.659 E.01404
G1 X55.091 Y60.159 E.01875
G1 X55.349 Y59.844 E.01433
G1 X55.682 Y59.647 E.01362
G1 X56.091 Y59.571 E.01465
G1 X59.213 Y59.576 E.10986
G1 X59.682 Y59.629 E.01662
G1 X60.415 Y59.891 E.02741
G1 X60.752 Y59.725 E.0132
G1 X61.158 Y59.635 E.01465
G1 X61.698 Y59.604 E.01901
;WIDTH:0.539567
G1 X62.302 Y59.581 E.02313
;WIDTH:0.579134
G1 X62.906 Y59.558 E.02497
;WIDTH:0.625104
G1 X63.013 Y59.534 E.00489
;WIDTH:0.671074
G1 X63.12 Y59.51 E.00528
G1 X62.876 Y59.411 E.0127
;WIDTH:0.628306
G1 X62.633 Y59.312 E.01183
;WIDTH:0.585537
G1 X62.39 Y59.213 E.01097
;WIDTH:0.542768
G1 X62.147 Y59.114 E.0101
;WIDTH:0.499999
G1 X61.362 Y58.71 E.03108
G1 X60.863 Y58.371 E.02124
G1 X60.407 Y58.012 E.0204
G1 X59.705 Y57.255 E.03637
G1 X59.142 Y56.388 E.03637
G1 X58.788 Y55.565 E.03153
G1 X58.678 Y55.25 E.01174
G1 X58.499 Y54.432 E.02948
G1 X58.437 Y53.4 E.03637
G1 X58.554 Y52.373 E.03637
G1 X58.844 Y51.381 E.03637
G1 X59.3 Y50.454 E.03637
G1 X59.908 Y49.618 E.03637
G1 X60.651 Y48.899 E.03638
G1 X61.495 Y48.325 E.03593
G1 X62.445 Y47.893 E.03674
G1 X63.447 Y47.633 E.03644
G1 X64.465 Y47.55 E.03593
G1 X65.04 Y47.576 E.02027
G1 X66.011 Y47.757 E.03476
G1 X66.982 Y48.111 E.03637
G1 X67.878 Y48.626 E.03637
G1 X68.413 Y49.063 E.02431
G1 X68.81 Y49.427 E.01896
G1 X69.342 Y50.073 E.02948
G1 X69.867 Y50.964 E.03637
G1 X70.232 Y51.931 E.03637
G1 X70.426 Y52.946 E.03637
G1 X70.442 Y53.979 E.03637
G1 X70.282 Y55 E.03637
G1 X69.949 Y55.978 E.03637
G1 X69.698 Y56.454 E.01893
G1 X69.342 Y57.047 E.02434
G1 X68.81 Y57.694 E.02947
G1 X68.038 Y58.38 E.03638
G1 X67.483 Y58.731 E.02309
G1 X66.982 Y59.01 E.02019
G1 X66.2 Y59.31 E.02948
;WIDTH:0.529552
G1 X65.364 Y59.506 E.03217
;WIDTH:0.559786
G1 X65.197 Y59.573 E.00718
G1 X65.47 Y59.626 E.01107
;WIDTH:0.529893
G1 X65.743 Y59.678 E.01043
;WIDTH:0.499999
G1 X66.152 Y59.852 E.01563
G1 X66.413 Y60.067 E.01191
G1 X66.586 Y60.35 E.01167
G1 X67.072 Y59.919 E.02286
G1 X67.53 Y59.689 E.01804
G1 X68.134 Y59.578 E.02159
G1 X71.159 Y59.572 E.10647
G1 X71.52 Y59.631 E.01287
G1 X71.812 Y59.778 E.01151
G1 X72.082 Y60.043 E.01332
G1 X72.309 Y60.527 E.01883
G1 X72.236 Y60.947 E.01502
G1 X72.603 Y60.605 E.01767
G1 X72.996 Y60.272 E.01813
G1 X73.332 Y59.877 E.01825
G1 X73.665 Y59.662 E.01396
G1 X74.081 Y59.574 E.01497
G1 X74.733 Y59.559 E.02295
;WIDTH:0.527458
G1 X74.992 Y59.573 E.00969
;WIDTH:0.554917
G1 X75.252 Y59.587 E.01023
;WIDTH:0.598209
G1 X75.392 Y59.592 E.00601
G1 X75.681 Y59.714 E.01338
;WIDTH:0.589667
G1 X75.932 Y59.897 E.01311
;WIDTH:0.544833
G1 X76.184 Y60.08 E.01204
;WIDTH:0.499999
G1 X76.498 Y60.429 E.01651
G1 X76.688 Y60.737 E.01272
G1 X76.823 Y61.061 E.01236
G1 X76.907 Y61.471 E.01473
G1 X76.89 Y62.094 E.02194
G1 X76.697 Y62.646 E.02058
G1 X76.36 Y63.121 E.0205
G1 X75.428 Y64.011 E.04536
G1 X68.301 Y70.624 E.34214
G1 X67.936 Y70.983 E.01805
G1 X67.517 Y71.268 E.01781
G1 X67.122 Y71.41 E.01479
G1 X66.581 Y71.482 E.0192
G1 X65.944 Y71.367 E.02276
G1 X65.393 Y71.103 E.02152
G1 X64.688 Y70.556 E.0314
G1 X64.143 Y69.963 E.02835
G1 X63.931 Y69.617 E.01428
G1 X63.857 Y69.283 E.01206
G1 X63.879 Y69.205 E.00284
G1 X64.331 Y69.185 F21000
;WIDTH:0.513463
G1 F3000
G1 X64.443 Y68.787 E.01496
;WIDTH:0.523659
G1 X65.106 Y68.194 E.03291
;WIDTH:0.530247
G1 X66.291 Y67.081 E.06103
;WIDTH:0.534416
G1 X66.904 Y66.536 E.03103
G1 X72.033 Y61.74 E.26574
;WIDTH:0.540985
G1 X72.915 Y60.938 E.0457
;WIDTH:0.499999
G1 X73.386 Y60.542 E.02168
G1 X73.642 Y60.213 E.01467
G1 X73.901 Y60.062 E.01053
G1 X74.668 Y60.018 E.02705
G1 X75.187 Y60.067 E.01835
G1 X75.433 Y60.15 E.00915
G1 X75.879 Y60.421 E.01837
G1 X76.152 Y60.728 E.01445
G1 X76.398 Y61.228 E.0196
G1 X76.45 Y61.479 E.00903
G1 X76.442 Y61.999 E.01831
G1 X76.259 Y62.49 E.01845
G1 X75.926 Y62.925 E.01927
G1 X67.985 Y70.293 E.38125
G1 X67.615 Y70.657 E.01827
G1 X67.245 Y70.896 E.01551
G1 X66.689 Y71.016 E.02
G1 X66.447 Y71.012 E.00854
G1 X66.01 Y70.9 E.01586
G1 X65.53 Y70.655 E.01898
G1 X64.979 Y70.204 E.02503
G1 X64.484 Y69.66 E.02592
G1 X64.357 Y69.452 E.00857
G1 X64.313 Y69.251 E.00724
;WIDTH:0.513463
G1 X64.315 Y69.243 E.00032
G1 X64.769 Y69.22 F21000
;TYPE:Outer wall
;WIDTH:0.499999
G1 F3000
G1 X64.84 Y69.037 E.00691
G1 X65.108 Y68.851 E.01148
G1 X66.617 Y67.417 E.07324
G1 X67.228 Y66.882 E.02858
G1 X73.227 Y61.272 E.28906
M73 P0 R35
G1 X73.723 Y60.856 E.02278
G1 X74.002 Y60.513 E.01556
G1 X74.678 Y60.474 E.02384
G1 X75.189 Y60.538 E.01812
G1 X75.595 Y60.783 E.01669
G1 X75.806 Y61.027 E.01136
G1 X75.993 Y61.488 E.0175
G1 X75.988 Y61.931 E.0156
G1 X75.865 Y62.257 E.01226
G1 X75.498 Y62.7 E.02025
G1 X67.67 Y69.963 E.37582
G1 X67.295 Y70.331 E.01849
G1 X66.977 Y70.507 E.0128
G1 X66.536 Y70.564 E.01564
G1 X66.215 Y70.491 E.0116
G1 X65.768 Y70.264 E.01764
G1 X65.271 Y69.853 E.02269
G1 X64.826 Y69.356 E.02348
G1 X64.792 Y69.275 E.00309
G1 X64.735 Y69.199
G1 E-.5
G1 Z.4 F21000
G1 X64.717 Y69.319
G1 X65.275 Y66.771
G1 X66.216 Y65.902
G1 X66.565 Y65.578
G1 X71.528 Y60.938
G1 X71.337 Y60.453
G1 X70.734 Y60.149
G1 X66.651 Y59.64
G1 Z.2
G1 E.5 F1800
;TYPE:Inner wall
;WIDTH:0.526156
G1 F3000
G1 X66.893 Y59.524 E.00998
;WIDTH:0.481077
G1 X67.134 Y59.407 E.00905
;WIDTH:0.439288
G1 X67.378 Y59.291 E.00823
G1 E-.5
G1 Z.4 F21000
G1 X67.684 Y58.068
G1 Z.2
G1 E.5 F1800
;WIDTH:0.499999
G1 F3000
G1 X67.249 Y58.338 E.01803
G1 X66.819 Y58.583 E.01743
G1 X66.036 Y58.883 E.02948
G1 X64.984 Y59.089 E.03774
G1 X64.147 Y59.107 E.02948
G1 X63.086 Y58.946 E.03774
G1 X62.292 Y58.681 E.02948
G1 X61.579 Y58.307 E.02832
G1 X61.146 Y58.012 E.01847
G1 X60.69 Y57.653 E.0204
G1 X60.045 Y56.949 E.03361
G1 X59.529 Y56.145 E.03361
G1 X59.124 Y55.152 E.03774
G1 X58.945 Y54.334 E.02948
G1 X58.894 Y53.38 E.03361
G1 X59.007 Y52.432 E.03361
G1 X59.281 Y51.517 E.03361
G1 X59.707 Y50.662 E.03361
G1 X60.273 Y49.893 E.03361
G1 X60.963 Y49.233 E.03362
G1 X61.746 Y48.706 E.03318
G1 X62.627 Y48.312 E.034
G1 X63.554 Y48.077 E.03366
G1 X64.495 Y48.006 E.03318
G1 X65.012 Y48.033 E.01823
G1 X65.923 Y48.205 E.03265
G1 X66.819 Y48.537 E.03361
G1 X67.644 Y49.018 E.03361
G1 X68.457 Y49.717 E.03774
G1 X68.989 Y50.364 E.02948
G1 X69.47 Y51.189 E.03361
G1 X69.802 Y52.085 E.03361
G1 X69.975 Y53.024 E.03361
G1 X69.985 Y53.979 E.03361
G1 X69.832 Y54.922 E.03361
G1 X69.519 Y55.824 E.03361
G1 X68.989 Y56.757 E.03774
G1 X68.457 Y57.403 E.02947
G1 X67.74 Y58.034 E.03362
G1 X67.735 Y58.037 E.00019
G1 X67.429 Y57.695 F21000
;TYPE:Outer wall
G1 F3000
G1 X66.69 Y58.139 E.03035
G1 X65.816 Y58.471 E.0329
G1 X65.013 Y58.628 E.0288
G1 X64.137 Y58.65 E.03086
G1 X63.231 Y58.513 E.03223
G1 X62.437 Y58.247 E.02948
G1 X61.796 Y57.905 E.02556
G1 X61.299 Y57.551 E.02149
G1 X60.942 Y57.265 E.01608
G1 X60.385 Y56.644 E.02937
G1 X59.917 Y55.903 E.03086
G1 X59.634 Y55.219 E.02602
G1 X59.392 Y54.236 E.03564
G1 X59.351 Y53.361 E.03085
G1 X59.46 Y52.491 E.03086
G1 X59.717 Y51.652 E.03085
G1 X60.114 Y50.871 E.03085
G1 X60.639 Y50.168 E.03085
G1 X61.276 Y49.566 E.03086
G1 X61.997 Y49.088 E.03043
G1 X62.81 Y48.731 E.03126
G1 X63.662 Y48.522 E.03087
G1 X64.524 Y48.462 E.03043
G1 X65.013 Y48.493 E.01724
G1 X65.835 Y48.654 E.02948
G1 X66.655 Y48.964 E.03086
G1 X67.41 Y49.411 E.03086
G1 X68.104 Y50.008 E.03223
G1 X68.636 Y50.654 E.02948
G1 X69.072 Y51.415 E.03086
G1 X69.371 Y52.239 E.03086
G1 X69.525 Y53.102 E.03086
G1 X69.528 Y53.979 E.03086
G1 X69.381 Y54.843 E.03085
G1 X69.089 Y55.67 E.03086
G1 X68.636 Y56.466 E.03223
G1 X68.104 Y57.113 E.02947
G1 X67.476 Y57.657 E.02925
G1 X67.438 Y57.774
G1 E-.5
G1 Z.4 F21000
G1 X67.685 Y57.923
G1 X71.337 Y60.453
G1 X71.528 Y60.938
G1 X63.459 Y68.617
G1 Z.2
G1 E.5 F1800
;TYPE:Inner wall
G1 F3000
G1 X63.305 Y68.584 E.00556
G1 X62.686 Y68.042 E.02895
G1 X56.264 Y62.028 E.30964
G1 X55.56 Y61.368 E.03395
G1 X55.383 Y61.097 E.01143
G1 X55.345 Y60.818 E.0099
G1 X55.471 Y60.419 E.01471
G1 X55.661 Y60.179 E.01076
G1 X55.951 Y60.043 E.01128
G1 X59.212 Y60.033 E.11479
G1 X59.737 Y60.118 E.01872
G1 X60.13 Y60.285 E.01502
G1 X60.467 Y60.611 E.01649
G1 X60.537 Y60.402 E.00779
G1 X60.773 Y60.207 E.01075
G1 X61.186 Y60.091 E.01512
G1 X61.7 Y60.061 E.01811
G1 X64.549 Y60.045 E.10026
G1 X65.134 Y60.059 E.02061
G1 X65.584 Y60.107 E.0159
G1 X65.916 Y60.243 E.01265
G1 X66.072 Y60.372 E.00715
G1 X66.261 Y60.757 E.01507
G1 X66.178 Y61.341 E.02076
;WIDTH:0.481317
G1 X66.023 Y61.538 E.00846
;WIDTH:0.466411
