; HEADER_BLOCK_START
; generated by OrcaSlicer 1.6.4-beta2 on 2023-08-11 at 09:45:58
; total layer number: 113
; HEADER_BLOCK_END

; THUMBNAIL_BLOCK_START
; THUMBNAIL_BLOCK_END

; external perimeters extrusion width = 0.40mm
; perimeters extrusion width = 0.46mm
; infill extrusion width = 0.64mm
; solid infill extrusion width = 0.56mm
; top infill extrusion width = 0.40mm
; support material extrusion width = 0.46mm
; first layer extrusion width = 0.50mm

; EXECUTABLE_BLOCK_START
EXCLUDE_OBJECT_DEFINE NAME=Front_round_standoff.stl_id_0_copy_0 CENTER=60.0002,60 POLYGON=[[32.5002,62.025],[32.5083,61.656],[32.5116,61.5879],[32.5327,61.2874],[32.5459,61.1519],[32.5737,60.9193],[32.603,60.7184],[32.6312,60.5517],[32.6827,60.2884],[32.7047,60.1884],[32.7849,59.8632],[32.7936,59.831],[32.8976,59.4799],[32.9091,59.4439],[33.0161,59.1357],[33.0551,59.0317],[33.1487,58.7987],[33.2225,58.6277],[33.2951,58.4694],[33.4108,58.2331],[33.4546,58.1483],[33.6195,57.8488],[33.627,57.8359],[33.8137,57.5294],[33.8481,57.476],[34.016,57.2274],[34.0958,57.1156],[34.2342,56.9306],[34.3621,56.7688],[34.4684,56.6401],[34.6462,56.4363],[34.7187,56.3567],[34.9473,56.1192],[34.9853,56.0813],[35.2646,55.8183],[35.2683,55.8148],[35.5679,55.5581],[35.5972,55.5343],[35.8827,55.3133],[35.9442,55.2682],[36.2092,55.0835],[36.3046,55.0207],[36.5468,54.8693],[36.6776,54.7923],[36.895,54.6711],[37.0619,54.5838],[37.2532,54.4894],[37.4567,54.3957],[37.6211,54.3246],[37.8608,54.2285],[37.998,54.1772],[38.273,54.0827],[38.3834,54.0477],[38.6924,53.9586],[38.7756,53.9368],[39.1176,53.8567],[39.1731,53.8452],[39.5476,53.7772],[39.5752,53.7729],[43.1983,53.225],[43.3775,53.2001],[43.7783,53.1493],[44.044,53.1191],[44.3621,53.0869],[44.7125,53.0561],[44.9487,53.0382],[45.3824,53.0111],[45.5378,53.0032],[46.0533,52.984],[46.1298,52.9821],[46.7247,52.975],[74.3227,52.975],[74.6949,52.9778],[75.0656,52.986],[75.0928,52.9869],[75.8032,53.0189],[75.8621,53.0224],[76.5367,53.0732],[76.63,53.0817],[77.2649,53.1487],[77.3957,53.1646],[77.6288,53.1946],[77.9931,53.2459],[78.1585,53.271],[78.3572,53.3027],[78.7212,53.365],[78.9176,53.4009],[79.0872,53.4332],[79.4554,53.5076],[79.6724,53.5541],[79.8256,53.5882],[80.1972,53.675],[80.422,53.7305],[80.6421,53.7869],[81.0747,53.904],[81.166,53.9298],[81.4951,54.0259],[81.9034,54.152],[82.2631,54.2882],[82.3166,54.3101],[82.6143,54.4399],[82.7209,54.4897],[82.9564,54.6064],[83.1152,54.6904],[83.2895,54.7877],[83.4983,54.9116],[83.6138,54.9837],[83.8692,55.1528],[83.9289,55.1941],[84.2269,55.4131],[84.2343,55.4186],[84.5295,55.657],[84.5704,55.692],[84.8141,55.909],[84.8986,55.9886],[85.0876,56.1742],[85.2108,56.3021],[85.3495,56.4524],[85.506,56.6316],[85.5993,56.7434],[85.7834,56.9762],[85.8362,57.0461],[86.0423,57.335],[86.0568,57.356],[86.2608,57.6719],[86.2819,57.7069],[86.4485,57.9931],[86.5015,58.091],[86.6201,58.3191],[86.7005,58.4861],[86.7758,58.6492],[86.8785,58.8912],[86.9157,58.9829],[87.0348,59.305],[87.0402,59.3196],[87.1492,59.6587],[87.169,59.7266],[87.2432,59.9995],[87.2809,60.1546],[87.3222,60.3414],[87.3562,60.5127],[87.37,60.588],[87.3858,60.6796],[87.4108,60.8387],[87.4316,60.9891],[87.4361,61.0254],[87.4486,61.1299],[87.4622,61.2605],[87.4728,61.3798],[87.4809,61.4872],[87.4868,61.5817],[87.4909,61.6626],[87.4937,61.7291],[87.4955,61.7804],[87.4968,61.8203],[87.4976,61.8513],[87.4981,61.8745],[87.4985,61.8914],[87.4986,61.8978],[87.4987,61.903],[87.4988,61.9074],[87.4988,61.9077],[87.5002,62.025],[87.4985,62.1544],[87.4972,62.1976],[87.488,62.3738],[87.486,62.4008],[87.4734,62.5419],[87.4614,62.6463],[87.4515,62.7209],[87.4259,62.8838],[87.4247,62.8902],[87.3909,63.0646],[87.376,63.1321],[87.3549,63.2216],[87.3155,63.3713],[87.3065,63.4032],[87.2607,63.5537],[87.2432,63.6071],[87.1986,63.7351],[87.1594,63.8392],[87.1439,63.8785],[87.0679,64.0587],[87.0643,64.0668],[87.005,64.1944],[86.958,64.2894],[86.9149,64.3724],[86.8446,64.5],[86.8409,64.5066],[86.7404,64.6746],[86.7132,64.7176],[86.6635,64.7939],[86.5752,64.9222],[86.5452,64.9639],[86.4625,65.0745],[86.4274,65.1197],[86.3304,65.2389],[86.27,65.3096],[86.2427,65.3406],[86.1033,65.4916],[86.0969,65.4983],[86.005,65.5909],[85.928,65.6651],[85.8458,65.7407],[85.7507,65.8242],[85.7442,65.8297],[85.5785,65.9651],[85.5526,65.9851],[85.4808,66.0394],[85.3536,66.1308],[85.2961,66.1702],[85.1968,66.2355],[85.1476,66.2666],[85.0002,66.3551],[84.9351,66.392],[84.8998,66.4115],[84.7168,66.5068],[84.692,66.519],[84.5915,66.5666],[84.493,66.6107],[84.3732,66.6609],[84.2732,66.7001],[84.2644,66.7034],[84.0452,66.7803],[84.0315,66.7847],[83.9464,66.8113],[83.7948,66.8545],[83.7098,66.8765],[83.6128,66.8996],[83.555,66.9125],[83.3684,66.949],[83.3127,66.9585],[83.2738,66.9648],[83.0683,66.9926],[83.0228,66.9976],[82.9312,67.0064],[82.8226,67.0146],[82.6747,67.022],[82.5865,67.0243],[82.5761,67.0244],[37.5002,67.025],[37.3257,67.022],[37.1589,67.0133],[36.9775,66.9976],[36.8193,66.9784],[36.6319,66.949],[36.4829,66.9204],[36.2905,66.8765],[36.1512,66.8396],[35.9551,66.7803],[35.8258,66.7363],[35.6271,66.6609],[35.5082,66.6111],[35.3083,66.519],[35.1998,66.4644],[35.0002,66.3551],[34.9022,66.2971],[34.7042,66.1702],[34.6168,66.1098],[34.4218,65.9651],[34.3447,65.9036],[34.1545,65.7407],[34.0874,65.6792],[33.9035,65.4983],[33.846,65.4378],[33.6699,65.2389],[33.6216,65.1804],[33.4551,64.9639],[33.4153,64.9084],[33.2599,64.6746],[33.2281,64.6229],[33.0854,64.3724],[33.0607,64.3253],[32.9324,64.0587],[32.9141,64.017],[32.8017,63.7351],[32.7889,63.6994],[32.6938,63.4032],[32.6856,63.374],[32.6094,63.0646],[32.6047,63.0423],[32.5488,62.7209],[32.5467,62.7058],[32.5123,62.3738],[32.5118,62.3662],[32.5002,62.025]]
M73 P0 R12
;TYPE:Custom
START_PRINT T_BED=105 T_EXTRUDER=260
G90
G21
M83 ; use relative distances for extrusion
; Filament gcode
M106 S0
;LAYER_CHANGE
;Z:0.2
;HEIGHT:0.2
;BEFORE_LAYER_CHANGE
;0.2
G92 E0

;AFTER_LAYER_CHANGE
;0.2
SET_VELOCITY_LIMIT ACCEL=1000 ACCEL_TO_DECEL=500
SET_VELOCITY_LIMIT SQUARE_CORNER_VELOCITY=9
G1 E-.5 F3000
G1 Z.2 F21000
G1 X35.29 Y52.229
G1 E.5 F1800
;TYPE:Skirt
;WIDTH:0.5
G1 F3000
G1 X36.343 Y51.703 E.04158
G1 X37.301 Y51.335 E.0363
G1 X39.018 Y50.912 E.06249
G1 X42.945 Y50.318 E.1404
G1 X45.938 Y50.072 E.10611
G1 X74.328 Y50.061 E1.0035
G1 X76.853 Y50.176 E.08933
G1 X78.648 Y50.398 E.06393
G1 X81.174 Y50.915 E.09112
G1 X83.356 Y51.588 E.08071
G1 X84.572 Y52.167 E.04762
G1 X86.065 Y53.152 E.06321
G1 X87.381 Y54.358 E.06309
G1 X88.409 Y55.635 E.05797
G1 X89.369 Y57.314 E.06834
G1 X89.989 Y58.99 E.06315
G1 X90.224 Y60.001 E.0367
G1 X90.379 Y61.183 E.04213
G1 X90.361 Y62.938 E.06206
G1 X89.986 Y64.592 E.05994
G1 X89.694 Y65.322 E.02779
G1 X89.207 Y66.225 E.03626
G1 X88.152 Y67.564 E.06023
G1 X86.955 Y68.566 E.05518
G1 X85.943 Y69.151 E.04133
G1 X84.855 Y69.58 E.04133
G1 X83.716 Y69.845 E.04133
G1 X82.694 Y69.936 E.03628
G1 X36.864 Y69.912 E1.6199
G1 X35.797 Y69.753 E.03812
G1 X34.753 Y69.446 E.03848
G1 X33.773 Y69.005 E.038
G1 X32.586 Y68.227 E.05013
G1 X31.786 Y67.5 E.03823
G1 X31.089 Y66.663 E.0385
G1 X30.521 Y65.755 E.03785
G1 X30.012 Y64.582 E.04521
G1 X29.733 Y63.538 E.03819
G1 X29.613 Y62.664 E.03117
G1 X29.657 Y60.771 E.06693
G1 X29.85 Y59.605 E.04178
G1 X30.162 Y58.471 E.04158
G1 X30.592 Y57.373 E.04168
G1 X31.059 Y56.458 E.0363
G1 X32.148 Y54.874 E.06797
G1 X32.942 Y54.005 E.04158
G1 X33.705 Y53.318 E.0363
G1 X35.257 Y52.252 E.06655
G1 X35.49 Y52.656 F21000
G1 F3000
G1 X35.9 Y52.419 E.01673
G1 X37.576 Y51.726 E.06411
G1 X39.101 Y51.361 E.05542
G1 X43.013 Y50.77 E.13984
G1 X45.956 Y50.529 E.10438
G1 X74.328 Y50.518 E1.00285
G1 X76.818 Y50.632 E.08808
G1 X78.571 Y50.849 E.06244
G1 X81.055 Y51.356 E.08963
G1 X83.193 Y52.015 E.07905
G1 X84.344 Y52.563 E.04506
G1 X85.777 Y53.506 E.06065
G1 X87.041 Y54.663 E.06055
G1 X88.038 Y55.903 E.05625
G1 X88.95 Y57.498 E.06494
G1 X89.546 Y59.105 E.0606
G1 X89.777 Y60.093 E.03585
G1 X89.925 Y61.227 E.04042
G1 X89.906 Y62.893 E.05888
G1 X89.556 Y64.437 E.05598
G1 X88.942 Y65.781 E.05221
G1 X87.916 Y67.151 E.06049
G1 X86.804 Y68.114 E.05199
G1 X85.86 Y68.682 E.03894
G1 X84.842 Y69.104 E.03894
G1 X83.774 Y69.372 E.03894
G1 X82.675 Y69.48 E.039
G1 X36.911 Y69.458 E1.6176
G1 X35.905 Y69.309 E.03592
G1 X34.921 Y69.021 E.03626
G1 X33.997 Y68.607 E.03578
G1 X32.862 Y67.863 E.04794
G1 X31.996 Y67.054 E.0419
G1 X31.358 Y66.252 E.03624
G1 X30.841 Y65.379 E.03583
G1 X30.344 Y64.118 E.04792
G1 X30.056 Y62.45 E.05982
G1 X30.062 Y61.395 E.0373
G1 X30.167 Y60.398 E.03545
G1 X30.399 Y59.279 E.04037
G1 X30.739 Y58.211 E.03962
G1 X31.525 Y56.565 E.06449
G1 X32.147 Y55.619 E.03999
G1 X32.785 Y54.832 E.03583
G1 X34.102 Y53.585 E.06411
G1 X35.021 Y52.925 E.03999
G1 X35.455 Y52.675 E.01769
; printing object Front round standoff.stl id:0 copy 0
EXCLUDE_OBJECT_START NAME=Front_round_standoff.stl_id_0_copy_0
G1 E-.5
G1 Z.4 F21000
G1 X60.48 Y54.279
G1 Z.2
G1 E.5 F1800
;TYPE:Support
G1 F3000
G1 X61.436 Y54.367 E.03392
G1 X62.356 Y54.536 E.03308
G1 X62.845 Y54.661 E.01783
G1 X63.756 Y54.962 E.0339
G1 X64.2 Y55.144 E.01696
G1 X65.061 Y55.567 E.03392
G1 X65.881 Y56.067 E.03395
G1 X66.272 Y56.345 E.01694
G1 X66.74 Y56.71 E.02099
G1 X66.93 Y56.775 E.00709
G1 X70.71 Y56.775 E.13361
G1 X70.71 Y59.041 E.08011
G1 X49.29 Y59.041 E.75709
M73 P1 R12
G1 X49.29 Y56.775 E.08011
G1 X53.07 Y56.775 E.13361
G1 X53.26 Y56.71 E.00709
G1 X53.728 Y56.345 E.02099
G1 X54.12 Y56.067 E.01697
G1 X54.939 Y55.567 E.03392
G1 X55.801 Y55.144 E.03392
G1 X56.697 Y54.801 E.03392
G1 X57.621 Y54.541 E.03392
G1 X58.565 Y54.367 E.03392
G1 X59.52 Y54.279 E.03392
G1 X60.411 Y54.278 E.0315
G1 X60 Y54.68 F21000
G1 F3000
G1 X60.921 Y54.722 E.03259
G1 X61.835 Y54.848 E.03259
G1 X62.734 Y55.057 E.03263
G1 X63.608 Y55.346 E.03256
G1 X64.454 Y55.715 E.03259
G1 X64.863 Y55.928 E.0163
G1 X65.651 Y56.409 E.03263
G1 X66.026 Y56.675 E.01626
G1 X66.541 Y57.076 E.02309
G1 X66.861 Y57.186 E.01195
G1 X70.298 Y57.186 E.1215
G1 X70.298 Y58.63 E.05103
G1 X49.702 Y58.63 E.72801
G1 X49.702 Y57.186 E.05103
G1 X53.139 Y57.186 E.1215
G1 X53.459 Y57.076 E.01195
G1 X53.974 Y56.675 E.02309
G1 X54.35 Y56.408 E.0163
G1 X55.137 Y55.928 E.03259
G1 X55.965 Y55.521 E.03259
G1 X56.392 Y55.346 E.0163
G1 X57.267 Y55.056 E.03259
G1 X58.165 Y54.848 E.03259
G1 X59.079 Y54.722 E.03259
G1 X60 Y54.68 E.03259
G1 X60 Y55.188 F21000
G1 F3000
G1 X60.875 Y55.228 E.03095
G1 X61.31 Y55.278 E.01548
G1 X62.149 Y55.432 E.03015
G1 X63.014 Y55.674 E.03176
G1 X63.832 Y55.987 E.03095
G1 X64.23 Y56.171 E.01548
G1 X64.978 Y56.581 E.03015
G1 X65.723 Y57.082 E.03176
G1 X66.296 Y57.529 E.02568
G1 X66.91 Y57.74 E.02296
G1 X66.847 Y58.122 E.01368
G1 X53.154 Y58.122 E.48399
G1 X53.09 Y57.74 E.01368
G1 X53.704 Y57.529 E.02296
G1 X54.277 Y57.082 E.02568
G1 X55.003 Y56.592 E.03096
G1 X55.382 Y56.373 E.01548
G1 X56.168 Y55.987 E.03095
G1 X56.986 Y55.674 E.03095
G1 X57.829 Y55.437 E.03096
G1 X58.258 Y55.347 E.01548
G1 X59.125 Y55.228 E.03095
G1 X60 Y55.188 E.03095
G1 X60 Y55.696 F21000
G1 F3000
G1 X60.829 Y55.734 E.02931
G1 X61.65 Y55.847 E.02931
G1 X62.46 Y56.035 E.02939
G1 X63.245 Y56.295 E.02924
G1 X63.629 Y56.452 E.01466
G1 X64.374 Y56.818 E.02932
G1 X65.137 Y57.285 E.03162
G1 X65.04 Y57.614 E.01211
G1 X54.959 Y57.614 E.35632
G1 X54.863 Y57.286 E.0121
G1 X55.627 Y56.818 E.03165
G1 X56.371 Y56.452 E.02932
G1 X56.755 Y56.295 E.01466
G1 X57.542 Y56.035 E.02931
G1 X58.35 Y55.847 E.02932
G1 X59.172 Y55.733 E.02932
G1 X60 Y55.696 E.02931
G1 X60 Y56.204 F21000
G1 F3000
G1 X60.392 Y56.213 E.01384
G1 X61.171 Y56.284 E.02768
G1 X61.92 Y56.422 E.02691
G1 X62.695 Y56.638 E.02844
G1 X62.945 Y56.727 E.00937
G1 X62.879 Y57.106 E.0136
G1 X57.121 Y57.106 E.20353
G1 X57.055 Y56.727 E.0136
G1 X57.305 Y56.638 E.00937
G1 X57.68 Y56.524 E.01384
G1 X58.442 Y56.346 E.02768
G1 X59.218 Y56.239 E.02768
G1 X60 Y56.204 E.02768
G1 E-.5
G1 Z.4 F21000
G1 X67.147 Y55.825
G1 Z.2
G1 E.5 F1800
;TYPE:Outer wall
G1 F3000
G1 X66.412 Y55.279 E.03237
G1 X65.519 Y54.734 E.03698
G1 X64.58 Y54.273 E.03697
G1 X63.849 Y53.989 E.02772
G1 X63.591 Y53.902 E.00961
G1 X63.075 Y53.774 E.0188
G1 X61.549 Y53.524 E.05464
G1 X60.522 Y53.43 E.03648
G1 X60 Y53.418 E.01844
G1 X59.479 Y53.43 E.01844
G1 X58.451 Y53.524 E.03648
G1 X56.925 Y53.774 E.05464
G1 X56.409 Y53.902 E.0188
G1 X56.151 Y53.989 E.00961
G1 X55.42 Y54.273 E.02772
G1 X54.482 Y54.734 E.03697
G1 X53.588 Y55.279 E.03699
G1 X52.853 Y55.825 E.03237
G1 X48.341 Y55.825 E.1595
G1 X47.573 Y55.873 E.02719
G1 X46.813 Y56.018 E.02736
G1 X46.427 Y56.131 E.0142
G1 X45.71 Y56.415 E.02725
G1 X45.028 Y56.79 E.02752
G1 X44.401 Y57.245 E.02738
G1 X44.106 Y57.505 E.01391
G1 X43.823 Y57.789 E.01415
G1 X43.336 Y58.377 E.02699
G1 X43.113 Y58.706 E.01404
G1 X42.74 Y59.385 E.02738
G1 X42.453 Y60.109 E.02752
G1 X42.259 Y60.863 E.02752
G1 X42.162 Y61.632 E.02738
G1 X42.139 Y62.343 E.02515
G1 X42.107 Y62.654 E.01107
G1 X41.977 Y63.28 E.02259
G1 X41.764 Y63.878 E.02244
G1 X41.47 Y64.445 E.02259
G1 X41.301 Y64.704 E.01093
G1 X40.901 Y65.195 E.02236
G1 X40.43 Y65.636 E.02282
G1 X40.183 Y65.822 E.01092
G1 X39.643 Y66.151 E.02236
G1 X39.055 Y66.407 E.02267
G1 X38.446 Y66.577 E.02236
G1 X38.13 Y66.632 E.01131
G1 X37.819 Y66.664 E.01108
G1 X37.186 Y66.664 E.02236
G1 X36.553 Y66.577 E.02259
G1 X36.252 Y66.504 E.01092
G1 X35.646 Y66.289 E.02274
G1 X35.367 Y66.156 E.01092
G1 X34.817 Y65.822 E.02274
G1 X34.571 Y65.636 E.01092
G1 X34.1 Y65.197 E.02274
G1 X33.897 Y64.964 E.01092
G1 X33.528 Y64.442 E.02259
G1 X33.234 Y63.872 E.02266
G1 X33.023 Y63.28 E.02221
G1 X32.894 Y62.658 E.02244
G1 X32.85 Y62.019 E.02264
G1 X32.861 Y61.606 E.01461
G1 X32.894 Y61.192 E.01469
G1 X33.025 Y60.361 E.02972
G1 X33.242 Y59.552 E.02961
G1 X33.544 Y58.767 E.02972
G1 X33.721 Y58.395 E.01458
G1 X34.142 Y57.667 E.02972
G1 X34.634 Y56.989 E.0296
G1 X35.195 Y56.367 E.02961
G1 X35.818 Y55.807 E.02961
G1 X36.498 Y55.313 E.02972
G1 X36.85 Y55.097 E.01458
G1 X37.599 Y54.716 E.02972
G1 X38.384 Y54.415 E.02972
G1 X38.78 Y54.298 E.01458
G1 X39.606 Y54.123 E.02984
G1 X41.416 Y53.883 E.06453
G1 X43.422 Y53.547 E.0719
G1 X44.745 Y53.405 E.04702
G1 X46.066 Y53.334 E.04676
G1 X46.727 Y53.325 E.02338
G1 X56.094 Y53.322 E.33108
G1 X56.597 Y53.307 E.0178
G1 X57.579 Y53.225 E.03484
G1 X59.048 Y53.225 E.0519
G1 X62.487 Y53.225 E.12158
G1 X63.47 Y53.309 E.03486
G1 X63.974 Y53.323 E.01781
G1 X74.324 Y53.325 E.36583
G1 X75.84 Y53.372 E.05361
G1 X77.351 Y53.512 E.05364
G1 X78.855 Y53.745 E.05381
G1 X80.334 Y54.069 E.05351
G1 X81.788 Y54.483 E.05342
G1 X82.18 Y54.633 E.01483
G1 X82.948 Y54.998 E.03007
G1 X83.673 Y55.443 E.03007
G1 X84.011 Y55.689 E.01475
G1 X84.657 Y56.242 E.03008
G1 X85.241 Y56.861 E.03007
G1 X85.505 Y57.188 E.01486
G1 X85.754 Y57.534 E.01504
G1 X86.195 Y58.26 E.03002
G1 X86.382 Y58.632 E.01475
G1 X86.704 Y59.42 E.03008
G1 X86.94 Y60.234 E.02996
G1 X87.088 Y61.069 E.02996
G1 X87.149 Y61.915 E.03001
G1 X87.137 Y62.377 E.01632
G1 X87.034 Y63.055 E.02424
G1 X86.832 Y63.713 E.02433
G1 X86.645 Y64.132 E.01621
G1 X86.418 Y64.528 E.01614
G1 X86.151 Y64.905 E.01632
G1 X85.851 Y65.249 E.01614
G1 X85.518 Y65.562 E.01614
G1 X85.153 Y65.844 E.01632
G1 X84.766 Y66.085 E.01614
G1 X84.352 Y66.29 E.01632
G1 X83.924 Y66.451 E.01614
G1 X83.483 Y66.569 E.01614
G1 X83.028 Y66.645 E.01632
G1 X82.572 Y66.674 E.01614
G1 X82.111 Y66.658 E.01632
G1 X81.658 Y66.598 E.01614
G1 X81.209 Y66.492 E.01632
G1 X80.78 Y66.345 E.01603
G1 X80.157 Y66.041 E.0245
G1 X79.777 Y65.794 E.01603
G1 X79.419 Y65.507 E.01621
G1 X78.938 Y65.012 E.02439
G1 X78.536 Y64.455 E.02428
G1 X78.221 Y63.844 E.02428
G1 X78 Y63.193 E.02428
G1 X77.877 Y62.515 E.02438
G1 X77.819 Y61.435 E.03822
G1 X77.728 Y60.829 E.02168
G1 X77.577 Y60.234 E.02169
G1 X77.372 Y59.665 E.02135
G1 X77.246 Y59.382 E.01095
G1 X77.106 Y59.106 E.01096
G1 X76.796 Y58.591 E.02125
G1 X76.612 Y58.33 E.01128
G1 X76.234 Y57.871 E.02102
G1 X76.013 Y57.64 E.01128
G1 X75.565 Y57.235 E.02136
G1 X75.074 Y56.872 E.02157
G1 X74.815 Y56.708 E.01084
G1 X74.277 Y56.421 E.02157
G1 X73.718 Y56.19 E.02136
G1 X73.418 Y56.091 E.01117
G1 X72.829 Y55.944 E.02147
G1 X72.226 Y55.855 E.02153
G1 X71.623 Y55.825 E.02136
G1 X67.187 Y55.825 E.15679
G1 X67.312 Y55.325 F21000
