; HEADER_BLOCK_START
; generated by OrcaSlicer 1.6.4-beta2 on 2023-08-10 at 21:12:31
; total layer number: 240
; HEADER_BLOCK_END

; THUMBNAIL_BLOCK_START
; THUMBNAIL_BLOCK_END

; external perimeters extrusion width = 0.40mm
; perimeters extrusion width = 0.46mm
; infill extrusion width = 0.64mm
; solid infill extrusion width = 0.56mm
; top infill extrusion width = 0.40mm
; support material extrusion width = 0.46mm
; first layer extrusion width = 0.50mm

; EXECUTABLE_BLOCK_START
EXCLUDE_OBJECT_DEFINE NAME=gantry_bottom_(1).stl_id_0_copy_0 CENTER=60,60 POLYGON=[[45.5,45.7784],[62.0932,29.7772],[62.6888,29.2204],[63.3435,28.7346],[64.0489,28.3258],[64.796,27.9995],[65.5752,27.7597],[66.3766,27.6095],[67.1897,27.5509],[68.0043,27.5846],[68.8099,27.7101],[69.5961,27.926],[70.3528,28.2293],[71.0704,28.6162],[71.7397,29.0818],[72.352,29.62],[72.8996,30.2241],[73.3754,30.8861],[73.7732,31.5977],[74.0881,32.3497],[74.316,33.1325],[74.4538,33.9361],[74.5,34.75],[74.5,85.25],[74.4538,86.0645],[74.3157,86.8684],[74.0876,87.6517],[73.7724,88.404],[73.3741,89.1159],[72.8978,89.7782],[72.3497,90.3823],[71.7368,90.9206],[71.0668,91.3861],[70.3486,91.7728],[69.5912,92.0758],[68.8044,92.2911],[67.9983,92.4161],[67.1832,92.4491],[66.3696,92.3897],[65.568,92.2386],[64.7886,91.9978],[64.0414,91.6705],[63.3361,91.2607],[62.6816,90.7737],[62.0865,90.2158],[45.5,74.1784],[45.5,45.7784]]
M73 P0 R34
;TYPE:Custom
START_PRINT T_BED=105 T_EXTRUDER=260
G90
G21
M83 ; use relative distances for extrusion
; Filament gcode
M106 S0
;LAYER_CHANGE
;Z:0.2
;HEIGHT:0.2
;BEFORE_LAYER_CHANGE
;0.2
G92 E0

;AFTER_LAYER_CHANGE
;0.2
SET_VELOCITY_LIMIT ACCEL=1000 ACCEL_TO_DECEL=500
SET_VELOCITY_LIMIT SQUARE_CORNER_VELOCITY=9
G1 E-.5 F3000
G1 Z.2 F21000
G1 X41.761 Y41.086
G1 E.5 F1800
;TYPE:Skirt
;WIDTH:0.5
G1 F3000
G1 X61.941 Y26.651 E.87697
G1 X63.167 Y25.961 E.04973
G1 X64.453 Y25.469 E.04869
G1 X66.193 Y25.103 E.06285
G1 X67.548 Y25.041 E.04793
G1 X68.672 Y25.135 E.03989
G1 X69.603 Y25.317 E.03351
G1 X71.002 Y25.771 E.05201
G1 X71.876 Y26.184 E.03414
G1 X72.727 Y26.699 E.03517
G1 X73.848 Y27.577 E.05035
G1 X74.792 Y28.572 E.04848
G1 X75.325 Y29.279 E.03129
G1 X75.905 Y30.247 E.03989
G1 X76.468 Y31.549 E.05014
G1 X76.922 Y33.441 E.06876
G1 X77.014 Y34.75 E.04638
G1 X77.014 Y85.25 E1.78497
G1 X76.962 Y86.219 E.03431
G1 X76.782 Y87.346 E.04035
G1 X76.306 Y88.876 E.05663
G1 X75.904 Y89.755 E.03415
G1 X75.323 Y90.724 E.03991
G1 X74.634 Y91.618 E.03992
G1 X74.01 Y92.269 E.03186
G1 X72.722 Y93.304 E.05841
G1 X71.87 Y93.819 E.03519
G1 X70.996 Y94.231 E.03415
G1 X69.929 Y94.6 E.03992
G1 X68.973 Y94.815 E.03464
G1 X67.327 Y94.961 E.05841
G1 X65.555 Y94.801 E.06288
G1 X64.36 Y94.504 E.04351
G1 X63.157 Y94.034 E.04566
G1 X61.934 Y93.344 E.04963
G1 X41.761 Y78.914 E.87668
G1 X40.801 Y77.744 E.0535
G1 X40.542 Y76.544 E.04339
G1 X40.542 Y43.456 E1.16951
G1 X40.935 Y41.994 E.0535
G1 X41.734 Y41.116 E.04198
G1 X42.027 Y41.458 F21000
G1 F3000
G1 X62.207 Y27.023 E.87697
G1 X63.35 Y26.38 E.04636
G1 X64.575 Y25.909 E.04638
G1 X66.261 Y25.555 E.06093
G1 X67.529 Y25.497 E.04484
G1 X68.602 Y25.587 E.03806
G1 X69.509 Y25.764 E.03268
G1 X70.832 Y26.195 E.04918
G1 X72.483 Y27.086 E.0663
G1 X73.547 Y27.92 E.04778
G1 X74.429 Y28.85 E.04531
G1 X74.954 Y29.546 E.03081
G1 X75.506 Y30.47 E.03806
G1 X76.031 Y31.683 E.04671
G1 X76.472 Y33.521 E.06682
G1 X76.557 Y34.75 E.04353
G1 X76.557 Y85.25 E1.78497
G1 X76.506 Y86.192 E.03336
G1 X76.332 Y87.266 E.03845
G1 X75.884 Y88.7 E.05308
G1 X75.505 Y89.532 E.03232
G1 X74.952 Y90.457 E.03808
G1 X74.295 Y91.311 E.03809
G1 X73.683 Y91.95 E.0313
G1 X72.479 Y92.917 E.05458
G1 X70.827 Y93.807 E.06634
G1 X69.808 Y94.159 E.03808
G1 X68.88 Y94.367 E.03363
G1 X67.342 Y94.504 E.05458
G1 X65.624 Y94.349 E.06096
G1 X64.495 Y94.067 E.04111
G1 X63.34 Y93.616 E.04383
G1 X62.2 Y92.972 E.04628
G1 X42.027 Y78.542 E.87668
G1 X41.172 Y77.449 E.04905
G1 X40.999 Y76.544 E.03257
G1 X40.999 Y43.456 E1.16951
G1 X41.391 Y42.125 E.04905
G1 X41.999 Y41.487 E.03116
; printing object gantry bottom (1).stl id:0 copy 0
EXCLUDE_OBJECT_START NAME=gantry_bottom_(1).stl_id_0_copy_0
G1 E-.5
G1 Z.4 F21000
G1 X48.655 Y47.078
G1 Z.2
G1 E.5 F1800
;TYPE:Support
G1 F3000
G1 X45.251 Y47.078 E.12031
G1 X44.9 Y47.43 E.01757
G1 X44.9 Y50.258 E.09997
G1 X43.456 Y51.702 E.07217
G1 X43.456 Y43.456 E.29146
G1 X51.404 Y43.456 E.28093
G1 X48.697 Y47.024 E.1583
G1 X48.451 Y46.667 F21000
G1 F3000
G1 X45.081 Y46.667 E.11912
G1 X44.489 Y47.26 E.02961
G1 X44.489 Y50.088 E.09997
G1 X43.868 Y50.709 E.03105
G1 X43.868 Y43.868 E.24181
G1 X50.576 Y43.868 E.2371
G1 X48.451 Y46.667 E.12422
G1 X48.199 Y46.159 F21000
G1 F3000
G1 X44.871 Y46.159 E.11764
G1 X44.375 Y46.655 E.02476
G1 X44.375 Y44.375 E.08056
G1 X49.553 Y44.375 E.18299
G1 X48.199 Y46.159 E.07915
G1 X47.947 Y45.651 F21000
G1 F3000
G1 X44.883 Y45.651 E.10828
G1 X44.883 Y44.883 E.02715
G1 X48.53 Y44.883 E.12889
G1 X47.947 Y45.651 E.03408
G1 E-.5
G1 Z.4 F21000
G1 X49.987 Y47.309
G1 X63.575 Y57.077
G1 X64.65 Y58.391
G1 X64.65 Y58.737
G1 X64.05 Y58.737
G1 Z.2
G1 E.5 F1800
G1 F3000
G1 X64.05 Y61.22 E.08775
G1 X61.9 Y62.461 E.08775
G1 X59.75 Y61.22 E.08775
G1 X59.75 Y58.737 E.08775
G1 X61.9 Y57.496 E.08775
G1 X63.991 Y58.703 E.08533
G1 X60.161 Y60.982 F21000
G1 F3000
G1 X60.161 Y58.975 E.07096
G1 X61.9 Y57.971 E.07096
G1 X63.639 Y58.975 E.07096
G1 X63.639 Y60.982 E.07096
G1 X61.9 Y61.986 E.07096
G1 X60.161 Y60.982 E.07096
G1 X60.669 Y60.689 F21000
G1 F3000
G1 X60.669 Y59.268 E.05023
G1 X61.9 Y58.557 E.05023
G1 X63.131 Y59.268 E.05023
G1 X63.131 Y60.689 E.05023
G1 X61.9 Y61.4 E.05023
G1 X60.669 Y60.689 E.05023
G1 X61.177 Y60.396 F21000
G1 F3000
G1 X61.177 Y59.561 E.0295
G1 X61.9 Y59.144 E.0295
G1 X62.623 Y59.561 E.0295
G1 X62.623 Y60.396 E.0295
G1 X61.9 Y60.813 E.0295
G1 X61.177 Y60.396 E.0295
G1 E-.5
G1 Z.4 F21000
G1 X64.65 Y59.775
G1 X65.55 Y59.614
G1 X70.45 Y58.737
G1 Z.2
G1 E.5 F1800
G1 F3000
G1 X70.45 Y61.22 E.08775
G1 X68.3 Y62.461 E.08775
G1 X66.15 Y61.22 E.08775
G1 X66.15 Y58.737 E.08775
G1 X68.3 Y57.496 E.08775
G1 X70.391 Y58.703 E.08533
G1 X66.561 Y60.982 F21000
G1 F3000
G1 X66.561 Y58.975 E.07096
G1 X68.3 Y57.971 E.07096
G1 X70.039 Y58.975 E.07096
G1 X70.039 Y60.982 E.07096
G1 X68.3 Y61.986 E.07096
G1 X66.561 Y60.982 E.07096
G1 X67.069 Y60.689 F21000
G1 F3000
G1 X67.069 Y59.268 E.05023
G1 X68.3 Y58.557 E.05023
G1 X69.531 Y59.268 E.05023
G1 X69.531 Y60.689 E.05023
G1 X68.3 Y61.4 E.05023
G1 X67.069 Y60.689 E.05023
G1 X67.577 Y60.396 F21000
G1 F3000
G1 X67.577 Y59.561 E.0295
G1 X68.3 Y59.144 E.0295
G1 X69.023 Y59.561 E.0295
G1 X69.023 Y60.396 E.0295
G1 X68.3 Y60.813 E.0295
G1 X67.577 Y60.396 E.0295
G1 E-.5
G1 Z.4 F21000
G1 X65.55 Y61.227
G1 X63.575 Y62.88
G1 X61.9 Y63.847
G1 X46.1 Y69.206
G1 X44.9 Y69.699
G1 Z.2
G1 E.5 F1800
G1 F3000
G1 X44.9 Y72.527 E.09997
G1 X45.251 Y72.878 E.01757
G1 X48.66 Y72.878 E.12049
G1 X51.434 Y76.544 E.16246
G1 X43.456 Y76.544 E.28197
G1 X43.456 Y68.255 E.29298
G1 X44.852 Y69.65 E.06975
G1 E-.5
G1 Z.4 F21000
G1 X46.1 Y70.911
G1 X46.86 Y71.678
G1 X48.456 Y73.29
G1 Z.2
G1 E.5 F1800
G1 F3000
G1 X50.606 Y76.132 E.12599
G1 X43.868 Y76.132 E.23819
G1 X43.868 Y69.248 E.24334
G1 X44.489 Y69.869 E.03105
G1 X44.489 Y72.697 E.09997
G1 X45.081 Y73.29 E.02961
G1 X48.456 Y73.29 E.11928
G1 X48.203 Y73.798 F21000
G1 F3000
G1 X49.585 Y75.625 E.08097
G1 X44.375 Y75.625 E.18415
G1 X44.375 Y73.302 E.08208
G1 X44.871 Y73.798 E.02476
G1 X48.203 Y73.798 E.11779
G1 X47.951 Y74.306 F21000
G1 F3000
G1 X48.564 Y75.117 E.03595
G1 X44.883 Y75.117 E.13011
G1 X44.883 Y74.306 E.02867
G1 X47.951 Y74.306 E.10842
G1 E-.5
G1 Z.4 F21000
G1 X53.105 Y76.764
G1 X63.384 Y81.666
G1 X70.899 Y85.25
G1 Z.2
G1 E.5 F1800
G1 F3000
G1 X68.85 Y88.8 E.14489
G1 X64.75 Y88.8 E.14489
G1 X62.701 Y85.25 E.14489
G1 X64.75 Y81.7 E.14489
G1 X68.85 Y81.7 E.14489
G1 X70.865 Y85.191 E.14247
G1 X64.988 Y82.111 F21000
G1 F3000
G1 X68.612 Y82.111 E.1281
G1 X70.424 Y85.25 E.1281
G1 X68.612 Y88.389 E.1281
G1 X64.988 Y88.389 E.1281
G1 X63.176 Y85.25 E.1281
G1 X64.988 Y82.111 E.1281
G1 X65.281 Y82.619 F21000
G1 F3000
G1 X68.319 Y82.619 E.10737
G1 X69.838 Y85.25 E.10737
G1 X68.319 Y87.881 E.10737
G1 X65.281 Y87.881 E.10737
G1 X63.762 Y85.25 E.10737
G1 X65.281 Y82.619 E.10737
G1 X65.574 Y83.127 F21000
G1 F3000
G1 X68.026 Y83.127 E.08664
G1 X69.251 Y85.25 E.08664
G1 X68.026 Y87.373 E.08664
G1 X65.574 Y87.373 E.08664
G1 X64.349 Y85.25 E.08664
G1 X65.574 Y83.127 E.08664
G1 X65.868 Y83.635 F21000
G1 F3000
G1 X67.732 Y83.635 E.06592
G1 X68.665 Y85.25 E.06592
M73 P1 R34
G1 X67.732 Y86.865 E.06592
G1 X65.868 Y86.865 E.06592
G1 X64.935 Y85.25 E.06592
G1 X65.868 Y83.635 E.06592
G1 X66.161 Y84.143 F21000
G1 F3000
G1 X67.439 Y84.143 E.04519
G1 X68.078 Y85.25 E.04519
G1 X67.439 Y86.357 E.04519
G1 X66.161 Y86.357 E.04519
G1 X65.522 Y85.25 E.04519
G1 X66.161 Y84.143 E.04519
G1 X66.454 Y84.651 F21000
G1 F3000
G1 X67.146 Y84.651 E.02446
G1 X67.492 Y85.25 E.02446
G1 X67.146 Y85.849 E.02446
G1 X66.454 Y85.849 E.02446
G1 X66.108 Y85.25 E.02446
G1 X66.454 Y84.651 E.02446
G1 E-.5
G1 Z.4 F21000
G1 X66.833 Y80.847
G1 X64.517 Y79.033
G1 X64.129 Y78.645
G1 X64.129 Y78.026
G1 X64.729 Y77.726
G1 X66.602 Y77.726
G1 X65.55 Y61.566
G1 X65.55 Y58.391
G1 X70.566 Y45.749
G1 X71.145 Y37.608
G1 X71.435 Y34.707
G1 Z.2
G1 E.5 F1800
G1 F3000
G1 X69.385 Y38.257 E.14489
G1 X65.286 Y38.257 E.14489
G1 X63.236 Y34.707 E.14489
G1 X65.286 Y31.157 E.14489
G1 X69.385 Y31.157 E.14489
G1 X71.4 Y34.647 E.14247
G1 X65.523 Y37.845 F21000
G1 F3000
G1 X63.711 Y34.707 E.1281
G1 X65.523 Y31.568 E.1281
G1 X69.148 Y31.568 E.1281
G1 X70.96 Y34.707 E.1281
G1 X69.148 Y37.845 E.1281
G1 X65.523 Y37.845 E.1281
G1 X65.817 Y37.338 F21000
G1 F3000
G1 X64.298 Y34.707 E.10737
G1 X65.817 Y32.076 E.10737
G1 X68.854 Y32.076 E.10737
G1 X70.373 Y34.707 E.10737
G1 X68.854 Y37.338 E.10737
G1 X65.817 Y37.338 E.10737
G1 X66.11 Y36.83 F21000
G1 F3000
G1 X64.884 Y34.707 E.08664
G1 X66.11 Y32.584 E.08664
G1 X68.561 Y32.584 E.08664
G1 X69.787 Y34.707 E.08664
G1 X68.561 Y36.83 E.08664
G1 X66.11 Y36.83 E.08664
G1 X66.403 Y36.322 F21000
G1 F3000
G1 X65.471 Y34.707 E.06592
G1 X66.403 Y33.092 E.06592
G1 X68.268 Y33.092 E.06592
G1 X69.2 Y34.707 E.06592
G1 X68.268 Y36.322 E.06592
G1 X66.403 Y36.322 E.06592
G1 X66.696 Y35.814 F21000
G1 F3000
G1 X66.057 Y34.707 E.04519
G1 X66.696 Y33.6 E.04519
G1 X67.975 Y33.6 E.04519
G1 X68.614 Y34.707 E.04519
G1 X67.975 Y35.814 E.04519
G1 X66.696 Y35.814 E.04519
G1 X66.989 Y35.306 F21000
G1 F3000
G1 X66.643 Y34.707 E.02446
G1 X66.989 Y34.107 E.02446
G1 X67.681 Y34.107 E.02446
G1 X68.027 Y34.707 E.02446
G1 X67.681 Y35.306 E.02446
G1 X66.989 Y35.306 E.02446
G1 E-.5
G1 Z.4 F21000
G1 X64.962 Y39.457
G1 X49.1 Y71.678
G1 X49.1 Y71.928
G1 Z.2
G1 E.5 F1800
;TYPE:Outer wall
G1 F3000
G1 X45.85 Y71.928 E.11487
G1 X45.85 Y48.028 E.84477
G1 X49.127 Y48.028 E.11583
G1 X62.156 Y30.859 E.7618
G1 X62.655 Y30.276 E.02714
G1 X63.212 Y29.762 E.02678
G1 X63.825 Y29.317 E.02678
G1 X64.487 Y28.947 E.02681
G1 X65.187 Y28.657 E.02678
G1 X65.916 Y28.451 E.02678
G1 X66.663 Y28.333 E.02672
G1 X67.576 Y28.309 E.03228
G1 X68.176 Y28.362 E.02129
G1 X68.919 Y28.509 E.02677
G1 X69.783 Y28.8 E.03222
G1 X70.464 Y29.131 E.02677
G1 X70.974 Y29.452 E.02129
G1 X71.686 Y30.023 E.03228
G1 X72.21 Y30.569 E.02675
G1 X72.582 Y31.056 E.02165
G1 X73.049 Y31.827 E.03187
G1 X73.353 Y32.523 E.02683
G1 X73.532 Y33.11 E.02168
G1 X73.572 Y33.246 E.00502
G1 X73.705 Y33.994 E.02685
G1 X73.75 Y34.76 E.02714
G1 X73.75 Y85.24 E1.78424
G1 X73.705 Y86.007 E.02716
G1 X73.572 Y86.753 E.0268
G1 X73.351 Y87.481 E.02689
G1 X73.296 Y87.612 E.00502
G1 X73.049 Y88.174 E.02169
G1 X72.665 Y88.828 E.02682
G1 X72.208 Y89.433 E.0268
G1 X71.684 Y89.979 E.02674
G1 X70.971 Y90.55 E.0323
G1 X70.46 Y90.871 E.0213
G1 X69.779 Y91.202 E.02679
G1 X68.914 Y91.492 E.03224
G1 X68.172 Y91.639 E.02674
G1 X67.416 Y91.697 E.0268
G1 X66.659 Y91.667 E.0268
G1 X65.91 Y91.547 E.0268
G1 X65.18 Y91.341 E.02682
G1 X64.612 Y91.108 E.02168
G1 X63.818 Y90.679 E.0319
G1 X63.205 Y90.233 E.02679
G1 X62.649 Y89.718 E.02679
G1 X62.15 Y89.133 E.02716
G1 X49.137 Y71.934 E.76233
G1 E-.5
G1 Z.4 F21000
G1 X61.604 Y34.78
G1 Z.2
G1 E.5 F1800
;TYPE:Inner wall
G1 F3000
G1 X64.449 Y39.707 E.20108
G1 X69.18 Y39.707 E.16724
G1 X69.186 Y39.975 E.0095
G1 X67.968 Y40.025 E.04306
G1 X68.122 Y41.291 E.04507
G1 X67.728 Y41.267 E.01395
G1 X64.116 Y41.26 E.12766
G1 X64.116 Y44.696 E.12145
G1 X67.728 Y44.689 E.12766
G1 X68.122 Y44.665 E.01395
G1 X67.97 Y45.916 E.04451
G1 X69.214 Y45.991 E.04404
G1 X70.816 Y46.005 E.05662
G1 X70.816 Y39.956 E.2138
G1 X70.077 Y39.958 E.02611
G1 X73.047 Y34.815 E.20992
G1 X73.25 Y34.869 E.00744
G1 X73.25 Y85.225 E1.77988
G1 X73.207 Y85.948 E.0256
G1 X73.085 Y86.636 E.02471
G1 X72.88 Y87.312 E.02494
G1 X72.603 Y87.946 E.02446
G1 X72.249 Y88.55 E.02477
G1 X71.827 Y89.108 E.02472
G1 X71.346 Y89.609 E.02454
G1 X70.68 Y90.142 E.03014
G1 X70.217 Y90.433 E.01934
G1 X69.589 Y90.738 E.02468
G1 X68.786 Y91.008 E.02996
G1 X68.104 Y91.143 E.02456
G1 X67.407 Y91.197 E.02472
G1 X66.708 Y91.168 E.02471
G1 X66.018 Y91.058 E.02472
G1 X65.343 Y90.867 E.02478
G1 X64.706 Y90.603 E.02439
G1 X64.441 Y90.455 E.01071
G1 X64.495 Y90.25 E.00749
G1 X69.687 Y90.25 E.18351
G1 X72.574 Y85.25 E.20407
G1 X69.687 Y80.25 E.20407
G1 X69.03 Y80.25 E.02322
G1 X70.581 Y78.751 E.07623
G1 X70.574 Y77.165 E.05608
G1 X70.542 Y76.704 E.01631
G1 X70.468 Y76.263 E.01583
G1 X70.54 Y75.952 E.01127
G1 X70.579 Y75.242 E.02514
G1 X69.088 Y73.711 E.07554
G1 X67.216 Y73.739 E.06618
G1 X67.025 Y73.964 E.01045
G1 X66.08 Y73.748 E.03427
G1 X65.456 Y73.719 E.02207
G1 X64.861 Y74.183 E.02667
G1 X63.878 Y75.005 E.04531
G1 X63.885 Y76.665 E.05865
G1 X63.916 Y77.136 E.01668
G1 X63.991 Y77.594 E.01642
G1 X63.918 Y77.965 E.01337
G1 X63.871 Y78.722 E.02678
G1 X65.377 Y80.25 E.07586
G1 X63.913 Y80.25 E.05174
G1 X61.027 Y85.25 E.20407
G1 X63.466 Y89.475 E.17242
G1 X63.281 Y89.622 E.00834
G1 X63.01 Y89.371 E.01306
G1 X62.54 Y88.82 E.0256
G1 X49.382 Y71.428 E.77084
G1 X46.35 Y71.428 E.10715
G1 X46.35 Y48.528 E.80942
G1 X49.375 Y48.528 E.10693
G1 X62.545 Y31.173 E.77006
G1 X63.016 Y30.623 E.02558
G1 X63.529 Y30.149 E.0247
G1 X64.095 Y29.739 E.0247
G1 X64.246 Y29.654 E.00614
G1 X64.393 Y29.803 E.00739
G1 X61.562 Y34.707 E.20014
G1 X61.584 Y34.745 E.00157
G1 E-.5
G1 Z.4 F21000
G1 X65.55 Y61.566
G1 X70.329 Y75.315
G1 X72.285 Y85.25
G1 X72.411 Y86.445
G1 Z.2
G1 E.5 F1800
G1 F3000
G1 X72.635 Y86.543 E.00864
G1 X72.449 Y87.157 E.02268
G1 X72.195 Y87.737 E.02241
G1 X71.868 Y88.296 E.0229
G1 X71.479 Y88.811 E.02281
G1 X71.09 Y89.216 E.01982
G1 X70.896 Y89.07 E.00859
G1 X72.391 Y86.48 E.1057
G1 E-.5
G1 Z.4 F21000
G1 X72.285 Y85.25
G1 X70.329 Y75.315
G1 X65.55 Y61.566
G1 X61.115 Y34.847
G1 Z.2
G1 E.5 F1800
G1 F3000
G1 X64.185 Y40.164 E.217
G1 X67.525 Y40.164 E.11805
G1 X67.603 Y40.81 E.02299
G1 X63.659 Y40.802 E.13941
G1 X63.659 Y45.154 E.15383
G1 X67.603 Y45.147 E.13941
G1 X67.458 Y46.343 E.04258
G1 X69.198 Y46.448 E.06162
G1 X71.273 Y46.466 E.07334
G1 X71.273 Y39.498 E.2463
G1 X70.87 Y39.499 E.01425
G1 X72.59 Y36.52 E.12157
G1 X72.793 Y36.575 E.00744
G1 X72.793 Y84.309 E1.68722
G1 X72.59 Y84.364 E.00744
G1 X70.026 Y79.923 E.18124
G1 X71.039 Y78.945 E.04978
G1 X71.031 Y77.148 E.0635
G1 X70.996 Y76.651 E.01762
G1 X70.934 Y76.277 E.0134
G1 X70.994 Y76.017 E.00944
G1 X71.047 Y75.067 E.03362
G1 X69.281 Y73.253 E.08947
G1 X68.34 Y73.255 E.03326
G1 X67 Y73.287 E.04737
G1 X66.856 Y73.457 E.00788
G1 X66.142 Y73.294 E.0259
G1 X65.309 Y73.255 E.02949
G1 X64.574 Y73.828 E.03292
G1 X63.42 Y74.792 E.05317
G1 X63.428 Y76.681 E.06676
G1 X63.462 Y77.188 E.01794
G1 X63.527 Y77.586 E.01428
G1 X63.463 Y77.907 E.01154
G1 X63.402 Y78.897 E.03507
G1 X64.285 Y79.793 E.04447
G1 X63.649 Y79.793 E.02246
G1 X60.461 Y85.315 E.22538
G1 X49.609 Y70.971 E.63575
M73 P2 R34
G1 X46.807 Y70.971 E.09903
G1 X46.807 Y48.986 E.77711
G1 X49.602 Y48.986 E.0988
G1 X61.692 Y33.054 E.70688
G1 X61.906 Y33.197 E.0091
G1 X61.034 Y34.707 E.06163
G1 X61.095 Y34.812 E.00431
G1 X60.725 Y35.085 F21000
G1 F3000
G1 X63.172 Y39.324 E.17302
G1 X63.762 Y40.345 E.04169
G1 X63.202 Y40.344 E.01979
G1 X63.202 Y45.612 E.1862
G1 X67.087 Y45.605 E.13733
