; HEADER_BLOCK_START
; generated by OrcaSlicer 1.6.4-beta2 on 2023-08-10 at 22:29:05
; total layer number: 72
; HEADER_BLOCK_END

; THUMBNAIL_BLOCK_START
; THUMBNAIL_BLOCK_END

; external perimeters extrusion width = 0.40mm
; perimeters extrusion width = 0.46mm
; infill extrusion width = 0.64mm
; solid infill extrusion width = 0.56mm
; top infill extrusion width = 0.40mm
; support material extrusion width = 0.46mm
; first layer extrusion width = 0.50mm

; external perimeters extrusion width = 0.40mm
; perimeters extrusion width = 0.46mm
; infill extrusion width = 0.64mm
; solid infill extrusion width = 0.56mm
; top infill extrusion width = 0.40mm
; support material extrusion width = 0.46mm
; first layer extrusion width = 0.50mm

; EXECUTABLE_BLOCK_START
EXCLUDE_OBJECT_DEFINE NAME=gantry_top_(1).stl_id_0_copy_0 CENTER=75.9,60.0001 POLYGON=[[65,42.114],[73.8582,30.406],[74.3621,29.8102],[74.9274,29.2724],[75.5477,28.7989],[76.2155,28.3953],[76.9231,28.0663],[77.6621,27.8159],[78.4239,27.6469],[79.1995,27.5614],[79.9798,27.5602],[80.7557,27.6436],[81.518,27.8104],[82.2577,28.0587],[82.9662,28.3856],[83.6352,28.7873],[84.2568,29.259],[84.8237,29.7952],[85.3293,30.3896],[85.7675,31.0352],[86.1333,31.7244],[86.4224,32.4492],[86.6314,33.201],[86.7577,33.9711],[86.8,34.7502],[86.8,85.2502],[86.7578,86.0289],[86.6316,86.7985],[86.4229,87.5499],[86.1341,88.2744],[85.7687,88.9633],[85.3309,89.6087],[84.8259,90.203],[84.2596,90.7392],[83.6386,91.2109],[82.9702,91.6128],[82.2623,91.9399],[81.5231,92.1886],[80.7614,92.3559],[79.9861,92.4399],[79.2062,92.4394],[78.431,92.3547],[77.6694,92.1866],[76.9305,91.9371],[76.223,91.6091],[75.555,91.2066],[74.9346,90.7342],[74.3688,90.1974],[73.8644,89.6026],[65,77.921],[65,42.114]]
EXCLUDE_OBJECT_DEFINE NAME=gantry_top_(1).stl_id_1_copy_0 CENTER=44.1,60.0001 POLYGON=[[33.2,42.114],[42.0582,30.406],[42.5621,29.8102],[43.1274,29.2724],[43.7477,28.7989],[44.4155,28.3953],[45.1231,28.0664],[45.8621,27.8159],[46.6239,27.6469],[47.3995,27.5614],[48.1798,27.5603],[48.9557,27.6436],[49.718,27.8104],[50.4577,28.0587],[51.1662,28.3856],[51.8352,28.7873],[52.4568,29.259],[53.0237,29.7952],[53.5293,30.3896],[53.9675,31.0352],[54.3333,31.7244],[54.6224,32.4492],[54.8314,33.201],[54.9577,33.9711],[55,34.7502],[55,85.2502],[54.9578,86.029],[54.8316,86.7985],[54.6228,87.55],[54.3341,88.2744],[53.9687,88.9634],[53.5309,89.6088],[53.0259,90.203],[52.4595,90.7392],[51.8386,91.2109],[51.1702,91.6128],[50.4623,91.9399],[49.7231,92.1886],[48.9614,92.3559],[48.1861,92.4399],[47.4062,92.4395],[46.631,92.3547],[45.8694,92.1866],[45.1305,91.9371],[44.423,91.6091],[43.755,91.2066],[43.1346,90.7342],[42.5688,90.1974],[42.0644,89.6026],[33.2,77.921],[33.2,42.114]]
M73 P0 R26
;TYPE:Custom
START_PRINT T_BED=105 T_EXTRUDER=260
G90
G21
M83 ; use relative distances for extrusion
; Filament gcode
M106 S0
;LAYER_CHANGE
;Z:0.2
;HEIGHT:0.2
;BEFORE_LAYER_CHANGE
;0.2
G92 E0

;AFTER_LAYER_CHANGE
;0.2
SET_VELOCITY_LIMIT ACCEL=1000 ACCEL_TO_DECEL=500
SET_VELOCITY_LIMIT SQUARE_CORNER_VELOCITY=9
G1 E-.5 F3000
G1 Z.2 F21000
G1 X39.317 Y29.93
G1 E.5 F1800
;TYPE:Skirt
;WIDTH:0.5
G1 F3000
G1 X40.65 Y28.179 E.07775
G1 X41.682 Y27.209 E.05008
G1 X42.566 Y26.571 E.03853
G1 X43.469 Y26.057 E.03672
G1 X44.608 Y25.58 E.04364
G1 X46.333 Y25.151 E.06283
G1 X47.629 Y25.039 E.04599
G1 X79.707 Y25.041 E1.13383
G1 X81.398 Y25.207 E.06005
G1 X82.92 Y25.625 E.05578
G1 X83.764 Y25.975 E.0323
G1 X84.711 Y26.491 E.03814
G1 X86.213 Y27.642 E.06687
G1 X87.279 Y28.806 E.05578
G1 X88.299 Y30.431 E.06782
G1 X88.815 Y31.687 E.04801
G1 X89.23 Y33.499 E.0657
G1 X89.314 Y34.75 E.04431
G1 X89.314 Y85.25 E1.78497
G1 X89.23 Y86.5 E.04429
G1 X89.029 Y87.571 E.03851
G1 X88.725 Y88.576 E.03711
G1 X88.3 Y89.567 E.03811
G1 X87.768 Y90.505 E.03812
G1 X86.973 Y91.567 E.0469
G1 X85.761 Y92.757 E.06001
G1 X84.879 Y93.401 E.03861
G1 X83.769 Y94.022 E.04495
G1 X82.771 Y94.43 E.03812
G1 X81.581 Y94.759 E.04362
G1 X80.515 Y94.92 E.03812
G1 X47.638 Y94.962 E1.16209
G1 X46.562 Y94.884 E.03812
G1 X45.502 Y94.687 E.03812
G1 X44.47 Y94.374 E.03812
G1 X43.234 Y93.821 E.04784
G1 X42.303 Y93.255 E.03851
G1 X41.441 Y92.589 E.03851
G1 X40.659 Y91.831 E.03851
G1 X40.062 Y91.122 E.03274
G1 X30.879 Y79.021 E.53695
G1 X30.286 Y77.259 E.0657
G1 X30.286 Y42.777 E1.21881
G1 X30.876 Y41.019 E.06556
G1 X39.293 Y29.961 E.49118
G1 X39.656 Y30.238 F21000
G1 F3000
G1 X40.998 Y28.475 E.0783
G1 X41.956 Y27.575 E.04645
G1 X42.797 Y26.965 E.03672
G1 X43.662 Y26.472 E.03519
G1 X44.754 Y26.013 E.04189
G1 X46.417 Y25.6 E.06056
G1 X47.629 Y25.496 E.04301
G1 X79.688 Y25.498 E1.13315
G1 X81.328 Y25.659 E.05822
G1 X82.75 Y26.049 E.05213
G1 X83.572 Y26.39 E.03147
G1 X84.476 Y26.883 E.03639
G1 X85.912 Y27.985 E.06397
G1 X86.908 Y29.073 E.05213
G1 X87.895 Y30.645 E.06563
G1 X88.377 Y31.815 E.04471
G1 X88.779 Y33.576 E.06385
G1 X88.857 Y34.75 E.0416
G1 X88.857 Y85.25 E1.78497
G1 X88.78 Y86.424 E.04157
G1 X88.59 Y87.445 E.0367
G1 X88.3 Y88.407 E.03552
G1 X87.823 Y89.491 E.04186
G1 X86.91 Y90.925 E.0601
G1 X86.227 Y91.71 E.03679
G1 X85.459 Y92.413 E.03679
G1 X84.618 Y93.026 E.03679
G1 X83.578 Y93.607 E.04213
G1 X82.625 Y93.997 E.03637
G1 X81.483 Y94.312 E.04187
G1 X80.466 Y94.465 E.03637
G1 X47.638 Y94.505 E1.16034
G1 X46.612 Y94.429 E.03637
G1 X45.6 Y94.241 E.03637
G1 X44.616 Y93.941 E.03637
G1 X43.465 Y93.426 E.04457
G1 X42.576 Y92.889 E.0367
G1 X41.753 Y92.256 E.0367
G1 X40.426 Y90.846 E.06845
G1 X31.243 Y78.745 E.53695
G1 X30.743 Y77.259 E.05539
G1 X30.743 Y42.777 E1.21881
G1 X31.241 Y41.294 E.05527
G1 X39.632 Y30.27 E.48972
; printing object gantry top (1).stl id:0 copy 0
EXCLUDE_OBJECT_START NAME=gantry_top_(1).stl_id_0_copy_0
G1 E-.5
G1 Z.4 F21000
G1 X65.35 Y77.142
G1 Z.2
G1 E.5 F1800
;TYPE:Outer wall
G1 F3000
G1 X65.35 Y42.894 E1.21049
G1 X74.45 Y30.866 E.53312
G1 X74.925 Y30.307 E.02594
G1 X75.453 Y29.811 E.02559
G1 X76.033 Y29.377 E.02559
G1 X76.658 Y29.011 E.02562
G1 X77.32 Y28.718 E.02559
G1 X78.01 Y28.5 E.02559
G1 X78.721 Y28.362 E.02559
G1 X79.443 Y28.303 E.02562
G1 X79.877 Y28.315 E.01534
G1 X80.309 Y28.342 E.01531
G1 X81.024 Y28.462 E.02563
G1 X81.722 Y28.661 E.02563
G1 X82.256 Y28.875 E.02033
G1 X83.025 Y29.287 E.03085
G1 X83.616 Y29.705 E.02557
G1 X84.048 Y30.084 E.02034
G1 X84.64 Y30.727 E.03086
G1 X85.058 Y31.315 E.02553
G1 X85.409 Y31.949 E.02559
G1 X85.687 Y32.618 E.02563
G1 X85.851 Y33.181 E.02071
G1 X86.009 Y34.027 E.03044
G1 X86.05 Y34.76 E.02594
G1 X86.05 Y85.24 E1.78427
G1 X86.009 Y85.973 E.02592
G1 X85.888 Y86.686 E.02558
G1 X85.636 Y87.51 E.03044
G1 X85.41 Y88.05 E.0207
G1 X85.059 Y88.683 E.02559
G1 X84.64 Y89.273 E.02558
G1 X84.158 Y89.813 E.02558
G1 X83.618 Y90.294 E.02558
G1 X83.027 Y90.713 E.02558
G1 X82.394 Y91.062 E.02558
G1 X81.726 Y91.337 E.02553
G1 X80.886 Y91.569 E.03078
G1 X80.172 Y91.673 E.02553
G1 X79.449 Y91.697 E.02558
G1 X78.727 Y91.64 E.02558
G1 X78.017 Y91.502 E.02558
G1 X77.326 Y91.285 E.0256
G1 X76.799 Y91.055 E.02034
G1 X76.038 Y90.626 E.03087
G1 X75.459 Y90.195 E.0255
G1 X74.931 Y89.7 E.02557
G1 X74.456 Y89.141 E.02592
G1 X65.374 Y77.173 E.53103
G1 X65.85 Y76.973 F21000
;TYPE:Inner wall
G1 F3000
G1 X65.85 Y43.062 E1.19861
G1 X74.841 Y31.179 E.52669
G1 X75.288 Y30.652 E.02445
G1 X75.775 Y30.195 E.0236
G1 X76.309 Y29.795 E.0236
G1 X76.886 Y29.457 E.02363
G1 X77.497 Y29.186 E.0236
G1 X78.134 Y28.986 E.0236
G1 X78.789 Y28.858 E.0236
G1 X79.457 Y28.804 E.02368
G1 X79.855 Y28.815 E.01408
G1 X80.252 Y28.839 E.01407
G1 X80.914 Y28.95 E.02372
G1 X81.56 Y29.135 E.02374
G1 X82.044 Y29.329 E.01845
G1 X82.762 Y29.713 E.02877
G1 X83.306 Y30.098 E.02354
G1 X83.698 Y30.443 E.01848
G1 X84.251 Y31.042 E.02881
G1 X84.634 Y31.582 E.02342
G1 X84.958 Y32.166 E.0236
G1 X85.214 Y32.785 E.02367
G1 X85.37 Y33.318 E.01963
G1 X85.511 Y34.084 E.02752
G1 X85.55 Y34.774 E.02445
G1 X85.55 Y85.226 E1.78328
G1 X85.511 Y85.917 E.02443
G1 X85.399 Y86.574 E.02359
G1 X85.173 Y87.32 E.02755
G1 X84.959 Y87.832 E.01959
G1 X84.636 Y88.417 E.02364
G1 X84.249 Y88.961 E.02359
G1 X83.804 Y89.458 E.02359
G1 X83.306 Y89.903 E.02359
G1 X82.761 Y90.288 E.02359
G1 X82.177 Y90.61 E.02359
G1 X81.564 Y90.864 E.02345
G1 X80.783 Y91.078 E.0286
G1 X80.127 Y91.174 E.02344
G1 X79.46 Y91.196 E.02359
G1 X78.795 Y91.144 E.02359
G1 X78.14 Y91.016 E.02359
G1 X77.501 Y90.816 E.02365
G1 X77.022 Y90.607 E.01849
G1 X76.311 Y90.206 E.02884
G1 X75.781 Y89.811 E.02338
G1 X75.294 Y89.354 E.02359
G1 X74.846 Y88.828 E.02443
G1 X65.874 Y77.005 E.52458
M73 P1 R26
G1 X66.307 Y76.819 F21000
G1 F3000
G1 X66.307 Y43.216 E1.18775
G1 X75.197 Y31.465 E.52081
G1 X75.62 Y30.967 E.02308
G1 X76.069 Y30.545 E.02178
G1 X76.563 Y30.176 E.02178
G1 X77.095 Y29.864 E.02181
G1 X77.658 Y29.614 E.02178
G1 X78.246 Y29.429 E.02179
G1 X78.851 Y29.311 E.02179
G1 X79.469 Y29.262 E.02191
G1 X79.835 Y29.271 E.01292
G1 X80.2 Y29.294 E.01294
G1 X80.813 Y29.397 E.02197
G1 X81.412 Y29.568 E.022
G1 X81.851 Y29.744 E.01673
G1 X82.521 Y30.103 E.02687
G1 X83.022 Y30.457 E.02169
G1 X83.379 Y30.77 E.01677
G1 X83.895 Y31.33 E.02693
G1 X84.247 Y31.826 E.02149
G1 X84.546 Y32.365 E.02178
G1 X84.783 Y32.937 E.02187
G1 X84.93 Y33.443 E.01864
G1 X85.056 Y34.135 E.02486
G1 X85.093 Y34.787 E.02309
G1 X85.093 Y85.214 E1.78237
G1 X85.056 Y85.865 E.02307
G1 X84.953 Y86.472 E.02177
G1 X84.75 Y87.148 E.02492
G1 X84.547 Y87.632 E.01857
G1 X84.248 Y88.173 E.02185
G1 X83.891 Y88.675 E.02178
G1 X83.48 Y89.134 E.02177
G1 X83.021 Y89.544 E.02177
G1 X82.518 Y89.9 E.02177
G1 X81.979 Y90.198 E.02177
G1 X81.415 Y90.43 E.02155
G1 X80.689 Y90.63 E.02661
G1 X80.087 Y90.718 E.02153
G1 X79.471 Y90.739 E.02177
G1 X78.857 Y90.69 E.02177
G1 X78.252 Y90.573 E.02177
G1 X77.662 Y90.387 E.02187
G1 X77.226 Y90.197 E.0168
G1 X76.561 Y89.822 E.02699
G1 X76.075 Y89.46 E.02144
G1 X75.625 Y89.038 E.02177
G1 X75.202 Y88.541 E.02307
G1 X66.331 Y76.851 E.51869
G1 X66.764 Y76.666 F21000
G1 F3000
G1 X66.764 Y43.369 E1.1769
G1 X75.528 Y31.782 E.51351
G1 X75.952 Y31.283 E.02315
G1 X76.363 Y30.896 E.01997
G1 X76.816 Y30.557 E.01997
G1 X77.304 Y30.272 E.02
G1 X77.82 Y30.043 E.01996
G1 X78.359 Y29.873 E.01997
G1 X78.914 Y29.765 E.01997
G1 X79.481 Y29.719 E.02013
G1 X79.814 Y29.728 E.01177
G1 X80.148 Y29.749 E.01181
G1 X80.712 Y29.843 E.02023
G1 X81.264 Y30.001 E.02027
G1 X81.658 Y30.159 E.015
G1 X82.28 Y30.492 E.02497
G1 X82.739 Y30.816 E.01984
G1 X83.059 Y31.097 E.01506
G1 X83.539 Y31.619 E.02505
G1 X83.86 Y32.07 E.01956
G1 X84.133 Y32.564 E.01996
G1 X84.351 Y33.089 E.02007
G1 X84.49 Y33.568 E.01765
G1 X84.601 Y34.186 E.0222
G1 X84.636 Y34.8 E.02172
G1 X84.636 Y85.201 E1.78146
G1 X84.601 Y85.814 E.02171
G1 X84.507 Y86.371 E.01996
G1 X84.327 Y86.975 E.02228
G1 X84.135 Y87.433 E.01755
G1 X83.861 Y87.929 E.02006
G1 X83.533 Y88.39 E.01996
G1 X83.157 Y88.81 E.01996
G1 X82.736 Y89.186 E.01996
G1 X82.275 Y89.512 E.01996
G1 X81.78 Y89.785 E.01996
G1 X81.267 Y89.997 E.01964
G1 X80.595 Y90.182 E.02462
G1 X80.046 Y90.262 E.01963
G1 X79.481 Y90.281 E.01996
G1 X78.919 Y90.236 E.01996
G1 X78.364 Y90.129 E.01996
G1 X77.822 Y89.959 E.02009
G1 X77.43 Y89.788 E.01511
G1 X76.811 Y89.439 E.02514
G1 X76.368 Y89.109 E.01949
G1 X75.957 Y88.723 E.01996
G1 X75.558 Y88.255 E.02171
G1 X66.788 Y76.698 E.5128
G1 E-.5
G1 Z.4 F21000
G1 X79.24 Y82.324
G1 Z.2
G1 E.5 F1800
;TYPE:Outer wall
G1 F3000
G1 X79.732 Y82.302 E.01743
G1 X80.257 Y82.373 E.0187
G1 X80.76 Y82.536 E.0187
G1 X81.226 Y82.787 E.0187
G1 X81.64 Y83.117 E.0187
G1 X81.988 Y83.515 E.0187
G1 X82.259 Y83.97 E.0187
G1 X82.445 Y84.465 E.0187
G1 X82.54 Y84.986 E.0187
G1 X82.54 Y85.515 E.0187
G1 X82.445 Y86.035 E.0187
G1 X82.259 Y86.531 E.0187
G1 X81.988 Y86.985 E.0187
G1 X81.64 Y87.383 E.0187
G1 X81.226 Y87.713 E.0187
G1 X80.76 Y87.964 E.0187
G1 X80.257 Y88.128 E.0187
G1 X79.732 Y88.199 E.0187
G1 X79.204 Y88.175 E.0187
G1 X78.688 Y88.057 E.0187
G1 X78.201 Y87.849 E.0187
G1 X77.76 Y87.558 E.0187
G1 X77.377 Y87.192 E.0187
G1 X77.066 Y86.764 E.0187
G1 X76.837 Y86.287 E.0187
G1 X76.696 Y85.777 E.0187
G1 X76.649 Y85.25 E.0187
G1 X76.696 Y84.723 E.0187
G1 X76.837 Y84.213 E.0187
G1 X77.066 Y83.736 E.0187
G1 X77.377 Y83.308 E.0187
G1 X77.76 Y82.943 E.0187
G1 X78.201 Y82.651 E.0187
G1 X78.689 Y82.443 E.01872
G1 X79.2 Y82.328 E.01853
G1 X79.63 Y81.806 F21000
;TYPE:Inner wall
G1 F3000
G1 X79.755 Y81.8 E.00443
G1 X80.368 Y81.883 E.02188
G1 X80.957 Y82.075 E.02188
G1 X81.502 Y82.368 E.02188
G1 X81.987 Y82.754 E.02188
G1 X82.394 Y83.22 E.02188
G1 X82.711 Y83.752 E.02188
G1 X82.929 Y84.331 E.02188
G1 X83.04 Y84.941 E.02188
G1 X83.04 Y85.56 E.02188
G1 X82.929 Y86.169 E.02188
G1 X82.711 Y86.749 E.02188
G1 X82.394 Y87.28 E.02188
G1 X81.987 Y87.746 E.02188
G1 X81.502 Y88.132 E.02188
G1 X80.957 Y88.426 E.02188
G1 X80.368 Y88.617 E.02188
G1 X79.755 Y88.7 E.02188
G1 X79.136 Y88.672 E.02188
G1 X78.533 Y88.535 E.02188
G1 X77.964 Y88.291 E.02188
G1 X77.447 Y87.95 E.02188
G1 X76.999 Y87.522 E.02188
G1 X76.635 Y87.021 E.02188
G1 X76.367 Y86.464 E.02188
G1 X76.202 Y85.867 E.02188
G1 X76.147 Y85.25 E.02188
G1 X76.202 Y84.634 E.02188
G1 X76.367 Y84.037 E.02188
G1 X76.635 Y83.479 E.02188
G1 X76.999 Y82.978 E.02188
G1 X77.447 Y82.55 E.02188
G1 X77.964 Y82.209 E.02188
G1 X78.534 Y81.965 E.02194
G1 X79.147 Y81.828 E.02221
G1 X79.59 Y81.808 E.01565
G1 X80.07 Y81.382 F21000
G1 F3000
G1 X80.471 Y81.436 E.01428
G1 X81.138 Y81.653 E.02479
G1 X81.755 Y81.985 E.02479
G1 X82.304 Y82.422 E.02479
G1 X82.765 Y82.951 E.02479
G1 X83.125 Y83.553 E.02479
G1 X83.371 Y84.209 E.02479
G1 X83.497 Y84.9 E.02479
G1 X83.497 Y85.601 E.02479
G1 X83.371 Y86.291 E.02479
G1 X83.125 Y86.948 E.02479
G1 X82.765 Y87.55 E.02479
G1 X82.304 Y88.078 E.02479
G1 X81.755 Y88.515 E.02479
G1 X81.138 Y88.848 E.02479
G1 X80.471 Y89.064 E.02479
G1 X79.776 Y89.159 E.02479
G1 X79.075 Y89.127 E.02479
G1 X78.391 Y88.971 E.02479
G1 X77.746 Y88.695 E.02479
G1 X77.161 Y88.309 E.02479
G1 X76.654 Y87.824 E.02479
G1 X76.241 Y87.257 E.02479
G1 X75.937 Y86.625 E.02479
G1 X75.751 Y85.949 E.02479
G1 X75.688 Y85.25 E.02479
G1 X75.751 Y84.552 E.02479
G1 X75.937 Y83.876 E.02479
G1 X76.241 Y83.244 E.02479
G1 X76.654 Y82.676 E.02479
G1 X77.161 Y82.191 E.02479
G1 X77.746 Y81.805 E.02479
G1 X78.393 Y81.528 E.02487
G1 X79.087 Y81.373 E.02512
G1 X79.776 Y81.342 E.02437
G1 X80.031 Y81.376 E.0091
G1 X80.433 Y80.97 F21000
G1 F3000
G1 X80.573 Y80.989 E.00498
G1 X81.318 Y81.231 E.0277
G1 X82.008 Y81.602 E.0277
G1 X82.621 Y82.091 E.0277
G1 X83.136 Y82.681 E.0277
G1 X83.538 Y83.354 E.0277
G1 X83.814 Y84.087 E.0277
G1 X83.954 Y84.858 E.0277
G1 X83.954 Y85.642 E.0277
G1 X83.814 Y86.413 E.0277
G1 X83.538 Y87.147 E.0277
G1 X83.136 Y87.82 E.0277
G1 X82.621 Y88.41 E.0277
G1 X82.008 Y88.898 E.0277
G1 X81.318 Y89.27 E.0277
G1 X80.573 Y89.512 E.0277
G1 X79.796 Y89.617 E.0277
G1 X79.013 Y89.582 E.0277
G1 X78.249 Y89.408 E.0277
G1 X77.529 Y89.1 E.0277
G1 X76.875 Y88.668 E.0277
G1 X76.308 Y88.126 E.0277
G1 X75.847 Y87.492 E.0277
G1 X75.507 Y86.786 E.0277
G1 X75.299 Y86.031 E.0277
G1 X75.229 Y85.25 E.0277
G1 X75.299 Y84.47 E.0277
G1 X75.507 Y83.714 E.0277
G1 X75.847 Y83.008 E.0277
G1 X76.308 Y82.374 E.0277
G1 X76.875 Y81.833 E.0277
G1 X77.529 Y81.401 E.0277
G1 X78.252 Y81.092 E.02781
G1 X79.026 Y80.918 E.02803
G1 X79.796 Y80.883 E.02725
G1 X80.393 Y80.964 E.0213
G1 E-.5
G1 Z.4 F21000
G1 X78.21 Y60.022
G1 X80.395 Y37.773
G1 X80.914 Y37.493
G1 X81.375 Y37.125
G1 X81.762 Y36.68
G1 X82.064 Y36.174
G1 X82.271 Y35.621
G1 X82.375 Y35.041
G1 X82.375 Y34.459
G1 X82.271 Y33.879
G1 X82.064 Y33.327
G1 X81.762 Y32.82
G1 X81.375 Y32.376
G1 X80.914 Y32.007
G1 X80.395 Y31.727
G1 X79.833 Y31.545
G1 X79.291 Y31.472
G1 X79.246 Y31.804
G1 Z.2
G1 E.5 F1800
;TYPE:Outer wall
G1 F3000
G1 X79.759 Y31.873 E.01828
G1 X80.262 Y32.037 E.01872
G1 X80.728 Y32.289 E.01871
G1 X81.142 Y32.619 E.01871
G1 X81.489 Y33.018 E.01871
G1 X81.76 Y33.473 E.01871
G1 X81.946 Y33.968 E.01871
G1 X82.04 Y34.489 E.0187
G1 X82.04 Y35.011 E.01846
G1 X81.946 Y35.532 E.0187
G1 X81.76 Y36.028 E.01871
G1 X81.489 Y36.483 E.01871
G1 X81.142 Y36.881 E.01871
G1 X80.728 Y37.212 E.01871
G1 X80.262 Y37.463 E.01871
G1 X79.759 Y37.627 E.01871
G1 X79.234 Y37.699 E.01871
G1 X78.706 Y37.675 E.01871
G1 X78.189 Y37.558 E.01871
G1 X77.702 Y37.35 E.01872
