; HEADER_BLOCK_START
; generated by OrcaSlicer 1.6.2 on 2023-05-22 at 08:34:19
; total layer number: 65
; HEADER_BLOCK_END

; THUMBNAIL_BLOCK_START
; THUMBNAIL_BLOCK_END

; external perimeters extrusion width = 0.40mm
; perimeters extrusion width = 0.45mm
; infill extrusion width = 0.45mm
; solid infill extrusion width = 0.40mm
; top infill extrusion width = 0.40mm
; first layer extrusion width = 0.50mm

; EXECUTABLE_BLOCK_START
EXCLUDE_OBJECT_DEFINE NAME=Left_motor_mount_middle.stl_id_0_copy_0 CENTER=60,60 POLYGON=[[21.85,36.7643],[21.8623,36.6079],[21.899,36.4553],[21.959,36.3104],[22.041,36.1766],[22.1429,36.0572],[26.5571,31.643],[26.6764,31.5411],[26.8102,31.4591],[26.9552,31.3991],[27.1078,31.3624],[27.2642,31.3501],[78.7358,31.3501],[78.8922,31.3624],[79.0448,31.3991],[79.1898,31.4591],[79.3236,31.5411],[79.4429,31.643],[83.8571,36.0572],[83.959,36.1765],[84.041,36.3103],[84.041,36.3103],[98.041,67.6101],[98.1011,67.7551],[98.1377,67.9077],[98.15,68.0641],[98.15,83.2357],[98.1377,83.3921],[98.1011,83.5447],[98.041,83.6896],[97.959,83.8235],[97.8571,83.9428],[93.4429,88.357],[93.3236,88.4589],[93.1898,88.5409],[93.0448,88.6009],[92.8922,88.6376],[92.7358,88.6499],[47.2642,88.6499],[47.1078,88.6376],[46.9552,88.6009],[46.8102,88.5409],[46.6764,88.4589],[46.5571,88.357],[42.1429,83.9428],[42.041,83.8235],[41.959,83.6896],[21.959,43.6896],[21.899,43.5447],[21.8623,43.3921],[21.85,43.2357],[21.85,36.7643]]
M73 P0 R24
;TYPE:Custom
START_PRINT T_BED=110 T_EXTRUDER=260
G90
G21
M83 ; use relative distances for extrusion
; Filament gcode

    PRESSURE_ADVANCE_SELECT FILAMENT=ABS
M106 S0
;LAYER_CHANGE
;Z:0.2
;HEIGHT:0.2
;BEFORE_LAYER_CHANGE
;0.2
G92 E0

;AFTER_LAYER_CHANGE
;0.2
M204 S1000
G1 E-.5 F3000
G1 Z.2 F21000
G1 X24.665 Y29.427
G1 E.5 F1800
;TYPE:Skirt
;WIDTH:0.5
G1 F3000
G1 X25.695 Y28.767 E.04307
G1 X26.879 Y28.457 E.04307
G1 X78.964 Y28.445 E1.83308
G1 X80.16 Y28.707 E.04307
G1 X81.216 Y29.325 E.04308
G1 X85.918 Y33.997 E.23326
G1 X86.526 Y34.788 E.03512
G1 X100.793 Y66.64 E1.22831
G1 X100.971 Y67.228 E.02162
G1 X101.064 Y68.064 E.02962
G1 X101.064 Y83.236 E.53395
G1 X100.935 Y84.225 E.03511
G1 X100.526 Y85.212 E.03761
G1 X99.918 Y86.003 E.03513
G1 X95.336 Y90.573 E.22773
G1 X94.305 Y91.233 E.0431
G1 X93.121 Y91.543 E.04307
G1 X47.264 Y91.564 E1.61386
G1 X46.275 Y91.434 E.03513
G1 X45.287 Y91.025 E.03761
G1 X44.496 Y90.418 E.03511
G1 X40.082 Y86.003 E.2197
G1 X39.474 Y85.212 E.03513
G1 X19.352 Y44.993 E1.58273
G1 X19.065 Y44.225 E.02884
G1 X18.945 Y43.464 E.02713
G1 X18.936 Y36.764 E.23579
G1 X19.065 Y35.775 E.03513
G1 X19.474 Y34.788 E.0376
G1 X20.082 Y33.997 E.03511
G1 X24.622 Y29.469 E.22564
G1 X24.944 Y29.792 F21000
G1 F3000
G1 X24.961 Y29.775 E.00087
G1 X25.87 Y29.189 E.03804
G1 X26.915 Y28.913 E.03804
G1 X78.929 Y28.901 E1.83056
G1 X79.985 Y29.129 E.03804
G1 X80.919 Y29.673 E.03805
G1 X85.595 Y34.32 E.23199
G1 X86.136 Y35.027 E.03134
G1 X100.371 Y66.815 E1.22579
G1 X100.527 Y67.334 E.0191
G1 X100.607 Y68.064 E.02584
G1 X100.607 Y83.236 E.53395
G1 X100.49 Y84.118 E.03133
G1 X100.136 Y84.973 E.03257
G1 X99.595 Y85.68 E.03134
G1 X95.039 Y90.225 E.22647
G1 X94.13 Y90.811 E.03807
G1 X93.085 Y91.087 E.03804
G1 X47.264 Y91.107 E1.6126
G1 X46.381 Y90.99 E.03134
G1 X45.526 Y90.636 E.03257
G1 X44.82 Y90.094 E.03133
G1 X40.405 Y85.68 E.2197
G1 X39.864 Y84.973 E.03134
G1 X19.761 Y44.788 E1.58135
G1 X19.51 Y44.119 E.02518
G1 X19.4 Y43.428 E.0246
G1 X19.393 Y36.764 E.23453
G1 X19.51 Y35.881 E.03135
G1 X19.864 Y35.026 E.03257
G1 X20.405 Y34.32 E.03133
G1 X24.902 Y29.834 E.22351
; printing object Left motor mount middle.stl id:0 copy 0
EXCLUDE_OBJECT_START NAME=Left_motor_mount_middle.stl_id_0_copy_0
G1 E-.5
G1 Z.4 F21000
G1 X81.974 Y83.481
G1 Z.2
G1 E.5 F1800
;TYPE:Inner wall
;WIDTH:0.499999
G1 F3000
G1 X81.196 Y83.972 E.03238
G1 X80.176 Y84.375 E.03861
G1 X79.075 Y84.588 E.03947
G1 X77.946 Y84.59 E.03974
G1 X76.853 Y84.384 E.03914
G1 X75.819 Y83.98 E.03909
G1 X74.866 Y83.381 E.0396
G1 X74.05 Y82.624 E.03916
G1 X73.383 Y81.717 E.03962
G1 X72.902 Y80.714 E.03914
G1 X72.644 Y79.756 E.03492
G1 X72.575 Y79.345 E.01469
G1 X72.535 Y78.519 E.0291
G1 X72.616 Y77.749 E.02724
G1 X72.708 Y77.2 E.01959
G1 X72.954 Y76.472 E.02705
G1 X73.15 Y76.018 E.01741
G1 X73.524 Y75.358 E.02668
G1 X73.915 Y74.853 E.02249
G1 X74.35 Y74.357 E.02322
G1 X74.918 Y73.892 E.02585
G1 X75.327 Y73.597 E.01773
G1 X76.044 Y73.213 E.02863
G1 X76.567 Y73.019 E.01965
G1 X77.109 Y72.848 E.01999
G1 X77.834 Y72.735 E.02584
G1 X78.388 Y72.68 E.01956
G1 X78.96 Y72.697 E.02016
G1 X79.632 Y72.805 E.02397
G1 X80.176 Y72.924 E.01959
G1 X80.928 Y73.2 E.02816
G1 X81.797 Y73.687 E.03507
G1 X82.149 Y73.929 E.01504
G1 X82.759 Y74.471 E.02872
G1 X83.213 Y75.015 E.02493
G1 X83.567 Y75.491 E.02087
G1 X83.831 Y76.001 E.02021
G1 X84.104 Y76.602 E.02325
G1 X84.333 Y77.397 E.02909
G1 X84.43 Y78.128 E.02598
G1 X84.471 Y78.642 E.01813
G1 X84.425 Y79.222 E.02049
G1 X84.371 Y79.739 E.01831
G1 X84.207 Y80.339 E.02186
G1 X84.031 Y80.898 E.02063
G1 X83.751 Y81.456 E.02198
G1 X83.466 Y81.956 E.02026
G1 X82.961 Y82.611 E.02909
G1 X82.149 Y83.37 E.03914
G1 X82.025 Y83.449 E.00516
G1 X81.726 Y83.103 F21000
G1 F3000
G1 X80.962 Y83.579 E.03167
G1 X80.019 Y83.946 E.03562
G1 X78.999 Y84.137 E.0365
G1 X77.957 Y84.133 E.03669
G1 X76.949 Y83.937 E.03614
G1 X75.996 Y83.558 E.0361
G1 X75.118 Y83 E.03659
G1 X74.37 Y82.297 E.03615
G1 X73.758 Y81.456 E.03661
G1 X73.319 Y80.527 E.03613
G1 X73.089 Y79.65 E.03193
G1 X73.031 Y79.323 E.01168
G1 X72.992 Y78.497 E.0291
G1 X73.068 Y77.813 E.02422
G1 X73.166 Y77.269 E.01946
G1 X73.432 Y76.487 E.02909
G1 X73.921 Y75.584 E.03614
G1 X74.264 Y75.149 E.01949
G1 X74.662 Y74.691 E.02133
G1 X75.206 Y74.247 E.02473
G1 X75.566 Y73.988 E.01562
G1 X76.26 Y73.615 E.02771
G1 X76.913 Y73.389 E.02434
G1 X77.395 Y73.248 E.01767
G1 X78.152 Y73.158 E.02682
G1 X78.837 Y73.147 E.02412
G1 X79.557 Y73.256 E.02561
G1 X80.019 Y73.353 E.01662
G1 X80.77 Y73.629 E.02816
G1 X81.563 Y74.079 E.03208
G1 X81.845 Y74.271 E.01201
G1 X82.455 Y74.813 E.02869
G1 X82.851 Y75.294 E.02195
G1 X83.176 Y75.728 E.01907
G1 X83.665 Y76.729 E.03921
G1 X83.894 Y77.523 E.02909
G1 X83.974 Y78.171 E.02297
G1 X84.009 Y78.756 E.02064
G1 X83.97 Y79.18 E.01496
G1 X83.894 Y79.776 E.02118
G1 X83.665 Y80.571 E.02909
G1 X83.343 Y81.25 E.02643
G1 X83.104 Y81.677 E.01725
G1 X82.599 Y82.332 E.02909
G1 X81.845 Y83.029 E.03613
G1 X81.776 Y83.071 E.00285
G1 X81.481 Y82.724 F21000
G1 F3000
G1 X80.728 Y83.187 E.0311
G1 X79.861 Y83.517 E.03264
G1 X78.924 Y83.687 E.03354
G1 X77.968 Y83.676 E.03365
G1 X77.045 Y83.49 E.03313
G1 X76.173 Y83.137 E.03311
G1 X75.371 Y82.619 E.03359
G1 X74.689 Y81.97 E.03314
G1 X74.133 Y81.194 E.0336
G1 X73.736 Y80.34 E.03313
G1 X73.533 Y79.543 E.02894
G1 X73.472 Y78.973 E.0202
G1 X73.448 Y78.412 E.01975
G1 X73.606 Y77.395 E.03621
G1 X73.865 Y76.634 E.0283
G1 X74.319 Y75.809 E.03313
G1 X75.01 Y74.994 E.0376
G1 X75.652 Y74.474 E.02909
G1 X76.476 Y74.018 E.03314
G1 X77.05 Y73.825 E.02133
G1 X77.509 Y73.693 E.01678
G1 X78.317 Y73.599 E.02862
G1 X78.826 Y73.604 E.01795
G1 X79.861 Y73.783 E.03696
G1 X80.613 Y74.058 E.02816
G1 X81.329 Y74.472 E.0291
G1 X81.542 Y74.613 E.00899
G1 X82.151 Y75.154 E.02866
G1 X82.811 Y76.01 E.03806
G1 X83.178 Y76.736 E.02863
G1 X83.353 Y77.299 E.02075
G1 X83.478 Y77.776 E.01736
G1 X83.554 Y78.586 E.02863
G1 X83.515 Y79.137 E.01944
G1 X83.455 Y79.65 E.01817
G1 X83.225 Y80.444 E.02909
G1 X82.935 Y81.043 E.02342
G1 X82.742 Y81.398 E.01423
G1 X82.237 Y82.053 E.02909
G1 X81.542 Y82.687 E.03313
G1 X81.532 Y82.693 E.0004
G1 X81.207 Y82.364 F21000
;TYPE:Outer wall
G1 F3000
G1 X80.494 Y82.794 E.0293
G1 X79.704 Y83.088 E.02965
G1 X78.848 Y83.236 E.03057
G1 X77.978 Y83.219 E.03061
G1 X77.141 Y83.044 E.03013
G1 X76.35 Y82.715 E.03012
G1 X75.624 Y82.238 E.03059
G1 X75.008 Y81.643 E.03013
G1 X74.507 Y80.933 E.0306
G1 X74.153 Y80.153 E.03012
G1 X73.978 Y79.437 E.02595
G1 X73.907 Y78.411 E.0362
G1 X74.021 Y77.606 E.02863
G1 X74.252 Y76.914 E.02565
G1 X74.441 Y76.52 E.01539
G1 X74.716 Y76.035 E.01963
G1 X75.297 Y75.349 E.03162
G1 X75.94 Y74.829 E.02909
G1 X76.692 Y74.421 E.03013
G1 X77.562 Y74.147 E.0321
G1 X78.37 Y74.053 E.02862
G1 X78.848 Y74.064 E.01683
G1 X79.663 Y74.201 E.02909
G1 X80.494 Y74.506 E.03114
G1 X81.205 Y74.93 E.02916
G1 X81.846 Y75.495 E.03006
G1 X82.38 Y76.181 E.03059
G1 X82.771 Y76.942 E.03013
G1 X83.023 Y77.819 E.0321
G1 X83.099 Y78.629 E.02863
G1 X83.06 Y79.094 E.01645
G1 X83.015 Y79.523 E.01517
G1 X82.786 Y80.317 E.02909
G1 X82.528 Y80.836 E.02041
G1 X82.279 Y81.25 E.017
G1 X81.875 Y81.774 E.02326
G1 X81.255 Y82.33 E.02931
G1 X81.215 Y82.444
G1 E-.5
G1 Z.4 F21000
G1 X88.974 Y74.976
G1 Z.2
G1 E.5 F1800
;TYPE:Inner wall
G1 F3000
G1 X89.209 Y74.903 E.00866
G1 X89.796 Y74.803 E.02097
G1 X90.424 Y74.79 E.02208
G1 X91.337 Y74.974 E.03279
G1 X91.735 Y75.127 E.01501
G1 X92.266 Y75.418 E.02131
G1 X92.61 Y75.671 E.01501
G1 X93.045 Y76.092 E.02131
G1 X93.309 Y76.427 E.01501
G1 X93.618 Y76.948 E.02131
G1 X93.784 Y77.34 E.01501
G1 X93.944 Y77.924 E.02131
G1 X94.001 Y78.347 E.01501
G1 X94.001 Y78.953 E.02131
G1 X93.977 Y79.229 E.00976
G1 X93.784 Y79.959 E.02658
G1 X93.618 Y80.352 E.01501
G1 X93.309 Y80.873 E.02131
G1 X93.045 Y81.208 E.01501
G1 X92.61 Y81.629 E.02131
G1 X92.266 Y81.882 E.01501
G1 X91.735 Y82.173 E.02131
G1 X91.337 Y82.326 E.01501
G1 X90.748 Y82.466 E.02131
G1 X90.324 Y82.509 E.015
G1 X89.719 Y82.489 E.02131
G1 X89.298 Y82.418 E.01501
G1 X88.72 Y82.239 E.02131
G1 X88.333 Y82.059 E.01501
G1 X87.822 Y81.733 E.02131
G1 X87.497 Y81.458 E.01501
G1 X87.091 Y81.009 E.02131
G1 X86.849 Y80.657 E.01501
G1 X86.576 Y80.117 E.02131
G1 X86.436 Y79.714 E.01501
G1 X86.316 Y79.121 E.0213
G1 X86.287 Y78.697 E.01495
G1 X86.326 Y78.102 E.02098
G1 X86.41 Y77.687 E.0149
G1 X86.61 Y77.105 E.02165
G1 X86.803 Y76.72 E.01518
G1 X87.146 Y76.221 E.0213
G1 X87.432 Y75.905 E.01501
G1 X87.895 Y75.513 E.02132
G1 X88.264 Y75.279 E.0154
G1 X88.804 Y75.029 E.02092
G1 X88.917 Y74.994 E.00417
G1 X89.11 Y75.408 F21000
M73 P1 R24
G1 F3000
G1 X89.286 Y75.354 E.00649
G1 X89.873 Y75.254 E.02097
G1 X90.41 Y75.247 E.01892
G1 X91.231 Y75.418 E.02951
G1 X91.516 Y75.528 E.01072
G1 X92.047 Y75.819 E.02131
G1 X92.292 Y76 E.01072
G1 X92.727 Y76.421 E.02131
G1 X92.916 Y76.66 E.01072
G1 X93.225 Y77.181 E.02131
G1 X93.344 Y77.461 E.01072
G1 X93.504 Y78.045 E.02131
G1 X93.544 Y78.347 E.01072
G1 X93.544 Y78.953 E.02131
G1 X93.527 Y79.15 E.00697
G1 X93.344 Y79.839 E.02508
G1 X93.225 Y80.119 E.01072
G1 X92.916 Y80.64 E.02131
G1 X92.727 Y80.879 E.01072
G1 X92.292 Y81.3 E.02131
G1 X92.047 Y81.481 E.01072
G1 X91.516 Y81.772 E.02131
G1 X90.867 Y81.968 E.02385
G1 X90.339 Y82.052 E.01881
G1 X89.734 Y82.032 E.02131
G1 X89.434 Y81.981 E.01072
G1 X88.855 Y81.802 E.02131
G1 X88.579 Y81.674 E.01072
G1 X88.068 Y81.348 E.02131
G1 X87.836 Y81.151 E.01072
G1 X87.43 Y80.702 E.02131
G1 X87.152 Y80.244 E.01885
G1 X86.914 Y79.739 E.01964
G1 X86.764 Y79.03 E.02552
G1 X86.758 Y78.505 E.01845
G1 X86.812 Y77.94 E.02
G1 X87.042 Y77.254 E.02546
G1 X87.319 Y76.777 E.0194
G1 X87.609 Y76.369 E.01765
G1 X88.19 Y75.862 E.0271
G1 X88.457 Y75.694 E.01111
G1 X88.996 Y75.444 E.02092
G1 X89.052 Y75.426 E.00208
G1 X89.224 Y75.858 F21000
G1 F3000
G1 X89.362 Y75.804 E.00521
G1 X89.95 Y75.704 E.02097
G1 X90.463 Y75.709 E.01808
G1 X91.125 Y75.863 E.02392
G1 X91.827 Y76.22 E.0277
G1 X92.409 Y76.749 E.0277
G1 X92.831 Y77.414 E.0277
G1 X93.063 Y78.166 E.0277
G1 X93.087 Y78.953 E.0277
G1 X93.077 Y79.071 E.00418
G1 X92.903 Y79.718 E.02357
G1 X92.523 Y80.407 E.0277
G1 X91.974 Y80.972 E.0277
G1 X91.296 Y81.371 E.0277
G1 X90.761 Y81.524 E.01958
G1 X90.355 Y81.595 E.01453
G1 X89.749 Y81.575 E.02131
G1 X88.991 Y81.365 E.0277
G1 X88.314 Y80.963 E.0277
G1 X87.954 Y80.6 E.01799
G1 X87.665 Y80.245 E.01612
G1 X87.392 Y79.704 E.02131
G1 X87.211 Y78.938 E.02769
G1 X87.238 Y78.162 E.02734
G1 X87.474 Y77.402 E.02799
G1 X87.9 Y76.738 E.02776
G1 X88.485 Y76.211 E.02771
G1 X88.984 Y75.953 E.01977
G1 X89.169 Y75.88 E.00699
G1 X89.419 Y76.266 F21000
;TYPE:Outer wall
G1 F3000
G1 X90.026 Y76.155 E.02173
G1 X90.43 Y76.167 E.01423
G1 X91.019 Y76.308 E.02132
G1 X91.607 Y76.621 E.02344
G1 X92.092 Y77.078 E.02344
G1 X92.438 Y77.647 E.02344
G1 X92.622 Y78.287 E.02344
G1 X92.627 Y78.992 E.02483
G1 X92.462 Y79.597 E.02207
G1 X92.129 Y80.174 E.02344
G1 X91.656 Y80.643 E.02344
G1 X91.076 Y80.97 E.02344
G1 X90.43 Y81.132 E.02344
G1 X89.765 Y81.118 E.02344
G1 X89.126 Y80.929 E.02344
G1 X88.56 Y80.577 E.02344
G1 X88.108 Y80.089 E.02344
G1 X87.8 Y79.498 E.02344
G1 X87.659 Y78.847 E.02343
G1 X87.694 Y78.192 E.0231
G1 X87.906 Y77.551 E.02376
G1 X88.277 Y76.997 E.02346
G1 X88.78 Y76.561 E.02345
G1 X89.361 Y76.282 E.02268
G1 X89.435 Y76.188
G1 E-.5
G1 Z.4 F21000
G1 X43.472 Y48.978
G1 Z.2
G1 E.5 F1800
;TYPE:Inner wall
G1 F3000
G1 X43.444 Y48.832 E.00525
G1 X43.29 Y48.466 E.01396
G1 X42.898 Y47.858 E.02546
G1 X42.439 Y47.453 E.02156
G1 X41.958 Y47.175 E.01954
G1 X41.592 Y47.042 E.01371
G1 X41.184 Y46.951 E.01469
G1 X40.855 Y46.929 E.01161
G1 X27.578 Y46.929 E.46728
G1 X23.571 Y42.936 E.19907
G1 X23.571 Y37.063 E.2067
G1 X27.552 Y33.083 E.19811
G1 X45.877 Y33.083 E.64496
;WIDTH:0.50109
G1 X46.391 Y33.083 E.01811
;WIDTH:0.547297
G1 X46.682 Y33.106 E.01135
;WIDTH:0.593504
G1 X46.973 Y33.13 E.01239
G1 X47.486 Y33.12 E.02176
;WIDTH:0.595755
G1 X48.057 Y33.131 E.02428
G1 X48.313 Y33.107 E.01097
;WIDTH:0.547877
G1 X48.57 Y33.083 E.01002
;WIDTH:0.499999
G1 X50.299 Y33.083 E.06084
G1 X52.527 Y35.31 E.11088
G1 X53.078 Y35.719 E.02417
G1 X53.737 Y35.978 E.02491
G1 X54.409 Y36.071 E.02387
G1 X72.298 Y36.071 E.62956
G1 X72.888 Y35.997 E.02095
G1 X73.344 Y35.853 E.01682
G1 X73.715 Y35.664 E.01467
G1 X74.208 Y35.283 E.02193
G1 X76.419 Y33.073 E.11
G1 X77.391 Y33.077 E.03423
;WIDTH:0.535641
G1 X77.525 Y33.095 E.00511
;WIDTH:0.571283
G1 X77.658 Y33.113 E.00548
;WIDTH:0.606925
G1 X77.792 Y33.132 E.00585
G1 X78.43 Y33.122 E.02771
;WIDTH:0.581762
G1 X78.991 Y33.683 E.03294
G1 X78.338 Y33.659 E.02712
;WIDTH:0.606925
G1 X77.838 Y33.692 E.02175
G1 X77.736 Y33.738 E.00487
;WIDTH:0.571283
G1 X77.634 Y33.785 E.00456
;WIDTH:0.535641
G1 X77.532 Y33.832 E.00425
;WIDTH:0.499999
G1 X77.055 Y34.02 E.01806
G1 X76.642 Y34.258 E.01678
G1 X76.24 Y34.578 E.01806
G1 X75.916 Y34.928 E.01679
G1 X75.627 Y35.352 E.01806
G1 X75.36 Y35.977 E.02392
G1 X75.221 Y36.468 E.01798
G1 X75.179 Y36.995 E.0186
G1 X75.179 Y46.643 E.33953
G1 X75.197 Y47.244 E.02117
G1 X75.249 Y47.493 E.00896
;WIDTH:0.471954
G1 X75.301 Y47.743 E.00841
G1 X75.219 Y47.502 E.00839
;WIDTH:0.499999
G1 X75.137 Y47.262 E.00894
G1 X74.844 Y46.625 E.02466
G1 X74.494 Y45.968 E.02619
G1 X74.09 Y45.303 E.02738
G1 X73.666 Y44.688 E.02629
G1 X73.208 Y44.098 E.0263
G1 X72.708 Y43.525 E.02676
G1 X72.186 Y42.992 E.02624
G1 X71.629 Y42.484 E.02656
G1 X71.042 Y42.006 E.02663
G1 X70.413 Y41.553 E.02729
G1 X69.795 Y41.159 E.02576
G1 X69.137 Y40.79 E.02656
G1 X68.459 Y40.459 E.02656
G1 X67.763 Y40.167 E.02656
G1 X67.052 Y39.915 E.02656
G1 X66.325 Y39.704 E.02662
G1 X65.569 Y39.531 E.02731
G1 X64.848 Y39.409 E.02575
G1 X64.098 Y39.325 E.02656
G1 X63.344 Y39.284 E.02656
G1 X62.588 Y39.286 E.02661
G1 X61.812 Y39.333 E.02737
G1 X61.062 Y39.422 E.02656
G1 X60.319 Y39.554 E.02656
G1 X59.585 Y39.728 E.02656
G1 X58.861 Y39.944 E.02656
G1 X58.153 Y40.2 E.02651
G1 X57.479 Y40.487 E.02578
G1 X56.782 Y40.833 E.02738
G1 X55.952 Y41.319 E.03385
G1 X55.493 Y41.617 E.01927
G1 X54.885 Y42.063 E.02653
G1 X54.32 Y42.528 E.02576
G1 X53.749 Y43.055 E.02736
G1 X53.23 Y43.593 E.02627
G1 X52.734 Y44.17 E.0268
G1 X52.272 Y44.773 E.02673
G1 X51.853 Y45.391 E.02628
G1 X51.469 Y46.032 E.02629
G1 X51.16 Y46.619 E.02333
G1 X50.914 Y47.149 E.02057
G1 X50.81 Y47.435 E.0107
;WIDTH:0.473692
G1 X50.706 Y47.72 E.01008
;WIDTH:0.49232
G1 X50.793 Y47.391 E.01177
;WIDTH:0.499999
G1 X50.821 Y47.004 E.01366
G1 X50.821 Y37.742 E.32597
G1 X50.803 Y36.756 E.03474
G1 X50.727 Y36.253 E.0179
G1 X50.587 Y35.798 E.01674
G1 X50.364 Y35.336 E.01806
G1 X50.095 Y34.942 E.01678
G1 X49.746 Y34.566 E.01806
G1 X49.373 Y34.268 E.01678
G1 X48.929 Y34.012 E.01806
G1 X48.485 Y33.837 E.01678
;WIDTH:0.547877
G1 X48.24 Y33.757 E.01002
