; HEADER_BLOCK_START
; generated by OrcaSlicer 1.6.6 on 2023-08-31 at 15:52:16
; total layer number: 24
; HEADER_BLOCK_END

; THUMBNAIL_BLOCK_START
; THUMBNAIL_BLOCK_END

; external perimeters extrusion width = 0.15mm
; perimeters extrusion width = 0.17mm
; infill extrusion width = 0.24mm
; solid infill extrusion width = 0.21mm
; top infill extrusion width = 0.15mm
; first layer extrusion width = 0.19mm

; EXECUTABLE_BLOCK_START
EXCLUDE_OBJECT_DEFINE NAME=Hello_Kitty_Booba_Feet_2.4mm.stl_id_0_copy_0 CENTER=60,60 POLYGON=[[37.8647,66.6593],[37.8722,66.4974],[40.2965,47.3113],[40.4021,46.6865],[40.6707,46.0618],[47.4825,33.0821],[47.9139,32.5393],[48.2222,32.1513],[48.9505,31.5333],[49.1282,31.3824],[50.1774,30.8006],[50.8582,30.5421],[51.5703,30.3728],[52.455,30.267],[53.6513,30.2009],[54.2173,30.1913],[66.1261,30],[66.233,30.0014],[67.1432,30.0138],[68.1195,30.0817],[69.0386,30.2025],[69.8855,30.3744],[70.6434,30.5963],[71.1256,30.7957],[71.2967,30.8665],[72.0947,31.3558],[72.7772,31.9717],[73.3427,32.7123],[79.9847,45.3751],[80.349,46.6814],[82.1353,66.575],[82.1332,66.7845],[82.0834,66.9793],[82.079,66.9966],[75.937,83.9449],[75.7392,84.3754],[75.5073,84.7339],[75.2805,84.9819],[75.2333,85.0336],[74.911,85.2865],[74.5333,85.5046],[74.1769,85.6644],[73.8201,85.7763],[73.4407,85.8412],[64.2954,87.301],[49.8125,89.5901],[49.4505,89.6338],[48.9605,89.6812],[48.4207,89.7248],[47.9226,89.765],[47.73,89.7797],[47.7208,89.7804],[46.4864,89.8711],[45.5956,89.9285],[44.8372,89.9692],[44.2005,89.9932],[43.6743,90],[43.2481,89.9916],[43.0862,89.98],[42.9099,89.9673],[42.6499,89.9276],[42.1258,89.7683],[41.6407,89.5551],[41.5545,89.5172],[41.0267,89.2194],[40.6329,88.9195],[40.3341,88.5421],[40.2505,88.1455],[37.8909,66.9246],[37.8647,66.6593]]
M73 P0 R41
M73 C16
;TYPE:Custom
START_PRINT T_BED=60 T_EXTRUDER=220
G90
G21
M83 ; use relative distances for extrusion
; filament start gcode

    PRESSURE_ADVANCE_SELECT FILAMENT=PLA
M106 S0
;LAYER_CHANGE
;Z:0.1
;HEIGHT:0.1
;BEFORE_LAYER_CHANGE
;0.1
G92 E0

;AFTER_LAYER_CHANGE
;0.1
SET_VELOCITY_LIMIT ACCEL=500 ACCEL_TO_DECEL=250
SET_VELOCITY_LIMIT SQUARE_CORNER_VELOCITY=9
G1 E-.8 F3000
G1 Z.2 F21000
G1 X45.418 Y31.998
G1 Z.2
G1 Z.1
G1 E.8 F1800
;TYPE:Skirt
;WIDTH:0.1875
G1 F3000
G1 X46.713 Y30.373 E.01406
G1 X47.997 Y29.343 E.01114
G1 X49.046 Y28.761 E.00812
G1 X50.03 Y28.362 E.00718
G1 X51.031 Y28.104 E.00699
G1 X52.326 Y27.938 E.00884
G1 X67.175 Y27.682 E.10047
G1 X69.502 Y27.917 E.01583
G1 X71.535 Y28.441 E.0142
G1 X72.516 Y28.878 E.00726
G1 X73.314 Y29.368 E.00633
G1 X74.631 Y30.557 E.012
G1 X75.408 Y31.629 E.00896
G1 X82.05 Y44.292 E.09673
G1 X82.595 Y46.055 E.01248
G1 X84.465 Y66.808 E.14096
G1 X84.272 Y67.791 E.00678
G1 X78.13 Y84.739 E.12195
G1 X77.465 Y86.001 E.00964
G1 X76.673 Y86.868 E.00795
G1 X75.487 Y87.633 E.00955
G1 X74.214 Y88.075 E.00912
G1 X49.73 Y91.949 E.16769
G1 X45.746 Y92.256 E.02703
G1 X43.628 Y92.332 E.01433
G1 X42.298 Y92.233 E.00903
G1 X41.187 Y91.903 E.00784
G1 X39.881 Y91.251 E.00988
G1 X39.22 Y90.775 E.00551
G1 X38.506 Y89.989 E.00718
G1 X38.052 Y89.023 E.00722
G1 X35.544 Y66.888 E.1507
G1 X35.558 Y66.205 E.00462
G1 X37.983 Y47.019 E.13083
G1 X38.26 Y45.765 E.00868
G1 X38.606 Y44.978 E.00582
G1 X45.411 Y32.012 E.09906
G1 X45.558 Y32.089 F21000
G1 F3000
G1 X45.565 Y32.076 E.0001
G1 X46.821 Y30.5 E.01363
G1 X48.078 Y29.488 E.01092
G1 X49.127 Y28.906 E.00812
G1 X50.089 Y28.517 E.00702
G1 X51.069 Y28.265 E.00685
G1 X52.336 Y28.104 E.00864
G1 X67.173 Y27.848 E.10039
G1 X69.469 Y28.08 E.01562
G1 X71.471 Y28.595 E.01398
G1 X72.429 Y29.02 E.00709
G1 X73.227 Y29.509 E.00633
G1 X74.499 Y30.657 E.01159
G1 X75.261 Y31.706 E.00877
G1 X81.903 Y44.369 E.09673
G1 X82.435 Y46.099 E.01225
G1 X84.299 Y66.806 E.14065
G1 X84.115 Y67.735 E.0064
G1 X77.973 Y84.683 E.12195
G1 X77.326 Y85.91 E.00939
G1 X76.571 Y86.738 E.00758
G1 X75.419 Y87.481 E.00927
G1 X74.186 Y87.911 E.00884
G1 X49.71 Y91.784 E.16764
G1 X45.735 Y92.09 E.02697
G1 X43.632 Y92.166 E.01424
G1 X42.323 Y92.069 E.00888
G1 X41.254 Y91.751 E.00754
G1 X39.962 Y91.106 E.00977
G1 X39.321 Y90.643 E.00535
G1 X38.636 Y89.886 E.0069
G1 X38.215 Y88.989 E.00671
G1 X35.709 Y66.872 E.15058
G1 X35.723 Y66.226 E.00437
G1 X38.148 Y47.04 E.13083
G1 X38.412 Y45.831 E.00837
G1 X38.753 Y45.055 E.00573
G1 X45.551 Y32.102 E.09896
; printing object Hello_Kitty_Booba_Feet_2.4mm.stl id:0 copy 0
G1 E-.8
EXCLUDE_OBJECT_START NAME=Hello_Kitty_Booba_Feet_2.4mm.stl_id_0_copy_0
G1 Z.3 F21000
G1 X74.551 Y56.095 Z.3
G1 Z.1
G1 E.8 F1800
;TYPE:Outer wall
;WIDTH:0.187499
G1 F3000
G1 X74.588 Y56.192 E.0007
G1 X75.134 Y56.522 E.00432
G1 X76.277 Y57.107 E.00869
G1 X76.934 Y57.536 E.0053
G1 X77.156 Y57.795 E.00231
G1 X77.251 Y58.183 E.00271
G3 X77.482 Y60.94 I-310.297 J27.38 E.01871
G1 X77.618 Y62.036 E.00747
G1 X77.73 Y62.217 E.00144
G1 X77.978 Y62.321 E.00182
G2 X79.312 Y62.129 I-.565 J-8.631 E.00913
G1 X80.065 Y62.105 E.0051
G1 X80.288 Y62.159 E.00155
G1 X80.457 Y62.29 E.00145
G1 X80.463 Y62.674 E.0026
G1 X80.38 Y62.862 E.00139
G3 X79.39 Y63.237 I-1.991 J-3.768 E.00718
G2 X78.227 Y63.606 I1.406 J6.452 E.00827
G1 X77.916 Y63.803 E.00249
G1 X77.776 Y64.034 E.00183
G1 X77.743 Y64.686 E.00441
G1 X77.855 Y65.468 E.00534
G1 X77.951 Y65.692 E.00165
G1 X78.142 Y65.875 E.00179
G2 X79.219 Y65.973 I1.129 J-6.457 E.00732
G1 X80.417 Y66.005 E.00811
G3 X81.628 Y66.084 I-.035 J9.847 E.00821
G3 X81.996 Y66.428 I-.627 J1.041 E.00344
G1 X82.041 Y66.665 E.00163
G1 X82.04 Y66.772 E.00073
G1 X81.952 Y67.02 E.00178
G1 X81.773 Y67.191 E.00168
G1 X81.363 Y67.287 E.00285
G3 X78.608 Y67.459 I-5.565 J-67.099 E.01867
G1 X77.941 Y67.523 E.00453
G1 X77.869 Y67.593 E.00068
G1 X77.386 Y70.835 E.02217
G2 X77.194 Y73.976 I16.521 J2.585 E.02132
G3 X77.898 Y75.681 I-18.121 J8.473 E.01248
G3 X77.985 Y76.988 I-9.039 J1.262 E.00887
G2 X77.009 Y79.184 I28.372 J13.93 E.01626
G2 X76.535 Y80.814 I12.554 J4.531 E.01149
G1 X76.183 Y82.702 E.01299
G3 X75.657 Y84.33 I-6.906 J-1.333 E.01161
G1 X75.293 Y84.83 E.00418
G1 X74.86 Y85.207 E.00388
G3 X73.947 Y85.638 I-3.91 J-7.103 E.00684
G1 X73.433 Y85.747 E.00355
G1 X72.532 Y85.734 E.0061
G3 X71.271 Y85.529 I1.534 J-13.468 E.00865
G2 X68.346 Y84.955 I-9.307 J39.614 E.02016
G1 X67.824 Y84.944 E.00353
G1 X67.432 Y85.06 E.00277
G1 X67.02 Y85.371 E.0035
G1 X66.29 Y86.16 E.00727
G1 X65.816 Y86.585 E.00431
G1 X65.366 Y86.861 E.00357
G3 X62.611 Y87.142 I-1.766 J-3.67 E.01912
G1 X62.022 Y86.895 E.00431
G1 X61.509 Y86.57 E.00411
G1 X61.053 Y86.154 E.00418
G2 X59.999 Y84.849 I-35.56 J27.667 E.01135
G2 X59.405 Y84.496 I-.993 J.996 E.00472
G2 X56.653 Y84.072 I-6.772 J34.78 E.01884
G2 X53.684 Y83.796 I-6.072 J49.144 E.02018
G2 X52.653 Y83.894 I-.231 J3.032 E.00704
G1 X51.815 Y84.17 E.00597
G3 X48.558 Y85.318 I-29.369 J-78.102 E.02336
G1 X47.927 Y85.482 E.00441
G1 X47.149 Y85.513 E.00527
G1 X47.074 Y85.641 E.00101
G1 X47.096 Y85.731 E.00062
G1 X47.522 Y86.12 E.0039
G1 X47.881 Y86.589 E.004
G1 X48.124 Y87.089 E.00376
G3 X50.031 Y88.996 I-13.852 J15.759 E.01826
G1 X50.262 Y89.36 E.00291
G1 X50.192 Y89.413 E.00059
G3 X48.952 Y89.588 I-1.883 J-8.854 E.00848
G3 X44.162 Y89.9 I-9.199 J-104.253 E.03248
G3 X42.671 Y89.836 I-.334 J-9.627 E.01011
G3 X40.699 Y88.852 I1.203 J-4.878 E.01503
G1 X40.421 Y88.501 E.00303
G1 X40.347 Y88.149 E.00244
G1 X40.472 Y87.697 E.00317
G2 X41.357 Y86.104 I-48.026 J-27.724 E.01233
G2 X41.59 Y85.206 I-2.6 J-1.155 E.00631
G2 X41.696 Y78.241 I-154.493 J-5.846 E.04713
G2 X41.371 Y76.149 I-7.68 J.123 E.01437
G1 X40.832 Y74.488 E.01181
G3 X40.891 Y68.028 I276.909 J-.703 E.04371
G1 X40.815 Y67.951 E.00073
G1 X40.244 Y67.796 E.004
G1 X39.093 Y67.61 E.00789
G1 X38.613 Y67.484 E.00336
G1 X38.215 Y67.295 E.00298
G1 X38.044 Y67.098 E.00177
G3 X37.992 Y66.409 I1.435 J-.455 E.00471
G1 X38.298 Y66.049 E.0032
G2 X41.721 Y66.108 I3.168 J-83.849 E.02316
G1 X42.293 Y66.066 E.00388
G1 X42.409 Y65.948 E.00112
G1 X42.438 Y65.736 E.00145
G2 X42.437 Y63.963 I-11.391 J-.88 E.01201
G1 X42.375 Y63.775 E.00134
G1 X42.086 Y63.481 E.00279
G1 X41.251 Y63.025 E.00644
G1 X40.84 Y62.739 E.00338
G1 X40.569 Y62.445 E.0027
G1 X40.542 Y62.311 E.00093
G1 X40.77 Y62.142 E.00192
G1 X41.024 Y62.071 E.00179
G3 X42.136 Y62.156 I-1.634 J28.797 E.00755
G1 X42.345 Y62.009 E.00172
G1 X42.452 Y61.506 E.00348
G2 X42.605 Y59.152 I-200.025 J-14.158 E.01596
G1 X42.691 Y58.539 E.00419
G1 X42.855 Y58.34 E.00175
G1 X43.687 Y57.913 E.00633
G2 X45.117 Y57.314 I-182.997 J-438.894 E.01049
G1 X45.838 Y56.941 E.00549
G1 X45.994 Y56.79 E.00147
G1 X46.019 Y56.55 E.00163
G1 X45.747 Y56.136 E.00335
G1 X45.128 Y55.452 E.00624
G3 X42.214 Y52.356 I60.8 J-60.133 E.02877
G1 X41.568 Y51.491 E.0073
G3 X40.748 Y49.841 I7.833 J-4.919 E.01248
G1 X40.527 Y48.994 E.00592
G1 X40.404 Y48.116 E.006
G1 X40.39 Y47.318 E.00539
G1 X40.493 Y46.713 E.00415
G3 X41.573 Y44.682 I11.264 J4.687 E.01559
G1 X41.945 Y44.189 E.00418
G1 X42.583 Y43.708 E.00541
G3 X44.161 Y43.106 I4.86 J10.364 E.01143
G2 X45.664 Y42.455 I-2.415 J-7.641 E.0111
G1 X46.079 Y42.088 E.00375
G1 X46.234 Y41.679 E.00296
G2 X46.383 Y39.813 I-23.856 J-2.843 E.01267
G3 X46.586 Y36.037 I129.109 J5.039 E.02558
G3 X47.021 Y34.186 I6.653 J.588 E.0129
G1 X47.562 Y33.133 E.00801
G1 X48.29 Y32.217 E.00792
G1 X49.182 Y31.46 E.00791
G1 X50.217 Y30.886 E.00801
G3 X51.587 Y30.465 I2.3 J5.049 E.00972
G3 X54.885 Y30.289 I2.847 J22.274 E.02236
G3 X57.651 Y30.402 I-.792 J53.212 E.01873
G1 X58.428 Y30.49 E.00529
G3 X59.421 Y30.956 I-1.318 J4.104 E.00744
G1 X60.029 Y31.286 E.00468
G1 X60.496 Y31.349 E.00319
G1 X60.992 Y31.281 E.00339
G1 X61.321 Y31.158 E.00238
G3 X62.735 Y30.538 I9.864 J20.581 E.01044
G1 X63.472 Y30.321 E.0052
G3 X69.023 Y30.295 I2.86 J17.798 E.0377
G3 X71.254 Y30.95 I-1.295 J8.533 E.01578
G1 X72.038 Y31.431 E.00622
G1 X72.708 Y32.036 E.0061
G1 X73.263 Y32.763 E.00619
G1 X73.702 Y33.612 E.00647
G1 X73.854 Y34.084 E.00335
G3 X73.992 Y35.316 I-8.674 J1.598 E.0084
G3 X74.18 Y40.471 I-407.757 J17.435 E.03489
G1 X74.279 Y41.067 E.00409
G1 X74.575 Y41.662 E.00449
G2 X75.785 Y42.544 I1.701 J-1.063 E.01038
G3 X77.382 Y42.949 I-3.92 J18.782 E.01115
G1 X78.136 Y43.365 E.00582
G1 X78.857 Y43.962 E.00633
G1 X79.469 Y44.669 E.00633
G1 X79.898 Y45.412 E.0058
G1 X80.256 Y46.696 E.00902
G1 X80.316 Y48.099 E.0095
G1 X80.086 Y49.478 E.00946
G1 X79.573 Y50.694 E.00892
G1 X79.236 Y51.151 E.00384
G3 X75.932 Y54.63 I-57.117 J-50.938 E.03247
G1 X74.998 Y55.583 E.00903
G1 X74.561 Y56.084 E.0045
G1 X74.404 Y56.068 F21000
;TYPE:Inner wall
G1 F3000
G1 X74.39 Y56.185 E.0008
G1 X74.502 Y56.334 E.00126
G1 X75.058 Y56.67 E.0044
G1 X76.193 Y57.25 E.00862
G1 X76.831 Y57.666 E.00515
G1 X77.003 Y57.866 E.00178
G1 X77.096 Y58.306 E.00304
G3 X77.317 Y60.958 I-343.72 J29.963 E.018
G1 X77.457 Y62.078 E.00764
G1 X77.646 Y62.367 E.00234
G1 X77.982 Y62.487 E.00241
G2 X79.326 Y62.294 I-.554 J-8.63 E.00919
G1 X80.056 Y62.27 E.00494
G1 X80.258 Y62.324 E.00141
G1 X80.313 Y62.478 E.00111
G1 X80.283 Y62.7 E.00151
G3 X79.346 Y63.076 I-1.577 J-2.565 E.00686
G2 X78.069 Y63.487 I1.596 J7.159 E.00909
G1 X77.758 Y63.734 E.00269
G1 X77.61 Y64.026 E.00221
G1 X77.579 Y64.709 E.00463
G1 X77.691 Y65.491 E.00534
G1 X77.799 Y65.759 E.00196
G1 X77.972 Y65.963 E.00181
G1 X78.12 Y66.039 E.00113
G2 X79.216 Y66.139 I1.155 J-6.648 E.00745
G1 X80.413 Y66.171 E.0081
G3 X81.561 Y66.241 I-.045 J10.186 E.00778
G1 X81.815 Y66.455 E.00225
G1 X81.875 Y66.663 E.00146
G3 X81.744 Y67.006 I-.423 J.035 E.00257
G1 X81.338 Y67.123 E.00286
G3 X78.599 Y67.293 I-5.528 J-66.701 E.01856
G1 X77.921 Y67.358 E.00461
G1 X77.784 Y67.421 E.00102
G1 X77.705 Y67.569 E.00113
G1 X77.343 Y70.002 E.01664
G2 X77.025 Y72.854 I26.588 J4.4 E.01943
G1 X77.022 Y73.944 E.00737
G1 X77.042 Y74.043 E.00068
G3 X77.734 Y75.717 I-18.108 J8.466 E.01225
G3 X77.818 Y76.953 I-8.55 J1.2 E.00839
G2 X76.852 Y79.128 I27.977 J13.723 E.0161
G2 X76.372 Y80.783 I12.71 J4.585 E.01167
G3 X75.918 Y83.113 I-61.571 J-10.802 E.01606
G3 X75.511 Y84.25 I-5.094 J-1.181 E.00819
G1 X75.17 Y84.718 E.00392
G1 X74.77 Y85.067 E.00359
G1 X74.078 Y85.423 E.00526
G1 X73.42 Y85.581 E.00458
G1 X72.545 Y85.568 E.00592
G3 X71.303 Y85.367 I1.512 J-13.257 E.00851
G2 X68.35 Y84.789 I-8.978 J38.035 E.02036
G1 X67.815 Y84.778 E.00362
G1 X67.333 Y84.927 E.00341
G1 X66.898 Y85.259 E.0037
G3 X65.906 Y86.282 I-8.517 J-7.268 E.00965
G1 X65.499 Y86.585 E.00343
G3 X63.33 Y87.084 I-1.936 J-3.451 E.01526
G1 X62.66 Y86.982 E.00458
G1 X62.1 Y86.748 E.00411
G1 X61.611 Y86.438 E.00392
G1 X61.175 Y86.04 E.00399
G2 X60.121 Y84.737 I-35.49 J27.625 E.01134
G1 X59.816 Y84.499 E.00262
G1 X59.435 Y84.333 E.00281
G2 X55.764 Y83.802 I-7.617 J39.659 E.0251
G2 X53.683 Y83.63 I-3.473 J29.375 E.01413
G1 X53.109 Y83.641 E.00388
G2 X51.756 Y84.014 I1.435 J7.845 E.00951
G3 X48.505 Y85.161 I-29.303 J-77.923 E.02332
G1 X47.904 Y85.317 E.00421
G2 X47.085 Y85.36 I18.281 J359.035 E.00555
G1 X46.947 Y85.504 E.00135
G1 X46.906 Y85.708 E.00141
G1 X46.984 Y85.853 E.00111
G1 X47.399 Y86.233 E.0038
G1 X47.738 Y86.676 E.00378
G1 X48.015 Y87.215 E.0041
G3 X49.628 Y88.799 I-12.486 J14.326 E.0153
G1 X50.028 Y89.272 E.00419
G3 X48.938 Y89.422 I-2.492 J-14.051 E.00745
G3 X43.61 Y89.737 I-7.174 J-76.167 E.03612
G1 X42.708 Y89.674 E.00612
G3 X40.918 Y88.81 I1.567 J-5.534 E.01351
G1 X40.576 Y88.429 E.00347
G1 X40.518 Y88.154 E.0019
G1 X40.627 Y87.76 E.00276
G2 X41.505 Y86.178 I-47.058 J-27.174 E.01224
G2 X41.756 Y85.213 I-2.763 J-1.232 E.00678
G1 X41.785 Y84.486 E.00492
G2 X41.862 Y78.232 I-163.3 J-5.141 E.04232
G2 X41.648 Y76.586 I-6.862 J.057 E.01126
G1 X41.529 Y76.098 E.0034
G1 X40.998 Y74.462 E.01163
G3 X41.057 Y68.041 I200.163 J-1.36 E.04344
G1 X41.007 Y67.885 E.00111
G1 X40.859 Y67.791 E.00118
G1 X40.271 Y67.632 E.00412
G1 X39.12 Y67.446 E.00789
G1 X38.657 Y67.323 E.00324
G1 X38.388 Y67.198 E.00201
G1 X38.198 Y67.023 E.00174
G3 X38.151 Y66.472 I1.141 J-.376 E.00377
G1 X38.365 Y66.216 E.00226
G1 X40.496 Y66.261 E.01442
G2 X42.305 Y66.232 I.662 J-15.11 E.01225
G1 X42.443 Y66.178 E.001
G1 X42.549 Y66.038 E.00119
G1 X42.603 Y65.751 E.00197
G2 X42.603 Y63.952 I-11.604 J-.895 E.01218
G1 X42.519 Y63.689 E.00187
G1 X42.166 Y63.335 E.00338
G1 X41.354 Y62.892 E.00626
G1 X40.935 Y62.603 E.00344
G1 X40.721 Y62.369 E.00215
G3 X41.009 Y62.243 I.345 J.398 E.00216
G3 X42.074 Y62.327 I-.283 J10.352 E.00723
G1 X42.205 Y62.307 E.00089
G1 X42.445 Y62.162 E.0019
G1 X42.507 Y62.044 E.0009
G2 X42.668 Y60.86 I-4.393 J-1.199 E.0081
G1 X42.765 Y59.211 E.01118
G1 X42.835 Y58.639 E.0039
G1 X42.953 Y58.476 E.00136
G1 X43.757 Y58.063 E.00612
G2 X45.194 Y57.461 I-65.785 J-158.916 E.01054
G1 X45.914 Y57.088 E.00549
G1 X46.111 Y56.908 E.00181
G1 X46.181 Y56.773 E.00103
G1 X46.158 Y56.438 E.00227
G1 X45.87 Y56.024 E.00341
G1 X45.248 Y55.337 E.00627
G3 X42.343 Y52.251 I60.696 J-60.033 E.02868
G1 X41.706 Y51.399 E.00719
G3 X40.907 Y49.789 I7.662 J-4.811 E.01218
G1 X40.69 Y48.962 E.00579
G1 X40.57 Y48.103 E.00587
G1 X40.557 Y47.331 E.00522
G1 X40.653 Y46.761 E.00391
G3 X41.71 Y44.776 I11.067 J4.619 E.01523
G1 X42.064 Y44.308 E.00397
G1 X42.667 Y43.853 E.00511
G3 X44.213 Y43.263 I4.761 J10.162 E.01121
G2 X45.246 Y42.87 I-4.552 J-13.522 E.00748
G1 X45.774 Y42.579 E.00408
G1 X46.226 Y42.171 E.00412
G1 X46.399 Y41.695 E.00343
G2 X46.549 Y39.822 I-24.036 J-2.861 E.01271
G3 X46.751 Y36.053 I128.906 J5.029 E.02554
G3 X47.174 Y34.252 I6.468 J.568 E.01256
G1 X47.702 Y33.224 E.00782
G1 X48.41 Y32.333 E.0077
G1 X49.277 Y31.597 E.00769
G1 X50.287 Y31.037 E.00782
G3 X51.616 Y30.629 I2.231 J4.899 E.00943
G3 X54.882 Y30.455 I2.818 J22.103 E.02215
G3 X57.636 Y30.567 I-.787 J53.004 E.01865
G1 X58.388 Y30.653 E.00512
G1 X58.79 Y30.806 E.00291
G2 X60.002 Y31.453 I113.112 J-210.433 E.0093
G1 X60.512 Y31.515 E.00348
G1 X61.016 Y31.445 E.00344
G1 X61.39 Y31.309 E.00269
G3 X62.794 Y30.693 I9.79 J20.418 E.01037
G1 X63.505 Y30.484 E.00501
G3 X68.996 Y30.459 I2.827 J17.634 E.0373
G3 X71.178 Y31.099 I-1.42 J8.888 E.01543
G1 X71.938 Y31.565 E.00603
G1 X72.585 Y32.148 E.00589
G1 X73.122 Y32.852 E.00599
G1 X73.548 Y33.676 E.00628
G1 X73.692 Y34.121 E.00317
G3 X73.827 Y35.325 I-8.476 J1.56 E.0082
G3 X74.016 Y40.497 I-433.799 J18.496 E.03501
G1 X74.131 Y41.143 E.00444
G1 X74.426 Y41.736 E.00448
