; generated by SuperSlicer 2.5.59 on 2022-12-31 at 20:59:39 UTC


;
;

;
;
; 

; external perimeters extrusion width = 0.40mm
; perimeters extrusion width = 0.46mm
; infill extrusion width = 0.64mm
; solid infill extrusion width = 0.56mm
; top infill extrusion width = 0.40mm
; support material extrusion width = 0.46mm
; first layer extrusion width = 0.50mm

; object:{"name":"hex_mount","id":"hex_mount.stl id:0 copy 0","object_center":[60.247988,60.059323,0.000000],"boundingbox_center":[60.247988,60.059323,5.505000],"boundingbox_size":[60.000000,19.498026,11.009999]}
; plater:{"center":[60.247988,60.059323,0.000000],"boundingbox_center":[60.247988,60.059323,5.505000],"boundingbox_size":[60.000000,19.498026,11.009999]}

M73 P0 R20
;TYPE:Custom
; custom gcode: start_gcode
START_PRINT T_BED=60 T_EXTRUDER=200
; custom gcode end: start_gcode
M107
G21 ; set units to millimeters
G90 ; use absolute coordinates
M83 ; use relative distances for extrusion
; custom gcode: start_filament_gcode
; Filament gcode

    PRESSURE_ADVANCE_SELECT FILAMENT=PLA
; custom gcode end: start_filament_gcode
;_TOOLCHANGE 0
M104 S200 ; set temperature
M109 S200 ; set temperature and wait for it to be reached
M190 S60 ; set bed temperature and wait for it to be reached
;LAYER_CHANGE
;Z:0.2
;HEIGHT:0.2
G1 Z0.12 F12000
G92 E0
M73 P0 R20
G1 E-0.8 F1800
M204 S2000
G1 X31.232 Y44.51 F12000
G1 E0.8 F1800
;TYPE:Skirt
;WIDTH:0.52
G1 X30.982 Y44.685 E0.01214
G1 X30.17 Y46.193 E0.06793
G1 X26.759 Y58.948 E0.52377
G1 X26.632 Y59.908 E0.03841
G1 X26.648 Y72.983 E0.51868
G1 X27.385 Y75.186 E0.09214
G1 X28.697 Y76.286 E0.06793
G1 X30.364 Y76.681 E0.06793
G1 X86.736 Y76.681 E2.23626
M73 P0 R20
G1 X88.463 Y76.255 E0.07055
G1 X89.755 Y75.131 E0.06793
G1 X93.167 Y70.377 E0.23214
G1 X93.864 Y68.211 E0.09027
G1 X93.864 Y59.908 E0.32935
G1 X93.737 Y58.948 E0.03841
G1 X90.326 Y46.193 E0.52377
G1 X89.715 Y44.932 E0.05558
G1 X88.403 Y43.832 E0.06793
G1 X86.736 Y43.438 E0.06793
G1 X33.759 Y43.438 E2.10156
G1 X32.384 Y43.702 E0.05558
G1 X31.232 Y44.51 E0.0558
G1 X31.469 Y44.886 F12000
G1 F1800
G1 X31.411 Y44.923 E0.00273
G1 X30.631 Y46.317 E0.06336
G1 X27.219 Y59.072 E0.52377
G1 X27.109 Y59.908 E0.03348
G1 X27.125 Y72.981 E0.51859
G1 X27.645 Y74.724 E0.07216
G1 X28.816 Y75.81 E0.06336
G1 X30.364 Y76.204 E0.06336
G1 X86.736 Y76.204 E2.23626
G1 X88.145 Y75.881 E0.05734
G1 X89.368 Y74.853 E0.06336
G1 X92.779 Y70.099 E0.23214
G1 X93.387 Y68.211 E0.07868
G1 X93.387 Y59.908 E0.32935
G1 X93.277 Y59.072 E0.03348
G1 X89.865 Y46.317 E0.52377
G1 X89.456 Y45.394 E0.04003
G1 X88.284 Y44.309 E0.06336
G1 X86.736 Y43.915 E0.06336
G1 X33.759 Y43.915 E2.10156
G1 X32.763 Y44.072 E0.04003
G1 X31.469 Y44.886 E0.06063
G1 E-0.8
; printing object hex_mount.stl id:0 copy 0
; acceleration to travel
M204 S4000
G1 X35.112 Y57.521 F12000
; decel to extrusion
M204 S2000
G1 X36.933 Y63.839
; end travel
G1 E0.8 F1800
;TYPE:Support material
;WIDTH:0.5
G1 X37.057 Y63.807 E0.00487
G1 X37.184 Y63.791 E0.00487
G1 X37.312 Y63.791 E0.00487
G1 X37.439 Y63.807 E0.00487
G1 X37.489 Y63.82 E0.00197
G1 X37.563 Y63.839 E0.00289
G1 X37.574 Y63.843 E0.00043
G1 X37.682 Y63.886 E0.00444
G1 X37.764 Y63.931 E0.00357
G1 X37.794 Y63.948 E0.00129
G1 X37.852 Y63.989 E0.0027
G1 X37.898 Y64.023 E0.00217
G1 X37.991 Y64.11 E0.00487
G1 X38.073 Y64.209 E0.00487
G1 X38.141 Y64.317 E0.00487
G1 X38.196 Y64.433 E0.00487
G1 X38.205 Y64.462 E0.00115
G1 X38.235 Y64.555 E0.00371
G1 X38.259 Y64.681 E0.00487
G1 X38.268 Y64.814 E0.0051
G1 X38.269 Y64.839 E0.00094
G1 X38.269 Y69.935 E0.19369
G1 X38.92 Y70.57 E0.03456
G1 X39.753 Y70.55 E0.03166
G1 X41.196 Y70.513 E0.05483
G1 X41.676 Y70.501 E0.01828
G1 X43.119 Y70.465 E0.05483
G1 X43.599 Y70.453 E0.01828
G1 X45.864 Y70.397 E0.08608
G1 X46.034 Y70.222 E0.0093
G1 X46.477 Y69.768 E0.02406
G1 X46.477 Y64.589 E0.19685
M73 P1 R20
G1 X46.479 Y64.547 E0.00161
G1 X46.485 Y64.462 E0.00323
G1 X46.503 Y64.367 E0.00367
G1 X46.533 Y64.275 E0.00367
G1 X46.574 Y64.188 E0.00367
G1 X46.625 Y64.106 E0.00367
G1 X46.687 Y64.032 E0.00367
G1 X46.757 Y63.965 E0.00367
G1 X46.836 Y63.909 E0.00367
G1 X46.92 Y63.862 E0.00367
G1 X46.969 Y63.843 E0.00198
G1 X47.01 Y63.826 E0.00169
G1 X47.104 Y63.802 E0.00367
G1 X47.2 Y63.79 E0.00367
G1 X47.296 Y63.79 E0.00367
G1 X47.392 Y63.802 E0.00367
G1 X47.486 Y63.826 E0.00367
G1 X47.527 Y63.843 E0.00169
G1 X47.576 Y63.862 E0.00198
G1 X47.66 Y63.909 E0.00367
G1 X47.738 Y63.965 E0.00367
G1 X47.809 Y64.032 E0.00367
G1 X47.871 Y64.106 E0.00367
G1 X47.922 Y64.188 E0.00367
G1 X47.963 Y64.275 E0.00367
G1 X47.977 Y64.317 E0.00168
G1 X47.993 Y64.367 E0.00199
G1 X48.005 Y64.429 E0.0024
G1 X48.011 Y64.462 E0.00127
G1 X48.017 Y64.555 E0.00354
G1 X48.019 Y64.589 E0.00131
G1 X48.019 Y69.692 E0.19393
G1 X48.67 Y70.327 E0.03456
G1 X49.503 Y70.306 E0.03166
G1 X50.946 Y70.27 E0.05483
G1 X51.426 Y70.258 E0.01828
G1 X52.869 Y70.222 E0.05483
G1 X53.349 Y70.21 E0.01828
G1 X55.614 Y70.153 E0.08608
G1 X56.227 Y69.525 E0.03336
G1 X56.227 Y64.37 E0.19591
G1 X56.247 Y64.209 E0.00616
G1 X56.254 Y64.15 E0.00227
G1 X56.332 Y64.006 E0.0062
G1 X56.406 Y63.928 E0.00406
G1 X56.445 Y63.888 E0.00214
G1 X56.589 Y63.82 E0.00608
G1 X56.716 Y63.796 E0.00489
G1 X56.879 Y63.807 E0.0062
G1 X57.054 Y63.89 E0.00739
G1 X57.078 Y63.916 E0.00134
G1 X57.164 Y64.006 E0.00473
G1 X57.241 Y64.147 E0.00608
G1 X57.251 Y64.227 E0.0031
G1 X57.269 Y64.37 E0.00546
G1 X57.269 Y69.46 E0.19347
G1 X57.92 Y70.095 E0.03456
G1 X58.753 Y70.075 E0.03166
G1 X60.196 Y70.038 E0.05483
G1 X60.676 Y70.026 E0.01828
G1 X62.119 Y69.99 E0.05483
G1 X62.599 Y69.978 E0.01828
G1 X64.042 Y69.942 E0.05483
G1 X64.863 Y69.922 E0.03123
G1 X65.476 Y69.295 E0.03331
G1 X65.477 Y68.495 E0.03041
G1 X65.478 Y68.036 E0.01745
G1 X65.479 Y67.577 E0.01745
G1 X65.48 Y67.117 E0.01745
G1 X65.481 Y66.658 E0.01745
G1 X65.482 Y66.199 E0.01745
G1 X65.483 Y65.74 E0.01745
G1 X65.484 Y65.281 E0.01745
G1 X65.485 Y64.822 E0.01745
G1 X65.485 Y64.363 E0.01745
G1 X65.486 Y64.026 E0.01279
G1 X65.512 Y63.928 E0.00384
G1 X65.553 Y63.884 E0.00231
G1 X65.591 Y63.843 E0.00213
G1 X65.616 Y63.831 E0.00105
G1 X65.626 Y63.826 E0.00041
G1 X65.667 Y63.808 E0.00169
G1 X65.698 Y63.802 E0.0012
G1 X65.748 Y63.792 E0.00195
G1 X65.798 Y63.802 E0.00195
G1 X65.829 Y63.808 E0.0012
G1 X65.849 Y63.817 E0.00084
G1 X65.905 Y63.843 E0.00231
G1 X65.944 Y63.884 E0.00217
G1 X65.973 Y63.916 E0.00162
G1 X66.003 Y63.993 E0.00315
G1 X66.019 Y64.12 E0.00487
G1 X66.019 Y69.242 E0.19466
G1 X66.67 Y69.877 E0.03456
G1 X67.484 Y69.856 E0.03093
G1 X67.946 Y69.845 E0.01755
G1 X68.407 Y69.833 E0.01755
G1 X68.869 Y69.822 E0.01755
G1 X69.33 Y69.81 E0.01755
G1 X69.792 Y69.799 E0.01755
G1 X70.253 Y69.787 E0.01755
G1 X70.715 Y69.776 E0.01755
G1 X71.176 Y69.764 E0.01755
G1 X71.638 Y69.752 E0.01755
G1 X72.099 Y69.741 E0.01755
G1 X72.561 Y69.729 E0.01755
G1 X73.364 Y69.709 E0.03052
G1 X73.45 Y69.621 E0.0047
G1 X73.977 Y69.081 E0.02866
G1 X73.977 Y64.12 E0.18855
G1 X73.988 Y64.032 E0.00338
G1 X73.993 Y63.993 E0.00149
G1 X74.011 Y63.948 E0.00185
G1 X74.023 Y63.916 E0.0013
G1 X74.091 Y63.843 E0.00379
G1 X74.141 Y63.819 E0.0021
G1 X74.167 Y63.808 E0.00105
G1 X74.182 Y63.805 E0.00061
G1 X74.248 Y63.792 E0.00254
G1 X74.319 Y63.806 E0.00275
G1 X74.329 Y63.808 E0.0004
G1 X74.354 Y63.819 E0.00103
G1 X74.405 Y63.843 E0.00212
G1 X74.445 Y63.886 E0.00224
G1 X74.473 Y63.916 E0.00155
G1 X74.503 Y63.993 E0.00315
G1 X74.519 Y64.12 E0.00487
G1 X74.519 Y69.029 E0.18658
G1 X75.17 Y69.664 E0.03456
G1 X75.984 Y69.644 E0.03093
G1 X76.446 Y69.632 E0.01755
G1 X76.907 Y69.621 E0.01755
G1 X77.369 Y69.609 E0.01755
G1 X77.83 Y69.598 E0.01755
G1 X78.292 Y69.586 E0.01755
G1 X78.753 Y69.575 E0.01755
G1 X79.215 Y69.563 E0.01755
G1 X79.676 Y69.551 E0.01755
G1 X80.138 Y69.54 E0.01755
G1 X80.599 Y69.528 E0.01755
G1 X81.061 Y69.517 E0.01755
G1 X81.864 Y69.497 E0.03052
G1 X81.982 Y69.375 E0.00647
G1 X82.477 Y68.868 E0.02689
G1 X82.477 Y64.12 E0.18047
G1 X82.495 Y63.976 E0.00551
G1 X82.52 Y63.93 E0.00199
G1 X82.535 Y63.903 E0.00117
G1 X82.591 Y63.843 E0.00315
G1 X82.604 Y63.837 E0.00053
G1 X82.626 Y63.826 E0.00094
G1 X82.667 Y63.808 E0.00169
G1 X82.694 Y63.802 E0.00107
G1 X82.748 Y63.792 E0.00208
G1 X82.786 Y63.799 E0.00146
G1 X82.829 Y63.808 E0.00169
G1 X82.855 Y63.82 E0.00109
G1 X82.905 Y63.843 E0.00206
G1 X82.961 Y63.903 E0.00315
G1 X82.985 Y63.947 E0.00189
G1 X83.001 Y63.976 E0.00126
G1 X83.019 Y64.12 E0.00551
G1 X83.019 Y68.817 E0.17851
G1 X83.67 Y69.452 E0.03456
G1 X84.503 Y69.431 E0.03166
G1 X85.946 Y69.395 E0.05483
G1 X86.426 Y69.383 E0.01828
G1 X86.577 Y69.379 E0.00574
G1 X86.736 Y69.375 E0.00605
G1 X86.736 Y72.965 E0.13646
G1 X30.364 Y72.965 E2.14251
G1 X30.364 Y70.784 E0.08289
G1 X30.727 Y70.775 E0.01381
G1 X31.182 Y70.764 E0.01728
G1 X31.636 Y70.752 E0.01728
G1 X32.091 Y70.741 E0.01728
G1 X32.545 Y70.73 E0.01728
G1 X33 Y70.718 E0.01728
G1 X33.454 Y70.707 E0.01728
G1 X33.909 Y70.696 E0.01728
G1 X34.363 Y70.684 E0.01728
G1 X34.818 Y70.673 E0.01728
G1 X35.614 Y70.653 E0.03025
G1 X35.75 Y70.513 E0.00741
G1 X36.227 Y70.025 E0.02595
G1 X36.227 Y64.839 E0.19709
G1 X36.228 Y64.816 E0.00087
G1 X36.237 Y64.681 E0.00517
G1 X36.241 Y64.656 E0.00093
G1 X36.26 Y64.555 E0.00393
G1 X36.3 Y64.433 E0.00487
G1 X36.321 Y64.39 E0.00183
G1 X36.355 Y64.317 E0.00304
G1 X36.423 Y64.209 E0.00487
G1 X36.505 Y64.11 E0.00487
G1 X36.551 Y64.067 E0.00243
G1 X36.598 Y64.023 E0.00243
G1 X36.677 Y63.965 E0.00371
G1 X36.702 Y63.948 E0.00116
G1 X36.814 Y63.886 E0.00487
G1 X36.922 Y63.843 E0.00444
G1 X36.933 Y63.839 E0.00043
G1 E-0.8
; acceleration to travel
M204 S4000
G1 X69.744 Y69.847 F12000
; decel to extrusion
M204 S2000
G1 X86.149 Y72.851
; end travel
G1 E0.8 F1800
G1 X86.149 Y69.701 E0.11974
G1 X85.953 Y69.705 E0.00745
G1 X85.641 Y69.713 E0.01186
G1 X85.641 Y72.655 E0.11179
G1 X85.133 Y72.655 E0.0193
G1 X85.133 Y69.726 E0.1113
G1 X84.626 Y69.739 E0.01931
G1 X84.626 Y72.655 E0.11082
G1 X84.118 Y72.655 E0.0193
G1 X84.118 Y69.751 E0.11034
G1 X83.61 Y69.764 E0.01931
G1 X83.61 Y72.655 E0.10986
G1 X83.102 Y72.655 E0.0193
G1 X83.102 Y69.331 E0.1263
G1 X82.773 Y69.01 E0.01749
G1 X82.594 Y69.193 E0.00971
G1 X82.594 Y72.655 E0.13156
G1 X82.086 Y72.655 E0.0193
G1 X82.086 Y69.714 E0.11177
G1 X81.998 Y69.804 E0.00481
G1 X81.578 Y69.815 E0.01595
G1 X81.578 Y72.655 E0.10793
G1 X81.07 Y72.655 E0.0193
G1 X81.07 Y69.828 E0.10744
G1 X80.607 Y69.839 E0.01762
G1 X80.563 Y69.84 E0.00169
G1 X80.563 Y72.655 E0.10696
G1 X80.055 Y72.655 E0.0193
G1 X80.055 Y69.853 E0.10648
G1 X79.684 Y69.862 E0.01409
G1 X79.547 Y69.866 E0.00521
G1 X79.547 Y72.655 E0.106
G1 X79.039 Y72.655 E0.0193
G1 X79.039 Y69.878 E0.10551
G1 X78.761 Y69.885 E0.01057
G1 X78.531 Y69.891 E0.00874
G1 X78.531 Y72.655 E0.10503
G1 X78.023 Y72.655 E0.0193
G1 X78.023 Y69.904 E0.10455
G1 X77.838 Y69.908 E0.00705
G1 X77.515 Y69.916 E0.01226
G1 X77.515 Y72.655 E0.10407
G1 X77.008 Y72.655 E0.0193
G1 X77.008 Y69.929 E0.10358
G1 X76.915 Y69.931 E0.00353
G1 X76.5 Y69.942 E0.01578
G1 X76.5 Y72.655 E0.1031
G1 X75.992 Y72.655 E0.0193
G1 X75.992 Y69.954 E0.10262
G1 X75.484 Y69.967 E0.01931
G1 X75.484 Y72.655 E0.10214
G1 X74.976 Y72.655 E0.0193
G1 X74.976 Y69.909 E0.10436
G1 X74.468 Y69.413 E0.02696
G1 X74.468 Y72.655 E0.12318
G1 X73.96 Y72.655 E0.0193
G1 X73.96 Y69.543 E0.11827
G1 X73.673 Y69.838 E0.01567
G1 X73.498 Y70.017 E0.00951
G1 X73.453 Y70.018 E0.00172
G1 X73.453 Y72.655 E0.10021
G1 X72.945 Y72.655 E0.0193
G1 X72.945 Y70.031 E0.09972
G1 X72.569 Y70.04 E0.01429
G1 X72.437 Y70.043 E0.00501
G1 X72.437 Y72.655 E0.09924
G1 X71.929 Y72.655 E0.0193
G1 X71.929 Y70.056 E0.09876
G1 X71.646 Y70.063 E0.01077
G1 X71.421 Y70.069 E0.00854
G1 X71.421 Y72.655 E0.09827
G1 X70.913 Y72.655 E0.0193
G1 X70.913 Y70.081 E0.09779
G1 X70.723 Y70.086 E0.00725
G1 X70.405 Y70.094 E0.01206
G1 X70.405 Y72.655 E0.09731
G1 X69.897 Y72.655 E0.0193
G1 X69.897 Y70.107 E0.09683
G1 X69.799 Y70.109 E0.00373
G1 X69.39 Y70.12 E0.01558
G1 X69.39 Y72.655 E0.09634
G1 X68.882 Y72.655 E0.0193
G1 X68.882 Y70.132 E0.09586
G1 X68.415 Y70.144 E0.01775
G1 X68.374 Y70.145 E0.00156
G1 X68.374 Y72.655 E0.09538
G1 X67.866 Y72.655 E0.0193
G1 X67.866 Y70.158 E0.0949
G1 X67.492 Y70.167 E0.01423
G1 X67.358 Y70.17 E0.00508
G1 X67.358 Y72.655 E0.09441
G1 X66.85 Y72.655 E0.0193
G1 X66.85 Y70.183 E0.09393
G1 X66.547 Y70.191 E0.01152
G1 X66.342 Y69.991 E0.01087
G1 X66.342 Y72.655 E0.10124
G1 X65.835 Y72.655 E0.0193
G1 X65.835 Y69.496 E0.12006
G1 X65.773 Y69.436 E0.00326
G1 X65.327 Y69.892 E0.02427
G1 X65.327 Y72.655 E0.10498
G1 X64.819 Y72.655 E0.0193
G1 X64.819 Y70.234 E0.092
M73 P2 R20
G1 X64.311 Y70.247 E0.01931
G1 X64.311 Y72.655 E0.09152
G1 X63.803 Y72.655 E0.0193
G1 X63.803 Y70.259 E0.09104
G1 X63.295 Y70.272 E0.01931
G1 X63.295 Y72.655 E0.09055
G1 X62.787 Y72.655 E0.0193
G1 X62.787 Y70.285 E0.09007
G1 X62.607 Y70.289 E0.00685
G1 X62.279 Y70.297 E0.01246
G1 X62.279 Y72.655 E0.08959
G1 X61.772 Y72.655 E0.0193
G1 X61.772 Y70.31 E0.08911
G1 X61.264 Y70.323 E0.01931
G1 X61.264 Y72.655 E0.08862
G1 X60.756 Y72.655 E0.0193
G1 X60.756 Y70.335 E0.08814
G1 X60.684 Y70.337 E0.00273
G1 X60.248 Y70.348 E0.01658
G1 X60.248 Y72.655 E0.08766
G1 X59.74 Y72.655 E0.0193
G1 X59.74 Y70.361 E0.08718
G1 X59.232 Y70.373 E0.01931
G1 X59.232 Y72.655 E0.08669
G1 X58.724 Y72.655 E0.0193
G1 X58.724 Y70.386 E0.08621
G1 X58.217 Y70.399 E0.01931
G1 X58.217 Y72.655 E0.08573
G1 X57.709 Y72.655 E0.0193
M73 P2 R19
G1 X57.709 Y70.323 E0.08861
G1 X57.201 Y69.828 E0.02696
G1 X57.201 Y72.655 E0.10744
G1 X56.693 Y72.655 E0.0193
G1 X56.693 Y64.116 E0.3245
G1 X56.629 Y64.145 E0.00265
G1 X56.586 Y64.191 E0.0024
G1 X56.555 Y64.246 E0.00241
G1 X56.537 Y64.389 E0.00548
G1 X56.537 Y69.651 E0.19998
G1 X56.185 Y70.012 E0.01918
G1 X56.185 Y72.655 E0.10042
G1 X55.677 Y72.655 E0.0193
G1 X55.677 Y70.462 E0.08332
G1 X55.169 Y70.475 E0.01931
G1 X55.169 Y72.655 E0.08283
G1 X54.661 Y72.655 E0.0193
G1 X54.661 Y70.488 E0.08235
G1 X54.154 Y70.5 E0.01931
G1 X54.154 Y72.655 E0.08187
G1 X53.646 Y72.655 E0.0193
G1 X53.646 Y70.513 E0.08139
G1 X53.357 Y70.52 E0.01097
G1 X53.138 Y70.526 E0.00834
G1 X53.138 Y72.655 E0.0809
G1 X52.63 Y72.655 E0.0193
G1 X52.63 Y70.539 E0.08042
G1 X52.122 Y70.551 E0.01931
G1 X52.122 Y72.655 E0.07994
G1 X51.614 Y72.655 E0.0193
G1 X51.614 Y70.564 E0.07946
G1 X51.434 Y70.568 E0.00685
G1 X51.106 Y70.577 E0.01246
G1 X51.106 Y72.655 E0.07897
G1 X50.599 Y72.655 E0.0193
G1 X50.599 Y70.589 E0.07849
G1 X50.091 Y70.602 E0.01931
G1 X50.091 Y72.655 E0.07801
G1 X49.583 Y72.655 E0.0193
G1 X49.583 Y70.615 E0.07753
G1 X49.511 Y70.617 E0.00273
G1 X49.075 Y70.627 E0.01658
G1 X49.075 Y72.655 E0.07704
G1 X48.567 Y72.655 E0.0193
G1 X48.567 Y70.64 E0.07656
G1 X48.547 Y70.641 E0.00076
G1 X48.059 Y70.165 E0.02591
G1 X48.059 Y72.655 E0.09463
G1 X47.551 Y72.655 E0.0193
G1 X47.551 Y64.216 E0.32072
G1 X47.54 Y64.205 E0.00059
G1 X47.493 Y64.172 E0.00219
G1 X47.443 Y64.144 E0.00219
G1 X47.413 Y64.132 E0.00124
G1 X47.39 Y64.123 E0.00095
G1 X47.334 Y64.108 E0.00219
G1 X47.277 Y64.101 E0.00219
G1 X47.219 Y64.101 E0.00219
G1 X47.162 Y64.108 E0.00219
G1 X47.106 Y64.123 E0.00219
G1 X47.083 Y64.132 E0.00095
G1 X47.053 Y64.144 E0.00124
G1 X47.043 Y64.149 E0.00041
G1 X47.043 Y72.655 E0.32326
G1 X46.536 Y72.655 E0.0193
G1 X46.536 Y70.153 E0.09507
G1 X46.257 Y70.439 E0.01517
G1 X46.028 Y70.674 E0.01248
G1 X46.028 Y72.655 E0.07528
G1 X45.52 Y72.655 E0.0193
G1 X45.52 Y70.716 E0.07366
G1 X45.012 Y70.729 E0.01931
G1 X45.012 Y72.655 E0.07318
G1 X44.504 Y72.655 E0.0193
G1 X44.504 Y70.742 E0.0727
G1 X43.996 Y70.754 E0.01931
G1 X43.996 Y72.655 E0.07222
G1 X43.488 Y72.655 E0.0193
G1 X43.488 Y70.767 E0.07173
G1 X43.126 Y70.776 E0.01376
G1 X42.981 Y70.78 E0.00554
G1 X42.981 Y72.655 E0.07125
G1 X42.473 Y72.655 E0.0193
G1 X42.473 Y70.792 E0.07077
G1 X41.965 Y70.805 E0.01931
G1 X41.965 Y72.655 E0.07029
G1 X41.457 Y72.655 E0.0193
G1 X41.457 Y70.818 E0.0698
G1 X41.203 Y70.824 E0.00964
G1 X40.949 Y70.831 E0.00966
G1 X40.949 Y72.655 E0.06932
G1 X40.441 Y72.655 E0.0193
G1 X40.441 Y70.843 E0.06884
G1 X39.933 Y70.856 E0.01931
G1 X39.933 Y72.655 E0.06836
G1 X39.425 Y72.655 E0.0193
G1 X39.425 Y70.869 E0.06787
G1 X38.918 Y70.881 E0.01931
G1 X38.918 Y72.655 E0.06739
G1 X38.41 Y72.655 E0.0193
