; HEADER_BLOCK_START
; generated by OrcaSlicer 1.6.6 on 2023-08-31 at 20:47:59
; total layer number: 45
; HEADER_BLOCK_END

; THUMBNAIL_BLOCK_START
; THUMBNAIL_BLOCK_END

; external perimeters extrusion width = 0.15mm
; perimeters extrusion width = 0.17mm
; infill extrusion width = 0.24mm
; solid infill extrusion width = 0.21mm
; top infill extrusion width = 0.15mm
; first layer extrusion width = 0.19mm

; external perimeters extrusion width = 0.15mm
; perimeters extrusion width = 0.17mm
; infill extrusion width = 0.24mm
; solid infill extrusion width = 0.21mm
; top infill extrusion width = 0.15mm
; first layer extrusion width = 0.19mm

; EXECUTABLE_BLOCK_START
EXCLUDE_OBJECT_DEFINE NAME=Hook_-_V2_-_Medium.STL_id_0_copy_0 CENTER=65.6947,63.3179 POLYGON=[[33.4062,83.4929],[33.4168,83.1145],[35.66,52.2574],[35.6714,52.171],[35.6902,52.0859],[35.7165,52.0028],[35.7499,51.9222],[35.7902,51.8449],[35.837,51.7714],[43.8128,39.8056],[43.837,39.7694],[43.8628,39.7342],[43.8901,39.7001],[43.9491,39.6358],[44.0134,39.5769],[44.0826,39.5238],[44.1562,39.4769],[44.2336,39.4366],[44.3142,39.4032],[44.3974,39.377],[44.4825,39.3581],[44.569,39.3467],[44.6562,39.3429],[46.6562,39.3429],[46.7433,39.3467],[46.8298,39.3581],[89.1598,48.0156],[89.4878,48.0855],[89.5577,48.1023],[89.9506,48.2091],[90.0422,48.2372],[90.3376,48.3358],[90.5844,48.4282],[90.7176,48.482],[91.0898,48.6474],[91.1114,48.6577],[91.453,48.8314],[91.6206,48.9244],[91.8064,49.0337],[92.1093,49.227],[92.149,49.2538],[92.48,49.491],[92.575,49.5639],[92.7985,49.7447],[93.0153,49.9334],[93.1036,50.0143],[93.3947,50.2991],[93.428,50.3335],[93.6709,50.5983],[93.8108,50.7623],[93.9315,50.9112],[94.1619,51.2174],[94.1758,51.2369],[94.4033,51.5746],[94.4794,51.6965],[94.6133,51.9235],[94.7617,52.1973],[94.8052,52.2826],[94.9787,52.6511],[95.0073,52.717],[95.1331,53.0278],[95.215,53.253],[95.2682,53.412],[95.3836,53.8025],[97.9491,63.377],[97.9679,63.4622],[97.9793,63.5487],[97.9831,63.6358],[97.9793,63.723],[97.9679,63.8095],[97.9491,63.8946],[97.9228,63.9778],[97.8895,64.0584],[97.8492,64.1358],[97.8023,64.2094],[97.7492,64.2786],[97.6902,64.3429],[97.6259,64.4019],[97.5567,64.455],[97.4831,64.5018],[97.4058,64.5421],[97.3252,64.5755],[38.2463,87.2326],[38.1631,87.2589],[38.0781,87.2777],[37.9916,87.2891],[37.9046,87.2929],[34.4077,87.2929],[34.3207,87.2891],[34.2342,87.2777],[34.1491,87.2589],[34.066,87.2326],[33.9855,87.1992],[33.9082,87.159],[33.8347,87.1121],[33.7655,87.059],[33.7013,87],[33.6424,86.9357],[33.5893,86.8665],[33.5425,86.7929],[33.5022,86.7155],[33.4689,86.635],[33.4427,86.5517],[33.4238,86.4666],[33.4124,86.3801],[33.4062,86.2929],[33.4062,83.4929]]
EXCLUDE_OBJECT_DEFINE NAME=Pegboard_L_1.5in_v2.stl_id_1_copy_0 CENTER=51.9544,37.9426 POLYGON=[[21.3794,54.2126],[22.9794,17.8626],[81.8944,17.8626],[82.0587,17.8843],[82.2119,17.9477],[82.3434,18.0486],[82.4443,18.1801],[82.5077,18.3333],[82.5294,18.4977],[82.5294,23.1963],[82.5109,23.3483],[82.4565,23.4916],[82.3695,23.6176],[82.2547,23.7191],[25.3794,58.0226],[21.3794,58.0226],[21.3794,54.2126]]
M73 P0 R26
;TYPE:Custom
START_PRINT T_BED=70 T_EXTRUDER=240
G90
G21
M83 ; use relative distances for extrusion
; filament start gcode
PRESSURE_ADVANCE_SELECT FILAMENT=PETG
M106 S0
;LAYER_CHANGE
;Z:0.1
;HEIGHT:0.1
;BEFORE_LAYER_CHANGE
;0.1
G92 E0

;AFTER_LAYER_CHANGE
;0.1
SET_VELOCITY_LIMIT ACCEL=500 ACCEL_TO_DECEL=250
SET_VELOCITY_LIMIT SQUARE_CORNER_VELOCITY=9
G1 E-1 F3000
G1 Z.2 F21000
G1 X29.501 Y17.913
G1 Z.2
G1 Z.1
G1 E1 F1800
;TYPE:Skirt
;WIDTH:0.1875
G1 F3000
G1 X29.893 Y16.619 E.00886
G1 X30.71 Y15.868 E.00728
G1 X31.248 Y15.639 E.00383
G1 X31.983 Y15.531 E.00488
G1 X81.898 Y15.531 E.32734
G1 X82.951 Y15.73 E.00703
G1 X83.632 Y16.098 E.00507
G1 X84.294 Y16.76 E.00615
G1 X84.722 Y17.602 E.00619
G1 X96.441 Y53.095 E.24512
G1 X99.124 Y63.062 E.06769
G1 X99.205 Y63.627 E.00375
G1 X99.114 Y64.409 E.00516
G1 X98.813 Y65.11 E.00501
G1 X98.186 Y65.812 E.00617
G1 X97.408 Y66.244 E.00584
G1 X38.107 Y88.766 E.416
G1 X37.159 Y88.934 E.00631
G1 X34.593 Y88.937 E.01682
G1 X33.3 Y88.547 E.00886
G1 X32.473 Y87.582 E.00833
G1 X32.188 Y86.536 E.00711
G1 X29.507 Y47.974 E.25349
G1 X29.501 Y17.928 E.19705
G1 X29.667 Y17.928 F21000
G1 F3000
G1 X29.667 Y17.913 E.0001
G1 X30.462 Y16.237 E.01216
G1 X31.249 Y15.812 E.00586
G1 X31.983 Y15.697 E.00488
G1 X81.898 Y15.697 E.32734
M73 P0 R25
G1 X82.888 Y15.883 E.0066
G1 X83.53 Y16.229 E.00479
G1 X84.163 Y16.862 E.00586
G1 X84.565 Y17.654 E.00583
G1 X96.282 Y53.142 E.24509
G1 X98.963 Y63.105 E.06766
G1 X99.039 Y63.636 E.00352
G1 X98.955 Y64.362 E.00479
G1 X98.67 Y65.026 E.00474
G1 X98.085 Y65.68 E.00575
G1 X97.349 Y66.089 E.00552
G1 X38.048 Y88.611 E.416
G1 X37.159 Y88.768 E.00592
G1 X34.593 Y88.771 E.01682
G1 X33.352 Y88.382 E.00853
G1 X32.624 Y87.512 E.00743
G1 X32.354 Y86.524 E.00672
G1 X29.673 Y47.963 E.25349
G1 X29.667 Y17.943 E.19687
; printing object Hook_-_V2_-_Medium.STL id:0 copy 0
G1 E-1
EXCLUDE_OBJECT_START NAME=Hook_-_V2_-_Medium.STL_id_0_copy_0
G1 Z.3 F21000
G1 X43.75 Y77.858 Z.3
G1 Z.1
G1 E1 F1800
;TYPE:Outer wall
;WIDTH:0.187499
G1 F3000
G1 X43.75 Y55.728 E.14512
G2 X43.667 Y55.645 I-.083 J0 E.00086
G1 X36.7 Y55.646 E.04569
G1 X36.438 Y55.587 E.00176
G1 X36.438 Y52.599 E.0196
G1 X36.667 Y52.54 E.00155
G1 X43.69 Y52.537 E.04606
G1 X43.75 Y52.458 E.00065
G1 X43.754 Y40.281 E.07985
G1 X43.782 Y40.125 E.00104
G1 X46.089 Y40.127 E.01513
G1 X46.356 Y40.193 E.0018
G1 X46.434 Y40.295 E.00084
G1 X46.446 Y41.6 E.00856
G2 X50.289 Y45.788 I4.238 J-.031 E.04086
G1 X88.246 Y49.108 E.24987
G3 X94.214 Y54.118 I-.614 J6.791 E.05439
G1 X96.502 Y62.652 E.05794
G1 X96.769 Y63.726 E.00725
G3 X96.7 Y63.874 I-.139 J.026 E.00114
G1 X96.55 Y63.975 E.00119
G1 X94.689 Y64.474 E.01263
G1 X94.414 Y64.479 E.0018
G1 X94.286 Y64.349 E.0012
G2 X91.722 Y54.778 I-1030.616 J271.045 E.06498
G2 X88.023 Y51.679 I-4.103 J1.14 E.03364
G1 X51.023 Y48.441 E.24357
M73 P1 R25
G2 X46.446 Y52.636 I-.345 J4.218 E.04571
G1 X46.446 Y80.437 E.18232
G1 X46.41 Y80.62 E.00122
G1 X46.278 Y80.748 E.00121
G1 X46.145 Y80.783 E.0009
G1 X40.146 Y80.783 E.03934
G1 X39.481 Y80.868 E.0044
G1 X38.791 Y81.162 E.00492
G1 X38.313 Y81.506 E.00386
G1 X37.882 Y82.019 E.0044
G1 X37.596 Y82.603 E.00426
G2 X37.445 Y83.493 I6.375 J1.538 E.00592
G1 X37.445 Y86.192 E.0177
G1 X37.394 Y86.404 E.00143
G3 X37.15 Y86.509 I-.35 J-.479 E.00176
G1 X34.662 Y86.511 E.01631
G1 X34.603 Y86.282 E.00155
G1 X34.604 Y83.495 E.01827
G3 X38.22 Y78.291 I5.579 J.018 E.0442
G1 X38.921 Y78.08 E.00481
G3 X40.159 Y77.941 I1.275 J5.767 E.00818
G1 X43.667 Y77.941 E.023
G1 X43.739 Y77.868 E.00067
G1 X43.889 Y77.917 F21000
;TYPE:Inner wall
G1 F3000
G1 X43.916 Y77.858 E.00042
G1 X43.916 Y55.728 E.14512
G2 X43.667 Y55.479 I-.268 J.019 E.00252
G1 X36.7 Y55.48 E.04569
G1 X36.604 Y55.459 E.00065
G1 X36.604 Y52.727 E.01791
G1 X36.688 Y52.706 E.00057
G1 X43.667 Y52.707 E.04577
G1 X43.737 Y52.696 E.00047
G1 X43.871 Y52.601 E.00107
G1 X43.916 Y52.458 E.00099
G1 X43.92 Y40.291 E.07979
G1 X46.089 Y40.293 E.01422
G1 X46.256 Y40.336 E.00113
G1 X46.28 Y40.484 E.00098
G1 X46.28 Y41.611 E.00739
G2 X50.275 Y45.954 I4.405 J-.043 E.0424
G1 X88.227 Y49.273 E.24984
G3 X94.054 Y54.165 I-.597 J6.628 E.05312
G1 X96.605 Y63.705 E.06476
G1 X96.601 Y63.737 E.00022
G1 X96.496 Y63.818 E.00087
G1 X94.618 Y64.321 E.01275
G1 X94.442 Y64.29 E.00117
G1 X91.893 Y54.774 E.0646
G2 X89.718 Y52.013 I-4.334 J1.176 E.02368
G2 X88.038 Y51.513 I-2.238 J4.447 E.01156
G1 X51.037 Y48.276 E.24357
G2 X46.28 Y52.636 I-.358 J4.385 E.04751
G1 X46.28 Y80.437 E.18232
G1 X46.261 Y80.533 E.00064
G1 X46.123 Y80.617 E.00106
G1 X40.208 Y80.616 E.03879
G1 X39.48 Y80.698 E.0048
G2 X38.694 Y81.027 I1.753 J5.304 E.00559
G1 X38.186 Y81.399 E.00413
G1 X37.732 Y81.946 E.00466
G1 X37.427 Y82.589 E.00466
G1 X37.293 Y83.225 E.00426
G1 X37.279 Y83.493 E.00176
G1 X37.279 Y86.192 E.0177
G1 X37.26 Y86.292 E.00067
G1 X37.139 Y86.342 E.00086
G1 X34.791 Y86.345 E.0154
G1 X34.769 Y86.261 E.00057
G1 X34.77 Y83.5 E.01811
G3 X40.165 Y78.107 I5.411 J.017 E.05552
G1 X43.667 Y78.107 E.02297
G1 X43.832 Y78.044 E.00116
G1 X43.883 Y77.93 E.00082
G1 X44.057 Y77.969 F21000
G1 F3000
G1 X44.082 Y77.858 E.00075
G1 X44.082 Y55.728 E.14512
G1 X44.019 Y55.509 E.0015
G1 X43.878 Y55.371 E.0013
G1 X43.667 Y55.313 E.00143
G1 X36.77 Y55.314 E.04523
G1 X36.77 Y52.872 E.01602
G1 X43.667 Y52.873 E.04523
G1 X43.784 Y52.856 E.00078
G1 X44.006 Y52.697 E.00179
G1 X44.082 Y52.458 E.00164
G1 X44.086 Y40.457 E.0787
G3 X46.114 Y40.484 I.468 J41.202 E.0133
G1 X46.115 Y41.622 E.00746
G2 X50.26 Y46.119 I4.573 J-.056 E.04394
G1 X88.208 Y49.438 E.24981
G3 X93.895 Y54.212 I-.58 J6.466 E.05184
G1 X96.43 Y63.664 E.06417
G3 X94.578 Y64.153 I-36.995 J-136.217 E.01256
G1 X92.053 Y54.731 E.06397
G2 X90.784 Y52.58 I-4.634 J1.284 E.01657
G1 X90.232 Y52.138 E.00464
G2 X88.052 Y51.348 I-2.584 J3.727 E.01537
G1 X51.052 Y48.111 E.24357
G1 X50.197 Y48.126 E.0056
G2 X46.114 Y52.636 I.476 J4.535 E.04368
G1 X46.114 Y80.437 E.18232
G1 X46.101 Y80.451 E.00012
G1 X40.208 Y80.45 E.03865
G1 X39.46 Y80.534 E.00494
G2 X38.598 Y80.891 I1.498 J4.824 E.00613
G1 X38.06 Y81.291 E.0044
G1 X37.583 Y81.873 E.00493
G1 X37.264 Y82.554 E.00493
G1 X37.131 Y83.191 E.00426
G1 X37.113 Y83.493 E.00198
G1 X37.113 Y86.176 E.0176
G1 X34.935 Y86.179 E.01428
G1 X34.936 Y83.505 E.01754
G3 X40.171 Y78.273 I5.241 J.009 E.05389
G1 X43.667 Y78.273 E.02293
G1 X43.942 Y78.168 E.00193
G2 X44.042 Y78.035 I-.275 J-.311 E.0011
G1 X44.054 Y77.984 E.00034
G1 E-1
G1 Z.3 F21000
G1 X47.004 Y43.982 Z.3
G1 X47.077 Y44.093
G1 X47.246 Y44.32
G1 X47.437 Y44.544
G1 X47.643 Y44.754
G1 X47.863 Y44.95
G1 X48.095 Y45.13
G1 X48.34 Y45.295
G1 X48.594 Y45.442
G1 X48.858 Y45.573
G1 X49.13 Y45.685
G1 X49.409 Y45.778
G1 X49.694 Y45.853
G1 X49.983 Y45.908
G1 X50.271 Y45.943
G1 X91.477 Y50.742
G1 Z.1
G1 E1 F1800
;TYPE:Bottom surface
;WIDTH:0.187863
G1 F6300
G3 X92.622 Y51.946 I-8.618 J9.34 E.01093
G1 X93.027 Y52.527 E.00466
G1 X91.016 Y50.516 E.0187
G2 X90.479 Y50.214 I-1.748 J2.48 E.00406
G1 X93.327 Y53.063 E.02648
G1 X93.512 Y53.483 E.00302
G1 X90.039 Y50.01 E.03228
G1 X89.674 Y49.88 E.00255
G1 X93.649 Y53.855 E.03694
G1 X93.761 Y54.202 E.0024
G1 X89.333 Y49.774 E.04116
G1 X89.021 Y49.698 E.00211
G1 X93.851 Y54.527 E.04489
M73 P2 R25
G1 X93.937 Y54.849 E.00219
G1 X88.726 Y49.638 E.04844
G1 X88.452 Y49.599 E.00182
G1 X94.023 Y55.17 E.05179
G1 X94.109 Y55.492 E.00219
G1 X88.178 Y49.561 E.05513
G1 X87.92 Y49.538 E.0017
G1 X94.196 Y55.814 E.05833
G1 X94.282 Y56.135 E.00219
G1 X91.705 Y53.558 E.02395
G1 X91.942 Y54.031 E.00348
G1 X94.368 Y56.457 E.02255
G1 X94.454 Y56.778 E.00219
G1 X92.072 Y54.396 E.02214
G3 X92.186 Y54.745 I-2.472 J.998 E.00241
G1 X94.541 Y57.1 E.02189
G1 X94.627 Y57.421 E.00219
G1 X92.272 Y55.066 E.02189
G1 X92.358 Y55.388 E.00219
G1 X94.713 Y57.743 E.02189
G1 X94.799 Y58.064 E.00219
G1 X92.444 Y55.709 E.02189
G1 X92.53 Y56.031 E.00219
G1 X94.885 Y58.386 E.02189
G1 X94.972 Y58.708 E.00219
G1 X92.616 Y56.352 E.02189
G1 X92.702 Y56.674 E.00219
G1 X95.058 Y59.029 E.02189
G1 X95.144 Y59.351 E.00219
G1 X92.789 Y56.995 E.02189
G1 X92.875 Y57.317 E.00219
G1 X95.23 Y59.672 E.02189
G1 X95.317 Y59.994 E.00219
G1 X92.961 Y57.638 E.0219
G1 X93.047 Y57.96 E.00219
G1 X95.403 Y60.315 E.0219
G1 X95.489 Y60.637 E.00219
G1 X93.133 Y58.281 E.0219
G1 X93.219 Y58.603 E.00219
G1 X95.575 Y60.959 E.0219
G1 X95.661 Y61.28 E.00219
G1 X93.305 Y58.924 E.0219
G1 X93.392 Y59.245 E.00219
G1 X95.748 Y61.602 E.0219
G1 X95.834 Y61.923 E.00219
G1 X93.478 Y59.567 E.0219
G1 X93.564 Y59.888 E.00219
G1 X95.92 Y62.245 E.0219
G1 X96.006 Y62.566 E.00219
G1 X93.65 Y60.21 E.0219
G1 X93.736 Y60.531 E.00219
G1 X96.093 Y62.888 E.0219
G1 X96.179 Y63.209 E.00219
G1 X93.822 Y60.853 E.0219
G1 X93.908 Y61.174 E.00219
G1 X96.265 Y63.531 E.0219
G1 X96.277 Y63.576 E.0003
G1 X96.117 Y63.618 E.00109
G1 X93.995 Y61.496 E.01973
G1 X94.081 Y61.817 E.00219
G1 X95.932 Y63.668 E.0172
G1 X95.746 Y63.718 E.00126
G1 X94.167 Y62.139 E.01468
G1 X94.253 Y62.46 E.00219
G1 X95.56 Y63.768 E.01215
G1 X95.375 Y63.817 E.00126
G1 X94.339 Y62.782 E.00963
G1 X94.425 Y63.103 E.00219
G1 X95.189 Y63.867 E.0071
G1 X95.004 Y63.917 E.00126
G1 X94.511 Y63.425 E.00457
G1 X94.598 Y63.746 E.00219
G1 X94.879 Y64.027 E.00262
G1 E-1 F3000
G1 Z.3 F21000
G1 X91.787 Y54.46 Z.3
G1 X91.682 Y54.183
G1 X91.558 Y53.914
G1 X91.416 Y53.653
G1 X91.257 Y53.404
G1 X91.081 Y53.165
G1 X90.219 Y52.072
G1 Z.1
G1 E1 F1800
G1 F6300
G1 X87.662 Y49.516 E.02376
G1 X87.405 Y49.493 E.0017
G1 X89.521 Y51.61 E.01967
G2 X89.128 Y51.452 I-.76 J1.329 E.00279
G1 X87.147 Y49.471 E.01842
G1 X86.889 Y49.448 E.0017
G1 X88.794 Y51.353 E.01771
G2 X88.497 Y51.292 I-.38 J1.085 E.002
G1 X86.631 Y49.426 E.01734
G1 X86.373 Y49.403 E.0017
G1 X88.218 Y51.248 E.01715
G2 X87.948 Y51.214 I-.385 J1.953 E.00179
G1 X86.115 Y49.38 E.01704
G1 X85.857 Y49.358 E.0017
G1 X87.69 Y51.191 E.01704
G1 X87.433 Y51.169 E.0017
G1 X85.599 Y49.335 E.01704
G1 X85.342 Y49.313 E.0017
G1 X87.175 Y51.146 E.01704
G1 X86.917 Y51.123 E.0017
G1 X85.084 Y49.29 E.01704
G1 X84.826 Y49.268 E.0017
G1 X86.659 Y51.101 E.01704
G1 X86.401 Y51.078 E.0017
G1 X84.568 Y49.245 E.01704
G1 X84.31 Y49.223 E.0017
G1 X86.143 Y51.056 E.01704
G1 X85.885 Y51.033 E.0017
G1 X84.052 Y49.2 E.01704
G1 X83.794 Y49.177 E.0017
G1 X85.627 Y51.011 E.01704
G1 X85.369 Y50.988 E.0017
G1 X83.536 Y49.155 E.01704
G1 X83.278 Y49.132 E.0017
G1 X85.112 Y50.965 E.01704
G1 X84.854 Y50.943 E.0017
G1 X83.021 Y49.11 E.01704
G1 X82.763 Y49.087 E.0017
G1 X84.596 Y50.92 E.01704
G1 X84.338 Y50.898 E.0017
G1 X82.505 Y49.065 E.01704
G1 X82.247 Y49.042 E.0017
G1 X84.08 Y50.875 E.01704
G1 X83.822 Y50.853 E.0017
G1 X81.989 Y49.02 E.01704
G1 X81.731 Y48.997 E.0017
G1 X83.564 Y50.83 E.01704
G1 X83.306 Y50.808 E.0017
G1 X81.473 Y48.974 E.01704
G1 X81.215 Y48.952 E.0017
G1 X83.048 Y50.785 E.01704
G1 X82.791 Y50.762 E.0017
G1 X80.957 Y48.929 E.01704
G1 X80.7 Y48.907 E.0017
G1 X82.533 Y50.74 E.01704
G1 X82.275 Y50.717 E.0017
G1 X80.442 Y48.884 E.01704
G1 X80.184 Y48.862 E.0017
G1 X82.017 Y50.695 E.01704
G1 X81.759 Y50.672 E.0017
G1 X79.926 Y48.839 E.01704
G1 X79.668 Y48.817 E.0017
G1 X81.501 Y50.65 E.01704
G1 X81.243 Y50.627 E.0017
G1 X79.41 Y48.794 E.01704
G1 X79.152 Y48.771 E.0017
G1 X80.985 Y50.604 E.01704
G1 X80.727 Y50.582 E.0017
G1 X78.894 Y48.749 E.01704
G1 X78.636 Y48.726 E.0017
G1 X80.469 Y50.559 E.01704
G1 X80.212 Y50.537 E.0017
G1 X78.379 Y48.704 E.01704
G1 X78.121 Y48.681 E.0017
G1 X79.954 Y50.514 E.01704
G1 X79.696 Y50.492 E.0017
G1 X77.863 Y48.659 E.01704
G1 X77.605 Y48.636 E.0017
G1 X79.438 Y50.469 E.01704
G1 X79.18 Y50.447 E.0017
G1 X77.347 Y48.614 E.01704
G1 X77.089 Y48.591 E.0017
G1 X78.922 Y50.424 E.01704
G1 X78.664 Y50.401 E.0017
G1 X76.831 Y48.568 E.01704
G1 X76.573 Y48.546 E.0017
G1 X78.406 Y50.379 E.01704
G1 X78.148 Y50.356 E.0017
G1 X76.315 Y48.523 E.01704
G1 X76.058 Y48.501 E.0017
G1 X77.891 Y50.334 E.01704
G1 X77.633 Y50.311 E.0017
G1 X75.8 Y48.478 E.01704
G1 X75.542 Y48.456 E.0017
G1 X77.375 Y50.289 E.01704
G1 X77.117 Y50.266 E.0017
G1 X75.284 Y48.433 E.01704
G1 X75.026 Y48.41 E.0017
G1 X76.859 Y50.243 E.01704
G1 X76.601 Y50.221 E.0017
G1 X74.768 Y48.388 E.01704
G1 X74.51 Y48.365 E.0017
G1 X76.343 Y50.198 E.01704
G1 X76.085 Y50.176 E.0017
G1 X74.252 Y48.343 E.01704
G1 X73.995 Y48.32 E.0017
G1 X75.827 Y50.153 E.01704
G1 X75.57 Y50.131 E.0017
G1 X73.737 Y48.298 E.01704
G1 X73.479 Y48.275 E.0017
G1 X75.312 Y50.108 E.01704
G1 X75.054 Y50.086 E.0017
G1 X73.221 Y48.253 E.01704
G1 X72.963 Y48.23 E.0017
G1 X74.796 Y50.063 E.01704
G1 X74.538 Y50.04 E.0017
G1 X72.705 Y48.207 E.01704
G1 X72.447 Y48.185 E.0017
G1 X74.28 Y50.018 E.01704
G1 X74.022 Y49.995 E.0017
G1 X72.189 Y48.162 E.01704
G1 X71.931 Y48.14 E.0017
G1 X73.764 Y49.973 E.01704
G1 X73.506 Y49.95 E.0017
G1 X71.674 Y48.117 E.01704
G1 X71.416 Y48.095 E.0017
G1 X73.249 Y49.928 E.01704
G1 X72.991 Y49.905 E.0017
G1 X71.158 Y48.072 E.01704
G1 X70.9 Y48.05 E.0017
G1 X72.733 Y49.882 E.01704
G1 X72.475 Y49.86 E.0017
G1 X70.642 Y48.027 E.01704
G1 X70.384 Y48.004 E.0017
G1 X72.217 Y49.837 E.01704
G1 X71.959 Y49.815 E.0017
G1 X70.126 Y47.982 E.01704
G1 X69.868 Y47.959 E.0017
