; HEADER_BLOCK_START
; generated by OrcaSlicer 1.6.6 on 2023-08-31 at 20:48:36
; total layer number: 45
; HEADER_BLOCK_END

; THUMBNAIL_BLOCK_START
; THUMBNAIL_BLOCK_END

; external perimeters extrusion width = 0.15mm
; perimeters extrusion width = 0.17mm
; infill extrusion width = 0.24mm
; solid infill extrusion width = 0.21mm
; top infill extrusion width = 0.15mm
; support material extrusion width = 0.17mm
; first layer extrusion width = 0.19mm

; external perimeters extrusion width = 0.15mm
; perimeters extrusion width = 0.17mm
; infill extrusion width = 0.24mm
; solid infill extrusion width = 0.21mm
; top infill extrusion width = 0.15mm
; support material extrusion width = 0.17mm
; first layer extrusion width = 0.19mm

; EXECUTABLE_BLOCK_START
EXCLUDE_OBJECT_DEFINE NAME=Hook_-_V2_-_Medium.STL_id_0_copy_0 CENTER=65.2941,69.5424 POLYGON=[[33.0056,89.7174],[33.0162,89.3389],[35.2594,58.4819],[35.2708,58.3954],[35.2897,58.3104],[35.3159,58.2272],[35.3493,58.1467],[35.3896,58.0694],[35.4364,57.9959],[43.4122,46.0301],[43.4364,45.9938],[43.4622,45.9586],[43.4896,45.9246],[43.5485,45.8603],[43.6128,45.8013],[43.682,45.7482],[43.7556,45.7014],[43.833,45.6611],[43.9136,45.6277],[43.9968,45.6015],[44.082,45.5826],[44.1684,45.5712],[44.2556,45.5674],[46.2556,45.5674],[46.3428,45.5712],[46.4293,45.5826],[88.7592,54.2401],[89.0872,54.31],[89.1571,54.3268],[89.55,54.4336],[89.6417,54.4616],[89.937,54.5603],[90.1838,54.6526],[90.3171,54.7065],[90.6892,54.8718],[90.7108,54.8821],[91.0524,55.0559],[91.22,55.1488],[91.4058,55.2582],[91.7087,55.4514],[91.7484,55.4782],[92.0794,55.7154],[92.1744,55.7884],[92.3979,55.9691],[92.6147,56.1578],[92.7031,56.2387],[92.9941,56.5235],[93.0274,56.558],[93.2703,56.8227],[93.4103,56.9867],[93.5309,57.1356],[93.7614,57.4418],[93.7753,57.4613],[94.0027,57.7991],[94.0789,57.921],[94.2127,58.148],[94.3611,58.4217],[94.4047,58.5071],[94.5781,58.8755],[94.6067,58.9414],[94.7326,59.2523],[94.8144,59.4774],[94.8676,59.6364],[94.983,60.0269],[97.5485,69.6015],[97.5674,69.6866],[97.5788,69.7731],[97.5826,69.8603],[97.5788,69.9474],[97.5674,70.0339],[97.5485,70.1191],[97.5223,70.2023],[97.4889,70.2829],[97.4486,70.3603],[97.4017,70.4339],[97.3486,70.5031],[97.2897,70.5674],[97.2254,70.6263],[97.1561,70.6794],[97.0826,70.7263],[97.0052,70.7666],[96.9246,70.8],[37.8457,93.4571],[37.7626,93.4833],[37.6775,93.5022],[37.5911,93.5136],[37.504,93.5174],[34.0072,93.5174],[33.9201,93.5136],[33.8337,93.5022],[33.7486,93.4833],[33.6654,93.4571],[33.5849,93.4237],[33.5076,93.3834],[33.4341,93.3365],[33.3649,93.2834],[33.3007,93.2245],[33.2418,93.1602],[33.1887,93.091],[33.1419,93.0174],[33.1017,92.94],[33.0683,92.8594],[33.0421,92.7762],[33.0232,92.691],[33.0118,92.6045],[33.0056,92.5174],[33.0056,89.7174]]
EXCLUDE_OBJECT_DEFINE NAME=Hook_-_V2_-_Medium.STL_id_1_copy_0 CENTER=49.3565,35.975 POLYGON=[[17.068,56.15],[17.0786,55.7715],[19.3218,24.9145],[19.3332,24.8281],[19.3521,24.743],[19.3783,24.6598],[19.4117,24.5793],[19.452,24.502],[19.4988,24.4285],[27.4746,12.4627],[27.4988,12.4264],[27.5246,12.3912],[27.552,12.3572],[27.6109,12.2929],[27.6752,12.234],[27.7444,12.1809],[27.818,12.134],[27.8954,12.0937],[27.976,12.0603],[28.0592,12.0341],[28.1443,12.0152],[28.2308,12.0038],[28.318,12],[30.318,12],[30.4052,12.0038],[30.4916,12.0152],[72.8216,20.6727],[73.1496,20.7426],[73.2195,20.7594],[73.6124,20.8662],[73.7041,20.8942],[73.9994,20.9929],[74.2462,21.0853],[74.3795,21.1391],[74.7516,21.3044],[74.7732,21.3147],[75.1148,21.4885],[75.2824,21.5815],[75.4682,21.6908],[75.7711,21.8841],[75.8108,21.9109],[76.1418,22.148],[76.2368,22.221],[76.4603,22.4018],[76.6771,22.5905],[76.7655,22.6714],[77.0565,22.9561],[77.0898,22.9906],[77.3327,23.2553],[77.4727,23.4193],[77.5933,23.5682],[77.8238,23.8745],[77.8377,23.894],[78.0651,24.2317],[78.1413,24.3536],[78.2751,24.5806],[78.4235,24.8543],[78.4671,24.9397],[78.6405,25.3081],[78.6691,25.374],[78.7949,25.6849],[78.8768,25.91],[78.93,26.069],[79.0454,26.4596],[81.6109,36.0341],[81.6298,36.1193],[81.6412,36.2057],[81.645,36.2929],[81.6412,36.3801],[81.6298,36.4665],[81.6109,36.5517],[81.5847,36.6349],[81.5513,36.7155],[81.511,36.7929],[81.4641,36.8665],[81.411,36.9357],[81.3521,37],[81.2877,37.0589],[81.2185,37.1121],[81.145,37.1589],[81.0676,37.1992],[80.987,37.2326],[21.9081,59.8897],[21.825,59.9159],[21.7399,59.9348],[21.6535,59.9462],[21.5664,59.95],[18.0696,59.95],[17.9825,59.9462],[17.8961,59.9348],[17.811,59.9159],[17.7278,59.8897],[17.6473,59.8563],[17.57,59.816],[17.4965,59.7692],[17.4273,59.716],[17.3631,59.6571],[17.3042,59.5928],[17.2511,59.5236],[17.2043,59.45],[17.1641,59.3726],[17.1307,59.292],[17.1045,59.2088],[17.0856,59.1237],[17.0742,59.0372],[17.068,58.95],[17.068,56.15]]
M73 P0 R30
;TYPE:Custom
START_PRINT T_BED=70 T_EXTRUDER=240
G90
G21
M83 ; use relative distances for extrusion
; filament start gcode
PRESSURE_ADVANCE_SELECT FILAMENT=PETG
M106 S0
;LAYER_CHANGE
;Z:0.1
;HEIGHT:0.1
;BEFORE_LAYER_CHANGE
;0.1
G92 E0

;AFTER_LAYER_CHANGE
;0.1
SET_VELOCITY_LIMIT ACCEL=500 ACCEL_TO_DECEL=250
SET_VELOCITY_LIMIT SQUARE_CORNER_VELOCITY=9
G1 E-1 F3000
G1 Z.2 F21000
G1 X17.678 Y25.046
G1 Z.2
G1 Z.1
G1 E1 F1800
;TYPE:Skirt
;WIDTH:0.1875
G1 F3000
G1 X17.997 Y24.001 E.00716
G1 X25.359 Y11.505 E.09511
G1 X26.352 Y10.589 E.00886
G1 X27.37 Y10.356 E.00685
G1 X29.82 Y10.359 E.01607
G1 X30.429 Y10.427 E.00402
G1 X73.45 Y19.567 E.28843
G1 X74.462 Y19.87 E.00693
G1 X75.638 Y20.392 E.00844
G1 X76.541 Y20.94 E.00693
G1 X77.548 Y21.742 E.00844
G1 X78.582 Y22.862 E.00999
G1 X79.575 Y24.441 E.01223
G1 X95.713 Y58.441 E.24681
G1 X96.156 Y59.712 E.00883
G1 X98.723 Y69.286 E.065
G1 X98.804 Y69.852 E.00375
G1 X98.714 Y70.633 E.00516
G1 X98.453 Y71.266 E.00449
G1 X98.07 Y71.78 E.0042
G1 X97.718 Y72.089 E.00307
G1 X97.008 Y72.469 E.00528
G1 X37.706 Y94.99 E.416
G1 X36.758 Y95.159 E.00631
G1 X34.193 Y95.162 E.01682
G1 X32.899 Y94.772 E.00886
G1 X32.084 Y93.83 E.00817
G1 X16.135 Y60.239 E.24386
G1 X15.905 Y59.564 E.00467
G1 X15.844 Y59.105 E.00304
G1 X15.853 Y55.695 E.02237
G1 X17.678 Y25.061 E.20125
G1 X17.843 Y25.071 F21000
G1 F3000
G1 X17.844 Y25.056 E.0001
G1 X18.14 Y24.085 E.00665
G1 X25.502 Y11.589 E.09511
G1 X26.468 Y10.718 E.00853
G1 X27.37 Y10.522 E.00605
G1 X29.82 Y10.525 E.01607
G1 X30.395 Y10.589 E.00379
G1 X73.415 Y19.729 E.28842
G1 X74.402 Y20.025 E.00676
G1 X75.563 Y20.54 E.00833
G1 X76.445 Y21.075 E.00676
G1 X77.438 Y21.867 E.00833
G1 X78.449 Y22.962 E.00977
G1 X79.425 Y24.512 E.01201
G1 X95.559 Y58.504 E.24675
G1 X95.995 Y59.755 E.00869
G1 X98.563 Y69.329 E.065
G1 X98.638 Y69.861 E.00352
G1 X98.554 Y70.587 E.00479
G1 X98.31 Y71.181 E.00421
G1 X97.951 Y71.663 E.00394
G1 X97.616 Y71.957 E.00292
G1 X96.949 Y72.313 E.00496
G1 X37.647 Y94.835 E.416
G1 X36.758 Y94.993 E.00592
G1 X34.193 Y94.996 E.01682
G1 X32.951 Y94.606 E.00853
G1 X32.234 Y93.759 E.00728
G1 X16.286 Y60.169 E.24384
G1 X16.068 Y59.532 E.00442
G1 X16.01 Y59.094 E.0029
G1 X16.019 Y55.705 E.02223
G1 X17.842 Y25.086 E.20115
; printing object Hook_-_V2_-_Medium.STL id:0 copy 0
G1 E-1
EXCLUDE_OBJECT_START NAME=Hook_-_V2_-_Medium.STL_id_0_copy_0
G1 Z.3 F21000
G1 X43.349 Y84.082 Z.3
G1 Z.1
G1 E1 F1800
;TYPE:Outer wall
;WIDTH:0.187499
G1 F3000
G1 X43.349 Y61.953 E.14512
G2 X43.266 Y61.87 I-.083 J0 E.00086
G1 X36.3 Y61.871 E.04569
G1 X36.038 Y61.812 E.00176
G1 X36.038 Y58.823 E.0196
G1 X36.267 Y58.764 E.00155
G1 X43.29 Y58.762 E.04606
G1 X43.349 Y58.682 E.00065
G1 X43.353 Y46.505 E.07985
G1 X43.382 Y46.35 E.00104
G1 X45.688 Y46.352 E.01513
G1 X45.955 Y46.418 E.0018
G1 X46.034 Y46.52 E.00084
G1 X46.045 Y47.824 E.00856
G2 X49.888 Y52.013 I4.238 J-.031 E.04086
G1 X87.845 Y55.333 E.24987
G3 X93.813 Y60.343 I-.614 J6.791 E.05439
G1 X96.102 Y68.877 E.05794
G1 X96.369 Y69.95 E.00725
G3 X96.3 Y70.099 I-.139 J.026 E.00114
G1 X96.149 Y70.2 E.00119
G1 X94.289 Y70.698 E.01263
G1 X94.014 Y70.703 E.0018
G1 X93.886 Y70.573 E.0012
G2 X91.321 Y61.002 I-1030.616 J271.045 E.06498
G2 X87.623 Y57.903 I-4.103 J1.14 E.03364
G1 X50.622 Y54.666 E.24357
G2 X46.045 Y58.86 I-.345 J4.218 E.04571
G1 X46.045 Y86.661 E.18232
G1 X46.01 Y86.844 E.00122
G1 X45.877 Y86.972 E.00121
G1 X45.744 Y87.008 E.0009
G1 X39.745 Y87.007 E.03934
G1 X39.08 Y87.093 E.0044
G1 X38.39 Y87.386 E.00492
G1 X37.912 Y87.73 E.00386
G1 X37.481 Y88.244 E.0044
G1 X37.196 Y88.828 E.00426
G2 X37.045 Y89.717 I6.375 J1.538 E.00592
G1 X37.045 Y92.416 E.0177
G1 X36.994 Y92.628 E.00143
G3 X36.749 Y92.733 I-.35 J-.479 E.00176
G1 X34.261 Y92.736 E.01631
G1 X34.202 Y92.506 E.00155
G1 X34.203 Y89.72 E.01827
G3 X37.819 Y84.516 I5.579 J.018 E.0442
G1 X38.521 Y84.304 E.00481
G3 X39.759 Y84.165 I1.275 J5.767 E.00818
M73 P1 R30
G1 X43.266 Y84.165 E.023
G1 X43.339 Y84.093 E.00067
G1 X43.489 Y84.141 F21000
;TYPE:Inner wall
G1 F3000
G1 X43.515 Y84.082 E.00042
G1 X43.515 Y61.953 E.14512
G2 X43.266 Y61.704 I-.268 J.019 E.00252
G1 X36.3 Y61.705 E.04569
G1 X36.204 Y61.683 E.00065
G1 X36.204 Y58.952 E.01791
G1 X36.288 Y58.93 E.00057
G1 X43.266 Y58.931 E.04577
G1 X43.337 Y58.921 E.00047
G1 X43.47 Y58.825 E.00107
G1 X43.515 Y58.682 E.00099
G1 X43.519 Y46.516 E.07979
G1 X45.688 Y46.518 E.01422
G1 X45.856 Y46.561 E.00113
G1 X45.879 Y46.709 E.00098
G1 X45.88 Y47.835 E.00739
G2 X49.874 Y52.178 I4.405 J-.043 E.0424
G1 X87.826 Y55.498 E.24984
G3 X93.654 Y60.39 I-.597 J6.628 E.05312
G1 X96.204 Y69.929 E.06476
G1 X96.2 Y69.962 E.00022
G1 X96.095 Y70.042 E.00087
G1 X94.218 Y70.545 E.01275
G1 X94.042 Y70.514 E.00117
G1 X91.492 Y60.999 E.0646
G2 X89.318 Y58.238 I-4.334 J1.176 E.02368
G2 X87.637 Y57.738 I-2.238 J4.447 E.01156
G1 X50.637 Y54.5 E.24357
G2 X45.879 Y58.86 I-.358 J4.385 E.04751
G1 X45.879 Y86.661 E.18232
G1 X45.861 Y86.758 E.00064
G1 X45.722 Y86.842 E.00106
G1 X39.807 Y86.84 E.03879
G1 X39.08 Y86.923 E.0048
G2 X38.294 Y87.251 I1.753 J5.304 E.00559
G1 X37.786 Y87.623 E.00413
G1 X37.332 Y88.171 E.00466
G1 X37.026 Y88.813 E.00466
G1 X36.893 Y89.449 E.00426
G1 X36.879 Y89.717 E.00176
G1 X36.879 Y92.416 E.0177
G1 X36.86 Y92.516 E.00067
G1 X36.738 Y92.567 E.00086
G1 X34.39 Y92.569 E.0154
G1 X34.368 Y92.485 E.00057
G1 X34.369 Y89.725 E.01811
G3 X39.764 Y84.331 I5.411 J.017 E.05552
G1 X43.266 Y84.331 E.02297
G1 X43.432 Y84.268 E.00116
G1 X43.483 Y84.155 E.00082
G1 X43.656 Y84.194 F21000
G1 F3000
G1 X43.681 Y84.082 E.00075
G1 X43.681 Y61.953 E.14512
G1 X43.619 Y61.733 E.0015
G1 X43.477 Y61.595 E.0013
G1 X43.266 Y61.538 E.00143
G1 X36.37 Y61.539 E.04523
G1 X36.37 Y59.096 E.01602
G1 X43.266 Y59.097 E.04523
G1 X43.384 Y59.08 E.00078
G1 X43.606 Y58.921 E.00179
G1 X43.681 Y58.682 E.00164
G1 X43.685 Y46.682 E.0787
G3 X45.713 Y46.709 I.468 J41.202 E.0133
G1 X45.714 Y47.847 E.00746
G2 X49.86 Y52.344 I4.573 J-.056 E.04394
G1 X87.807 Y55.663 E.24981
M73 P1 R29
G3 X93.495 Y60.437 I-.58 J6.466 E.05184
G1 X96.029 Y69.888 E.06417
G3 X94.177 Y70.377 I-36.995 J-136.217 E.01256
G1 X91.653 Y60.956 E.06397
G2 X90.383 Y58.804 I-4.634 J1.284 E.01657
G1 X89.831 Y58.362 E.00464
G2 X87.652 Y57.572 I-2.584 J3.727 E.01537
G1 X50.651 Y54.335 E.24357
G1 X49.797 Y54.35 E.0056
G2 X45.713 Y58.86 I.476 J4.535 E.04368
G1 X45.713 Y86.661 E.18232
G1 X45.701 Y86.676 E.00012
G1 X39.807 Y86.674 E.03865
G1 X39.059 Y86.758 E.00494
G2 X38.197 Y87.116 I1.498 J4.824 E.00613
G1 X37.659 Y87.516 E.0044
G1 X37.183 Y88.098 E.00493
G1 X36.864 Y88.779 E.00493
G1 X36.73 Y89.415 E.00426
G1 X36.713 Y89.717 E.00198
G1 X36.713 Y92.401 E.0176
G1 X34.534 Y92.403 E.01428
G1 X34.535 Y89.729 E.01754
G3 X39.77 Y84.497 I5.241 J.009 E.05389
G1 X43.266 Y84.497 E.02293
G1 X43.542 Y84.393 E.00193
G2 X43.641 Y84.26 I-.275 J-.311 E.0011
G1 X43.653 Y84.209 E.00034
G1 E-1
G1 Z.3 F21000
G1 X46.604 Y50.206 Z.3
G1 X46.676 Y50.318
G1 X46.845 Y50.544
G1 X47.037 Y50.768
G1 X47.243 Y50.978
G1 X47.462 Y51.174
G1 X47.695 Y51.355
G1 X47.939 Y51.519
G1 X48.194 Y51.667
G1 X48.458 Y51.797
G1 X48.73 Y51.909
G1 X49.009 Y52.003
G1 X49.294 Y52.077
G1 X49.583 Y52.132
G1 X49.871 Y52.167
G1 X91.076 Y56.966
G1 Z.1
G1 E1 F1800
;TYPE:Bottom surface
;WIDTH:0.187863
G1 F6300
G3 X92.222 Y58.171 I-8.618 J9.34 E.01093
G1 X92.627 Y58.752 E.00466
G1 X90.615 Y56.741 E.0187
G2 X90.078 Y56.438 I-1.748 J2.48 E.00406
G1 X92.927 Y59.287 E.02648
G1 X93.112 Y59.707 E.00302
G1 X89.639 Y56.234 E.03228
G1 X89.273 Y56.104 E.00255
G1 X93.248 Y60.079 E.03694
G1 X93.36 Y60.427 E.0024
G1 X88.932 Y55.998 E.04116
G1 X88.621 Y55.922 E.00211
G1 X93.45 Y60.752 E.04489
G1 X93.536 Y61.073 E.00219
G1 X88.325 Y55.862 E.04844
G1 X88.051 Y55.823 E.00182
G1 X93.623 Y61.395 E.05179
G1 X93.709 Y61.716 E.00219
G1 X87.778 Y55.785 E.05513
G1 X87.52 Y55.763 E.0017
G1 X93.795 Y62.038 E.05833
G1 X93.881 Y62.36 E.00219
G1 X91.304 Y59.783 E.02395
G1 X91.542 Y60.255 E.00348
G1 X93.967 Y62.681 E.02255
G1 X94.054 Y63.003 E.00219
G1 X91.671 Y60.62 E.02214
G3 X91.785 Y60.969 I-2.472 J.998 E.00241
G1 X94.14 Y63.324 E.02189
G1 X94.226 Y63.646 E.00219
G1 X91.871 Y61.291 E.02189
G1 X91.957 Y61.612 E.00219
G1 X94.312 Y63.967 E.02189
G1 X94.399 Y64.289 E.00219
G1 X92.044 Y61.934 E.02189
G1 X92.13 Y62.255 E.00219
G1 X94.485 Y64.61 E.02189
G1 X94.571 Y64.932 E.00219
G1 X92.216 Y62.577 E.02189
G1 X92.302 Y62.898 E.00219
G1 X94.657 Y65.254 E.02189
G1 X94.744 Y65.575 E.00219
G1 X92.388 Y63.22 E.02189
G1 X92.474 Y63.541 E.00219
G1 X94.83 Y65.897 E.02189
G1 X94.916 Y66.218 E.00219
G1 X92.56 Y63.863 E.0219
G1 X92.646 Y64.184 E.00219
G1 X95.002 Y66.54 E.0219
G1 X95.088 Y66.861 E.00219
G1 X92.733 Y64.506 E.0219
G1 X92.819 Y64.827 E.00219
G1 X95.175 Y67.183 E.0219
G1 X95.261 Y67.505 E.00219
G1 X92.905 Y65.148 E.0219
G1 X92.991 Y65.47 E.00219
G1 X95.347 Y67.826 E.0219
G1 X95.433 Y68.148 E.00219
G1 X93.077 Y65.791 E.0219
G1 X93.163 Y66.113 E.00219
G1 X95.52 Y68.469 E.0219
G1 X95.606 Y68.791 E.00219
G1 X93.249 Y66.434 E.0219
G1 X93.336 Y66.756 E.00219
G1 X95.692 Y69.112 E.0219
G1 X95.778 Y69.434 E.00219
G1 X93.422 Y67.077 E.0219
G1 X93.508 Y67.399 E.00219
G1 X95.865 Y69.755 E.0219
G1 X95.876 Y69.8 E.0003
G1 X95.717 Y69.843 E.00109
G1 X93.594 Y67.72 E.01973
G1 X93.68 Y68.042 E.00219
G1 X95.531 Y69.893 E.0172
M73 P2 R29
G1 X95.345 Y69.942 E.00126
G1 X93.766 Y68.363 E.01468
G1 X93.852 Y68.685 E.00219
G1 X95.16 Y69.992 E.01215
G1 X94.974 Y70.042 E.00126
G1 X93.939 Y69.006 E.00963
G1 X94.025 Y69.328 E.00219
G1 X94.789 Y70.091 E.0071
G1 X94.603 Y70.141 E.00126
G1 X94.111 Y69.649 E.00457
G1 X94.197 Y69.97 E.00219
G1 X94.478 Y70.252 E.00262
G1 E-1 F3000
G1 Z.3 F21000
G1 X91.387 Y60.684 Z.3
G1 X91.281 Y60.407
G1 X91.157 Y60.138
G1 X91.015 Y59.878
G1 X90.856 Y59.628
G1 X90.68 Y59.389
G1 X89.818 Y58.297
G1 Z.1
G1 E1 F1800
G1 F6300
G1 X87.262 Y55.74 E.02376
G1 X87.004 Y55.718 E.0017
G1 X89.12 Y57.834 E.01967
G2 X88.728 Y57.677 I-.76 J1.329 E.00279
G1 X86.746 Y55.695 E.01842
G1 X86.488 Y55.673 E.0017
G1 X88.393 Y57.578 E.01771
G2 X88.096 Y57.516 I-.38 J1.085 E.002
G1 X86.23 Y55.65 E.01734
G1 X85.972 Y55.627 E.0017
G1 X87.817 Y57.472 E.01715
G2 X87.548 Y57.438 I-.385 J1.953 E.00179
G1 X85.715 Y55.605 E.01704
G1 X85.457 Y55.582 E.0017
G1 X87.29 Y57.416 E.01704
G1 X87.032 Y57.393 E.0017
G1 X85.199 Y55.56 E.01704
G1 X84.941 Y55.537 E.0017
G1 X86.774 Y57.37 E.01704
G1 X86.516 Y57.348 E.0017
G1 X84.683 Y55.515 E.01704
G1 X84.425 Y55.492 E.0017
G1 X86.258 Y57.325 E.01704
G1 X86 Y57.303 E.0017
G1 X84.167 Y55.47 E.01704
G1 X83.909 Y55.447 E.0017
G1 X85.743 Y57.28 E.01704
G1 X85.485 Y57.258 E.0017
G1 X83.652 Y55.424 E.01704
G1 X83.394 Y55.402 E.0017
G1 X85.227 Y57.235 E.01704
G1 X84.969 Y57.212 E.0017
G1 X83.136 Y55.379 E.01704
G1 X82.878 Y55.357 E.0017
G1 X84.711 Y57.19 E.01704
G1 X84.453 Y57.167 E.0017
G1 X82.62 Y55.334 E.01704
G1 X82.362 Y55.312 E.0017
G1 X84.195 Y57.145 E.01704
G1 X83.937 Y57.122 E.0017
G1 X82.104 Y55.289 E.01704
G1 X81.846 Y55.267 E.0017
G1 X83.679 Y57.1 E.01704
G1 X83.422 Y57.077 E.0017
G1 X81.588 Y55.244 E.01704
G1 X81.331 Y55.221 E.0017
G1 X83.164 Y57.055 E.01704
G1 X82.906 Y57.032 E.0017
G1 X81.073 Y55.199 E.01704
G1 X80.815 Y55.176 E.0017
G1 X82.648 Y57.009 E.01704
G1 X82.39 Y56.987 E.0017
G1 X80.557 Y55.154 E.01704
G1 X80.299 Y55.131 E.0017
G1 X82.132 Y56.964 E.01704
G1 X81.874 Y56.942 E.0017
G1 X80.041 Y55.109 E.01704
G1 X79.783 Y55.086 E.0017
