; generated by SuperSlicer 2.5.59 on 2023-02-23 at 06:14:57 UTC


;
;

;
;
; 

; external perimeters extrusion width = 0.40mm
; perimeters extrusion width = 0.46mm
; infill extrusion width = 0.64mm
; solid infill extrusion width = 0.56mm
; top infill extrusion width = 0.40mm
; first layer extrusion width = 0.50mm

; object:{"name":"Keychain-Whistle(Extra-Slim)","id":"Keychain-Whistle(Extra-Slim).stl id:0 copy 0","object_center":[60.000000,60.000000,0.000000],"boundingbox_center":[60.000000,60.000000,2.000000],"boundingbox_size":[12.258428,49.258429,4.000000]}
; plater:{"center":[60.000000,60.000000,0.000000],"boundingbox_center":[60.000000,60.000000,2.000000],"boundingbox_size":[12.258428,49.258429,4.000000]}

M73 P0 R7
;TYPE:Custom
; custom gcode: start_gcode
START_PRINT T_BED=110 T_EXTRUDER=240
; custom gcode end: start_gcode
M107
G21 ; set units to millimeters
G90 ; use absolute coordinates
M82 ; use absolute distances for extrusion
G92 E0
; custom gcode: start_filament_gcode
; Filament gcode

    PRESSURE_ADVANCE_SELECT FILAMENT=ABS
; custom gcode end: start_filament_gcode
;_TOOLCHANGE 0
M104 S240 ; set temperature
M109 S240 ; set temperature and wait for it to be reached
M190 S110 ; set bed temperature and wait for it to be reached
;LAYER_CHANGE
;Z:0.2
;HEIGHT:0.2
G1 Z0.2 F12000
M73 P0 R7
G1 E-0.5 F3000
M204 S2000
G1 X51.253 Y34.975 F12000
G1 E0 F1800
;TYPE:Skirt
;WIDTH:0.52
G1 X50.911 Y35.765 E0.03414
G1 X50.69 Y36.664 E0.07087
M73 P0 R7
G1 X50.627 Y37.347 E0.09807
G1 X50.619 Y78.996 E1.75028
G1 X50.711 Y80.247 E1.80004
G1 X51.043 Y81.708 E1.85945
G1 X51.605 Y83.062 E1.9176
G1 X52.456 Y84.405 E1.98067
G1 X53.492 Y85.539 E2.04162
G1 X54.379 Y86.251 E2.08672
G1 X55.743 Y87.043 E2.14929
G1 X57.042 Y87.532 E2.20436
G1 X58.666 Y87.837 E2.26992
G1 X61.225 Y87.847 E2.37143
G1 X62.778 Y87.58 E2.43392
G1 X64.258 Y87.043 E2.49638
G1 X65.795 Y86.126 E2.56738
G1 X67.167 Y84.86 E2.64144
G1 X67.815 Y84.028 E2.6833
G1 X68.36 Y83.124 E2.72517
G1 X68.751 Y82.276 E2.76221
G1 X69.072 Y81.306 E2.80274
G1 X69.337 Y79.834 E2.86209
G1 X69.336 Y36.853 E4.56709
G1 X69.127 Y35.886 E4.60635
G1 X68.851 Y35.191 E4.63599
G1 X68.279 Y34.248 E4.67976
G1 X67.611 Y33.518 E4.71902
G1 X66.819 Y32.923 E4.75831
G1 X65.931 Y32.484 E4.7976
G1 X64.978 Y32.215 E4.83689
G1 X64.108 Y32.124 E4.87158
G1 X56.007 Y32.119 E5.19295
M73 P1 R7
G1 X54.484 Y32.341 E5.254
G1 X53.615 Y32.683 E5.29104
G1 X53.021 Y33.026 E5.31826
G1 X52.107 Y33.792 E5.36555
G1 X51.253 Y34.975 E5.42344
G1 X51.669 Y35.21 F12000
G1 F1800
G1 X51.359 Y35.93 E5.45452
G1 X51.159 Y36.752 E5.48809
G1 X51.104 Y37.347 E5.51179
G1 X51.096 Y78.996 E7.16401
G1 X51.181 Y80.166 E7.21052
G1 X51.495 Y81.554 E7.26698
G1 X52.024 Y82.834 E7.3219
G1 X52.827 Y84.105 E7.38157
G1 X53.809 Y85.182 E7.43938
G1 X54.665 Y85.869 E7.48291
G1 X55.932 Y86.605 E7.54103
G1 X57.163 Y87.07 E7.59326
G1 X58.694 Y87.361 E7.65508
G1 X61.199 Y87.371 E7.75445
G1 X62.669 Y87.116 E7.81361
G1 X64.069 Y86.605 E7.87273
G1 X65.518 Y85.737 E7.93974
G1 X66.82 Y84.533 E8.01008
G1 X67.432 Y83.744 E8.04969
G1 X67.946 Y82.888 E8.08931
G1 X68.616 Y81.166 E8.16261
G1 X68.861 Y79.805 E8.21746
G1 X68.861 Y36.897 E9.91959
M73 P2 R7
G1 X68.668 Y36.017 E9.95536
G1 X68.427 Y35.411 E9.9812
G1 X67.907 Y34.547 E10.02122
G1 X67.3 Y33.88 E10.05698
G1 X66.58 Y33.336 E10.09278
G1 X65.773 Y32.934 E10.12857
G1 X64.905 Y32.686 E10.16437
G1 X64.108 Y32.601 E10.19616
G1 X56.007 Y32.596 E10.51753
G1 X54.607 Y32.802 E10.57363
G1 X53.296 Y33.415 E10.63105
G1 X52.444 Y34.129 E10.67514
G1 X51.669 Y35.21 E10.72792
G92 E0
G1 E-0.5 F3000
; printing object Keychain-Whistle(Extra-Slim).stl id:0 copy 0
; acceleration to travel
M204 S4000
G1 X54.437 Y64.258 F12000
; decel to extrusion
M204 S2000
G1 X55.821 Y78.782
; end travel
G1 E0 F1800
;TYPE:Internal perimeter
;WIDTH:0.5
G1 X55.499 Y78.743 E0.01231
G1 X55.507 Y37.455 E1.58148
G1 X55.525 Y37.357 E1.58531
G1 X55.544 Y37.305 E1.58741
G1 X55.629 Y37.17 E1.59344
G1 X55.671 Y37.128 E1.59571
G1 X55.752 Y37.071 E1.59948
G1 X55.842 Y37.029 E1.60325
G1 X55.901 Y37.014 E1.60557
G1 X56.058 Y36.999 E1.61156
G1 X56.954 Y37 E1.6456
G1 X64.016 Y37.004 E1.914
G1 X64.124 Y37.021 E1.91816
G1 X64.208 Y37.05 E1.92155
G1 X64.285 Y37.095 E1.92494
G1 X64.353 Y37.153 E1.92833
G1 X64.404 Y37.216 E1.93139
G1 X64.466 Y37.336 E1.93652
G1 X64.487 Y37.411 E1.93951
G1 X64.501 Y37.558 E1.94513
G1 X64.501 Y78.731 E3.50995
M73 P3 R7
G1 X64.18 Y78.771 E3.52224
G1 X64.081 Y78.376 E3.53773
G1 X63.951 Y78.006 E3.55263
G1 X63.784 Y77.644 E3.56777
G1 X63.536 Y77.227 E3.5862
G1 X63.294 Y76.901 E3.60163
G1 X63.034 Y76.611 E3.61644
G1 X62.743 Y76.343 E3.63145
G1 X62.351 Y76.05 E3.65008
G1 X61.999 Y75.839 E3.66565
G1 X61.643 Y75.67 E3.68066
G1 X61.236 Y75.524 E3.69711
G1 X60.837 Y75.423 E3.71274
G1 X60.387 Y75.357 E3.73001
G1 X59.952 Y75.341 E3.74654
G1 X59.593 Y75.361 E3.76022
G1 X59.116 Y75.437 E3.77859
G1 X58.726 Y75.537 E3.79388
G1 X58.353 Y75.671 E3.80895
G1 X57.996 Y75.844 E3.82404
G1 X57.651 Y76.052 E3.83932
G1 X57.262 Y76.341 E3.85776
G1 X56.965 Y76.612 E3.87303
G1 X56.703 Y76.908 E3.88807
G1 X56.465 Y77.231 E3.90331
G1 X56.218 Y77.646 E3.92167
G1 X56.049 Y78.008 E3.93687
G1 X55.92 Y78.381 E3.95184
G1 X55.821 Y78.782 E3.96754
G92 E0
G1 E-0.5 F3000
; acceleration to travel
M204 S4000
G1 X57.183 Y81.454 F12000
; decel to extrusion
M204 S2000
G1 X57.864 Y82.791
; end travel
G1 E0 F1800
G1 X57.701 Y83.071 E0.01233
G1 X57.534 Y82.999 E0.01923
G1 X56.999 Y82.687 E0.04279
G1 X56.634 Y82.414 E0.06011
G1 X56.45 Y82.251 E0.06945
G1 X56.127 Y81.911 E0.08727
G1 X55.919 Y81.654 E0.09985
G1 X55.664 Y81.268 E0.11745
G1 X55.505 Y80.977 E0.13003
G1 X55.32 Y80.548 E0.14778
G1 X55.239 Y80.309 E0.15736
G1 X55.153 Y79.981 E0.17027
G1 X55.075 Y79.531 E0.18761
G1 X55.042 Y78.976 E0.20874
G1 X55.049 Y37.413 E1.7884
G1 X55.083 Y37.235 E1.79529
G1 X55.132 Y37.101 E1.8007
G1 X55.21 Y36.964 E1.80671
G1 X55.27 Y36.883 E1.81053
G1 X55.376 Y36.778 E1.81621
G1 X55.523 Y36.673 E1.82306
G1 X55.687 Y36.598 E1.82992
G1 X55.82 Y36.562 E1.83518
G1 X56.037 Y36.542 E1.84345
G1 X56.954 Y36.543 E1.8783
G1 X64.051 Y36.547 E2.14804
G1 X64.236 Y36.576 E2.15514
G1 X64.4 Y36.633 E2.16175
G1 X64.551 Y36.72 E2.16837
G1 X64.683 Y36.834 E2.17498
G1 X64.788 Y36.965 E2.18138
G1 X64.893 Y37.166 E2.18999
G1 X64.938 Y37.327 E2.19635
G1 X64.958 Y37.537 E2.20439
G1 X64.958 Y78.976 E3.77932
G1 X64.925 Y79.528 E3.80035
G1 X64.831 Y80.049 E3.82047
G1 X64.675 Y80.559 E3.84073
G1 X64.498 Y80.969 E3.85772
G1 X64.234 Y81.433 E3.87797
G1 X63.919 Y81.858 E3.89809
G1 X63.555 Y82.245 E3.91831
G1 X63.206 Y82.54 E3.93566
G1 X62.939 Y82.73 E3.94812
M73 P4 R6
G1 X62.469 Y82.998 E3.96865
G1 X62.299 Y83.071 E3.97571
G1 X62.136 Y82.791 E3.98804
G1 X62.436 Y82.564 E4.00235
G1 X62.694 Y82.33 E4.01558
G1 X62.929 Y82.067 E4.02897
G1 X63.185 Y81.715 E4.04551
G1 X63.366 Y81.409 E4.05905
G1 X63.515 Y81.095 E4.07226
G1 X63.633 Y80.763 E4.08562
G1 X63.737 Y80.341 E4.10216
G1 X63.789 Y79.988 E4.11571
G1 X63.808 Y79.642 E4.12888
G1 X63.793 Y79.292 E4.14217
G1 X63.731 Y78.857 E4.15888
G1 X63.643 Y78.507 E4.1726
G1 X63.527 Y78.177 E4.18589
G1 X63.379 Y77.857 E4.1993
G1 X63.155 Y77.481 E4.21593
G1 X62.94 Y77.191 E4.22967
G1 X62.708 Y76.933 E4.24286
G1 X62.451 Y76.695 E4.25616
G1 X62.096 Y76.43 E4.27299
G1 X61.784 Y76.243 E4.28683
G1 X61.467 Y76.092 E4.30015
G1 X61.102 Y75.961 E4.3149
G1 X60.748 Y75.872 E4.32879
G1 X60.345 Y75.813 E4.34424
G1 X59.957 Y75.798 E4.35902
G1 X59.642 Y75.816 E4.37099
G1 X59.209 Y75.885 E4.38768
G1 X58.861 Y75.975 E4.40133
G1 X58.53 Y76.093 E4.41468
G1 X58.214 Y76.246 E4.42805
G1 X57.906 Y76.432 E4.4417
G1 X57.553 Y76.694 E4.45841
G1 X57.291 Y76.933 E4.47188
G1 X57.059 Y77.196 E4.48521
G1 X56.847 Y77.484 E4.49883
G1 X56.622 Y77.86 E4.51547
G1 X56.473 Y78.18 E4.52889
G1 X56.358 Y78.511 E4.54217
G1 X56.273 Y78.857 E4.55575
G1 X56.209 Y79.289 E4.57233
G1 X56.192 Y79.64 E4.5857
G1 X56.211 Y79.988 E4.59894
G1 X56.263 Y80.341 E4.61248
G1 X56.367 Y80.763 E4.62902
G1 X56.485 Y81.095 E4.64239
G1 X56.634 Y81.409 E4.65559
G1 X56.815 Y81.715 E4.66914
G1 X57.071 Y82.067 E4.68568
G1 X57.306 Y82.33 E4.69907
G1 X57.564 Y82.564 E4.7123
G1 X57.864 Y82.791 E4.72661
G92 E0
G1 E-0.5 F3000
; acceleration to travel
M204 S4000
G1 X59.288 Y82.928 F12000
; decel to extrusion
M204 S2000
G1 X60 Y82.997
; end travel
G1 E0 F1800
;TYPE:External perimeter
G1 X60.306 Y82.981 E0.01166
G1 X60.693 Y82.92 E0.02655
G1 X60.998 Y82.841 E0.0385
G1 X61.284 Y82.739 E0.05006
G1 X61.56 Y82.606 E0.06171
G1 X61.894 Y82.401 E0.07658
G1 X62.144 Y82.212 E0.08852
G1 X62.369 Y82.008 E0.10004
G1 X62.573 Y81.78 E0.11167
G1 X62.803 Y81.464 E0.12652
G1 X62.962 Y81.194 E0.13844
G1 X63.092 Y80.92 E0.14996
G1 X63.194 Y80.632 E0.16157
G1 X63.288 Y80.253 E0.17642
G1 X63.333 Y79.942 E0.18836
G1 X63.35 Y79.639 E0.19988
G1 X63.337 Y79.335 E0.21146
G1 X63.282 Y78.946 E0.2264
G1 X63.204 Y78.639 E0.23843
G1 X63.103 Y78.349 E0.25009
G1 X62.974 Y78.07 E0.26177
G1 X62.775 Y77.735 E0.27659
G1 X62.585 Y77.481 E0.28864
G1 X62.382 Y77.254 E0.30022
G1 X62.158 Y77.047 E0.31182
G1 X61.841 Y76.81 E0.32685
G1 X61.568 Y76.646 E0.33896
G1 X61.291 Y76.515 E0.35059
G1 X60.968 Y76.399 E0.36363
G1 X60.659 Y76.321 E0.37578
G1 X60.304 Y76.269 E0.38941
G1 X59.961 Y76.256 E0.40245
G1 X59.691 Y76.271 E0.41271
G1 X59.302 Y76.333 E0.4277
G1 X58.995 Y76.412 E0.43972
G1 X58.708 Y76.515 E0.45135
G1 X58.431 Y76.649 E0.463
G1 X58.161 Y76.812 E0.47502
G1 X57.844 Y77.047 E0.49
G1 X57.618 Y77.254 E0.50166
G1 X57.415 Y77.483 E0.5133
G1 X57.228 Y77.738 E0.52529
G1 X57.026 Y78.075 E0.54022
G1 X56.897 Y78.352 E0.55185
G1 X56.797 Y78.64 E0.56345
G1 X56.722 Y78.946 E0.57541
G1 X56.664 Y79.333 E0.59029
G1 X56.65 Y79.638 E0.6019
G1 X56.667 Y79.942 E0.61345
G1 X56.712 Y80.253 E0.62539
G1 X56.806 Y80.632 E0.64024
G1 X56.908 Y80.92 E0.65185
G1 X57.038 Y81.194 E0.66337
G1 X57.197 Y81.464 E0.67529
G1 X57.427 Y81.78 E0.69014
G1 X57.631 Y82.008 E0.70177
G1 X57.856 Y82.212 E0.7133
G1 X58.106 Y82.401 E0.72523
G1 X58.44 Y82.606 E0.7401
G1 X58.716 Y82.739 E0.75175
G1 X59.002 Y82.841 E0.76331
G1 X59.307 Y82.92 E0.77527
G1 X59.694 Y82.981 E0.79016
G1 X60 Y82.997 E0.80181
;WIPE_START
M204 S4000
G1 X60.206 Y83.34 F12000
;WIPE_END
M204 S2000
G1 X60 Y83.915
G1 F1800
G1 X59.51 Y83.915 E0.82042
G1 X58.916 Y83.88 E0.84305
G1 X58.426 Y83.795 E0.86196
G1 X57.783 Y83.605 E0.88743
G1 X57.328 Y83.408 E0.90627
G1 X56.746 Y83.069 E0.93188
G1 X56.345 Y82.768 E0.95093
G1 X56.133 Y82.58 E0.96171
G1 X55.783 Y82.213 E0.98097
G1 X55.55 Y81.924 E0.9951
G1 X55.272 Y81.503 E1.01426
G1 X55.094 Y81.177 E1.02838
G1 X54.894 Y80.712 E1.04761
G1 X54.801 Y80.441 E1.05851
G1 X54.706 Y80.078 E1.07277
G1 X54.62 Y79.584 E1.09182
G1 X54.585 Y78.99 E1.11445
G1 X54.592 Y37.371 E2.69624
G1 X54.641 Y37.113 E2.70619
G1 X54.716 Y36.909 E2.71447
G1 X54.826 Y36.713 E2.723
G1 X54.924 Y36.583 E2.72919
G1 X55.08 Y36.427 E2.73758
G1 X55.293 Y36.276 E2.74752
G1 X55.531 Y36.166 E2.75746
G1 X55.74 Y36.111 E2.76567
G1 X56.016 Y36.085 E2.77622
G1 X56.954 Y36.085 E2.81188
G1 X64.086 Y36.09 E3.08295
G1 X64.348 Y36.13 E3.093
G1 X64.592 Y36.216 E3.10283
G1 X64.816 Y36.346 E3.11267
G1 X65.012 Y36.514 E3.1225
G1 X65.173 Y36.714 E3.13224
G1 X65.32 Y36.996 E3.14434
G1 X65.39 Y37.242 E3.15406
G1 X65.415 Y37.516 E3.16452
G1 X65.415 Y78.99 E4.74077
M73 P6 R6
G1 X65.38 Y79.583 E4.76335
G1 X65.276 Y80.157 E4.78554
G1 X65.104 Y80.717 E4.80779
G1 X64.907 Y81.174 E4.82669
G1 X64.618 Y81.682 E4.84894
G1 X64.271 Y82.152 E4.87113
G1 X63.87 Y82.578 E4.89336
G1 X63.487 Y82.902 E4.91242
G1 X63.185 Y83.116 E4.92649
G1 X62.674 Y83.407 E4.94886
G1 X62.214 Y83.606 E4.96789
G1 X61.861 Y83.722 E4.98202
G1 X61.37 Y83.837 E5.00118
G1 X61.002 Y83.888 E5.0153
G1 X60.491 Y83.915 E5.03476
G1 X60 Y83.915 E5.05341
;WIPE_START
M204 S4000
G1 X59.8 Y83.569 F12000
;WIPE_END
; acceleration to travel
G1 X58.58 Y83.208
; decel to extrusion
M204 S2000
G1 X57.97 Y83.027
; end travel
;TYPE:Gap fill
;WIDTH:0.751914
G1 F1800
G1 X58.153 Y83.108 E5.06516
;WIDTH:0.716708
G1 X58.3 Y83.167 E5.07408
G1 X58.487 Y83.239 E5.08529
G1 X58.52 Y83.251 E5.08727
G1 X58.693 Y83.298 E5.0973
;WIDTH:0.652762
G1 X58.835 Y83.336 E5.10476
G1 X58.976 Y83.367 E5.11205
G1 X59.084 Y83.384 E5.11764
;WIDTH:0.606925
G1 X59.193 Y83.401 E5.12282
G1 X59.372 Y83.421 E5.13126
;WIDTH:0.568643
G1 X59.525 Y83.438 E5.13795
G1 X59.632 Y83.446 E5.14264
;WIDTH:0.540183
G1 X59.823 Y83.452 E5.15054
G1 X59.987 Y83.456 E5.15734
G1 X60.177 Y83.452 E5.16522
;WIDTH:0.577384
G1 X60.342 Y83.447 E5.17253
G1 X60.478 Y83.437 E5.17859
G1 X60.629 Y83.421 E5.18534
;WIDTH:0.624665
G1 X60.78 Y83.405 E5.19269
G1 X60.953 Y83.379 E5.20117
;WIDTH:0.65257
G1 X61.137 Y83.343 E5.21065
;WIDTH:0.690826
G1 X61.272 Y83.311 E5.21815
G1 X61.376 Y83.28 E5.22396
;WIDTH:0.728256
G1 X61.479 Y83.25 E5.23011
G1 X61.513 Y83.239 E5.23214
G1 X61.698 Y83.173 E5.24331
G1 X61.851 Y83.114 E5.25267
G1 X62.035 Y83.035 E5.26405
; acceleration to travel
M204 S4000
G1 X62.664 Y82.606 F12000
; decel to extrusion
M204 S2000
G1 X62.979 Y82.391
; end travel
;WIDTH:0.133842
G1 F1800
G1 X63.014 Y82.359 E5.26442
;WIDTH:0.167432
G1 X63.139 Y82.241 E5.2662
G1 X63.243 Y82.129 E5.26778
;WIDTH:0.259984
G1 X63.342 Y82.022 E5.27042
G1 X63.448 Y81.894 E5.2734
G1 X63.551 Y81.758 E5.27648
;WIDTH:0.33854
G1 X63.647 Y81.631 E5.28041
G1 X63.679 Y81.582 E5.28183
G1 X63.781 Y81.412 E5.28671
;WIDTH:0.422531
G1 X63.876 Y81.254 E5.29254
G1 X63.898 Y81.214 E5.29399
G1 X63.97 Y81.055 E5.29948
;WIDTH:0.484105
G1 X64.043 Y80.897 E5.30586
;WIDTH:0.521311
G1 X64.095 Y80.768 E5.31139
G1 X64.149 Y80.607 E5.31817
;WIDTH:0.591415
G1 X64.203 Y80.445 E5.32595
G1 X64.219 Y80.391 E5.3285
G1 X64.257 Y80.222 E5.33641
;WIDTH:0.643775
G1 X64.295 Y80.053 E5.34507
;WIDTH:0.673943
G1 X64.319 Y79.925 E5.3519
G1 X64.334 Y79.794 E5.35886
;WIDTH:0.706487
G1 X64.35 Y79.662 E5.36617
;WIDTH:0.733535
G1 X64.353 Y79.629 E5.36805
G1 X64.364 Y79.461 E5.37771
G1 X64.366 Y79.323 E5.38566
G1 X64.363 Y79.253 E5.38966
G1 X64.355 Y79.118 E5.39745
;WIDTH:0.794718
G1 X64.349 Y79.01 E5.40418
G1 X64.345 Y78.963 E5.40719
G1 X64.25 Y78.102 F12000
;WIDTH:0.131434
G1 F1800
G1 X64.242 Y78.055 E5.40754
;WIDTH:0.164967
G1 X64.216 Y77.902 E5.40911
;WIDTH:0.193666
G1 X64.197 Y77.811 E5.41028
;WIDTH:0.262824
G1 X64.16 Y77.643 E5.41342
;WIDTH:0.354896
G1 X64.123 Y77.475 E5.41788
;WIDTH:0.406975
G1 X64.083 Y77.329 E5.42248
;WIDTH:0.528472
G1 X64.048 Y77.2 E5.42787
G1 X64.033 Y77.154 E5.42983
;WIDTH:0.625133
G1 X63.976 Y76.968 E5.43924
G92 E0
G1 E-0.5 F3000
; acceleration to travel
M204 S4000
G1 X58.675 Y76.97 F12000
; decel to extrusion
M204 S2000
G1 X56.025 Y76.971
; end travel
G1 E0 F1800
;WIDTH:0.626779
G1 X55.968 Y77.157 E0.00945
;WIDTH:0.529708
G1 X55.953 Y77.203 E0.01143
;WIDTH:0.482774
G1 X55.9 Y77.395 E0.01869
;WIDTH:0.387998
G1 X55.879 Y77.476 E0.0211
;WIDTH:0.356865
G1 X55.841 Y77.645 E0.02561
;WIDTH:0.263387
G1 X55.804 Y77.813 E0.02878
;WIDTH:0.193157
G1 X55.783 Y77.905 E0.02995
;WIDTH:0.1646
G1 X55.758 Y78.058 E0.03152
;WIDTH:0.131527
G1 X55.75 Y78.105 E0.03188
G1 X55.655 Y78.974 F12000
;WIDTH:0.805618
G1 F1800
G1 X55.647 Y79.097 E0.03969
;WIDTH:0.738474
G1 X55.638 Y79.246 E0.04835
G1 X55.635 Y79.334 E0.05344
G1 X55.636 Y79.466 E0.06108
G1 X55.649 Y79.66 E0.0723
;WIDTH:0.708673
G1 X55.66 Y79.76 E0.07787
G1 X55.672 Y79.86 E0.08344
;WIDTH:0.662803
G1 X55.706 Y80.053 E0.09356
G1 X55.742 Y80.218 E0.10225
;WIDTH:0.593882
G1 X55.778 Y80.382 E0.10997
G1 X55.797 Y80.445 E0.11297
G1 X55.853 Y80.613 E0.12107
;WIDTH:0.519258
G1 X55.909 Y80.78 E0.12807
G1 X55.956 Y80.898 E0.13308
;WIDTH:0.474711
G1 X56.024 Y81.051 E0.1391
G1 X56.07 Y81.144 E0.14282
;WIDTH:0.410807
G1 X56.125 Y81.253 E0.14657
G1 X56.175 Y81.342 E0.14967
;WIDTH:0.37883
G1 X56.225 Y81.43 E0.1525
G1 X56.321 Y81.582 E0.15754
;WIDTH:0.32835
G1 X56.39 Y81.681 E0.16039
G1 X56.467 Y81.784 E0.16345
;WIDTH:0.261288
G1 X56.552 Y81.895 E0.16598
G1 X56.664 Y82.03 E0.16916
G1 X56.739 Y82.112 E0.17118
;WIDTH:0.184837
G1 X56.86 Y82.242 E0.17328
;WIDTH:0.153981
G1 X56.972 Y82.344 E0.17468
G1 X57.008 Y82.377 E0.17513
G92 E0
G1 E-0.5 F3000
; acceleration to travel
M204 S4000
G1 X61.149 Y52.401 F12000
; decel to extrusion
