; HEADER_BLOCK_START
; generated by OrcaSlicer 1.6.4-beta2 on 2023-08-16 at 21:43:10
; total layer number: 61
; HEADER_BLOCK_END

; THUMBNAIL_BLOCK_START
; THUMBNAIL_BLOCK_END

; external perimeters extrusion width = 0.40mm
; perimeters extrusion width = 0.46mm
; infill extrusion width = 0.64mm
; solid infill extrusion width = 0.56mm
; top infill extrusion width = 0.40mm
; first layer extrusion width = 0.50mm

; EXECUTABLE_BLOCK_START
EXCLUDE_OBJECT_DEFINE NAME=Kirigami_LDO_Breakout_Mount.stl_id_0_copy_0 CENTER=60,60 POLYGON=[[30.85,67.5],[30.99,67.1296],[31.5969,65.5245],[36.2377,53.25],[36.9938,51.25],[37.2613,50.5427],[37.4407,50.1825],[37.6887,49.8655],[37.995,49.6046],[38.3474,49.4103],[38.7316,49.2905],[39.132,49.25],[71.15,47.5],[82.742,47.5],[83.1207,47.5362],[83.4858,47.6434],[83.8239,47.8179],[84.1229,48.0532],[84.3719,48.3409],[84.5619,48.6705],[84.686,49.0301],[86.4006,56.1242],[88.856,66.2835],[89.15,67.5],[89.15,72.5],[30.85,72.5],[30.85,67.5]]
M73 P0 R17
;TYPE:Custom
START_PRINT T_BED=105 T_EXTRUDER=260
G90
G21
M83 ; use relative distances for extrusion
; Filament gcode
M106 S0
;LAYER_CHANGE
;Z:0.2
;HEIGHT:0.2
;BEFORE_LAYER_CHANGE
;0.2
G92 E0

;AFTER_LAYER_CHANGE
;0.2
SET_VELOCITY_LIMIT ACCEL=1000 ACCEL_TO_DECEL=500
G1 E-.8 F1800
G1 Z.2 F21000
G1 X36.276 Y47.633
G1 E.8 F1800
;TYPE:Skirt
;WIDTH:0.5
G1 F3000
G1 X37.058 Y47.134 E.03278
G1 X37.924 Y46.802 E.03278
G1 X38.973 Y46.64 E.03752
G1 X70.991 Y44.89 E1.13339
G1 X83.019 Y44.899 E.42515
G1 X83.923 Y45.043 E.03234
G1 X84.398 Y45.199 E.01767
G1 X85.066 Y45.52 E.02621
G1 X85.632 Y45.905 E.02419
G1 X86.222 Y46.475 E.02901
G1 X86.678 Y47.104 E.02745
G1 X87.016 Y47.777 E.02663
G1 X87.227 Y48.416 E.02377
G1 X91.683 Y66.851 E.67037
G1 X91.764 Y67.536 E.02437
G1 X91.764 Y72.2 E.16486
G1 X91.371 Y73.662 E.0535
G1 X90.298 Y74.729 E.0535
G1 X88.85 Y75.114 E.05295
G1 X31.15 Y75.114 E2.03946
G1 X29.688 Y74.721 E.0535
G1 X28.621 Y73.648 E.0535
G1 X28.236 Y72.2 E.05295
G1 X28.236 Y67.555 E.16419
G1 X28.424 Y66.524 E.03703
G1 X34.934 Y49.349 E.6492
G1 X35.61 Y48.278 E.04479
G1 X36.247 Y47.661 E.03136
G1 X36.563 Y47.99 F21000
G1 F3000
G1 X36.572 Y47.981 E.00045
G1 X37.279 Y47.535 E.02953
G1 X38.06 Y47.239 E.02953
G1 X38.998 Y47.097 E.03353
G1 X71.016 Y45.347 E1.13339
G1 X82.976 Y45.354 E.42273
G1 X84.248 Y45.631 E.04603
G1 X85.274 Y46.206 E.04158
G1 X85.939 Y46.846 E.03262
G1 X86.586 Y47.932 E.04466
G1 X86.783 Y48.523 E.02205
G1 X91.238 Y66.959 E.67037
G1 X91.307 Y67.536 E.02055
G1 X91.307 Y72.2 E.16486
G1 X90.915 Y73.531 E.04905
G1 X89.865 Y74.438 E.04905
G1 X88.85 Y74.657 E.03669
G1 X31.15 Y74.657 E2.03946
G1 X29.819 Y74.265 E.04905
G1 X28.912 Y73.215 E.04905
G1 X28.693 Y72.2 E.03669
G1 X28.693 Y67.555 E.16419
G1 X28.852 Y66.686 E.03122
G1 X35.343 Y49.553 E.64758
G1 X35.97 Y48.559 E.04153
G1 X36.534 Y48.017 E.02766
; printing object Kirigami_LDO_Breakout_Mount.stl id:0 copy 0
EXCLUDE_OBJECT_START NAME=Kirigami_LDO_Breakout_Mount.stl_id_0_copy_0
G1 E-.8 F1800
G1 Z.4 F21000
G1 X72.587 Y50.022
G1 Z.2
G1 E.8 F1800
;TYPE:Inner wall
G1 F3000
G1 X82.334 Y50.029 E.3445
G1 X86.629 Y67.8 E.64622
G1 X86.629 Y69.979 E.077
G1 X33.371 Y69.979 E1.88243
G1 X33.371 Y67.961 E.07133
G1 X39.492 Y51.771 E.61176
G1 X69.679 Y51.771 E1.06699
M73 P1 R17
G1 X70.364 Y51.691 E.02437
G1 X71.137 Y51.409 E.02908
G1 X71.795 Y50.975 E.02787
G1 X72.275 Y50.495 E.024
G1 X72.565 Y50.056 E.01861
G1 X72.341 Y49.565 F21000
G1 F3000
G1 X82.694 Y49.573 E.36591
G1 X87.086 Y67.746 E.66085
G1 X87.086 Y70.436 E.09508
G1 X32.914 Y70.436 E1.91475
G1 X32.914 Y67.877 E.09044
G1 X39.176 Y51.314 E.62588
G1 X69.653 Y51.314 E1.07721
G1 X70.258 Y51.243 E.02154
G1 X70.93 Y50.998 E.02529
G1 X71.505 Y50.619 E.02433
G1 X71.919 Y50.205 E.02072
G1 X72.319 Y49.598 E.02567
G1 X72.002 Y49.108 F21000
G1 F3000
G1 X82.759 Y49.116 E.3802
G1 X82.885 Y49.144 E.00456
G1 X82.999 Y49.216 E.00478
G1 X83.085 Y49.322 E.00485
G1 X83.14 Y49.476 E.00576
G1 X87.543 Y67.691 E.66239
G1 X87.543 Y70.893 E.11316
G1 X32.457 Y70.893 E1.94706
G1 X32.457 Y67.794 E.10955
G1 X38.741 Y51.173 E.62807
G1 X38.853 Y50.983 E.0078
G1 X38.98 Y50.895 E.00547
G1 X39.198 Y50.857 E.0078
G1 X69.626 Y50.857 E1.07551
G1 X70.152 Y50.796 E.0187
G1 X70.723 Y50.587 E.0215
G1 X71.214 Y50.263 E.0208
G1 X71.563 Y49.914 E.01744
G1 X71.887 Y49.423 E.0208
G1 X71.989 Y49.145 E.01045
G1 X71.683 Y48.65 F21000
G1 F3000
G1 X82.784 Y48.658 E.3924
G1 X82.919 Y48.674 E.0048
G1 X83.082 Y48.728 E.00604
G1 X83.288 Y48.858 E.00864
G1 X83.411 Y48.983 E.0062
G1 X83.498 Y49.119 E.00571
G1 X83.579 Y49.345 E.00846
G1 X88 Y67.637 E.66518
G1 X88 Y71.35 E.13124
G1 X32 Y71.35 E1.97937
G1 X32 Y67.71 E.12865
G1 X38.322 Y50.99 E.63184
G1 X38.417 Y50.799 E.00754
G1 X38.522 Y50.665 E.00601
G1 X38.651 Y50.554 E.00601
G1 X38.8 Y50.472 E.00601
G1 X38.963 Y50.421 E.00601
G1 X39.175 Y50.4 E.00754
G1 X69.599 Y50.4 E1.07538
G1 X70.045 Y50.348 E.01587
G1 X70.516 Y50.176 E.01772
G1 X70.924 Y49.907 E.01727
G1 X71.207 Y49.624 E.01416
G1 X71.476 Y49.216 E.01727
G1 X71.669 Y48.688 E.01987
G1 X71.197 Y48.15 F21000
;TYPE:Outer wall
G1 F3000
G1 X82.812 Y48.159 E.41054
G1 X83.027 Y48.183 E.00765
G1 X83.297 Y48.272 E.01004
G1 X83.605 Y48.466 E.01287
G1 X83.804 Y48.671 E.01009
G1 X83.926 Y48.86 E.00796
G1 X84.059 Y49.201 E.01293
G1 X88.5 Y67.577 E.66823
G1 X88.5 Y71.85 E.15102
G1 X31.5 Y71.85 E2.01472
M73 P2 R17
G1 X31.5 Y67.619 E.14956
G1 X37.863 Y50.789 E.63596
G1 X37.992 Y50.53 E.01022
G1 X38.159 Y50.317 E.00959
G1 X38.366 Y50.141 E.00959
G1 X38.603 Y50.01 E.00959
G1 X38.862 Y49.929 E.00959
G1 X39.15 Y49.9 E.01022
G1 X69.57 Y49.9 E1.07525
G1 X69.929 Y49.858 E.01276
G1 X70.29 Y49.727 E.01357
G1 X70.606 Y49.518 E.0134
G1 X70.818 Y49.306 E.01057
G1 X71.027 Y48.99 E.0134
G1 X71.16 Y48.625 E.01374
G1 X71.194 Y48.19 E.01541
G1 E-.8 F1800
G1 Z.4 F21000
G1 X82.525 Y51.403
G1 Z.2
G1 E.8 F1800
;TYPE:Bottom surface
;WIDTH:0.504082
G1 F6300
G1 X81.493 Y50.372 E.052
G1 X80.841 Y50.371 E.02327
G1 X82.453 Y51.984 E.08133
G1 X82.661 Y52.844 E.03155
G1 X80.188 Y50.371 E.12473
G1 X79.535 Y50.37 E.02327
G1 X82.869 Y53.704 E.16813
G1 X83.077 Y54.564 E.03155
G1 X78.883 Y50.37 E.21153
G1 X78.23 Y50.369 E.02327
G1 X83.285 Y55.424 E.25493
G1 X83.493 Y56.284 E.03155
G1 X77.577 Y50.369 E.29832
G1 X76.925 Y50.368 E.02327
G1 X83.701 Y57.144 E.34172
G1 X83.908 Y58.004 E.03155
G1 X76.272 Y50.368 E.38512
G1 X75.619 Y50.367 E.02327
G1 X84.116 Y58.864 E.42852
G1 X84.324 Y59.724 E.03155
G1 X74.967 Y50.367 E.47192
G1 X74.314 Y50.366 E.02327
G1 X84.532 Y60.584 E.51532
G1 X84.74 Y61.444 E.03155
G1 X73.661 Y50.366 E.55872
G1 X73.009 Y50.365 E.02327
G1 X84.948 Y62.304 E.60212
G1 X85.156 Y63.164 E.03155
G1 X72.607 Y50.615 E.63288
G1 X72.542 Y50.713 E.00417
G1 X72.297 Y50.958 E.01236
G1 X85.363 Y64.024 E.65897
G1 X85.571 Y64.884 E.03155
G1 X71.962 Y51.276 E.68634
G1 X71.569 Y51.535 E.01679
G1 X85.779 Y65.744 E.71664
G1 X85.987 Y66.605 E.03155
G1 X71.151 Y51.769 E.7482
G1 X70.674 Y51.943 E.01814
G1 X86.195 Y67.465 E.78279
G1 X86.286 Y67.841 E.01382
G1 X86.286 Y68.208 E.01307
G1 X70.141 Y52.062 E.81426
G1 X69.699 Y52.114 E.01585
G1 X69.54 Y52.114 E.00568
G1 X86.286 Y68.86 E.84455
G1 X86.286 Y69.512 E.02326
G1 X68.888 Y52.114 E.87744
G1 X68.236 Y52.114 E.02326
G1 X85.758 Y69.636 E.88369
G1 X85.105 Y69.636 E.02326
G1 X67.583 Y52.114 E.88369
G1 X66.931 Y52.114 E.02326
G1 X84.453 Y69.636 E.88369
G1 X83.801 Y69.636 E.02326
G1 X66.279 Y52.114 E.88369
G1 X65.627 Y52.114 E.02326
G1 X83.149 Y69.636 E.88369
G1 X82.497 Y69.636 E.02326
G1 X64.975 Y52.114 E.88369
G1 X64.323 Y52.114 E.02326
G1 X81.845 Y69.636 E.88369
G1 X81.192 Y69.636 E.02326
G1 X63.67 Y52.114 E.88369
G1 X63.018 Y52.114 E.02326
G1 X80.54 Y69.636 E.88369
M73 P3 R17
G1 X79.888 Y69.636 E.02326
G1 X62.366 Y52.114 E.88369
G1 X61.714 Y52.114 E.02326
G1 X79.236 Y69.636 E.88369
G1 X78.584 Y69.636 E.02326
G1 X61.062 Y52.114 E.88369
G1 X60.409 Y52.114 E.02326
G1 X77.931 Y69.636 E.88369
G1 X77.279 Y69.636 E.02326
G1 X59.757 Y52.114 E.88369
G1 X59.105 Y52.114 E.02326
G1 X76.627 Y69.636 E.88369
G1 X75.975 Y69.636 E.02326
G1 X58.453 Y52.114 E.88369
G1 X57.801 Y52.114 E.02326
G1 X75.323 Y69.636 E.88369
G1 X74.671 Y69.636 E.02326
G1 X57.149 Y52.114 E.88369
G1 X56.496 Y52.114 E.02326
G1 X74.018 Y69.636 E.88369
G1 X73.366 Y69.636 E.02326
G1 X55.844 Y52.114 E.88369
G1 X55.192 Y52.114 E.02326
G1 X72.714 Y69.636 E.88369
G1 X72.062 Y69.636 E.02326
G1 X54.54 Y52.114 E.88369
G1 X53.888 Y52.114 E.02326
G1 X71.41 Y69.636 E.88369
G1 X70.757 Y69.636 E.02326
G1 X53.235 Y52.114 E.88369
G1 X52.583 Y52.114 E.02326
G1 X70.105 Y69.636 E.88369
G1 X69.453 Y69.636 E.02326
G1 X51.931 Y52.114 E.88369
G1 X51.279 Y52.114 E.02326
G1 X68.801 Y69.636 E.88369
G1 X68.149 Y69.636 E.02326
G1 X50.627 Y52.114 E.88369
G1 X49.975 Y52.114 E.02326
G1 X67.497 Y69.636 E.88369
G1 X66.844 Y69.636 E.02326
G1 X49.322 Y52.114 E.88369
G1 X48.67 Y52.114 E.02326
G1 X66.192 Y69.636 E.88369
G1 X65.54 Y69.636 E.02326
G1 X48.018 Y52.114 E.88369
G1 X47.366 Y52.114 E.02326
G1 X64.888 Y69.636 E.88369
G1 X64.236 Y69.636 E.02326
G1 X46.714 Y52.114 E.88369
G1 X46.061 Y52.114 E.02326
G1 X63.583 Y69.636 E.88369
G1 X62.931 Y69.636 E.02326
G1 X45.409 Y52.114 E.88369
G1 X44.757 Y52.114 E.02326
G1 X62.279 Y69.636 E.88369
G1 X61.627 Y69.636 E.02326
G1 X44.105 Y52.114 E.88369
G1 X43.453 Y52.114 E.02326
G1 X60.975 Y69.636 E.88369
M73 P4 R17
G1 X60.323 Y69.636 E.02326
G1 X42.801 Y52.114 E.88369
G1 X42.148 Y52.114 E.02326
G1 X59.67 Y69.636 E.88369
G1 X59.018 Y69.636 E.02326
G1 X41.496 Y52.114 E.88369
G1 X40.844 Y52.114 E.02326
G1 X58.366 Y69.636 E.88369
G1 X57.714 Y69.636 E.02326
G1 X40.192 Y52.114 E.88369
G1 X39.729 Y52.114 E.0165
G1 X39.677 Y52.251 E.00524
G1 X57.062 Y69.636 E.87675
G1 X56.409 Y69.636 E.02326
G1 X39.498 Y52.725 E.85289
G1 X39.319 Y53.198 E.01804
G1 X55.757 Y69.636 E.82902
G1 X55.105 Y69.636 E.02326
G1 X39.14 Y53.671 E.80515
G1 X38.961 Y54.144 E.01804
G1 X54.453 Y69.636 E.78128
G1 X53.801 Y69.636 E.02326
G1 X38.782 Y54.618 E.75742
G1 X38.604 Y55.091 E.01804
G1 X53.149 Y69.636 E.73355
G1 X52.496 Y69.636 E.02326
G1 X38.425 Y55.564 E.70968
G1 X38.246 Y56.037 E.01804
G1 X51.844 Y69.636 E.68581
G1 X51.192 Y69.636 E.02326
G1 X38.067 Y56.511 E.66195
G1 X37.888 Y56.984 E.01804
G1 X50.54 Y69.636 E.63808
G1 X49.888 Y69.636 E.02326
G1 X37.709 Y57.457 E.61421
G1 X37.53 Y57.93 E.01804
G1 X49.235 Y69.636 E.59034
G1 X48.583 Y69.636 E.02326
G1 X37.351 Y58.404 E.56648
G1 X37.172 Y58.877 E.01804
G1 X47.931 Y69.636 E.54261
M73 P4 R16
G1 X47.279 Y69.636 E.02326
G1 X36.993 Y59.35 E.51874
G1 X36.814 Y59.824 E.01804
G1 X46.627 Y69.636 E.49487
G1 X45.975 Y69.636 E.02326
G1 X36.635 Y60.297 E.47101
G1 X36.456 Y60.77 E.01804
G1 X45.322 Y69.636 E.44714
G1 X44.67 Y69.636 E.02326
G1 X36.277 Y61.243 E.42327
G1 X36.099 Y61.717 E.01804
G1 X44.018 Y69.636 E.3994
G1 X43.366 Y69.636 E.02326
G1 X35.92 Y62.19 E.37553
G1 X35.741 Y62.663 E.01804
G1 X42.714 Y69.636 E.35167
G1 X42.061 Y69.636 E.02326
G1 X35.562 Y63.136 E.3278
G1 X35.383 Y63.61 E.01804
G1 X41.409 Y69.636 E.30393
G1 X40.757 Y69.636 E.02326
G1 X35.204 Y64.083 E.28006
G1 X35.025 Y64.556 E.01804
G1 X40.105 Y69.636 E.2562
G1 X39.453 Y69.636 E.02326
G1 X34.846 Y65.029 E.23233
G1 X34.667 Y65.503 E.01804
G1 X38.801 Y69.636 E.20846
G1 X38.148 Y69.636 E.02326
G1 X34.488 Y65.976 E.18459
G1 X34.309 Y66.449 E.01804
G1 X37.496 Y69.636 E.16073
G1 X36.844 Y69.636 E.02326
G1 X34.13 Y66.922 E.13686
G1 X33.951 Y67.396 E.01804
G1 X36.192 Y69.636 E.11299
G1 X35.54 Y69.636 E.02326
G1 X33.772 Y67.869 E.08912
G1 X33.714 Y68.023 E.00589
G1 X33.714 Y68.463 E.01566
G1 X34.887 Y69.636 E.05918
G1 X34.235 Y69.636 E.02326
G1 X33.508 Y68.909 E.03666
; stop printing object Kirigami_LDO_Breakout_Mount.stl id:0 copy 0
EXCLUDE_OBJECT_END NAME=Kirigami_LDO_Breakout_Mount.stl_id_0_copy_0
;LAYER_CHANGE
;Z:0.4
;HEIGHT:0.2
;BEFORE_LAYER_CHANGE
;0.4
G92 E0

;AFTER_LAYER_CHANGE
;0.4
SET_VELOCITY_LIMIT ACCEL=6000 ACCEL_TO_DECEL=3000
M140 S105 ; set bed temperature
; printing object Kirigami_LDO_Breakout_Mount.stl id:0 copy 0
EXCLUDE_OBJECT_START NAME=Kirigami_LDO_Breakout_Mount.stl_id_0_copy_0
SET_VELOCITY_LIMIT ACCEL=4000 ACCEL_TO_DECEL=2000
G1 E-.8 F1800
G1 Z.4 F21000
G1 X72.259 Y49.481
G1 E.8 F1800
SET_VELOCITY_LIMIT ACCEL=6000 ACCEL_TO_DECEL=3000
;TYPE:Inner wall
;WIDTH:0.46
G1 F8631.445
G1 X82.749 Y49.49 E.33831
G1 X87.169 Y67.736 E.60549
M73 P5 R16
G1 X87.169 Y70.519 E.08975
G1 X32.831 Y70.519 E1.75253
G1 X32.831 Y67.862 E.08569
G1 X39.126 Y51.241 E.57322
G1 X69.668 Y51.231 E.98507
G1 X70.293 Y51.152 E.02031
G1 X71.021 Y50.865 E.02524
G1 X71.721 Y50.318 E.02864
G1 X72.177 Y49.69 E.02505
G1 X72.245 Y49.518 E.00594
SET_VELOCITY_LIMIT ACCEL=4000 ACCEL_TO_DECEL=2000
G1 X71.976 Y49.064 F21000
SET_VELOCITY_LIMIT ACCEL=6000 ACCEL_TO_DECEL=3000
G1 F8631.445
G1 X82.672 Y49.064 E.34499
G1 X82.821 Y49.078 E.00481
G1 X82.999 Y49.155 E.00627
G1 X83.126 Y49.305 E.00631
G1 X83.183 Y49.468 E.00558
G1 X87.586 Y67.686 E.6045
G1 X87.586 Y70.936 E.10481
G1 X32.414 Y70.936 E1.77944
G1 X32.414 Y67.786 E.1016
G1 X38.698 Y51.165 E.5731
G1 X38.823 Y50.953 E.00792
G1 X38.964 Y50.856 E.00553
G1 X39.206 Y50.814 E.00792
G1 X69.642 Y50.814 E.98165
G1 X70.189 Y50.745 E.01777
G1 X70.812 Y50.499 E.0216
G1 X71.418 Y50.026 E.0248
G1 X71.808 Y49.487 E.02146
G1 X71.961 Y49.101 E.01338
SET_VELOCITY_LIMIT ACCEL=4000 ACCEL_TO_DECEL=2000
G1 X71.656 Y48.647 F21000
SET_VELOCITY_LIMIT ACCEL=6000 ACCEL_TO_DECEL=3000
G1 F8631.445
G1 X82.692 Y48.647 E.35595
G1 X82.902 Y48.667 E.00681
G1 X83.066 Y48.717 E.00552
G1 X83.294 Y48.858 E.00863
G1 X83.463 Y49.057 E.00844
G1 X83.509 Y49.138 E.00302
G1 X83.583 Y49.35 E.00723
G1 X88.003 Y67.637 E.60677
G1 X88.003 Y71.353 E.11986
G1 X31.997 Y71.353 E1.80634
G1 X31.997 Y67.71 E.11751
G1 X38.316 Y50.998 E.57624
G1 X38.415 Y50.798 E.00721
G1 X38.52 Y50.663 E.0055
G1 X38.65 Y50.553 E.0055
G1 X38.8 Y50.47 E.0055
G1 X38.962 Y50.42 E.0055
G1 X39.185 Y50.397 E.00721
G1 X69.616 Y50.397 E.98148
G1 X70.084 Y50.338 E.01523
G1 X70.602 Y50.133 E.01797
G1 X71.115 Y49.733 E.02097
G1 X71.44 Y49.285 E.01786
G1 X71.644 Y48.768 E.01793
G1 X71.652 Y48.687 E.00263
SET_VELOCITY_LIMIT ACCEL=4000 ACCEL_TO_DECEL=2000
G1 X71.276 Y48.23 F21000
SET_VELOCITY_LIMIT ACCEL=6000 ACCEL_TO_DECEL=3000
G1 F8631.445
G1 X82.712 Y48.23 E.36885
G1 X82.961 Y48.254 E.00807
G1 X83.228 Y48.331 E.00894
G1 X83.454 Y48.453 E.00829
G1 X83.585 Y48.556 E.00539
G1 X83.805 Y48.817 E.01101
G1 X83.89 Y48.964 E.00548
G1 X83.984 Y49.232 E.00916
G1 X88.42 Y67.587 E.60904
G1 X88.42 Y71.77 E.13491
G1 X31.58 Y71.77 E1.83324
G1 X31.58 Y67.633 E.13342
G1 X37.933 Y50.831 E.57938
G1 X38.061 Y50.574 E.00925
G1 X38.218 Y50.373 E.00822
G1 X38.412 Y50.208 E.00822
G1 X38.635 Y50.085 E.00822
G1 X38.878 Y50.009 E.00822
G1 X39.164 Y49.98 E.00925
G1 X69.59 Y49.98 E.98131
G1 X69.98 Y49.931 E.01268
G1 X70.393 Y49.767 E.01433
G1 X70.812 Y49.44 E.01713
G1 X71.071 Y49.083 E.01427
G1 X71.235 Y48.67 E.01431
G1 X71.272 Y48.27 E.01296
SET_VELOCITY_LIMIT ACCEL=4000 ACCEL_TO_DECEL=2000
G1 X71.163 Y47.8 F21000
;TYPE:Outer wall
;WIDTH:0.4
G1 F6000
G1 X82.732 Y47.8 E.31946
G1 X83.005 Y47.826 E.00757
G1 X83.394 Y47.932 E.01113
G1 X83.691 Y48.092 E.0093
G1 X83.885 Y48.245 E.00684
G1 X84.159 Y48.569 E.01169
G1 X84.283 Y48.784 E.00687
G1 X84.397 Y49.11 E.00954
G1 X88.85 Y67.536 E.52343
G1 X88.85 Y72.2 E.12879
G1 X31.15 Y72.2 E1.59326
G1 X31.15 Y67.555 E.12827
G1 X37.538 Y50.658 E.4988
G1 X37.695 Y50.343 E.00972
G1 X37.906 Y50.074 E.00944
G1 X38.166 Y49.852 E.00944
G1 X38.466 Y49.687 E.00944
G1 X38.792 Y49.585 E.00944
G1 X39.142 Y49.55 E.00972
G1 X69.563 Y49.55 E.84
G1 X69.872 Y49.511 E.00861
G1 X70.177 Y49.39 E.00906
G1 X70.499 Y49.139 E.01128
G1 X70.692 Y48.874 E.00904
G1 X70.812 Y48.569 E.00905
G1 X70.863 Y48.019 E.01525
G1 X70.892 Y47.951 E.00204
G1 X71.001 Y47.842 E.00426
G1 X71.124 Y47.81 E.00352
G1 E-.8 F1800
G1 Z.6 F21000
G1 X76.146 Y54.449 Z.4
G1 E.8 F1800
SET_VELOCITY_LIMIT ACCEL=3000 ACCEL_TO_DECEL=1500
;TYPE:Top surface
;WIDTH:0.41581
G1 F6000
G1 X77.988 Y52.608 E.0751
G1 X78.134 Y52.221 E.01194
G1 X78.219 Y51.849 E.01098
G1 X75.625 Y54.444 E.1058
G1 X75.194 Y54.347 E.01273
G1 X78.333 Y51.208 E.128
G1 X78.337 Y50.677 E.01531
