; HEADER_BLOCK_START
; generated by OrcaSlicer 1.6.6 on 2023-09-05 at 18:23:48
; total layer number: 23
; HEADER_BLOCK_END

; THUMBNAIL_BLOCK_START
; THUMBNAIL_BLOCK_END

; external perimeters extrusion width = 0.40mm
; perimeters extrusion width = 0.46mm
; infill extrusion width = 0.64mm
; solid infill extrusion width = 0.56mm
; top infill extrusion width = 0.40mm
; first layer extrusion width = 0.50mm

; EXECUTABLE_BLOCK_START
EXCLUDE_OBJECT_DEFINE NAME=KleeKC.stl_id_0_copy_0 CENTER=60,60 POLYGON=[[35.3876,60.3184],[35.3965,59.9316],[35.414,59.6896],[35.4235,59.6059],[35.7537,58.2533],[43.3683,35.9174],[46.4613,35.2151],[47.2048,35.0557],[47.8579,35],[48.4249,35.0294],[77.0156,39.3936],[77.0926,39.4065],[77.1691,39.4219],[77.2451,39.4398],[77.3204,39.4603],[77.395,39.4832],[77.4688,39.5087],[80.8552,40.6964],[80.8691,40.7018],[81.0374,40.7756],[81.2023,40.8561],[81.3634,40.9431],[81.5207,41.0365],[81.6739,41.1361],[81.8229,41.2419],[81.9674,41.3536],[82.1073,41.4712],[82.2424,41.5945],[82.3725,41.7234],[82.4975,41.8577],[82.617,41.9973],[83.0321,43.4327],[83.2014,44.7231],[84.6117,68.1507],[84.6124,68.174],[84.6118,68.1975],[84.6098,68.2209],[84.6064,68.244],[84.6017,68.2668],[84.5956,68.2892],[81.3656,78.4751],[81.0703,79.2063],[80.7416,79.8606],[80.3983,80.4349],[80.0592,80.9264],[79.8966,81.1379],[79.7223,81.3382],[79.537,81.527],[79.3412,81.704],[79.1356,81.8687],[78.9207,82.0207],[78.6971,82.1596],[78.4654,82.2851],[78.2263,82.3968],[77.9802,82.4941],[77.7279,82.5769],[77.4698,82.6446],[76.9806,82.715],[58.2782,84.9655],[58.0395,84.9903],[57.7985,85],[57.5574,84.9945],[57.3184,84.974],[57.082,84.9387],[56.8489,84.8889],[56.6198,84.8247],[56.3953,84.7466],[56.1761,84.6546],[55.9629,84.5491],[55.7563,84.4304],[55.5569,84.2986],[55.3654,84.154],[55.1825,83.9969],[38.8608,68.5678],[38.6732,68.3786],[38.536,68.22],[38.4517,68.1111],[37.6102,66.9927],[36.9549,65.9372],[36.4405,64.9177],[36.0505,63.9478],[35.7684,63.0412],[35.5776,62.2113],[35.4616,61.4718],[35.4037,60.8363],[35.3876,60.3184]]
M73 P0 R13
M73 C9
;TYPE:Custom
START_PRINT T_BED=60 T_EXTRUDER=220
G90
G21
M83 ; use relative distances for extrusion
; filament start gcode

    PRESSURE_ADVANCE_SELECT FILAMENT=PLA
M106 S0
;LAYER_CHANGE
;Z:0.2
;HEIGHT:0.2
;BEFORE_LAYER_CHANGE
;0.2
G92 E0

;AFTER_LAYER_CHANGE
;0.2
SET_VELOCITY_LIMIT ACCEL=1000 ACCEL_TO_DECEL=500
SET_VELOCITY_LIMIT SQUARE_CORNER_VELOCITY=9
G1 E-.8 F3000
G1 Z.2 F21000
G1 X41.454 Y33.72
G1 Z.2
G1 E.8 F1800
;TYPE:Skirt
;WIDTH:0.5
G1 F3000
G1 X42.723 Y33.076 E.05302
G1 X46.594 Y32.206 E.14777
G1 X47.61 Y32.096 E.03808
G1 X48.576 Y32.119 E.03596
G1 X77.886 Y36.597 E1.10438
G1 X81.806 Y37.942 E.15434
G1 X82.481 Y38.237 E.02744
G1 X83.75 Y39.048 E.0561
G1 X84.83 Y40.101 E.05619
G1 X85.417 Y41.188 E.04599
G1 X85.832 Y42.623 E.05566
G1 X86.11 Y44.548 E.07244
G1 X87.521 Y67.976 E.87417
G1 X87.479 Y68.729 E.02812
G1 X84.143 Y79.356 E.41484
G1 X83.674 Y80.514 E.04655
G1 X82.9 Y81.93 E.0601
G1 X82.095 Y83.051 E.05138
G1 X81.295 Y83.866 E.04255
G1 X80.235 Y84.635 E.04877
G1 X79.053 Y85.204 E.04888
G1 X77.885 Y85.529 E.04514
G1 X58.626 Y87.859 E.72255
G1 X57.069 Y87.878 E.058
G1 X56.24 Y87.739 E.03134
G1 X55.437 Y87.499 E.0312
G1 X54.304 Y86.957 E.04678
G1 X53.181 Y86.115 E.0523
G1 X36.859 Y70.686 E.83655
G1 X36.231 Y70.003 E.03455
G1 X35.282 Y68.745 E.0587
G1 X34.479 Y67.474 E.05597
G1 X33.839 Y66.23 E.05211
G1 X33.347 Y65.035 E.04815
G1 X32.738 Y62.864 E.08397
G1 X32.491 Y60.927 E.07273
G1 X32.49 Y59.721 E.04491
G1 X32.593 Y58.915 E.03029
G1 X32.995 Y57.313 E.06152
G1 X40.61 Y34.977 E.87894
G1 X41.432 Y33.754 E.05489
G1 X41.818 Y34.026 F21000
G1 F3000
G1 X41.843 Y33.991 E.00162
G1 X42.824 Y33.521 E.04051
G1 X46.69 Y32.653 E.14756
G1 X47.649 Y32.552 E.03593
G1 X48.552 Y32.576 E.03363
G1 X77.614 Y37.005 E1.09497
G1 X81.654 Y38.373 E.15887
G1 X82.28 Y38.648 E.02545
G1 X83.47 Y39.41 E.05263
G1 X84.483 Y40.399 E.05272
G1 X84.977 Y41.315 E.03877
G1 X85.392 Y42.75 E.05566
G1 X85.654 Y44.575 E.06868
G1 X87.064 Y68.003 E.87417
G1 X87.029 Y68.65 E.02412
G1 X83.708 Y79.218 E.41261
G1 X83.349 Y80.126 E.03639
G1 X82.507 Y81.695 E.06631
G1 X81.844 Y82.636 E.04286
G1 X80.989 Y83.527 E.046
G1 X79.994 Y84.247 E.04573
G1 X78.884 Y84.779 E.04584
G1 X77.82 Y85.077 E.04117
G1 X58.572 Y87.405 E.72215
G1 X57.108 Y87.422 E.05451
G1 X55.587 Y87.067 E.05818
G1 X54.532 Y86.561 E.0436
G1 X53.495 Y85.782 E.0483
G1 X37.173 Y70.353 E.83655
G1 X36.592 Y69.723 E.03191
G1 X35.647 Y68.47 E.05847
G1 X34.867 Y67.233 E.05445
G1 X34.247 Y66.024 E.05061
G1 X33.771 Y64.864 E.0467
G1 X33.183 Y62.762 E.08132
G1 X32.948 Y60.913 E.06942
G1 X32.94 Y59.875 E.03867
G1 X33.037 Y59.023 E.03192
G1 X33.428 Y57.46 E.06
G1 X41.043 Y35.125 E.87894
G1 X41.795 Y34.059 E.04858
; printing object KleeKC.stl id:0 copy 0
G1 E-.8
EXCLUDE_OBJECT_START NAME=KleeKC.stl_id_0_copy_0
G1 Z.4 F21000
G1 X42.279 Y59.958 Z.4
G1 Z.2
G1 E.8 F1800
;TYPE:Outer wall
M73 P1 R13
G1 F3000
G1 X42.813 Y59.597 E.02402
G1 X42.592 Y59.061 E.02156
G1 X42.436 Y58.548 E.01997
G1 X42.306 Y57.987 E.02146
G1 X42.201 Y57.399 E.02224
G1 X42.119 Y56.807 E.02225
G1 X42.013 Y55.685 E.04198
G1 X41.952 Y54.192 E.05567
G1 X42.04 Y52.146 E.07628
G1 X42.326 Y50.487 E.0627
G1 X42.768 Y49.172 E.05166
G1 X43.32 Y48.16 E.04295
G1 X43.944 Y47.407 E.03641
G1 X44.603 Y46.872 E.03162
G1 X45.262 Y46.513 E.02794
G1 X45.886 Y46.296 E.02461
G1 X46.437 Y46.187 E.02094
G1 X46.873 Y46.151 E.01629
G1 X47.494 Y46.175 E.02312
G1 X47.709 Y45.786 E.01655
G1 X47.114 Y44.988 E.03708
G1 X46.759 Y44.373 E.02645
G1 X46.484 Y43.755 E.02518
G1 X46.281 Y43.147 E.0239
G1 X46.139 Y42.56 E.02247
G1 X46.049 Y42.009 E.02079
G1 X46.001 Y41.511 E.01867
G1 X45.989 Y40.705 E.03
G1 X46.05 Y39.975 E.02731
G1 X45.314 Y39.522 E.0322
G1 X44.883 Y39.15 E.02118
G1 X44.538 Y38.744 E.01984
G1 X44.268 Y38.318 E.01882
G1 X44.063 Y37.883 E.0179
G1 X43.915 Y37.456 E.01685
G1 X43.816 Y37.055 E.01538
G1 X43.724 Y36.373 E.02562
G1 X43.721 Y36.208 E.00615
G1 X45.712 Y35.836 E.07542
G1 X46.554 Y35.553 E.0331
G1 X47.256 Y35.403 E.02675
G1 X47.876 Y35.351 E.02315
G1 X48.382 Y35.378 E.01888
G1 X48.817 Y35.464 E.01653
G1 X49.177 Y35.591 E.01422
G1 X49.468 Y35.741 E.01221
G1 X49.696 Y35.9 E.01033
G1 X49.859 Y36.044 E.00811
G1 X50.214 Y36.48 E.02093
G1 X51.227 Y36.239 E.03878
G1 X51.896 Y36.199 E.02499
G1 X52.475 Y36.274 E.02174
G1 X52.974 Y36.438 E.01957
G1 X53.402 Y36.67 E.01812
G1 X53.764 Y36.948 E.01701
G1 X54.064 Y37.25 E.01586
G1 X54.303 Y37.553 E.01436
G1 X54.548 Y37.956 E.01756
G1 X54.043 Y38.18 E.02058
G1 X53.388 Y38.617 E.02934
G1 X52.919 Y39.102 E.02511
G1 X52.62 Y39.616 E.02217
G1 X52.473 Y40.136 E.02012
G1 X52.45 Y40.634 E.01857
G1 X52.516 Y41.09 E.01715
G1 X52.637 Y41.49 E.01556
G1 X52.782 Y41.823 E.01354
G1 X52.924 Y42.081 E.01096
G1 X53.188 Y42.477 E.01775
G1 X53.751 Y42.398 E.02117
G1 X54.043 Y42.38 E.01087
G1 X54.541 Y42.406 E.01857
G1 X54.725 Y42.439 E.00699
G1 X55.027 Y42.531 E.01174
G1 X55.206 Y42.617 E.00739
G1 X55.374 Y42.732 E.00759
G1 X57.181 Y42.98 E.06795
G1 X57.784 Y42.259 E.03502
G1 X58.23 Y41.868 E.02207
G1 X58.65 Y41.616 E.01826
G1 X59.042 Y41.476 E.0155
G1 X59.405 Y41.422 E.01367
G1 X59.739 Y41.434 E.01245
G1 X60.041 Y41.495 E.01147
G1 X60.304 Y41.588 E.0104
G1 X60.516 Y41.691 E.00877
G1 X61.068 Y42.058 E.02469
G1 X61.468 Y41.779 E.01818
G1 X61.338 Y41.307 E.01822
G1 X61.261 Y41.125 E.00738
G1 X61.06 Y40.745 E.016
G1 X60.727 Y40.223 E.02305
G1 X61.059 Y40.205 E.01237
G1 X61.499 Y40.246 E.01647
G1 X61.914 Y40.249 E.01546
G1 X63.416 Y40.563 E.05716
G1 X64.731 Y41.196 E.05434
G1 X65.882 Y42.087 E.05424
G1 X66.877 Y43.166 E.05468
G1 X67.719 Y44.358 E.05434
G1 X68.412 Y45.583 E.05243
G1 X68.962 Y46.763 E.04847
G1 X69.376 Y47.816 E.04216
G1 X69.661 Y48.663 E.03328
G1 X69.996 Y49.864 E.04643
G1 X71.793 Y48.886 E.07621
G1 X72.927 Y47.996 E.05369
G1 X73.79 Y47.022 E.04848
G1 X74.409 Y45.993 E.04471
G1 X74.814 Y44.942 E.04197
G1 X75.039 Y43.898 E.03978
G1 X75.117 Y42.889 E.03768
G1 X75.082 Y41.942 E.0353
G1 X74.969 Y41.082 E.03232
G1 X74.809 Y40.333 E.02851
G1 X74.537 Y39.426 E.03527
G1 X74.864 Y39.473 E.0123
G1 X75.149 Y39.561 E.01111
G1 X75.419 Y39.689 E.01115
G1 X75.67 Y39.856 E.0112
G1 X75.892 Y40.056 E.01113
G1 X76.083 Y40.287 E.01118
G1 X76.357 Y40.718 E.01904
G1 X76.956 Y40.519 E.0235
G1 X76.882 Y39.737 E.02925
G1 X77.096 Y39.765 E.00804
G1 X77.347 Y39.838 E.00971
G1 X77.652 Y39.979 E.01252
G1 X77.924 Y40.164 E.01226
G1 X78.152 Y40.383 E.01178
G1 X78.621 Y41.127 E.03276
G1 X78.871 Y41.475 E.01594
G1 X79.346 Y42.047 E.02771
G1 X79.786 Y42.459 E.02243
G1 X80.005 Y42.608 E.00989
G1 X80.231 Y42.712 E.00924
G1 X80.493 Y42.749 E.00985
G1 X80.771 Y42.653 E.01099
G1 X80.944 Y42.432 E.01045
G1 X81.005 Y42.236 E.00766
G1 X81.035 Y42.015 E.00829
G1 X81.034 Y41.807 E.00775
G1 X80.998 Y41.432 E.01403
G1 X80.933 Y41.116 E.012
G1 X81.485 Y41.414 E.02334
G1 X82.001 Y41.848 E.02512
G1 X82.303 Y42.173 E.01652
G1 X82.688 Y43.505 E.05164
G1 X82.85 Y44.739 E.04637
G1 X82.805 Y45.829 E.04064
G1 X82.584 Y46.788 E.03666
G1 X82.213 Y47.629 E.03425
G1 X81.719 Y48.366 E.03304
G1 X81.123 Y49.005 E.03255
G1 X80.453 Y49.555 E.0323
G1 X79.733 Y50.02 E.0319
G1 X78.993 Y50.405 E.03108
G1 X78.261 Y50.717 E.02967
G1 X77.416 Y51.022 E.03343
G1 X77.193 Y51.217 E.01104
G1 X77.103 Y51.366 E.0065
G1 X77.044 Y51.555 E.00736
G1 X77.036 Y51.752 E.00735
G1 X77.079 Y51.946 E.00738
G1 X77.171 Y52.122 E.0074
G1 X77.306 Y52.268 E.0074
G1 X77.467 Y52.37 E.00709
G1 X78.051 Y52.623 E.02374
G1 X78.406 Y52.839 E.01545
G1 X78.839 Y53.192 E.0208
G1 X79.122 Y53.494 E.01544
G1 X79.369 Y53.828 E.01546
G1 X79.577 Y54.19 E.01554
G1 X79.771 Y54.669 E.01927
G1 X76.499 Y54.948 E.12234
G1 X77.165 Y56.254 E.05461
G1 X77.46 Y57.049 E.03156
G1 X77.647 Y57.805 E.02903
G1 X77.744 Y58.517 E.02675
G1 X77.766 Y59.176 E.02456
G1 X77.732 Y59.774 E.02232
G1 X77.657 Y60.303 E.01989
G1 X77.558 Y60.754 E.01718
G1 X77.454 Y61.115 E.014
G1 X77.226 Y61.722 E.02414
G1 X77.722 Y62.089 E.02297
G1 X77.97 Y61.884 E.012
G1 X78.131 Y61.793 E.00689
G1 X78.313 Y61.723 E.00725
G1 X78.708 Y61.642 E.015
G1 X79.101 Y61.625 E.01467
G1 X79.37 Y61.648 E.01007
G1 X79.37 Y61.804 E.00582
G1 X79.298 Y62.3 E.01864
G1 X79.085 Y63.029 E.02831
G1 X78.601 Y64.196 E.04704
G1 X79.543 Y64.114 E.0352
G1 X79.91 Y64.191 E.01398
G1 X80.336 Y64.375 E.01727
G1 X80.8 Y64.654 E.02017
G1 X81.284 Y65.013 E.02245
G1 X81.775 Y65.431 E.02405
G1 X82.262 Y65.892 E.02494
G1 X83.176 Y66.859 E.04958
G1 X83.949 Y67.769 E.04448
G1 X84.259 Y68.173 E.01895
G1 X84.232 Y68.205 E.00159
G1 X83.748 Y68.291 E.0183
G1 X83.273 Y68.409 E.01825
G1 X82.797 Y68.564 E.01863
G1 X82.332 Y68.745 E.01859
G1 X81.884 Y68.942 E.01822
G1 X81.085 Y69.342 E.03327
G1 X79.806 Y70.093 E.05527
G1 X80.599 Y71.606 E.06365
G1 X81.05 Y72.754 E.04592
G1 X81.339 Y73.843 E.04198
G1 X81.487 Y74.872 E.03873
G1 X81.513 Y75.84 E.03606
G1 X81.434 Y76.745 E.03384
G1 X81.269 Y77.586 E.03189
G1 X81.035 Y78.359 E.03008
G1 X80.751 Y79.062 E.02825
G1 X80.435 Y79.692 E.02626
G1 X80.105 Y80.244 E.02395
G1 X79.625 Y80.916 E.03077
G1 X79.292 Y81.277 E.01828
G1 X79.117 Y81.435 E.00877
G1 X78.727 Y81.729 E.01819
G1 X78.308 Y81.972 E.01805
G1 X77.861 Y82.165 E.01811
G1 X77.397 Y82.302 E.01804
G1 X76.962 Y82.364 E.01634
G1 X76.639 Y82.352 E.01203
G1 X76.413 Y82.289 E.00874
G1 X76.259 Y82.197 E.00669
G1 X76.15 Y82.082 E.00591
G1 X76.071 Y81.943 E.00597
G1 X76.018 Y81.784 E.00624
G1 X75.99 Y81.541 E.00911
G1 X76.307 Y81.53 E.01184
G1 X76.612 Y81.486 E.01145
G1 X76.889 Y81.412 E.0107
G1 X77.14 Y81.307 E.01011
G1 X77.362 Y81.175 E.00965
G1 X77.555 Y81.017 E.00929
G1 X77.718 Y80.838 E.009
G1 X77.851 Y80.643 E.00878
G1 X77.956 Y80.437 E.00861
G1 X78.038 Y80.22 E.00865
G1 X78.123 Y79.845 E.01434
G1 X78.152 Y79.519 E.01218
G1 X78.143 Y79.196 E.01203
G1 X78.096 Y78.877 E.01201
G1 X78.012 Y78.561 E.01217
G1 X77.822 Y78.12 E.01788
G1 X77.649 Y77.84 E.01227
G1 X77.448 Y77.586 E.01206
G1 X77.22 Y77.358 E.01202
G1 X76.964 Y77.156 E.01215
G1 X76.555 Y76.92 E.01759
G1 X75.563 Y76.475 E.04048
G1 X74.901 Y76.106 E.02824
G1 X74.394 Y75.75 E.02306
G1 X74.023 Y75.418 E.01857
G1 X73.767 Y75.114 E.01478
G1 X73.605 Y74.846 E.01166
G1 X73.514 Y74.618 E.00916
G1 X73.475 Y74.429 E.00716
G1 X73.47 Y74.293 E.00507
G1 X73.594 Y73.658 E.02412
G1 X73.033 Y73.635 E.0209
G1 X72.809 Y73.588 E.00853
G1 X72.629 Y73.51 E.00731
G1 X72.462 Y73.294 E.01017
G1 X72.095 Y73.222 E.01394
G1 X71.754 Y73.69 E.02157
G1 X71.74 Y73.6 E.00342
G1 X71.647 Y73.505 E.00494
G1 X71.709 Y73.092 E.01557
G1 X71.255 Y72.937 E.01786
G1 X70.239 Y73.921 E.05267
G1 X69.355 Y74.665 E.04304
G1 X68.448 Y75.327 E.04182
G1 X67.527 Y75.913 E.04066
G1 X66.6 Y76.427 E.03949
G1 X65.675 Y76.874 E.03826
G1 X64.761 Y77.258 E.03693
G1 X63.867 Y77.584 E.03546
G1 X63 Y77.857 E.03383
G1 X62.171 Y78.081 E.03201
G1 X61.387 Y78.262 E.02996
G1 X60.104 Y78.51 E.04866
G1 X60.706 Y79.329 E.03784
G1 X60.811 Y79.508 E.00776
G1 X60.996 Y79.903 E.01625
G1 X61.13 Y80.317 E.01622
G1 X61.176 Y80.52 E.00776
G1 X61.231 Y80.954 E.01628
G1 X61.232 Y81.395 E.01641
G1 X61.212 Y81.605 E.00787
G1 X61.13 Y82.04 E.01649
G1 X61.072 Y82.24 E.00777
G1 X60.912 Y82.646 E.01622
G1 X60.704 Y83.028 E.01623
G1 X60.587 Y83.201 E.00777
G1 X60.307 Y83.544 E.01649
G1 X60.158 Y83.694 E.00787
G1 X59.817 Y83.979 E.01656
G1 X59.644 Y84.097 E.00779
G1 X59.263 Y84.31 E.01625
G1 X58.86 Y84.473 E.01622
G1 X58.66 Y84.533 E.00776
G1 X58.227 Y84.619 E.01643
G1 X58.018 Y84.641 E.00783
G1 X57.576 Y84.644 E.01646
G1 X57.141 Y84.593 E.01634
G1 X56.937 Y84.55 E.00777
G1 X56.521 Y84.419 E.01623
G1 X56.128 Y84.24 E.01608
G1 X55.759 Y84.012 E.01614
G1 X55.416 Y83.736 E.01642
G1 X55.265 Y83.588 E.00787
G1 X54.981 Y83.254 E.01634
G1 X54.744 Y82.892 E.0161
G1 X54.555 Y82.504 E.01607
G1 X54.415 Y82.095 E.0161
G1 X54.326 Y81.67 E.01619
G1 X54.292 Y81.233 E.01631
G1 X54.312 Y80.799 E.01619
G1 X54.385 Y80.373 E.0161
G1 X54.511 Y79.96 E.01607
G1 X54.688 Y79.566 E.0161
G1 X54.915 Y79.191 E.01634
G1 X55.369 Y78.58 E.02834
G1 X52.625 Y77.943 E.10493
G1 X50.664 Y77.209 E.078
G1 X48.932 Y76.301 E.07282
G1 X47.42 Y75.27 E.06815
G1 X46.119 Y74.168 E.06352
G1 X45.019 Y73.046 E.05853
G1 X44.112 Y71.955 E.05283
G1 X43.391 Y70.947 E.04617
G1 X42.846 Y70.075 E.03831
G1 X42.469 Y69.392 E.02905
G1 X42.027 Y68.457 E.03851
G1 X41.241 Y68.842 E.03259
G1 X40.843 Y68.947 E.01533
G1 X40.48 Y68.965 E.01355
G1 X40.146 Y68.914 E.01259
G1 X39.838 Y68.809 E.01212
G1 X39.558 Y68.663 E.01176
G1 X39.314 Y68.494 E.01105
G1 X38.929 Y68.138 E.01954
G1 X37.899 Y66.795 E.06304
G1 X37.26 Y65.766 E.04512
G1 X36.76 Y64.773 E.0414
G1 X36.381 Y63.83 E.03785
G1 X36.107 Y62.95 E.03435
G1 X35.921 Y62.145 E.03076
G1 X35.809 Y61.429 E.027
G1 X35.754 Y60.818 E.02285
G1 X35.747 Y59.946 E.03249
G1 X35.77 Y59.664 E.01054
G1 X36.082 Y58.385 E.04903
G1 X36.528 Y57.611 E.03329
G1 X37.051 Y57.225 E.02421
G1 X37.658 Y57.111 E.023
G1 X38.365 Y57.224 E.02665
G1 X39.131 Y57.531 E.03074
G1 X39.901 Y57.976 E.03313
G1 X40.626 Y58.491 E.03313
G1 X41.259 Y59.008 E.03045
G1 X42.249 Y59.931 E.0504
G1 X42.268 Y60.569 F21000
;TYPE:Inner wall
G1 F3000
G1 X43.43 Y59.783 E.05223
G1 X43.064 Y58.893 E.03583
G1 X42.92 Y58.419 E.01846
G1 X42.796 Y57.886 E.02035
G1 X42.695 Y57.321 E.0214
G1 X42.616 Y56.749 E.02148
G1 X42.512 Y55.651 E.04108
G1 X42.452 Y54.192 E.05439
G1 X42.538 Y52.199 E.0743
G1 X42.812 Y50.61 E.06008
G1 X43.227 Y49.373 E.04859
G1 X43.736 Y48.442 E.03951
G1 X44.298 Y47.764 E.03279
G1 X44.883 Y47.289 E.02807
G1 X45.465 Y46.972 E.02469
G1 X46.017 Y46.78 E.02179
G1 X46.507 Y46.683 E.01858
G1 X46.884 Y46.652 E.01411
G1 X47.782 Y46.686 E.03345
G1 X48.303 Y45.747 E.04002
G1 X47.533 Y44.713 E.04803
G1 X47.205 Y44.146 E.02438
G1 X46.951 Y43.574 E.0233
G1 X46.762 Y43.008 E.02221
G1 X46.63 Y42.461 E.02098
G1 X46.546 Y41.945 E.01947
G1 X46.501 Y41.483 E.01729
G1 X46.49 Y40.722 E.02833
G1 X46.574 Y39.71 E.03784
G1 X45.61 Y39.117 E.04215
G1 X45.239 Y38.797 E.01825
G1 X44.942 Y38.447 E.0171
G1 X44.707 Y38.076 E.01636
G1 X44.526 Y37.694 E.01574
G1 X44.395 Y37.314 E.01499
G1 X44.308 Y36.961 E.01352
G1 X44.261 Y36.615 E.01299
G1 X45.838 Y36.321 E.05972
G1 X46.686 Y36.036 E.03335
G1 X47.33 Y35.898 E.02449
