; HEADER_BLOCK_START
; generated by OrcaSlicer 1.6.6 on 2023-09-06 at 22:05:01
; total layer number: 45
; HEADER_BLOCK_END

; THUMBNAIL_BLOCK_START
; THUMBNAIL_BLOCK_END

; external perimeters extrusion width = 0.15mm
; perimeters extrusion width = 0.17mm
; infill extrusion width = 0.24mm
; solid infill extrusion width = 0.21mm
; top infill extrusion width = 0.15mm
; first layer extrusion width = 0.19mm

; EXECUTABLE_BLOCK_START
EXCLUDE_OBJECT_DEFINE NAME=KleeKC.stl_id_0_copy_0 CENTER=60,60 POLYGON=[[35.3876,60.3184],[35.3965,59.9316],[35.414,59.6896],[35.4235,59.6059],[35.7537,58.2533],[43.3683,35.9174],[46.4613,35.2151],[47.2048,35.0557],[47.8579,35],[48.4249,35.0294],[77.0156,39.3936],[77.0926,39.4065],[77.1691,39.4219],[77.2451,39.4398],[77.3204,39.4603],[77.395,39.4832],[77.4688,39.5087],[80.8552,40.6964],[80.8691,40.7018],[81.0374,40.7756],[81.2023,40.8561],[81.3634,40.9431],[81.5207,41.0365],[81.6739,41.1361],[81.8229,41.2419],[81.9674,41.3536],[82.1073,41.4712],[82.2424,41.5945],[82.3725,41.7234],[82.4975,41.8577],[82.617,41.9973],[83.0321,43.4327],[83.2014,44.7231],[84.6117,68.1507],[84.6124,68.174],[84.6118,68.1975],[84.6098,68.2209],[84.6064,68.244],[84.6017,68.2668],[84.5956,68.2892],[81.3656,78.4751],[81.0703,79.2063],[80.7416,79.8606],[80.3983,80.4349],[80.0592,80.9264],[79.8966,81.1379],[79.7223,81.3382],[79.537,81.527],[79.3412,81.704],[79.1356,81.8687],[78.9207,82.0207],[78.6971,82.1596],[78.4654,82.2851],[78.2263,82.3968],[77.9802,82.4941],[77.7279,82.5769],[77.4698,82.6446],[76.9806,82.715],[58.2782,84.9655],[58.0395,84.9903],[57.7985,85],[57.5574,84.9945],[57.3184,84.974],[57.082,84.9387],[56.8489,84.8889],[56.6198,84.8247],[56.3953,84.7466],[56.1761,84.6546],[55.9629,84.5491],[55.7563,84.4304],[55.5569,84.2986],[55.3654,84.154],[55.1825,83.9969],[38.8608,68.5678],[38.6732,68.3786],[38.536,68.22],[38.4517,68.1111],[37.6102,66.9927],[36.9549,65.9372],[36.4405,64.9177],[36.0505,63.9478],[35.7684,63.0412],[35.5776,62.2113],[35.4616,61.4718],[35.4037,60.8363],[35.3876,60.3184]]
M73 P0 R37
M73 C25
;TYPE:Custom
START_PRINT T_BED=60 T_EXTRUDER=220
G90
G21
M83 ; use relative distances for extrusion
; filament start gcode

    PRESSURE_ADVANCE_SELECT FILAMENT=PLA
M106 S0
;LAYER_CHANGE
;Z:0.1
;HEIGHT:0.1
;BEFORE_LAYER_CHANGE
;0.1
G92 E0

;AFTER_LAYER_CHANGE
;0.1
SET_VELOCITY_LIMIT ACCEL=500 ACCEL_TO_DECEL=250
SET_VELOCITY_LIMIT SQUARE_CORNER_VELOCITY=9
G1 E-.8 F3000
G1 Z.2 F21000
G1 X41.949 Y34.067
G1 Z.2
G1 Z.1
G1 E.8 F1800
;TYPE:Skirt
;WIDTH:0.1875
G1 F3000
G1 X42.852 Y33.643 E.00675
G1 X46.716 Y32.775 E.02679
G1 X47.674 Y32.676 E.00651
G1 X48.545 Y32.7 E.0059
G1 X77.591 Y37.128 E.19877
G1 X81.613 Y38.491 E.02873
G1 X82.225 Y38.76 E.00452
G1 X83.394 Y39.509 E.00939
G1 X84.388 Y40.48 E.0094
G1 X84.857 Y41.35 E.00668
G1 X85.272 Y42.785 E.01011
G1 X85.529 Y44.583 E.01229
G1 X86.94 Y68.011 E.15878
G1 X86.906 Y68.628 E.00418
G1 X83.589 Y79.18 E.07483
G1 X83.233 Y80.08 E.00654
G1 X82.4 Y81.631 E.01191
G1 X81.745 Y82.56 E.00769
G1 X80.9 Y83.438 E.00825
G1 X79.928 Y84.14 E.00811
G1 X78.838 Y84.663 E.00817
G1 X77.802 Y84.953 E.00728
G1 X58.557 Y87.281 E.13115
G1 X57.119 Y87.298 E.00973
G1 X55.628 Y86.949 E.01036
G1 X54.594 Y86.452 E.00776
G1 X53.58 Y85.692 E.00857
G1 X37.259 Y70.263 E.15194
G1 X36.691 Y69.647 E.00567
G1 X35.747 Y68.395 E.01061
G1 X34.974 Y67.167 E.00981
G1 X34.358 Y65.968 E.00912
G1 X33.887 Y64.818 E.00841
G1 X33.305 Y62.734 E.01464
G1 X33.073 Y60.909 E.01244
G1 X33.065 Y59.878 E.00698
G1 X33.158 Y59.053 E.00562
G1 X33.546 Y57.501 E.01082
G1 X41.161 Y35.165 E.15964
G1 X41.94 Y34.079 E.00904
G1 X42.08 Y34.182 F21000
G1 F3000
G1 X42.088 Y34.17 E.0001
G1 X42.889 Y33.805 E.00595
G1 X46.751 Y32.938 E.02678
G1 X47.688 Y32.842 E.00637
G1 X48.537 Y32.866 E.00575
G1 X77.561 Y37.292 E.19862
G1 X82.152 Y38.91 E.03293
G1 X83.292 Y39.64 E.00916
G1 X84.262 Y40.588 E.00917
G1 X84.698 Y41.396 E.00621
G1 X85.113 Y42.831 E.01011
G1 X85.364 Y44.593 E.01204
G1 X86.774 Y68.021 E.15878
G1 X86.743 Y68.599 E.00392
G1 X83.43 Y79.13 E.07468
G1 X83.079 Y80.017 E.00646
G1 X82.258 Y81.546 E.01174
G1 X81.613 Y82.458 E.00756
G1 X80.789 Y83.315 E.00804
G1 X79.84 Y83.999 E.00791
G1 X78.777 Y84.508 E.00797
G1 X77.779 Y84.789 E.00702
G1 X58.537 Y87.116 E.13112
G1 X57.133 Y87.132 E.0095
G1 X55.683 Y86.792 E.01008
G1 X54.677 Y86.308 E.00755
G1 X53.695 Y85.571 E.00831
G1 X37.373 Y70.142 E.15194
G1 X36.823 Y69.545 E.00549
G1 X35.879 Y68.295 E.01059
G1 X35.115 Y67.08 E.00971
G1 X34.507 Y65.893 E.00902
G1 X34.041 Y64.756 E.00832
G1 X33.467 Y62.697 E.01446
G1 X33.239 Y60.904 E.01223
G1 X33.231 Y59.882 E.00692
G1 X33.319 Y59.092 E.00537
G1 X33.704 Y57.554 E.01072
G1 X41.318 Y35.218 E.15964
G1 X42.071 Y34.194 E.0086
; printing object KleeKC.stl id:0 copy 0
G1 E-.8
EXCLUDE_OBJECT_START NAME=KleeKC.stl_id_0_copy_0
G1 Z.3 F21000
G1 X76.619 Y40.361 Z.3
G1 Z.1
G1 E.8 F1800
;TYPE:Outer wall
;WIDTH:0.187499
G1 F3000
G1 X76.676 Y40.275 E.0007
G1 X76.619 Y39.67 E.00411
G1 X76.642 Y39.534 E.00093
G1 X76.736 Y39.471 E.00076
G3 X77.945 Y39.871 I-.119 J2.39 E.00872
G3 X78.426 Y40.338 I-1.04 J1.554 E.00456
G2 X79.311 Y41.618 I10.279 J-6.161 E.01053
G1 X79.742 Y42.082 E.00429
G1 X80.122 Y42.378 E.00325
G1 X80.435 Y42.482 E.00223
G1 X80.593 Y42.444 E.0011
G1 X80.749 Y42.198 E.00197
G2 X80.65 Y40.943 I-4.487 J-.275 E.00854
G1 X80.666 Y40.848 E.00066
G1 X80.79 Y40.783 E.00095
G3 X82.533 Y42.045 I-1.535 J3.956 E.01472
G1 X82.94 Y43.452 E.00991
G1 X83.107 Y44.727 E.0087
G1 X83.06 Y45.863 E.00769
G1 X82.828 Y46.869 E.00698
G1 X82.439 Y47.753 E.00654
G1 X81.92 Y48.525 E.00629
G1 X81.299 Y49.192 E.00617
G1 X80.604 Y49.762 E.00608
G3 X77.622 Y51.213 I-6.293 J-9.142 E.02252
G1 X77.409 Y51.366 E.00177
G1 X77.305 Y51.579 E.0016
G1 X77.317 Y51.836 E.00174
G1 X77.491 Y52.082 E.00204
G3 X79.014 Y53.004 I-1.743 J4.597 E.01211
G3 X79.967 Y54.452 I-3.024 J3.028 E.01181
G1 X80.037 Y54.713 E.00183
G1 X79.972 Y54.856 E.00106
G1 X79.847 Y54.919 E.00095
G1 X77.487 Y55.121 E.01603
G1 X76.974 Y55.182 E.00349
G1 X76.956 Y55.281 E.00068
G1 X77.4 Y56.151 E.00661
G3 X77.953 Y58.153 I-8.651 J3.466 E.01408
G3 X77.792 Y60.818 I-6.82 J.924 E.01818
G1 X77.553 Y61.613 E.00562
G1 X77.688 Y61.738 E.00124
G3 X78.458 Y61.422 I1.258 J1.97 E.00566
G1 X79.063 Y61.372 E.00411
G1 X79.599 Y61.414 E.00364
G1 X79.607 Y61.951 E.00364
G3 X79.056 Y63.776 I-6.727 J-1.038 E.01294
G1 X79.079 Y63.873 E.00067
G1 X79.558 Y63.856 E.00325
G1 X79.988 Y63.946 E.00297
G3 X81.444 Y64.812 I-2.098 J5.183 E.0115
G3 X83.78 Y67.165 I-12.222 J14.472 E.02246
G1 X84.416 Y67.943 E.0068
G1 X84.514 Y68.157 E.00159
G1 X84.494 Y68.241 E.00058
G1 X84.474 Y68.325 E.00058
G1 X84.347 Y68.443 E.00118
G1 X83.795 Y68.543 E.0038
G1 X82.88 Y68.807 E.00644
G2 X80.201 Y70.157 I5.483 J14.21 E.02032
G1 X80.182 Y70.259 E.0007
G1 X80.833 Y71.5 E.00948
G1 X81.294 Y72.674 E.00853
G1 X81.591 Y73.792 E.00783
G1 X81.743 Y74.851 E.00724
G1 X81.769 Y75.848 E.00675
G1 X81.688 Y76.781 E.00634
G3 X79.696 Y81.222 I-9.092 J-1.411 E.03332
G3 X76.976 Y82.621 I-3.182 J-2.844 E.02117
G1 X76.521 Y82.585 E.00308
G1 X76.174 Y82.445 E.00253
G1 X75.945 Y82.239 E.00208
G1 X75.764 Y81.768 E.00341
G1 X75.732 Y81.268 E.00339
G1 X76.294 Y81.273 E.0038
G1 X76.793 Y81.172 E.00345
G1 X77.204 Y80.97 E.0031
G1 X77.508 Y80.687 E.00281
G1 X77.725 Y80.323 E.00287
G1 X77.87 Y79.795 E.0037
G1 X77.885 Y79.209 E.00397
G1 X77.756 Y78.615 E.00411
G1 X77.514 Y78.103 E.00383
G1 X77.149 Y77.644 E.00397
G1 X76.705 Y77.293 E.00383
G2 X75.21 Y76.572 I-9.511 J17.79 E.01123
G3 X73.745 Y75.486 I2.803 J-5.312 E.01238
G1 X73.376 Y74.963 E.00433
G1 X73.221 Y74.459 E.00357
G1 X73.26 Y74.005 E.00309
G1 X73.243 Y73.927 E.00054
G1 X72.861 Y73.866 E.00262
G1 X72.541 Y73.73 E.00235
G1 X72.235 Y73.399 E.00305
G1 X72.129 Y73.436 E.00076
G1 X71.835 Y73.98 E.00418
G1 X71.7 Y74.09 E.00118
G1 X71.586 Y73.954 E.0012
G1 X71.436 Y73.313 E.00446
G1 X71.386 Y73.235 E.00062
G1 X71.294 Y73.251 E.00063
G3 X65.78 Y77.108 I-12.808 J-12.442 E.04579
G3 X61.164 Y78.566 I-8.902 J-20.145 E.03282
G1 X60.64 Y78.681 E.00363
G1 X60.63 Y78.787 E.00072
G1 X61.038 Y79.389 E.00492
G1 X61.313 Y80.027 E.0047
G1 X61.465 Y80.706 E.0047
G1 X61.488 Y81.407 E.00474
G1 X61.379 Y82.1 E.00474
G1 X61.145 Y82.754 E.0047
G1 X60.793 Y83.354 E.0047
G1 X60.332 Y83.882 E.00475
G1 X59.78 Y84.315 E.00475
G1 X59.162 Y84.635 E.0047
G1 X58.495 Y84.834 E.0047
G1 X57.798 Y84.906 E.00475
G1 X57.099 Y84.846 E.00475
G1 X56.429 Y84.659 E.0047
G1 X55.806 Y84.35 E.0047
G1 X55.246 Y83.927 E.00475
G1 X54.775 Y83.407 E.00475
G1 X54.413 Y82.814 E.0047
G1 X54.168 Y82.163 E.0047
G1 X54.046 Y81.468 E.00477
G1 X54.056 Y80.842 E.00424
G3 X54.224 Y80.024 I5.555 J.714 E.00565
G1 X54.5 Y79.387 E.0047
G1 X54.871 Y78.793 E.00473
G1 X54.808 Y78.713 E.00069
G1 X52.55 Y78.189 E.01568
G1 X50.559 Y77.443 E.01439
G1 X48.8 Y76.521 E.01343
G1 X47.265 Y75.475 E.01257
G1 X45.944 Y74.356 E.01171
G1 X44.828 Y73.218 E.01078
G1 X43.909 Y72.112 E.00973
G1 X43.178 Y71.09 E.0085
G3 X41.894 Y68.836 I19.105 J-12.377 E.01756
G3 X41.129 Y69.137 I-4.498 J-10.327 E.00556
G1 X40.674 Y69.212 E.00311
G1 X40.25 Y69.189 E.00288
G1 X39.739 Y69.046 E.00359
G1 X39.153 Y68.694 E.00463
G3 X38.525 Y68.053 I3.31 J-3.868 E.00607
G1 X37.688 Y66.94 E.00943
G1 X37.037 Y65.891 E.00835
G1 X36.526 Y64.879 E.00767
G1 X36.139 Y63.916 E.00702
G3 X35.494 Y60.737 I11.764 J-4.04 E.02201
G3 X35.516 Y59.622 I9.186 J-.379 E.00754
G1 X35.842 Y58.289 E.00929
G1 X36.333 Y57.436 E.00666
G1 X36.946 Y56.984 E.00516
G1 X37.655 Y56.851 E.00488
G1 X38.433 Y56.976 E.00533
G1 X39.243 Y57.3 E.0059
G3 X40.781 Y58.288 I-4.415 J8.574 E.01239
G3 X42.286 Y59.603 I-13.147 J16.555 E.01353
G1 X42.44 Y59.539 E.00113
G1 X42.472 Y59.443 E.00068
G1 X42.188 Y58.613 E.00594
G3 X41.695 Y54.192 I19.543 J-4.418 E.03016
G1 X41.784 Y52.119 E.01404
G1 X42.077 Y50.424 E.01163
G1 X42.532 Y49.069 E.00967
G1 X43.107 Y48.015 E.00812
G1 X43.763 Y47.225 E.00695
G1 X44.46 Y46.658 E.00607
G1 X45.158 Y46.278 E.00538
G1 X45.819 Y46.048 E.00473
G1 X46.4 Y45.933 E.00401
G3 X47.309 Y45.91 I.8 J13.538 E.00615
G1 X47.383 Y45.877 E.00054
G1 X47.383 Y45.777 E.00067
G1 X46.9 Y45.129 E.00547
G3 X45.745 Y41.526 I6.44 J-4.05 E.02587
G1 X45.733 Y40.696 E.00561
G1 X45.775 Y40.174 E.00355
G1 X45.739 Y40.084 E.00065
G1 X45.162 Y39.729 E.00458
G1 X44.701 Y39.331 E.00412
G3 X43.826 Y37.981 I3.348 J-3.13 E.01094
G1 X43.564 Y37.102 E.00621
G3 X43.463 Y35.995 I4.88 J-1.003 E.00753
G2 X45.652 Y35.586 I-136.847 J-738.24 E.01507
G1 X46.486 Y35.306 E.00595
G3 X48.206 Y35.112 I1.573 J6.237 E.01175
G1 X48.714 Y35.182 E.00347
G1 X49.277 Y35.354 E.00398
G1 X49.855 Y35.699 E.00456
G1 X50.279 Y36.149 E.00418
G1 X50.365 Y36.181 E.00062
G1 X51.189 Y35.984 E.00573
G1 X51.905 Y35.942 E.00485
G1 X52.532 Y36.023 E.00428
G1 X53.076 Y36.202 E.00387
G1 X53.542 Y36.454 E.00358
G1 X54.009 Y36.84 E.00409
G1 X54.543 Y37.455 E.00551
G1 X54.899 Y38.08 E.00487
G2 X54.161 Y38.409 I89.915 J202.81 E.00547
G1 X53.56 Y38.811 E.00489
G1 X53.205 Y39.175 E.00344
G1 X52.917 Y39.614 E.00355
G1 X52.73 Y40.168 E.00396
G1 X52.713 Y40.48 E.00211
G1 X52.77 Y41.044 E.00384
G1 X53.016 Y41.716 E.00484
G1 X53.282 Y42.155 E.00347
G1 X53.361 Y42.194 E.0006
G1 X54.041 Y42.124 E.00463
G1 X54.569 Y42.152 E.00357
G1 X55.12 Y42.292 E.00385
G1 X55.49 Y42.489 E.00284
G1 X57.03 Y42.701 E.01052
G1 X57.105 Y42.672 E.00054
G3 X58.284 Y41.537 I3.995 J2.972 E.01112
G1 X58.742 Y41.311 E.00346
G1 X59.224 Y41.19 E.00336
G1 X59.767 Y41.179 E.00367
G1 X60.404 Y41.352 E.00447
G3 X61.084 Y41.743 I-3.924 J7.612 E.00531
G1 X61.165 Y41.676 E.00071
G1 X61.026 Y41.229 E.00317
G1 X60.343 Y40.088 E.00899
G1 X61.945 Y39.999 E.01086
G1 X63.499 Y40.318 E.01073
G1 X64.866 Y40.976 E.01026
G1 X66.056 Y41.898 E.01018
G1 X67.077 Y43.005 E.01019
G1 X67.936 Y44.221 E.01007
G1 X68.64 Y45.466 E.00968
G1 X69.198 Y46.662 E.00893
G3 X70.148 Y49.416 I-22.394 J9.262 E.01972
G1 X70.25 Y49.434 E.0007
G2 X71.657 Y48.667 I-311.8 J-573.671 E.01084
G1 X72.586 Y47.938 E.00798
G2 X73.586 Y46.863 I-8.056 J-8.502 E.00994
G1 X74.138 Y45.946 E.00724
G2 X74.569 Y44.862 I-17.934 J-7.759 E.00789
G2 X74.789 Y43.811 I-44.119 J-9.743 E.00726
G1 X74.853 Y42.7 E.00753
G1 X74.826 Y41.959 E.00502
G1 X74.649 Y40.811 E.00786
G2 X74.251 Y39.374 I-11.246 J2.343 E.0101
G1 X74.262 Y39.226 E.001
G1 X74.36 Y39.168 E.00077
G1 X74.767 Y39.197 E.00276
G1 X75.272 Y39.342 E.00356
G1 X75.745 Y39.604 E.00366
G3 X76.487 Y40.394 I-2.117 J2.733 E.00736
G1 X76.604 Y40.365 E.00082
G1 X76.709 Y40.49 F21000
;TYPE:Inner wall
G1 F3000
G1 X76.802 Y40.418 E.0008
G1 X76.841 Y40.259 E.00111
G1 X76.784 Y39.654 E.00411
G1 X77.088 Y39.675 E.00206
G1 X77.458 Y39.789 E.00262
G1 X77.928 Y40.054 E.00365
G1 X78.286 Y40.427 E.0035
G2 X79.19 Y41.731 I11.148 J-6.76 E.01074
G1 X79.623 Y42.198 E.00431
G1 X80.02 Y42.509 E.00341
G1 X80.429 Y42.649 E.00292
G1 X80.647 Y42.601 E.00151
G1 X80.786 Y42.483 E.00124
G1 X80.925 Y42.162 E.00236
G1 X80.929 Y41.611 E.00373
G1 X80.824 Y40.981 E.00432
G3 X82.385 Y42.129 I-1.557 J3.753 E.01323
G1 X82.777 Y43.486 E.00956
G1 X82.941 Y44.735 E.00852
G1 X82.895 Y45.841 E.00749
G1 X82.67 Y46.816 E.00677
G1 X82.293 Y47.673 E.00633
G1 X81.789 Y48.422 E.0061
G1 X81.185 Y49.071 E.006
G1 X80.506 Y49.628 E.00594
G3 X77.567 Y51.057 I-6.202 J-9.021 E.02219
G1 X77.272 Y51.268 E.00245
G1 X77.132 Y51.599 E.00243
G1 X77.16 Y51.896 E.00202
G1 X77.321 Y52.149 E.00203
G1 X77.477 Y52.258 E.00128
G3 X78.952 Y53.183 I-1.666 J4.292 E.01185
G3 X79.862 Y54.697 I-2.732 J2.674 E.01205
G1 X79.801 Y54.757 E.00058
G1 X77.009 Y54.995 E.01896
G1 X76.878 Y55.046 E.00095
G1 X76.787 Y55.191 E.00116
G1 X76.808 Y55.357 E.00113
G1 X77.248 Y56.218 E.00654
G3 X77.788 Y58.175 I-8.455 J3.388 E.01376
G3 X77.406 Y61.505 I-7.027 J.88 E.02289
G1 X77.404 Y61.694 E.00127
G1 X77.562 Y61.858 E.00155
G1 X77.713 Y61.907 E.00107
M73 C24
G3 X78.49 Y61.586 I2.273 J4.396 E.00569
G1 X79.077 Y61.538 E.00398
G1 X79.443 Y61.566 E.00248
G1 X79.455 Y61.845 E.00189
G3 X79.196 Y62.968 I-4.319 J-.404 E.00782
G1 X78.885 Y63.779 E.00587
G1 X78.908 Y63.919 E.00096
G1 X79.043 Y64.042 E.00124
G1 X79.548 Y64.023 E.00342
G1 X79.779 Y64.072 E.0016
G1 X80.377 Y64.294 E.00431
G3 X81.836 Y65.364 I-4.204 J7.257 E.01226
G3 X84.287 Y68.048 I-15.823 J16.916 E.02462
G1 X84.333 Y68.202 E.00109
G1 X84.269 Y68.288 E.00072
G1 X83.749 Y68.384 E.00358
G1 X82.816 Y68.654 E.00657
G2 X80.125 Y70.008 I5.646 J14.571 E.02041
G1 X80.018 Y70.144 E.00117
G1 X80.035 Y70.336 E.00131
G1 X80.682 Y71.569 E.00942
G1 X81.136 Y72.726 E.00841
G1 X81.428 Y73.825 E.0077
G1 X81.577 Y74.865 E.00711
G3 X79.568 Y81.117 I-8.796 J.622 E.04552
G3 X77.237 Y82.416 I-3.104 J-2.829 E.01837
G1 X76.688 Y82.444 E.00372
G1 X76.378 Y82.373 E.00215
G1 X76.14 Y82.203 E.00198
G1 X75.954 Y81.851 E.0027
G1 X75.904 Y81.436 E.00283
G1 X76.326 Y81.435 E.00286
G1 X76.826 Y81.335 E.00345
G1 X77.278 Y81.119 E.00339
G1 X77.622 Y80.808 E.00314
G1 X77.885 Y80.367 E.00347
G1 X78.036 Y79.8 E.00397
G1 X78.048 Y79.175 E.00423
G1 X77.906 Y78.545 E.00437
G1 X77.645 Y78 E.00409
G1 X77.251 Y77.514 E.00423
G1 X76.808 Y77.163 E.00383
G1 X76.504 Y76.996 E.00234
G1 X75.522 Y76.556 E.00728
G3 X74.338 Y75.821 I3.005 J-6.166 E.00945
G1 X73.872 Y75.379 E.00434
G1 X73.529 Y74.895 E.00402
G1 X73.387 Y74.436 E.00325
G1 X73.417 Y73.904 E.0036
G1 X73.301 Y73.763 E.00124
G1 X72.903 Y73.704 E.00273
G1 X72.635 Y73.59 E.00197
G1 X72.358 Y73.282 E.0028
G1 X72.191 Y73.227 E.00119
G1 X71.983 Y73.357 E.00166
G1 X71.724 Y73.837 E.00368
G1 X71.6 Y73.289 E.0038
G1 X71.494 Y73.107 E.00143
G1 X71.335 Y73.062 E.00112
G1 X71.178 Y73.132 E.00116
G3 X65.712 Y76.956 I-12.694 J-12.326 E.0454
G3 X61.133 Y78.403 I-8.834 J-19.991 E.03255
G1 X60.567 Y78.529 E.00392
G1 X60.455 Y78.69 E.00133
G1 X60.493 Y78.88 E.00131
G1 X60.892 Y79.469 E.00481
G1 X61.154 Y80.079 E.00449
G1 X61.299 Y80.727 E.00449
G1 X61.321 Y81.396 E.00453
G1 X61.217 Y82.058 E.00453
G1 X60.994 Y82.684 E.00449
G1 X60.658 Y83.257 E.00449
G1 X60.217 Y83.761 E.00453
G1 X59.689 Y84.175 E.00453
G1 X59.099 Y84.48 E.00449
G1 X58.463 Y84.67 E.00449
G1 X57.796 Y84.739 E.00453
G1 X57.128 Y84.682 E.00453
G1 X56.489 Y84.503 E.00449
G1 X55.893 Y84.208 E.00449
G1 X55.359 Y83.804 E.00453
