; generated by SuperSlicer 2.5.59 on 2023-01-17 at 01:26:39 UTC


;
;

;
;
; 

; external perimeters extrusion width = 0.40mm
; perimeters extrusion width = 0.46mm
; infill extrusion width = 0.64mm
; solid infill extrusion width = 0.56mm
; top infill extrusion width = 0.40mm
; first layer extrusion width = 0.50mm

; object:{"name":"KlickyProbe_Long_v2","id":"KlickyProbe_Long_v2.stl id:0 copy 0","object_center":[60.000000,60.000000,0.000000],"boundingbox_center":[60.000000,60.000000,14.319870],"boundingbox_size":[27.033997,15.146881,28.639740]}
; plater:{"center":[60.000000,60.000000,0.000000],"boundingbox_center":[60.000000,60.000000,14.319870],"boundingbox_size":[27.033997,15.146881,28.639740]}

M73 P0 R40
;TYPE:Custom
; custom gcode: start_gcode
START_PRINT T_BED=110 T_EXTRUDER=240
; custom gcode end: start_gcode
M107
G21 ; set units to millimeters
G90 ; use absolute coordinates
M83 ; use relative distances for extrusion
; custom gcode: start_filament_gcode
; Filament gcode

    PRESSURE_ADVANCE_SELECT FILAMENT=ABS
; custom gcode end: start_filament_gcode
;_TOOLCHANGE 0
M104 S240 ; set temperature
M109 S240 ; set temperature and wait for it to be reached
M190 S110 ; set bed temperature and wait for it to be reached
;LAYER_CHANGE
;Z:0.2
;HEIGHT:0.2
G1 Z0.2 F12000
G92 E0
G1 E-0.5 F1800
M204 S2000
G1 X45.674 Y61.014 F12000
G1 E0.5 F1800
;TYPE:Skirt
;WIDTH:0.52
G1 F1771
G1 X44.768 Y61.692 E0.04492
G1 X43.763 Y62.77 E0.05847
G1 X43.166 Y64.223 E0.06229
G1 X43.069 Y65.067 E0.0337
G1 X43.068 Y67.272 E0.08747
G1 X43.791 Y69.476 E0.09202
G1 X45.096 Y70.584 E0.06793
G1 X46.76 Y70.989 E0.06793
G1 X64.932 Y71.089 E0.72087
G1 X73.262 Y70.989 E0.33044
G1 X75.44 Y70.25 E0.09125
G1 X76.539 Y68.937 E0.06793
G1 X76.932 Y67.27 E0.06793
G1 X76.865 Y64.339 E0.11631
G1 X76.58 Y63.395 E0.0391
G1 X76.058 Y62.511 E0.04073
G1 X75.34 Y61.777 E0.04074
G1 X68.625 Y56.659 E0.33493
G1 X66.628 Y55.908 E0.08462
G1 X66.206 Y55.879 E0.01678
G1 X53.602 Y55.971 E0.50003
G1 X51.428 Y56.706 E0.09103
G1 X45.674 Y61.014 E0.28511
M73 P0 R40
G1 X45.96 Y61.396 F12000
G1 F1771
G1 X45.054 Y62.074 E0.04492
G1 X44.157 Y63.039 E0.05227
G1 X43.678 Y64.129 E0.0472
G1 X43.546 Y65.067 E0.03759
G1 X43.545 Y67.272 E0.08747
G1 X44.053 Y69.015 E0.07205
G1 X45.218 Y70.108 E0.06336
G1 X46.763 Y70.512 E0.06336
G1 X64.932 Y70.612 E0.72076
G1 X73.256 Y70.511 E0.33022
G1 X74.978 Y69.991 E0.07137
G1 X76.063 Y68.819 E0.06336
G1 X76.455 Y67.271 E0.06336
G1 X76.396 Y64.428 E0.11277
G1 X76.145 Y63.592 E0.03465
G1 X75.684 Y62.807 E0.03611
G1 X74.959 Y62.084 E0.04061
G1 X68.336 Y57.039 E0.33029
G1 X66.596 Y56.384 E0.07375
G1 X66.174 Y56.355 E0.01678
G1 X53.608 Y56.448 E0.4985
G1 X51.713 Y57.089 E0.07934
G1 X45.96 Y61.396 E0.28507
G1 E-0.5 F1800
; printing object KlickyProbe_Long_v2.stl id:0 copy 0
; acceleration to travel
M204 S4000
G1 X50.731 Y64.233 F12000
; decel to extrusion
M204 S2000
G1 X53.117 Y65.652
; end travel
G1 E0.5 F1800
;TYPE:Internal perimeter
;WIDTH:0.5
G1 F1771
G1 X53.038 Y65.393 E0.01028
G1 X53.162 Y65.31 E0.00568
G1 X53.554 Y64.94 E0.0205
G1 X53.955 Y64.426 E0.02476
G1 X54.199 Y63.994 E0.01889
G1 X54.41 Y63.469 E0.02148
G1 X54.55 Y62.87 E0.02338
G1 X54.597 Y62.338 E0.02029
G1 X54.572 Y61.821 E0.01969
G1 X54.484 Y61.307 E0.01982
G1 X59.305 Y61.305 E0.18325
G1 X59.184 Y61.571 E0.01109
G1 X59.016 Y62.08 E0.02038
G1 X58.904 Y62.604 E0.02037
G1 X58.849 Y63.137 E0.02037
G1 X58.852 Y63.667 E0.02013
G1 X58.894 Y64.069 E0.01536
G1 X59.023 Y64.711 E0.02488
G1 X59.202 Y65.236 E0.0211
G1 X59.396 Y65.652 E0.01745
G1 X53.117 Y65.652 E0.23865
G1 E-0.5 F1800
; acceleration to travel
M204 S4000
G1 X49.671 Y65.957 F12000
; decel to extrusion
M204 S2000
G1 X47.948 Y66.109
; end travel
G1 E0.5 F1800
G1 F1771
G1 X47.948 Y65.738 E0.01412
G1 X50.723 Y65.736 E0.10546
G1 X51.147 Y65.71 E0.01616
G1 X51.801 Y65.554 E0.02552
G1 X52.33 Y65.319 E0.022
G1 X52.875 Y64.952 E0.02499
G1 X53.215 Y64.631 E0.01776
G1 X53.574 Y64.172 E0.02214
G1 X53.786 Y63.795 E0.01644
G1 X53.973 Y63.331 E0.01901
G1 X54.098 Y62.798 E0.02082
G1 X54.139 Y62.329 E0.01787
G1 X54.117 Y61.871 E0.01744
G1 X54.053 Y61.497 E0.01441
G1 X53.979 Y61.236 E0.0103
G1 X53.988 Y61.115 E0.00462
G1 X54.021 Y60.992 E0.00485
G1 X54.084 Y60.85 E0.0059
G1 X60.076 Y60.848 E0.22773
G1 X59.812 Y61.295 E0.01973
G1 X59.611 Y61.738 E0.01848
G1 X59.458 Y62.2 E0.0185
G1 X59.356 Y62.676 E0.0185
G1 X59.306 Y63.16 E0.0185
G1 X59.309 Y63.642 E0.01832
G1 X59.346 Y64 E0.01368
G1 X59.465 Y64.591 E0.02294
G1 X59.627 Y65.065 E0.01903
G1 X59.832 Y65.507 E0.01849
G1 X60.197 Y66.109 E0.02678
G1 X47.948 Y66.109 E0.46554
G1 X47.491 Y66.566 F12000
G1 F1771
G1 X47.491 Y65.281 E0.04885
G1 X50.709 Y65.279 E0.12228
G1 X51.08 Y65.256 E0.01413
G1 X51.654 Y65.119 E0.02243
G1 X52.108 Y64.918 E0.01887
G1 X52.589 Y64.594 E0.02204
G1 X52.876 Y64.322 E0.01503
G1 X53.192 Y63.917 E0.01953
G1 X53.374 Y63.597 E0.014
G1 X53.536 Y63.193 E0.01654
G1 X53.645 Y62.725 E0.01826
G1 X53.681 Y62.32 E0.01546
G1 X53.662 Y61.921 E0.01519
G1 X53.606 Y61.598 E0.01243
G1 X53.517 Y61.283 E0.01247
G1 X53.535 Y61.038 E0.00932
G1 X53.589 Y60.839 E0.00784
G1 X53.654 Y60.693 E0.00608
G1 X53.735 Y60.564 E0.00578
G1 X53.89 Y60.393 E0.00878
G1 X60.236 Y60.391 E0.2412
G1 X61.108 Y60.369 E0.03314
G1 X60.704 Y60.78 E0.02188
G1 X60.379 Y61.234 E0.02125
G1 X60.218 Y61.507 E0.01202
G1 X60.037 Y61.904 E0.01661
G1 X59.9 Y62.32 E0.01662
G1 X59.808 Y62.747 E0.01662
G1 X59.763 Y63.182 E0.01662
G1 X59.766 Y63.617 E0.01651
G1 X59.799 Y63.931 E0.012
G1 X59.907 Y64.472 E0.021
G1 X60.051 Y64.895 E0.01696
G1 X60.236 Y65.291 E0.01662
G1 X60.462 Y65.665 E0.01662
G1 X60.729 Y66.014 E0.01666
G1 X61.257 Y66.567 E0.02907
G1 X47.491 Y66.566 E0.52321
G1 E-0.5 F1800
; acceleration to travel
M204 S4000
G1 X61.059 Y65.77 F12000
; decel to extrusion
M204 S2000
G1 X67.844 Y65.372
; end travel
G1 E0.5 F1800
G1 F1771
G1 X68.118 Y65.522 E0.01188
G1 X68.778 Y65.698 E0.02597
G1 X69.268 Y65.736 E0.01866
G1 X72.051 Y65.738 E0.1058
G1 X72.052 Y66.109 E0.01411
G1 X67.404 Y66.111 E0.17663
G1 X67.72 Y65.645 E0.0214
G1 X67.844 Y65.372 E0.0114
G1 X67.586 Y64.709 F12000
G1 F1771
G1 X68.289 Y65.095 E0.03049
G1 X68.855 Y65.246 E0.02227
G1 X69.285 Y65.279 E0.01641
G1 X72.508 Y65.281 E0.12248
G1 X72.509 Y66.566 E0.04884
G1 X66.348 Y66.569 E0.23414
G1 X66.795 Y66.139 E0.02357
G1 X67.001 Y65.892 E0.0122
G1 X67.32 Y65.421 E0.02161
G1 X67.52 Y64.977 E0.01851
G1 X67.586 Y64.709 E0.01051
G1 E-0.5 F1800
; acceleration to travel
M204 S4000
G1 X66.078 Y60.877 F12000
; decel to extrusion
M204 S1000
G1 X65.701 Y59.919
; end travel
G1 E0.5 F1800
;TYPE:Thin wall
;WIDTH:0.062817
G1 F1771
G1 X65.716 Y59.919 E0.00003
;WIDTH:0.00698
G1 X65.701 Y59.919 E0
;WIDTH:0.02425
G1 X65.576 Y59.917 E0.00021
;WIDTH:0.039859
G1 X65.516 Y59.916 E0.00018
G1 X65.316 Y59.916 E0.00059
G1 X62.318 Y59.916 E0.00887
G1 X62.218 Y59.916 E0.0003
G1 X62.118 Y59.916 E0.0003
G1 X62.042 Y59.917 E0.00023
;WIDTH:0.019688
G1 X61.918 Y59.919 E0.00016
M204 S2000
G1 X61.868 Y59.92 F12000
;TYPE:External perimeter
;WIDTH:0.5
G1 F1771
G1 X61.868 Y59.966 E0.00176
G1 X61.863 Y60.216 E0.00951
G1 X61.761 Y60.407 E0.00823
G1 X61.614 Y60.583 E0.00873
G1 X61.336 Y60.789 E0.01315
G1 X61.055 Y61.075 E0.01522
G1 X60.762 Y61.484 E0.01913
G1 X60.624 Y61.718 E0.01032
G1 X60.463 Y62.071 E0.01474
G1 X60.342 Y62.439 E0.01475
G1 X60.261 Y62.819 E0.01475
G1 X60.221 Y63.205 E0.01475
G1 X60.223 Y63.591 E0.0147
G1 X60.251 Y63.862 E0.01032
G1 X60.35 Y64.353 E0.01905
G1 X60.476 Y64.724 E0.01489
G1 X60.64 Y65.076 E0.01474
G1 X60.841 Y65.408 E0.01474
G1 X61.076 Y65.716 E0.01476
G1 X61.343 Y65.995 E0.01467
G1 X61.55 Y66.173 E0.01037
G1 X61.875 Y66.394 E0.01494
G1 X62.235 Y66.564 E0.01513
G1 X62.942 Y66.771 E0.02801
G1 X63.309 Y66.845 E0.01423
G1 X63.688 Y66.88 E0.01444
G1 X64.177 Y66.861 E0.01862
G1 X64.437 Y66.827 E0.00995
G1 X64.798 Y66.742 E0.01411
G1 X65.508 Y66.524 E0.02822
G1 X65.863 Y66.334 E0.0153
G1 X66.179 Y66.097 E0.01501
G1 X66.46 Y65.827 E0.01482
G1 X66.635 Y65.617 E0.01039
G1 X66.919 Y65.197 E0.01925
G1 X67.086 Y64.828 E0.01541
G1 X67.179 Y64.448 E0.01486
G1 X67.303 Y63.656 E0.03049
G1 X67.482 Y63.888 E0.01114
G1 X68.014 Y64.422 E0.02866
G1 X68.46 Y64.668 E0.01936
G1 X68.932 Y64.793 E0.01856
G1 X69.303 Y64.822 E0.01415
G1 X72.714 Y64.825 E0.12961
G1 X72.847 Y64.866 E0.0053
G1 X72.934 Y64.957 E0.00479
G1 X72.965 Y65.06 E0.00407
G1 X72.966 Y67.023 E0.07463
G1 X66.408 Y67.026 E0.24926
G1 X65.904 Y67.041 E0.01915
G1 X64.922 Y67.123 E0.03747
G1 X62.482 Y67.118 E0.09273
G1 X61.993 Y67.056 E0.01875
G1 X60.99 Y67.024 E0.03811
G1 X47.033 Y67.023 E0.53046
G1 X47.034 Y65.097 E0.0732
G1 X47.064 Y64.968 E0.00505
G1 X47.13 Y64.88 E0.00416
G1 X47.234 Y64.832 E0.00436
G1 X47.305 Y64.824 E0.0027
G1 X50.694 Y64.822 E0.12882
G1 X51.012 Y64.802 E0.0121
G1 X51.507 Y64.684 E0.01935
G1 X51.886 Y64.516 E0.01574
G1 X52.302 Y64.235 E0.01909
G1 X52.537 Y64.014 E0.01229
G1 X52.811 Y63.663 E0.01691
G1 X52.961 Y63.398 E0.01156
G1 X53.099 Y63.055 E0.01406
G1 X53.193 Y62.653 E0.01569
G1 X53.223 Y62.311 E0.01304
G1 X53.207 Y61.971 E0.01295
G1 X53.16 Y61.7 E0.01045
G1 X53.055 Y61.329 E0.01463
G1 X53.083 Y60.961 E0.01401
G1 X53.156 Y60.686 E0.01083
G1 X53.249 Y60.477 E0.0087
G1 X53.369 Y60.286 E0.00856
G1 X53.597 Y60.036 E0.01288
G1 X53.731 Y59.936 E0.00634
G1 X60.231 Y59.934 E0.24703
G1 X60.714 Y59.922 E0.01839
G1 X61.656 Y59.836 E0.03593
G1 X61.867 Y59.836 E0.00802
G1 X61.868 Y59.92 E0.00318
M204 S1000
G1 X61.918 Y59.919 F12000
;TYPE:Thin wall
;WIDTH:0.177194
G1 F1771
G1 X62.042 Y59.917 E0.00143
;WIDTH:0.358727
G1 X62.118 Y59.916 E0.00203
G1 X62.218 Y59.916 E0.00266
G1 X62.318 Y59.916 E0.00266
G1 X65.316 Y59.916 E0.07979
G1 X65.516 Y59.916 E0.00532
G1 X65.576 Y59.917 E0.00161
;WIDTH:0.21825
G1 X65.701 Y59.919 E0.00186
M204 S2000
G1 X65.767 Y59.836 F12000
;TYPE:External perimeter
;WIDTH:0.5
G1 F1771
G1 X66.156 Y59.851 E0.01479
G1 X66.263 Y59.858 E0.00407
G1 X66.41 Y60.004 E0.00785
G1 X66.642 Y60.286 E0.0139
G1 X66.778 Y60.495 E0.0095
G1 X66.923 Y60.778 E0.01208
G1 X67.033 Y61.072 E0.01192
G1 X67.04 Y61.401 E0.01251
G1 X66.923 Y61.774 E0.01486
M204 S1000
G1 X66.934 Y61.821 F12000
;TYPE:Thin wall
;WIDTH:0.138387
G1 F1771
G1 X66.952 Y61.939 E0.001
;WIDTH:0.281729
G1 X66.955 Y61.959 E0.0004
G1 X66.98 Y62.124 E0.00337
G1 X66.99 Y62.189 E0.00133
;WIDTH:0.36
G1 X67 Y62.254 E0.00175
G1 X67.025 Y62.406 E0.00413
G1 X67.033 Y62.443 E0.001
G1 X67.073 Y62.662 E0.00594
G1 X67.099 Y62.769 E0.00295
G1 X67.145 Y63.008 E0.00651
G1 X67.172 Y63.112 E0.00286
G1 X67.183 Y63.161 E0.00134
G1 X67.219 Y63.282 E0.00339
G1 X67.271 Y63.471 E0.00524
;WIDTH:0.218249
G1 X67.304 Y63.591 E0.00186
;WIDTH:0.062817
G1 X67.308 Y63.606 E0.00003
;WIDTH:0.00698
G1 X67.304 Y63.591 E0
;WIDTH:0.02425
G1 X67.271 Y63.471 E0.00021
;WIDTH:0.04
G1 X67.219 Y63.282 E0.00058
G1 X67.183 Y63.161 E0.00038
G1 X67.172 Y63.112 E0.00015
G1 X67.145 Y63.008 E0.00032
G1 X67.099 Y62.769 E0.00072
G1 X67.073 Y62.662 E0.00033
G1 X67.033 Y62.443 E0.00066
G1 X67.025 Y62.406 E0.00011
G1 X67 Y62.254 E0.00046
G1 X66.99 Y62.189 E0.00019
;WIDTH:0.031303
G1 X66.98 Y62.124 E0.00015
G1 X66.955 Y61.959 E0.00037
G1 X66.952 Y61.939 E0.00004
;WIDTH:0.015376
G1 X66.934 Y61.821 E0.00011
M204 S2000
G1 X66.923 Y61.774 F12000
;TYPE:External perimeter
;WIDTH:0.5
G1 F1771
G1 X66.711 Y61.413 E0.01592
G1 X66.29 Y60.821 E0.02762
G1 X66.023 Y60.597 E0.01323
G1 X65.875 Y60.41 E0.00908
G1 X65.771 Y60.216 E0.00836
G1 X65.767 Y59.836 E0.01445
;WIPE_START
M204 S4000
G1 X66.109 Y60.044 F12000
;WIPE_END
M204 S2000
G1 X66.019 Y60.056
;TYPE:Gap fill
;WIDTH:0.186252
G1 F1771
G1 X66.12 Y60.176 E0.00187
;WIDTH:0.284951
G1 X66.161 Y60.23 E0.00137
G1 X66.266 Y60.361 E0.00337
G1 X66.382 Y60.477 E0.0033
;WIDTH:0.240478
G1 X66.501 Y60.611 E0.00294
;WIDTH:0.211085
G1 X66.524 Y60.643 E0.00055
G1 X66.599 Y60.766 E0.00201
;WIDTH:0.167932
G1 X66.673 Y60.889 E0.0015
G1 X66.748 Y61.03 E0.00166
G1 E-0.5 F1800
; acceleration to travel
M204 S4000
G1 X61.058 Y61.303 F12000
; decel to extrusion
M204 S2000
G1 X58.161 Y61.443
; end travel
G1 E0.5 F1800
;TYPE:Solid infill
;WIDTH:0.518185
G1 F1771
G1 X58.882 Y62.164 E0.04016
G1 X58.763 Y62.691 F12000
G1 F1771
G1 X57.514 Y61.443 E0.06954
G1 X56.868 Y61.443 F12000
G1 F1771
G1 X58.732 Y63.307 E0.10383
G1 X58.765 Y63.987 F12000
G1 F1771
G1 X56.222 Y61.444 E0.14167
G1 X55.576 Y61.444 F12000
G1 F1771
G1 X58.897 Y64.765 E0.18501
G1 X59.001 Y65.515 F12000
G1 F1771
G1 X54.93 Y61.444 E0.22679
G1 X54.68 Y61.841 F12000
G1 F1771
G1 X58.354 Y65.515 E0.20466
G1 X57.708 Y65.515 F12000
G1 F1771
G1 X54.707 Y62.514 E0.16717
G1 X54.615 Y63.069 F12000
G1 F1771
G1 X57.062 Y65.515 E0.13627
G1 X56.415 Y65.515 F12000
G1 F1771
G1 X54.5 Y63.6 E0.10669
G1 X54.291 Y64.038 F12000
G1 F1771
G1 X55.769 Y65.515 E0.08229
G1 X55.122 Y65.515 F12000
G1 F1771
G1 X54.083 Y64.476 E0.05788
G1 X53.804 Y64.843 F12000
G1 F1771
G1 X54.476 Y65.515 E0.03745
; acceleration to travel
M204 S4000
G1 X53.403 Y65.562 F12000
; decel to extrusion
M204 S2000
G1 X52.876 Y65.584
; end travel
;TYPE:Gap fill
;WIDTH:0.636265
G1 F1771
G1 X52.69 Y65.641 E0.0096
;WIDTH:0.501428
G1 X52.516 Y65.693 E0.00691
;WIDTH:0.433235
G1 X52.34 Y65.73 E0.00585
;WIDTH:0.346144
G1 X52.163 Y65.767 E0.00454
;WIDTH:0.259053
G1 X51.987 Y65.805 E0.00324
;WIDTH:0.193455
G1 X51.885 Y65.825 E0.0013
G1 X51.778 Y65.838 E0.00135
;WIDTH:0.137286
G1 X51.623 Y65.856 E0.00122
M106 S255
;LAYER_CHANGE
;Z:0.4
;HEIGHT:0.2
; stop printing object KlickyProbe_Long_v2.stl id:0 copy 0
M204 S4000
G1 Z0.4 F12000
G92 E0
; printing object KlickyProbe_Long_v2.stl id:0 copy 0
G1 X47.957 Y66.102
;TYPE:Internal perimeter
;WIDTH:0.46
G1 F2058
G1 X47.958 Y65.745 E0.01238
G1 X51.102 Y65.731 E0.10905
G1 X51.499 Y65.674 E0.0139
G1 X52.071 Y65.506 E0.02067
G1 X52.422 Y65.345 E0.0134
G1 X52.885 Y65.055 E0.01895
G1 X53.277 Y64.715 E0.018
G1 X53.671 Y64.242 E0.02133
G1 X53.979 Y63.686 E0.02204
G1 X54.163 Y63.163 E0.01923
G1 X54.262 Y62.627 E0.01891
G1 X54.277 Y62.078 E0.01905
G1 X54.212 Y61.591 E0.01703
G1 X54.159 Y61.355 E0.00838
G1 X54.146 Y61.213 E0.00495
G1 X54.18 Y61.019 E0.00685
G1 X54.24 Y60.906 E0.00441
G1 X54.339 Y60.797 E0.00511
G1 X60.1 Y60.797 E0.1998
G1 X59.808 Y61.287 E0.01979
G1 X59.6 Y61.744 E0.0174
G1 X59.445 Y62.221 E0.0174
G1 X59.343 Y62.712 E0.01739
G1 X59.296 Y63.211 E0.0174
G1 X59.305 Y63.713 E0.01739
G1 X59.37 Y64.21 E0.0174
G1 X59.489 Y64.697 E0.0174
G1 X59.661 Y65.169 E0.0174
G1 X59.884 Y65.618 E0.0174
G1 X60.196 Y66.102 E0.01998
G1 X47.957 Y66.102 E0.42445
M106 S252.45
G1 X47.539 Y66.519 F12000
G1 F2058
G1 X47.542 Y65.33 E0.04124
G1 X51.072 Y65.314 E0.12242
G1 X51.41 Y65.266 E0.01186
G1 X51.924 Y65.114 E0.01859
G1 X52.224 Y64.977 E0.01142
G1 X52.636 Y64.719 E0.01689
G1 X52.979 Y64.422 E0.0157
G1 X53.325 Y64.005 E0.0188
G1 X53.597 Y63.515 E0.01945
G1 X53.759 Y63.055 E0.01689
G1 X53.846 Y62.583 E0.01666
G1 X53.859 Y62.1 E0.01676
G1 X53.801 Y61.665 E0.01521
G1 X53.746 Y61.42 E0.00873
G1 X53.728 Y61.212 E0.00723
G1 X53.745 Y61.027 E0.00643
G1 X53.791 Y60.863 E0.00593
G1 X53.896 Y60.666 E0.00775
G1 X54.034 Y60.512 E0.00718
G1 X54.186 Y60.405 E0.00644
G1 X54.245 Y60.379 E0.00223
G1 X61.014 Y60.379 E0.23477
G1 X60.686 Y60.726 E0.01656
G1 X60.411 Y61.089 E0.01579
G1 X60.178 Y61.48 E0.0158
G1 X59.99 Y61.895 E0.01579
G1 X59.849 Y62.328 E0.01579
G1 X59.756 Y62.774 E0.01579
G1 X59.714 Y63.227 E0.01579
G1 X59.722 Y63.682 E0.01579
G1 X59.78 Y64.134 E0.01579
G1 X59.888 Y64.576 E0.01579
G1 X60.045 Y65.004 E0.01579
G1 X60.247 Y65.411 E0.01579
G1 X60.494 Y65.794 E0.01579
G1 X60.781 Y66.147 E0.01579
G1 X61.16 Y66.519 E0.01841
G1 X47.539 Y66.519 E0.47237
G1 X47.122 Y66.936 F12000
G1 F2058
G1 X47.125 Y65.082 E0.06429
G1 X47.172 Y64.944 E0.00505
G1 X47.292 Y64.914 E0.0043
G1 X51.041 Y64.897 E0.13002
G1 X51.321 Y64.857 E0.00981
G1 X51.778 Y64.722 E0.01652
G1 X52.026 Y64.609 E0.00945
G1 X52.388 Y64.382 E0.01482
G1 X52.68 Y64.129 E0.0134
G1 X52.979 Y63.769 E0.01626
G1 X53.215 Y63.343 E0.01687
G1 X53.354 Y62.948 E0.01455
G1 X53.43 Y62.539 E0.01442
G1 X53.442 Y62.122 E0.01446
G1 X53.39 Y61.739 E0.01339
G1 X53.332 Y61.484 E0.00907
G1 X53.309 Y61.211 E0.00952
G1 X53.333 Y60.952 E0.00902
G1 X53.401 Y60.707 E0.00881
