; HEADER_BLOCK_START
; generated by OrcaSlicer 1.6.2 on 2023-05-24 at 11:56:04
; total layer number: 75
; HEADER_BLOCK_END

; THUMBNAIL_BLOCK_START
; THUMBNAIL_BLOCK_END

; external perimeters extrusion width = 0.40mm
; perimeters extrusion width = 0.45mm
; infill extrusion width = 0.45mm
; solid infill extrusion width = 0.40mm
; top infill extrusion width = 0.40mm
; support material extrusion width = 0.40mm
; first layer extrusion width = 0.50mm

; EXECUTABLE_BLOCK_START
EXCLUDE_OBJECT_DEFINE NAME=Left_motor_mount_Top.stl_id_0_copy_0 CENTER=60,60 POLYGON=[[28.85,57.2642],[28.8623,57.1078],[28.8989,56.9552],[28.959,56.8102],[29.041,56.6764],[29.1429,56.5571],[49.6429,36.0571],[54.0571,31.6429],[54.1764,31.541],[54.3102,31.459],[54.4552,31.3989],[54.6078,31.3623],[54.7642,31.35],[85.7358,31.35],[85.8922,31.3623],[86.0448,31.3989],[86.1898,31.459],[86.3236,31.541],[86.4429,31.6429],[90.8571,36.0571],[90.959,36.1764],[91.041,36.3102],[91.1011,36.4552],[91.1377,36.6078],[91.15,36.7642],[91.15,83.2358],[91.1377,83.3922],[91.1011,83.5448],[91.041,83.6898],[90.959,83.8236],[90.8571,83.9429],[86.4429,88.3571],[86.3236,88.459],[86.1898,88.541],[86.0448,88.6011],[85.8922,88.6377],[85.7358,88.65],[34.2642,88.65],[34.1078,88.6377],[33.9552,88.6011],[33.8102,88.541],[33.6764,88.459],[33.5571,88.3571],[29.1429,83.9429],[29.041,83.8236],[28.959,83.6898],[28.8989,83.5448],[28.8623,83.3922],[28.85,83.2358],[28.85,57.2642]]
M73 P0 R32
;TYPE:Custom
START_PRINT T_BED=110 T_EXTRUDER=260
G90
G21
M83 ; use relative distances for extrusion
; Filament gcode

    PRESSURE_ADVANCE_SELECT FILAMENT=ABS
M106 S0
;LAYER_CHANGE
;Z:0.2
;HEIGHT:0.2
;BEFORE_LAYER_CHANGE
;0.2
G92 E0

;AFTER_LAYER_CHANGE
;0.2
SET_VELOCITY_LIMIT ACCEL_TO_DECEL=500
M204 S1000
G1 E-.5 F3000
G1 Z.2 F21000
G1 X41.426 Y41.426
G1 E.5 F1800
;TYPE:Skirt
;WIDTH:0.5
G1 F3000
G1 X52.633 Y30.219 E.5578
G1 X53.006 Y29.903 E.01718
G1 X54.039 Y29.427 E.04003
G1 X54.764 Y29.336 E.02574
G1 X85.752 Y29.337 E1.09056
G1 X86.682 Y29.489 E.03317
G1 X87.494 Y29.903 E.0321
G1 X87.867 Y30.219 E.01719
G1 X92.281 Y34.633 E.2197
G1 X92.73 Y35.211 E.02574
G1 X93.128 Y36.308 E.0411
G1 X93.163 Y83.252 E1.65211
G1 X93.011 Y84.182 E.03317
G1 X92.597 Y84.994 E.03209
G1 X92.281 Y85.367 E.01719
G1 X87.519 Y90.078 E.23575
G1 X86.461 Y90.573 E.0411
G1 X85.736 Y90.664 E.02574
G1 X34.248 Y90.663 E1.81204
G1 X33.318 Y90.511 E.03318
G1 X32.506 Y90.097 E.03208
G1 X32.133 Y89.781 E.01719
G1 X27.719 Y85.367 E.2197
G1 X27.403 Y84.994 E.01719
G1 X26.916 Y83.916 E.04164
G1 X26.836 Y83.236 E.02411
G1 X26.836 Y57.264 E.91404
G1 X26.927 Y56.538 E.02574
G1 X27.403 Y55.506 E.04001
G1 X27.719 Y55.133 E.01719
G1 X41.383 Y41.468 E.68011
G1 X41.707 Y41.791 F21000
G1 F3000
G1 X52.956 Y30.542 E.55991
G1 X53.274 Y30.273 E.01466
G1 X54.145 Y29.872 E.03375
G1 X54.764 Y29.793 E.02196
G1 X85.752 Y29.794 E1.09056
G1 X86.54 Y29.924 E.02814
G1 X87.226 Y30.273 E.02706
G1 X87.544 Y30.542 E.01466
G1 X91.958 Y34.956 E.2197
G1 X92.34 Y35.449 E.02196
G1 X92.677 Y36.38 E.03482
G1 X92.706 Y83.251 E1.64959
G1 X92.576 Y84.04 E.02814
G1 X92.227 Y84.725 E.02706
G1 X91.958 Y85.044 E.01467
G1 X87.251 Y89.709 E.23323
G1 X86.355 Y90.128 E.03482
G1 X85.736 Y90.207 E.02196
G1 X34.249 Y90.206 E1.81204
G1 X33.459 Y90.076 E.02814
G1 X32.775 Y89.727 E.02705
G1 X32.456 Y89.458 E.01467
G1 X28.042 Y85.044 E.2197
G1 X27.773 Y84.726 E.01466
G1 X27.361 Y83.809 E.03536
G1 X27.293 Y83.236 E.02033
G1 X27.293 Y57.264 E.91404
G1 X27.372 Y56.645 E.02196
G1 X27.773 Y55.775 E.03374
G1 X28.042 Y55.456 E.01467
G1 X41.664 Y41.834 E.678
; printing object Left motor mount Top.stl id:0 copy 0
EXCLUDE_OBJECT_START NAME=Left_motor_mount_Top.stl_id_0_copy_0
G1 E-.5
G1 Z.4 F21000
G1 X86.041 Y71.126
G1 Z.2
G1 E.5 F1800
;TYPE:Outer wall
G1 F3000
G1 X86.05 Y71.128 E.00032
G1 X86.31 Y71.225 E.0098
G1 X86.55 Y71.356 E.00962
G1 X86.777 Y71.525 E.00996
G1 X86.974 Y71.722 E.00981
G1 X87.141 Y71.945 E.00979
G1 X87.275 Y72.19 E.0098
G1 X87.372 Y72.45 E.0098
G1 X87.431 Y72.722 E.0098
G1 X87.45 Y72.987 E.00935
G1 X87.45 Y83.012 E.35282
G1 X87.431 Y83.278 E.00936
G1 X87.372 Y83.55 E.0098
G1 X87.275 Y83.81 E.0098
G1 X87.144 Y84.05 E.00962
G1 X86.975 Y84.277 E.00996
G1 X86.778 Y84.474 E.00981
G1 X86.555 Y84.641 E.0098
G1 X86.31 Y84.775 E.0098
G1 X86.05 Y84.872 E.0098
G1 X85.778 Y84.931 E.0098
G1 X85.5 Y84.951 E.0098
G1 X85.222 Y84.931 E.0098
G1 X84.95 Y84.872 E.0098
G1 X84.69 Y84.775 E.0098
G1 X84.445 Y84.641 E.0098
G1 X84.222 Y84.474 E.0098
G1 X84.026 Y84.278 E.0098
G1 X83.859 Y84.055 E.0098
G1 X83.725 Y83.81 E.0098
G1 X83.628 Y83.55 E.0098
G1 X83.569 Y83.278 E.0098
G1 X83.55 Y83.012 E.00936
G1 X83.55 Y72.987 E.35282
G1 X83.569 Y72.722 E.00935
G1 X83.628 Y72.45 E.0098
G1 X83.725 Y72.19 E.0098
G1 X83.859 Y71.945 E.0098
G1 X84.026 Y71.722 E.0098
G1 X84.222 Y71.526 E.0098
G1 X84.445 Y71.359 E.0098
G1 X84.69 Y71.225 E.0098
G1 X84.95 Y71.128 E.0098
G1 X85.222 Y71.069 E.0098
G1 X85.495 Y71.049 E.00962
G1 X85.777 Y71.069 E.00996
G1 X85.982 Y71.113 E.00738
G1 X86.042 Y71.125
G1 E-.5
G1 Z.4 F21000
G1 X55.377 Y70.229
G1 Z.2
G1 E.5 F1800
;TYPE:Inner wall
G1 F3000
G1 X55.709 Y70.353 E.01248
G1 X56.074 Y70.552 E.01461
G1 X56.406 Y70.8 E.01462
G1 X56.7 Y71.094 E.01461
G1 X56.948 Y71.426 E.01461
G1 X57.147 Y71.791 E.01461
G1 X57.293 Y72.18 E.01462
G1 X57.381 Y72.586 E.01462
G1 X57.407 Y72.953 E.01297
G1 X57.407 Y83.047 E.35523
G1 X57.381 Y83.414 E.01297
G1 X57.293 Y83.82 E.01462
G1 X57.147 Y84.209 E.01461
G1 X56.951 Y84.568 E.01439
G1 X56.701 Y84.905 E.01477
G1 X56.406 Y85.2 E.01468
G1 X56.074 Y85.448 E.01461
G1 X55.709 Y85.647 E.01461
G1 X55.326 Y85.79 E.01439
G1 X54.916 Y85.881 E.01477
G1 X54.5 Y85.91 E.01468
G1 X54.086 Y85.881 E.01461
G1 X53.68 Y85.793 E.01462
G1 X53.291 Y85.647 E.01462
G1 X52.927 Y85.448 E.01461
G1 X52.594 Y85.2 E.01461
G1 X52.3 Y84.906 E.01461
G1 X52.052 Y84.573 E.01462
G1 X51.853 Y84.209 E.01461
G1 X51.71 Y83.826 E.01439
G1 X51.619 Y83.416 E.01477
G1 X51.593 Y83.047 E.01303
G1 X51.593 Y72.953 E.35522
G1 X51.619 Y72.586 E.01297
G1 X51.707 Y72.18 E.01462
G1 X51.853 Y71.791 E.01462
G1 X52.052 Y71.426 E.01461
G1 X52.3 Y71.094 E.01461
G1 X52.594 Y70.8 E.01461
G1 X52.927 Y70.552 E.01462
G1 X53.291 Y70.353 E.01462
G1 X53.68 Y70.207 E.01461
G1 X54.086 Y70.119 E.01461
G1 X54.494 Y70.09 E.01439
G1 X54.912 Y70.119 E.01478
G1 X55.32 Y70.207 E.01468
G1 X55.32 Y70.208 E.00002
G1 X55.16 Y70.641 F21000
G1 F3000
G1 X55.191 Y70.647 E.0011
G1 X55.519 Y70.769 E.01231
G1 X55.826 Y70.937 E.01231
G1 X56.106 Y71.147 E.01231
G1 X56.353 Y71.394 E.01231
G1 X56.563 Y71.674 E.01231
G1 X56.731 Y71.981 E.01231
G1 X56.853 Y72.309 E.01232
G1 X56.927 Y72.651 E.01231
G1 X56.95 Y72.97 E.01124
G1 X56.95 Y83.03 E.35408
G1 X56.927 Y83.349 E.01124
G1 X56.853 Y83.691 E.01231
G1 X56.731 Y84.019 E.01231
G1 X56.566 Y84.321 E.01211
G1 X56.354 Y84.605 E.01247
G1 X56.106 Y84.853 E.01235
G1 X55.826 Y85.063 E.01231
G1 X55.519 Y85.231 E.01231
G1 X55.196 Y85.351 E.01211
G1 X54.85 Y85.427 E.01247
G1 X54.5 Y85.452 E.01236
G1 X54.151 Y85.427 E.01231
G1 X53.809 Y85.353 E.01231
G1 X53.481 Y85.231 E.01231
G1 X53.174 Y85.063 E.01231
G1 X52.894 Y84.853 E.01231
G1 X52.647 Y84.606 E.01231
G1 X52.437 Y84.326 E.01231
G1 X52.269 Y84.019 E.01231
G1 X52.149 Y83.696 E.01211
G1 X52.073 Y83.35 E.01247
G1 X52.05 Y83.03 E.01128
G1 X52.05 Y72.97 E.35407
G1 X52.073 Y72.651 E.01124
G1 X52.147 Y72.309 E.01231
G1 X52.269 Y71.981 E.01231
G1 X52.437 Y71.674 E.01231
G1 X52.647 Y71.394 E.01231
G1 X52.894 Y71.147 E.01231
G1 X53.174 Y70.937 E.01231
G1 X53.481 Y70.769 E.01231
G1 X53.809 Y70.647 E.01231
G1 X54.151 Y70.573 E.01231
G1 X54.494 Y70.548 E.01211
G1 X54.848 Y70.573 E.01247
G1 X55.102 Y70.628 E.00915
G1 X55.041 Y71.126 F21000
;TYPE:Outer wall
G1 F3000
G1 X55.05 Y71.128 E.00032
G1 X55.31 Y71.225 E.0098
G1 X55.555 Y71.359 E.0098
G1 X55.778 Y71.526 E.0098
G1 X55.974 Y71.722 E.0098
G1 X56.141 Y71.945 E.00979
G1 X56.275 Y72.19 E.0098
G1 X56.372 Y72.45 E.0098
G1 X56.431 Y72.722 E.0098
G1 X56.45 Y72.987 E.00935
G1 X56.45 Y83.012 E.35282
G1 X56.431 Y83.278 E.00936
G1 X56.372 Y83.55 E.0098
G1 X56.275 Y83.81 E.0098
G1 X56.144 Y84.05 E.00962
G1 X55.975 Y84.277 E.00996
G1 X55.778 Y84.474 E.00981
G1 X55.555 Y84.641 E.0098
G1 X55.31 Y84.775 E.0098
G1 X55.054 Y84.87 E.00962
G1 X54.778 Y84.931 E.00996
G1 X54.5 Y84.951 E.00981
G1 X54.222 Y84.931 E.0098
G1 X53.95 Y84.872 E.0098
G1 X53.69 Y84.775 E.0098
G1 X53.445 Y84.641 E.0098
G1 X53.222 Y84.474 E.0098
G1 X53.026 Y84.278 E.0098
G1 X52.859 Y84.055 E.0098
G1 X52.725 Y83.81 E.0098
G1 X52.63 Y83.554 E.00962
G1 X52.569 Y83.278 E.00996
G1 X52.55 Y83.012 E.00937
G1 X52.55 Y72.987 E.35282
G1 X52.569 Y72.722 E.00935
G1 X52.628 Y72.45 E.0098
G1 X52.725 Y72.19 E.0098
G1 X52.859 Y71.945 E.0098
G1 X53.026 Y71.722 E.00979
G1 X53.222 Y71.526 E.0098
G1 X53.445 Y71.359 E.0098
G1 X53.69 Y71.225 E.0098
G1 X53.95 Y71.128 E.0098
G1 X54.222 Y71.069 E.0098
G1 X54.495 Y71.049 E.00962
G1 X54.777 Y71.069 E.00996
G1 X54.982 Y71.113 E.00738
G1 X55.042 Y71.125
G1 E-.5
G1 Z.4 F21000
G1 X55.053 Y70.785
G1 X59.558 Y57.269
G1 X59.898 Y56.394
G1 X81.694 Y41.404
G1 Z.2
G1 E.5 F1800
;TYPE:Inner wall
G1 F3000
G1 X81.69 Y41.35 E.0019
G1 X81.718 Y40.916 E.01529
G1 X81.799 Y40.49 E.01529
G1 X81.933 Y40.076 E.01529
G1 X82.118 Y39.683 E.01529
G1 X82.351 Y39.316 E.01529
G1 X82.628 Y38.982 E.01529
G1 X82.945 Y38.684 E.01529
G1 X83.296 Y38.429 E.01529
G1 X83.677 Y38.22 E.01529
G1 X84.081 Y38.06 E.01529
G1 X84.502 Y37.952 E.01529
G1 X84.933 Y37.897 E.01529
G1 X85.367 Y37.897 E.01529
G1 X85.798 Y37.952 E.01529
G1 X86.219 Y38.06 E.01529
G1 X86.623 Y38.22 E.01529
G1 X86.998 Y38.426 E.01504
G1 X87.354 Y38.683 E.01548
G1 X87.672 Y38.982 E.01535
G1 X87.949 Y39.316 E.01529
G1 X88.182 Y39.683 E.01529
G1 X88.367 Y40.076 E.01529
G1 X88.501 Y40.49 E.01529
G1 X88.582 Y40.916 E.01529
G1 X88.61 Y41.35 E.01529
G1 X88.582 Y41.784 E.01529
G1 X88.501 Y42.21 E.01529
G1 X88.367 Y42.624 E.01529
G1 X88.182 Y43.017 E.01529
G1 X87.949 Y43.384 E.01529
G1 X87.672 Y43.718 E.01529
G1 X87.355 Y44.016 E.01529
G1 X87.004 Y44.271 E.01529
G1 X86.623 Y44.48 E.01529
G1 X86.219 Y44.64 E.01529
G1 X85.798 Y44.748 E.01529
G1 X85.367 Y44.803 E.01529
G1 X84.933 Y44.803 E.01529
G1 X84.502 Y44.748 E.01529
G1 X84.081 Y44.64 E.01529
G1 X83.677 Y44.48 E.01529
G1 X83.296 Y44.271 E.01529
G1 X82.945 Y44.016 E.01529
G1 X82.628 Y43.718 E.01529
G1 X82.351 Y43.384 E.01529
G1 X82.118 Y43.017 E.01529
G1 X81.933 Y42.624 E.01529
G1 X81.799 Y42.21 E.01529
G1 X81.718 Y41.784 E.01529
G1 X81.697 Y41.464 E.01127
G1 X82.15 Y41.378 F21000
G1 F3000
G1 X82.148 Y41.35 E.00098
G1 X82.172 Y40.974 E.01327
G1 X82.243 Y40.603 E.01327
G1 X82.359 Y40.245 E.01327
G1 X82.52 Y39.904 E.01327
G1 X82.722 Y39.586 E.01327
G1 X82.962 Y39.295 E.01327
G1 X83.237 Y39.037 E.01327
G1 X83.542 Y38.816 E.01327
G1 X83.872 Y38.634 E.01327
G1 X84.222 Y38.495 E.01327
G1 X84.588 Y38.401 E.01327
G1 X84.962 Y38.354 E.01327
G1 X85.338 Y38.354 E.01327
G1 X85.712 Y38.401 E.01327
G1 X86.078 Y38.495 E.01327
G1 X86.428 Y38.634 E.01327
G1 X86.753 Y38.812 E.01304
G1 X87.063 Y39.036 E.01346
G1 X87.338 Y39.295 E.0133
G1 X87.578 Y39.586 E.01327
G1 X87.78 Y39.904 E.01327
G1 X87.941 Y40.245 E.01327
G1 X88.057 Y40.604 E.01327
G1 X88.128 Y40.974 E.01327
G1 X88.152 Y41.35 E.01327
G1 X88.128 Y41.726 E.01327
G1 X88.057 Y42.096 E.01327
G1 X87.941 Y42.455 E.01327
G1 X87.78 Y42.796 E.01327
G1 X87.578 Y43.114 E.01327
G1 X87.338 Y43.405 E.01327
G1 X87.063 Y43.663 E.01327
G1 X86.758 Y43.884 E.01327
G1 X86.428 Y44.066 E.01327
G1 X86.078 Y44.205 E.01327
G1 X85.712 Y44.298 E.01327
G1 X85.338 Y44.346 E.01327
G1 X84.962 Y44.346 E.01327
G1 X84.588 Y44.299 E.01327
G1 X84.222 Y44.205 E.01327
G1 X83.872 Y44.066 E.01327
G1 X83.542 Y43.884 E.01327
G1 X83.237 Y43.663 E.01327
G1 X82.962 Y43.405 E.01327
G1 X82.722 Y43.114 E.01327
G1 X82.52 Y42.796 E.01327
G1 X82.359 Y42.455 E.01327
G1 X82.243 Y42.097 E.01327
G1 X82.172 Y41.726 E.01327
G1 X82.154 Y41.438 E.01017
G1 X82.65 Y41.342 F21000
;TYPE:Outer wall
G1 F3000
G1 X82.669 Y41.037 E.01077
G1 X82.728 Y40.728 E.01105
G1 X82.825 Y40.429 E.01105
G1 X82.959 Y40.145 E.01105
G1 X83.127 Y39.88 E.01105
G1 X83.327 Y39.638 E.01105
G1 X83.556 Y39.423 E.01105
G1 X83.81 Y39.239 E.01105
G1 X84.085 Y39.087 E.01105
G1 X84.377 Y38.972 E.01105
G1 X84.681 Y38.894 E.01105
G1 X84.993 Y38.854 E.01105
G1 X85.307 Y38.854 E.01105
G1 X85.619 Y38.894 E.01105
G1 X85.923 Y38.972 E.01105
G1 X86.215 Y39.087 E.01105
G1 X86.485 Y39.236 E.01085
G1 X86.744 Y39.423 E.01124
G1 X86.973 Y39.638 E.01107
G1 X87.173 Y39.88 E.01105
G1 X87.341 Y40.145 E.01105
G1 X87.475 Y40.429 E.01105
G1 X87.572 Y40.728 E.01105
G1 X87.631 Y41.037 E.01105
G1 X87.651 Y41.35 E.01105
G1 X87.631 Y41.663 E.01105
G1 X87.572 Y41.972 E.01105
G1 X87.475 Y42.271 E.01105
G1 X87.341 Y42.555 E.01105
G1 X87.173 Y42.82 E.01105
G1 X86.973 Y43.062 E.01105
G1 X86.744 Y43.277 E.01105
G1 X86.49 Y43.461 E.01105
G1 X86.215 Y43.613 E.01105
G1 X85.923 Y43.728 E.01105
G1 X85.619 Y43.806 E.01105
G1 X85.307 Y43.846 E.01105
G1 X84.993 Y43.846 E.01105
G1 X84.681 Y43.806 E.01105
G1 X84.377 Y43.728 E.01105
G1 X84.085 Y43.613 E.01105
G1 X83.81 Y43.461 E.01105
G1 X83.556 Y43.277 E.01105
G1 X83.327 Y43.062 E.01105
G1 X83.127 Y42.82 E.01105
G1 X82.959 Y42.555 E.01105
G1 X82.825 Y42.271 E.01105
G1 X82.728 Y41.972 E.01105
G1 X82.669 Y41.663 E.01105
G1 X82.653 Y41.402 E.00922
G1 X82.597 Y41.311
G1 E-.5
G1 Z.4 F21000
G1 X58.905 Y38.386
G1 Z.2
G1 E.5 F1800
;TYPE:Inner wall
G1 F3000
G1 X59.206 Y38.668 E.01451
G1 X59.519 Y39.047 E.01731
G1 X59.783 Y39.463 E.01731
G1 X59.993 Y39.908 E.01731
G1 X60.142 Y40.369 E.01705
G1 X60.237 Y40.857 E.0175
G1 X60.268 Y41.35 E.01739
G1 X60.237 Y41.841 E.01731
G1 X60.145 Y42.324 E.01732
G1 X59.993 Y42.792 E.01732
G1 X59.783 Y43.237 E.01731
G1 X59.519 Y43.653 E.01731
G1 X59.206 Y44.032 E.01731
G1 X58.847 Y44.369 E.01732
G1 X58.449 Y44.658 E.01732
G1 X58.018 Y44.895 E.01731
G1 X57.561 Y45.076 E.01731
G1 X57.084 Y45.198 E.01731
G1 X56.596 Y45.26 E.01731
G1 X56.104 Y45.26 E.01732
G1 X55.616 Y45.198 E.01731
G1 X55.139 Y45.076 E.01731
G1 X54.682 Y44.895 E.01731
G1 X54.258 Y44.661 E.01705
G1 X53.854 Y44.37 E.01751
G1 X53.494 Y44.032 E.01739
G1 X53.181 Y43.653 E.01731
G1 X52.917 Y43.237 E.01731
G1 X52.707 Y42.792 E.01731
G1 X52.558 Y42.331 E.01705
G1 X52.463 Y41.843 E.0175
G1 X52.432 Y41.35 E.01739
G1 X52.463 Y40.859 E.01731
G1 X52.555 Y40.376 E.01732
G1 X52.707 Y39.908 E.01732
G1 X52.917 Y39.463 E.01731
G1 X53.181 Y39.047 E.01731
G1 X53.489 Y38.674 E.01704
G1 X53.851 Y38.333 E.01751
G1 X54.251 Y38.042 E.01739
G1 X54.682 Y37.805 E.01731
G1 X55.139 Y37.624 E.01732
G1 X55.616 Y37.502 E.01731
G1 X56.104 Y37.44 E.01731
G1 X56.596 Y37.44 E.01731
G1 X57.084 Y37.502 E.01731
G1 X57.561 Y37.624 E.01731
G1 X58.018 Y37.805 E.01732
G1 X58.442 Y38.039 E.01705
G1 X58.846 Y38.33 E.01751
G1 X58.862 Y38.345 E.00077
G1 X58.594 Y38.721 F21000
G1 F3000
G1 X58.872 Y38.982 E.01341
G1 X59.149 Y39.316 E.01529
G1 X59.382 Y39.683 E.01529
G1 X59.567 Y40.076 E.01529
G1 X59.699 Y40.483 E.01505
G1 X59.782 Y40.915 E.01548
G1 X59.81 Y41.35 E.01535
G1 X59.782 Y41.784 E.01529
G1 X59.701 Y42.21 E.01529
G1 X59.567 Y42.624 E.01529
G1 X59.382 Y43.017 E.01529
G1 X59.149 Y43.384 E.01529
G1 X58.872 Y43.718 E.01529
G1 X58.555 Y44.016 E.01529
G1 X58.204 Y44.271 E.01529
G1 X57.823 Y44.48 E.01529
G1 X57.419 Y44.64 E.01529
G1 X56.998 Y44.748 E.01529
G1 X56.567 Y44.803 E.01529
G1 X56.133 Y44.803 E.01529
G1 X55.702 Y44.748 E.01529
G1 X55.281 Y44.64 E.01529
G1 X54.877 Y44.48 E.01529
G1 X54.502 Y44.274 E.01504
G1 X54.146 Y44.017 E.01548
G1 X53.828 Y43.718 E.01535
G1 X53.551 Y43.384 E.01529
G1 X53.318 Y43.017 E.01529
G1 X53.133 Y42.624 E.01529
G1 X53.001 Y42.217 E.01505
G1 X52.918 Y41.785 E.01548
G1 X52.89 Y41.35 E.01535
G1 X52.918 Y40.916 E.01529
G1 X52.999 Y40.49 E.01529
G1 X53.133 Y40.076 E.01529
G1 X53.318 Y39.683 E.01529
G1 X53.551 Y39.316 E.01529
G1 X53.824 Y38.987 E.01504
G1 X54.143 Y38.685 E.01548
G1 X54.496 Y38.429 E.01535
G1 X54.877 Y38.22 E.01529
G1 X55.281 Y38.06 E.01529
G1 X55.702 Y37.952 E.01529
G1 X56.133 Y37.897 E.01529
G1 X56.567 Y37.897 E.01529
G1 X56.998 Y37.952 E.01529
G1 X57.419 Y38.06 E.01529
G1 X57.823 Y38.22 E.01529
