; generated by SuperSlicer 2.5.59 on 2023-03-22 at 03:41:33 UTC


;
;

;
;
; 

; external perimeters extrusion width = 0.40mm
; perimeters extrusion width = 0.46mm
; infill extrusion width = 0.64mm
; solid infill extrusion width = 0.56mm
; top infill extrusion width = 0.40mm
; first layer extrusion width = 0.50mm

; object:{"name":"LGX_Lite_Mount","id":"LGX_Lite_Mount.stl id:0 copy 0","object_center":[60.000000,60.000000,0.000000],"boundingbox_center":[60.000000,60.000000,3.450502],"boundingbox_size":[53.000221,23.800774,6.901004]}
EXCLUDE_OBJECT_DEFINE NAME=LGX_Lite_Mount_stl_id_0_copy_0 CENTER=60.000000,60.000000 POLYGON=[[33.499890,71.399552],[33.500138,51.649556],[34.000144,51.149564],[47.988608,48.099612],[72.011720,48.099920],[86.000104,51.150220],[86.500104,51.650220],[86.499864,71.400392],[85.999864,71.900392],[33.999888,71.899736],[33.499898,71.399728],[33.499890,71.399552]]
; plater:{"center":[60.000000,60.000000,0.000000],"boundingbox_center":[60.000000,60.000000,3.450502],"boundingbox_size":[53.000221,23.800774,6.901004]}

M73 P0 R16
;TYPE:Custom
; custom gcode: start_gcode
START_PRINT T_BED=110 T_EXTRUDER=240
; custom gcode end: start_gcode
M107
G21 ; set units to millimeters
G90 ; use absolute coordinates
M82 ; use absolute distances for extrusion
G92 E0
; custom gcode: start_filament_gcode
; Filament gcode

    PRESSURE_ADVANCE_SELECT FILAMENT=ABS
; custom gcode end: start_filament_gcode
;_TOOLCHANGE 0
M104 S240 ; set temperature
M109 S240 ; set temperature and wait for it to be reached
M190 S110 ; set bed temperature and wait for it to be reached
;LAYER_CHANGE
;Z:0.2
;HEIGHT:0.2
G1 Z0.2 F12000
M73 P0 R16
G1 E-0.5 F3000
M204 S2000
G1 X34.356 Y48.667 F12000
G1 E0 F1800
;TYPE:Skirt
;WIDTH:0.52
G1 X33.196 Y50.004 E0.06741
G1 X32.786 Y51.667 E0.13262
G1 X32.685 Y66.612 E0.70178
G1 X32.785 Y71.425 E0.88511
G1 X33.222 Y73.097 E0.95093
G1 X34.428 Y74.433 E1.01947
G1 X36.573 Y75.115 E1.10519
G1 X83.427 Y75.116 E2.8895
G1 X85.645 Y74.382 E2.97848
G1 X86.786 Y73.083 E3.04431
G1 X87.215 Y71.425 E3.10953
G1 X87.315 Y66.535 E3.2958
G1 X87.215 Y51.667 E3.86201
G1 X86.777 Y49.952 E3.92942
G1 X85.644 Y48.668 E3.99463
G1 X84.441 Y48.076 E4.04571
G1 X73.683 Y45.026 E4.47155
G1 X72.669 Y44.885 E4.51052
G1 X47.331 Y44.885 E5.47546
G1 X46.318 Y45.026 E5.51442
G1 X35.56 Y48.076 E5.94027
G1 X34.356 Y48.667 E5.99134
G1 X34.703 Y49.006 F12000
G1 F1800
G1 X33.671 Y50.127 E6.04938
G1 X33.263 Y51.671 E6.1102
G1 X33.162 Y66.602 E6.67882
G1 X33.262 Y71.415 E6.86214
G1 X33.594 Y72.777 E6.91552
G1 X34.703 Y74.044 E6.97965
G1 X36.573 Y74.638 E7.05437
G1 X83.427 Y74.639 E8.83867
M73 P1 R16
G1 X85.296 Y74.044 E8.91339
G1 X86.312 Y72.955 E8.97011
G1 X86.738 Y71.415 E9.03093
G1 X86.838 Y66.535 E9.21682
G1 X86.738 Y51.672 E9.78287
G1 X86.405 Y50.273 E9.83763
G1 X85.369 Y49.058 E9.89846
G1 X84.311 Y48.535 E9.9434
G1 X73.553 Y45.485 E10.36924
G1 X72.669 Y45.362 E10.40321
G1 X47.331 Y45.362 E11.36815
G1 X46.448 Y45.485 E11.40211
G1 X35.69 Y48.535 E11.82795
G1 X34.703 Y49.006 E11.86959
G92 E0
G1 E-0.5 F3000
; printing object LGX_Lite_Mount.stl id:0 copy 0
EXCLUDE_OBJECT_START NAME=LGX_Lite_Mount_stl_id_0_copy_0
; acceleration to travel
M204 S4000
G1 X48.958 Y59.165 F12000
; decel to extrusion
M204 S2000
G1 X56.086 Y64.244
; end travel
G1 E0 F1800
;TYPE:Internal perimeter
;WIDTH:0.5
G1 X56.086 Y64.822 E0.02109
G1 X56.192 Y65.458 E0.04461
G1 X56.4 Y66.068 E0.06812
G1 X56.705 Y66.635 E0.09164
G1 X57.093 Y67.137 E0.11476
G1 X57.484 Y67.513 E0.13456
G1 X58.012 Y67.887 E0.1582
G1 X58.674 Y68.192 E0.18477
G1 X59.203 Y68.345 E0.20484
G1 X59.839 Y68.424 E0.22822
G1 X60.483 Y68.397 E0.25174
G1 X61.114 Y68.266 E0.27526
G1 X61.715 Y68.032 E0.29877
G1 X62.269 Y67.704 E0.32229
G1 X62.754 Y67.297 E0.34538
G1 X63.113 Y66.89 E0.36518
G1 X63.467 Y66.346 E0.38886
G1 X63.743 Y65.673 E0.41541
G1 X63.875 Y65.139 E0.43547
G1 X63.927 Y64.5 E0.45887
G1 X63.874 Y63.857 E0.48239
G1 X63.717 Y63.232 E0.50591
G1 X63.459 Y62.642 E0.52943
G1 X63.114 Y62.109 E0.55258
G1 X62.754 Y61.703 E0.57239
G1 X62.269 Y61.295 E0.59549
G1 X61.702 Y60.96 E0.61953
G1 X61.001 Y60.706 E0.64673
G1 X60.381 Y60.598 E0.66972
G1 X59.84 Y60.576 E0.68947
G1 X59.295 Y60.642 E0.70947
G1 X58.595 Y60.831 E0.73596
G1 X58.001 Y61.12 E0.76003
G1 X57.476 Y61.493 E0.78355
G1 X57.027 Y61.938 E0.8066
G1 X56.701 Y62.372 E0.82641
G1 X56.4 Y62.932 E0.84961
G1 X56.191 Y63.542 E0.87313
G1 X56.086 Y64.177 E0.89664
G1 X56.086 Y64.244 E0.89908
G1 X56.543 Y64.248 F12000
G1 F1800
G1 X56.543 Y64.784 E0.91863
G1 X56.636 Y65.346 E0.9394
G1 X56.82 Y65.885 E0.96016
G1 X57.09 Y66.386 E0.98093
G1 X57.434 Y66.83 E1.00144
G1 X57.776 Y67.159 E1.01877
G1 X58.242 Y67.49 E1.03961
G1 X58.834 Y67.762 E1.06339
G1 X59.295 Y67.896 E1.08089
G1 X59.857 Y67.965 E1.10157
G1 X60.426 Y67.942 E1.12234
G1 X60.983 Y67.826 E1.14311
G1 X61.514 Y67.62 E1.16387
G1 X62.004 Y67.33 E1.18464
G1 X62.434 Y66.968 E1.20513
G1 X62.749 Y66.613 E1.22246
G1 X63.06 Y66.133 E1.24333
G1 X63.307 Y65.531 E1.26709
G1 X63.422 Y65.065 E1.28459
G1 X63.469 Y64.5 E1.30528
G1 X63.422 Y63.933 E1.32605
G1 X63.283 Y63.381 E1.34682
G1 X63.055 Y62.859 E1.36759
G1 X62.749 Y62.387 E1.38812
G1 X62.434 Y62.031 E1.40546
G1 X62.004 Y61.669 E1.42596
G1 X61.506 Y61.375 E1.44706
G1 X60.883 Y61.149 E1.47123
G1 X60.332 Y61.053 E1.49165
G1 X59.858 Y61.034 E1.50895
G1 X59.383 Y61.092 E1.52641
G1 X58.756 Y61.261 E1.55013
G1 X58.235 Y61.514 E1.57125
G1 X57.771 Y61.844 E1.59201
G1 X57.373 Y62.239 E1.61248
G1 X57.087 Y62.619 E1.62982
G1 X56.82 Y63.115 E1.65038
G1 X56.636 Y63.654 E1.67115
G1 X56.543 Y64.215 E1.69192
G1 X56.543 Y64.248 E1.69313
G1 X57 Y64.253 F12000
;TYPE:External perimeter
G1 F1800
G1 X57 Y64.747 E1.71115
G1 X57.081 Y65.234 E1.72917
G1 X57.241 Y65.701 E1.74719
G1 X57.474 Y66.136 E1.76521
G1 X57.775 Y66.524 E1.78311
G1 X58.068 Y66.806 E1.79797
G1 X58.472 Y67.092 E1.81601
G1 X58.994 Y67.333 E1.83699
G1 X59.387 Y67.446 E1.85193
G1 X59.876 Y67.507 E1.86991
G1 X60.37 Y67.487 E1.88792
G1 X60.853 Y67.386 E1.90594
G1 X61.314 Y67.207 E1.92396
G1 X61.738 Y66.956 E1.94197
G1 X62.114 Y66.64 E1.95987
G1 X62.384 Y66.335 E1.97473
G1 X62.653 Y65.92 E1.99279
G1 X62.872 Y65.388 E2.01376
G1 X62.969 Y64.991 E2.02869
G1 X63.01 Y64.5 E2.04667
G1 X62.969 Y64.008 E2.06469
G1 X62.849 Y63.529 E2.08271
G1 X62.651 Y63.076 E2.10073
G1 X62.384 Y62.664 E2.11864
G1 X62.114 Y62.359 E2.13351
G1 X61.739 Y62.044 E2.15141
G1 X61.31 Y61.79 E2.16957
G1 X60.765 Y61.593 E2.19071
G1 X60.283 Y61.509 E2.20857
G1 X59.877 Y61.492 E2.22341
G1 X59.471 Y61.541 E2.23833
G1 X58.917 Y61.691 E2.25928
G1 X58.469 Y61.909 E2.27745
G1 X58.066 Y62.195 E2.29546
G1 X57.718 Y62.54 E2.31335
G1 X57.473 Y62.866 E2.32821
G1 X57.24 Y63.298 E2.34614
G1 X57.081 Y63.766 E2.36416
G1 X57 Y64.253 E2.38218
;WIPE_START
M204 S4000
G1 X56.643 Y64.434 F12000
;WIPE_END
G92 E0
G1 E-0.5 F3000
; acceleration to travel
G1 X53.608 Y60.979 F12000
; decel to extrusion
M204 S2000
G1 X52.091 Y59.251
; end travel
G1 E0 F1800
;TYPE:Internal perimeter
G1 X51.513 Y59.014 E0.02278
G1 X50.921 Y58.898 E0.04478
G1 X50.396 Y58.875 E0.06395
G1 X50.189 Y58.903 E0.0716
G1 X49.868 Y58.946 E0.0834
G1 X49.209 Y59.147 E0.10852
G1 X48.654 Y59.454 E0.13169
G1 X48.186 Y59.84 E0.1538
G1 X47.839 Y60.236 E0.17303
G1 X47.521 Y60.754 E0.19522
G1 X47.299 Y61.332 E0.21779
G1 X47.186 Y61.94 E0.24037
G1 X47.186 Y62.559 E0.26294
G1 X47.299 Y63.167 E0.28552
G1 X47.521 Y63.745 E0.30809
G1 X47.839 Y64.263 E0.33028
G1 X48.186 Y64.66 E0.3495
G1 X48.654 Y65.045 E0.37161
G1 X49.195 Y65.344 E0.39419
G1 X49.782 Y65.54 E0.41676
G1 X50.395 Y65.624 E0.43933
G1 X51.013 Y65.596 E0.46191
G1 X51.616 Y65.455 E0.48448
G1 X52.182 Y65.207 E0.50706
G1 X52.685 Y64.866 E0.52922
G1 X53.065 Y64.501 E0.54844
G1 X53.429 Y64.016 E0.57058
G1 X53.703 Y63.461 E0.59315
G1 X53.872 Y62.866 E0.61572
G1 X53.928 Y62.25 E0.6383
G1 X53.872 Y61.634 E0.66087
G1 X53.704 Y61.038 E0.68345
G1 X53.429 Y60.484 E0.70602
G1 X53.059 Y59.988 E0.72859
G1 X52.614 Y59.579 E0.75063
G1 X52.162 Y59.28 E0.77042
G1 X52.091 Y59.251 E0.77322
G1 X51.912 Y59.672 F12000
G1 F1800
G1 X51.381 Y59.454 E0.79414
G1 X50.867 Y59.353 E0.81327
G1 X50.417 Y59.333 E0.82969
G1 X50.25 Y59.356 E0.83583
G1 X49.966 Y59.394 E0.84629
G1 X49.389 Y59.57 E0.86832
G1 X48.912 Y59.834 E0.8882
G1 X48.505 Y60.169 E0.9074
G1 X48.209 Y60.508 E0.92386
G1 X47.932 Y60.958 E0.94312
G1 X47.74 Y61.457 E0.96262
G1 X47.643 Y61.982 E0.98212
G1 X47.643 Y62.517 E1.00163
G1 X47.74 Y63.042 E1.02113
G1 X47.932 Y63.541 E1.04063
G1 X48.209 Y63.991 E1.05989
G1 X48.505 Y64.331 E1.07634
G1 X48.912 Y64.665 E1.09555
G1 X49.38 Y64.924 E1.11505
G1 X49.887 Y65.093 E1.13455
G1 X50.416 Y65.166 E1.15406
G1 X50.95 Y65.141 E1.17356
G1 X51.471 Y65.02 E1.19306
G1 X51.96 Y64.805 E1.21256
G1 X52.396 Y64.509 E1.2318
G1 X52.722 Y64.197 E1.24826
G1 X53.038 Y63.776 E1.26748
G1 X53.275 Y63.296 E1.28698
G1 X53.42 Y62.782 E1.30648
G1 X53.469 Y62.25 E1.32599
G1 X53.42 Y61.717 E1.34549
G1 X53.275 Y61.203 E1.36499
G1 X53.038 Y60.724 E1.38449
G1 X52.718 Y60.296 E1.40399
G1 X52.332 Y59.94 E1.42315
G1 X51.947 Y59.686 E1.43997
G1 X51.912 Y59.672 E1.44137
G1 X51.733 Y60.092 F12000
;TYPE:External perimeter
G1 F1800
G1 X51.249 Y59.894 E1.46043
G1 X50.812 Y59.809 E1.47668
G1 X50.438 Y59.792 E1.49035
G1 X50.311 Y59.809 E1.495
G1 X50.064 Y59.842 E1.50411
G1 X49.568 Y59.994 E1.52304
G1 X49.17 Y60.214 E1.53963
G1 X48.825 Y60.498 E1.55593
G1 X48.578 Y60.78 E1.56962
G1 X48.344 Y61.161 E1.58595
G1 X48.182 Y61.582 E1.60238
G1 X48.1 Y62.024 E1.61881
G1 X48.1 Y62.475 E1.63524
G1 X48.182 Y62.918 E1.65168
G1 X48.344 Y63.338 E1.66811
G1 X48.578 Y63.719 E1.68443
G1 X48.825 Y64.002 E1.69812
G1 X49.17 Y64.285 E1.71441
G1 X49.564 Y64.503 E1.73084
G1 X49.991 Y64.646 E1.74727
G1 X50.437 Y64.707 E1.76371
G1 X50.887 Y64.687 E1.78014
G1 X51.326 Y64.584 E1.79657
G1 X51.738 Y64.403 E1.813
G1 X52.108 Y64.152 E1.82931
G1 X52.379 Y63.893 E1.843
G1 X52.647 Y63.535 E1.85931
G1 X52.847 Y63.132 E1.87574
G1 X52.969 Y62.698 E1.89217
G1 X53.01 Y62.25 E1.9086
G1 X52.969 Y61.801 E1.92504
G1 X52.847 Y61.368 E1.94147
G1 X52.647 Y60.964 E1.9579
G1 X52.377 Y60.604 E1.97432
G1 X52.049 Y60.301 E1.9906
G1 X51.733 Y60.092 E2.00445
;WIPE_START
M204 S4000
G1 X51.705 Y59.693 F12000
;WIPE_END
G92 E0
G1 E-0.5 F3000
; acceleration to travel
G1 X64.719 Y59.446 F12000
; decel to extrusion
M204 S2000
G1 X71.226 Y59.323
; end travel
G1 E0 F1800
;TYPE:Internal perimeter
G1 X71.162 Y59.281 E0.0028
G1 X70.513 Y59.015 E0.02838
G1 X69.921 Y58.899 E0.05039
G1 X69.396 Y58.875 E0.06955
G1 X68.868 Y58.947 E0.089
G1 X68.209 Y59.147 E0.11413
G1 X67.654 Y59.455 E0.1373
G1 X67.186 Y59.84 E0.15941
G1 X66.839 Y60.237 E0.17864
G1 X66.521 Y60.755 E0.20082
G1 X66.299 Y61.332 E0.2234
G1 X66.186 Y61.941 E0.24597
G1 X66.186 Y62.559 E0.26855
G1 X66.299 Y63.168 E0.29112
G1 X66.521 Y63.745 E0.3137
G1 X66.839 Y64.263 E0.33588
G1 X67.186 Y64.66 E0.3551
G1 X67.654 Y65.045 E0.37722
G1 X68.195 Y65.344 E0.39979
G1 X68.782 Y65.54 E0.42236
G1 X69.395 Y65.625 E0.44493
G1 X70.013 Y65.596 E0.46751
G1 X70.616 Y65.455 E0.49008
G1 X71.182 Y65.207 E0.51266
G1 X71.685 Y64.866 E0.53482
G1 X72.065 Y64.502 E0.55404
G1 X72.429 Y64.016 E0.57618
G1 X72.703 Y63.461 E0.59875
G1 X72.872 Y62.866 E0.62132
G1 X72.928 Y62.25 E0.6439
G1 X72.872 Y61.634 E0.66647
G1 X72.703 Y61.038 E0.68905
G1 X72.429 Y60.484 E0.71162
G1 X72.059 Y59.989 E0.73419
G1 X71.614 Y59.579 E0.75623
G1 X71.226 Y59.323 E0.77321
G1 X70.979 Y59.708 F12000
G1 F1800
G1 X70.947 Y59.687 E0.77461
G1 X70.381 Y59.455 E0.79693
G1 X69.867 Y59.354 E0.81606
G1 X69.417 Y59.334 E0.83248
G1 X68.966 Y59.395 E0.84908
G1 X68.389 Y59.571 E0.87111
G1 X67.912 Y59.834 E0.89099
G1 X67.505 Y60.169 E0.9102
G1 X67.209 Y60.509 E0.92666
G1 X66.932 Y60.958 E0.94591
M73 P2 R16
G1 X66.74 Y61.457 E0.96541
G1 X66.643 Y61.983 E0.98492
G1 X66.643 Y62.517 E1.00442
G1 X66.74 Y63.043 E1.02393
G1 X66.932 Y63.542 E1.04343
G1 X67.209 Y63.991 E1.06268
G1 X67.505 Y64.331 E1.07914
G1 X67.912 Y64.665 E1.09834
G1 X68.38 Y64.924 E1.11784
G1 X68.887 Y65.093 E1.13734
G1 X69.416 Y65.166 E1.15685
G1 X69.95 Y65.142 E1.17635
G1 X70.471 Y65.02 E1.19585
G1 X70.96 Y64.805 E1.21535
G1 X71.396 Y64.509 E1.23459
G1 X71.722 Y64.197 E1.25105
G1 X72.038 Y63.776 E1.27027
G1 X72.275 Y63.297 E1.28977
G1 X72.42 Y62.782 E1.30927
G1 X72.469 Y62.25 E1.32878
G1 X72.42 Y61.718 E1.34828
G1 X72.275 Y61.203 E1.36778
G1 X72.038 Y60.724 E1.38728
G1 X71.718 Y60.296 E1.40678
G1 X71.332 Y59.941 E1.42594
G1 X70.979 Y59.708 E1.44135
G1 X70.732 Y60.093 F12000
;TYPE:External perimeter
G1 F1800
G1 X70.249 Y59.894 E1.46041
G1 X69.812 Y59.809 E1.47666
G1 X69.438 Y59.792 E1.49034
G1 X69.064 Y59.843 E1.50409
G1 X68.568 Y59.994 E1.52302
G1 X68.17 Y60.214 E1.53962
G1 X67.825 Y60.498 E1.55592
G1 X67.578 Y60.78 E1.56961
G1 X67.344 Y61.162 E1.58593
G1 X67.182 Y61.582 E1.60236
G1 X67.1 Y62.025 E1.61879
G1 X67.1 Y62.475 E1.63523
G1 X67.182 Y62.918 E1.65166
G1 X67.344 Y63.338 E1.66809
G1 X67.578 Y63.719 E1.68441
G1 X67.825 Y64.002 E1.6981
G1 X68.17 Y64.286 E1.7144
G1 X68.564 Y64.504 E1.73082
G1 X68.991 Y64.646 E1.74726
G1 X69.437 Y64.708 E1.76369
G1 X69.887 Y64.687 E1.78012
G1 X70.326 Y64.584 E1.79655
G1 X70.738 Y64.404 E1.81298
G1 X71.108 Y64.152 E1.8293
G1 X71.379 Y63.893 E1.84298
G1 X71.647 Y63.535 E1.85929
G1 X71.847 Y63.132 E1.87572
G1 X71.969 Y62.698 E1.89215
G1 X72.01 Y62.25 E1.90858
G1 X71.969 Y61.801 E1.92502
G1 X71.847 Y61.368 E1.94145
G1 X71.647 Y60.964 E1.95788
G1 X71.377 Y60.604 E1.9743
G1 X71.049 Y60.302 E1.99058
G1 X70.732 Y60.093 E2.00443
;WIPE_START
M204 S4000
G1 X70.705 Y59.694 F12000
;WIPE_END
G92 E0
G1 E-0.5 F3000
; acceleration to travel
G1 X55.898 Y55.108 F12000
; decel to extrusion
M204 S2000
G1 X48.495 Y52.815
; end travel
G1 E0 F1800
;TYPE:Internal perimeter
G1 X48.495 Y49.765 E0.11128
G1 X71.505 Y49.765 E0.95082
G1 X71.505 Y52.815 E1.06209
G1 X82.335 Y52.815 E1.45724
G1 X82.336 Y60.583 E1.74065
G1 X82.36 Y61.249 E1.76498
G1 X81.83 Y61.176 E1.78448
G1 X81.292 Y61.206 E1.80414
G1 X80.689 Y61.342 E1.82672
G1 X80.064 Y61.627 E1.85178
G1 X79.625 Y61.924 E1.8711
G1 X79.188 Y62.348 E1.89332
G1 X78.832 Y62.847 E1.9157
G1 X78.573 Y63.403 E1.93807
G1 X78.421 Y63.986 E1.96007
G1 X78.375 Y64.505 E1.97908
G1 X78.418 Y65.104 E2.00097
G1 X78.577 Y65.713 E2.02395
G1 X78.882 Y66.324 E2.04886
G1 X79.189 Y66.753 E2.06812
G1 X79.628 Y67.179 E2.09043
G1 X80.139 Y67.519 E2.11281
G1 X80.703 Y67.761 E2.13522
G1 X81.292 Y67.894 E2.15726
G1 X81.83 Y67.923 E2.17691
G1 X82.34 Y67.853 E2.19569
G1 X82.337 Y70.236 E2.28262
G1 X37.663 Y70.235 E3.91262
G1 X37.659 Y67.847 E3.99974
G1 X38.116 Y67.923 E4.01663
G1 X38.75 Y67.89 E4.03978
G1 X39.268 Y67.765 E4.05921
G1 X39.898 Y67.5 E4.08416
G1 X40.416 Y67.141 E4.10713
G1 X40.839 Y66.716 E4.12902
G1 X41.142 Y66.292 E4.14803
G1 X41.407 Y65.751 E4.17003
G1 X41.572 Y65.16 E4.19241
G1 X41.628 Y64.55 E4.21478
G1 X41.573 Y63.939 E4.23715
G1 X41.407 Y63.348 E4.25953
G1 X41.142 Y62.807 E4.28153
G1 X40.839 Y62.383 E4.30054
G1 X40.416 Y61.958 E4.32243
G1 X39.898 Y61.599 E4.34541
G1 X39.268 Y61.334 E4.37035
G1 X38.75 Y61.209 E4.38979
G1 X38.116 Y61.176 E4.41294
G1 X37.648 Y61.253 E4.43027
G1 X37.664 Y60.579 E4.45486
G1 X37.665 Y52.815 E4.73817
G1 X48.495 Y52.815 E5.13332
G1 X48.038 Y52.358 F12000
G1 F1800
G1 X48.038 Y49.308 E5.24459
G1 X71.962 Y49.308 E6.11749
G1 X71.962 Y52.358 E6.22876
G1 X82.792 Y52.358 E6.62391
G1 X82.793 Y60.574 E6.92369
G1 X82.841 Y61.899 E6.97206
G1 X82.356 Y61.71 E6.99105
G1 X81.812 Y61.635 E7.01111
G1 X81.356 Y61.66 E7.02777
G1 X80.836 Y61.777 E7.04722
G1 X80.289 Y62.027 E7.06916
G1 X79.915 Y62.28 E7.08563
G1 X79.536 Y62.647 E7.10487
G1 X79.229 Y63.079 E7.12419
G1 X79.005 Y63.559 E7.14352
G1 X78.873 Y64.065 E7.16261
G1 X78.833 Y64.509 E7.17889
G1 X78.871 Y65.029 E7.1979
G1 X79.007 Y65.552 E7.21761
G1 X79.275 Y66.088 E7.23946
G1 X79.537 Y66.454 E7.25589
G1 X79.917 Y66.822 E7.27518
G1 X80.358 Y67.115 E7.29451
G1 X80.845 Y67.324 E7.31386
G1 X81.356 Y67.44 E7.33297
G1 X81.812 Y67.465 E7.34963
G1 X82.356 Y67.39 E7.36968
G1 X82.835 Y67.203 E7.38843
G1 X82.797 Y67.977 E7.4167
G1 X82.794 Y70.693 E7.51579
G1 X37.206 Y70.692 E9.17909
M73 P3 R15
G1 X37.203 Y67.977 E9.27818
