; HEADER_BLOCK_START
; generated by OrcaSlicer 1.6.6 on 2023-08-29 at 15:13:37
; total layer number: 38
; HEADER_BLOCK_END

; THUMBNAIL_BLOCK_START
; THUMBNAIL_BLOCK_END

; external perimeters extrusion width = 0.15mm
; perimeters extrusion width = 0.17mm
; infill extrusion width = 0.24mm
; solid infill extrusion width = 0.21mm
; top infill extrusion width = 0.15mm
; first layer extrusion width = 0.19mm

; EXECUTABLE_BLOCK_START
EXCLUDE_OBJECT_DEFINE NAME=Llav_Pochita_5.stl_id_0_copy_0 CENTER=62.1845,62.9943 POLYGON=[[39.2937,55.4943],[39.3496,54.9571],[39.459,54.4282],[39.6209,53.9129],[39.8335,53.4164],[40.1744,52.8223],[40.567,52.2611],[42.1923,50.2546],[43.0735,49.2256],[44.0027,48.2396],[44.9777,47.299],[45.9964,46.4058],[47.0565,45.5621],[48.1555,44.7698],[48.929,44.2513],[49.7383,43.7907],[50.5791,43.3905],[56.7909,41.3499],[57.7523,41.0793],[65.3763,39.4303],[65.9043,39.3334],[66.4399,39.2982],[66.9376,39.3287],[72.2702,40.2267],[73.0886,40.3866],[73.8639,40.5722],[74.5958,40.7809],[75.2843,41.0102],[75.9292,41.2575],[76.5301,41.5203],[77.087,41.7961],[77.5997,42.0823],[78.0679,42.3764],[78.4915,42.6758],[78.8703,42.9781],[79.2041,43.2807],[79.4926,43.581],[79.7809,43.9133],[80.0111,44.2881],[82.7876,50.82],[83.0575,51.6832],[83.2518,52.5666],[83.3689,53.4635],[85.052,77.5384],[85.0753,78.0005],[85.0408,78.4233],[84.9617,78.8043],[84.8513,79.1409],[84.5977,79.6361],[84.2774,80.091],[83.8967,80.4968],[83.4631,80.8455],[82.9851,81.1302],[82.472,81.3454],[81.9339,81.4869],[67.2868,85.1044],[66.778,85.216],[50.6214,86.6903],[50.3886,86.6903],[49.9947,86.6509],[47.1341,85.9076],[44.3707,84.8964],[44.0074,84.7096],[43.6897,84.4529],[43.4307,84.137],[41.8407,81.6357],[41.6561,81.2746],[40.4978,78.6092],[40.3747,78.2498],[40.3218,77.8736],[39.3061,55.9656],[39.2937,55.4943]]
M73 P0 R38
M73 C24
;TYPE:Custom
START_PRINT T_BED=60 T_EXTRUDER=220
G90
G21
M83 ; use relative distances for extrusion
; filament start gcode

    PRESSURE_ADVANCE_SELECT FILAMENT=PLA
M106 S0
;LAYER_CHANGE
;Z:0.1
;HEIGHT:0.1
;BEFORE_LAYER_CHANGE
;0.1
G92 E0

;AFTER_LAYER_CHANGE
;0.1
SET_VELOCITY_LIMIT ACCEL=500 ACCEL_TO_DECEL=250
SET_VELOCITY_LIMIT SQUARE_CORNER_VELOCITY=9
G1 E-.8 F3000
G1 Z.2 F21000
G1 X38.359 Y79.54
G1 Z.2
G1 Z.1
G1 E.8 F1800
;TYPE:Skirt
;WIDTH:0.1875
G1 F3000
G1 X38.065 Y78.575 E.00683
G1 X36.962 Y55.555 E.15591
G1 X37.175 Y53.956 E.01092
G1 X37.69 Y52.498 E.01046
G1 X38.152 Y51.662 E.00647
G1 X38.755 Y50.793 E.00715
G1 X41.302 Y47.709 E.02706
G1 X42.384 Y46.561 E.01067
G1 X44.459 Y44.652 E.01908
G1 X45.604 Y43.737 E.00992
G1 X47.63 Y42.314 E.01675
G1 X48.585 Y41.764 E.00745
G1 X49.851 Y41.175 E.00945
G1 X57.12 Y38.834 E.05166
G1 X64.955 Y37.137 E.05423
G1 X65.758 Y37.006 E.0055
G1 X67.08 Y37.001 E.00895
G1 X73.536 Y38.098 E.0443
G1 X75.235 Y38.538 E.01188
G1 X76.864 Y39.121 E.0117
G1 X78.736 Y40.046 E.01413
G1 X80.325 Y41.155 E.01311
G1 X81.542 Y42.385 E.01171
G1 X82.157 Y43.376 E.00789
G1 X85.013 Y50.124 E.04957
G1 X85.529 Y52.066 E.01359
G1 X85.681 Y53.161 E.00748
G1 X87.404 Y77.883 E.16765
G1 X87.324 Y78.897 E.00688
G1 X86.927 Y80.204 E.00924
G1 X86.184 Y81.434 E.00972
G1 X85.358 Y82.314 E.00817
G1 X84.178 Y83.134 E.00972
G1 X83.374 Y83.496 E.00597
G1 X67.278 Y87.494 E.1122
G1 X50.389 Y89.022 E.11472
G1 X49.408 Y88.908 E.00668
G1 X46.548 Y88.165 E.01999
G1 X43.304 Y86.97 E.02338
G1 X42.542 Y86.524 E.00598
G1 X41.886 Y85.932 E.00598
G1 X41.463 Y85.388 E.00466
G1 X39.873 Y82.887 E.02005
G1 X38.366 Y79.553 E.02475
G1 X38.517 Y79.485 F21000
G1 F3000
G1 X38.512 Y79.474 E.00009
G1 X38.23 Y78.552 E.00652
G1 X37.128 Y55.551 E.15578
G1 X37.338 Y53.989 E.01066
G1 X37.842 Y52.564 E.01023
G1 X38.884 Y50.898 E.01329
G1 X41.428 Y47.817 E.02703
G1 X42.499 Y46.681 E.01056
G1 X44.568 Y44.777 E.01902
G1 X45.708 Y43.867 E.00986
G1 X47.723 Y42.452 E.01666
G1 X48.667 Y41.908 E.00737
G1 X49.903 Y41.333 E.00923
G1 X57.165 Y38.994 E.05161
G1 X64.985 Y37.3 E.05413
G1 X65.768 Y37.172 E.00537
G1 X67.07 Y37.167 E.00881
G1 X73.504 Y38.261 E.04415
G1 X75.19 Y38.698 E.01178
G1 X76.797 Y39.273 E.01155
G1 X78.656 Y40.191 E.01402
G1 X80.221 Y41.285 E.01292
G1 X81.417 Y42.494 E.0115
G1 X82.005 Y43.441 E.00754
G1 X84.855 Y50.174 E.04946
G1 X85.367 Y52.101 E.01349
G1 X85.517 Y53.183 E.00739
G1 X87.239 Y77.892 E.16756
G1 X87.162 Y78.863 E.0066
G1 X86.779 Y80.128 E.00894
G1 X86.049 Y81.338 E.00956
G1 X85.254 Y82.185 E.00786
G1 X84.093 Y82.991 E.00956
G1 X83.31 Y83.343 E.00581
G1 X66.975 Y87.373 E.11382
G1 X50.389 Y88.856 E.11266
G1 X49.45 Y88.747 E.00639
G1 X46.589 Y88.004 E.01999
G1 X43.38 Y86.823 E.02313
G1 X42.646 Y86.395 E.00575
G1 X42.015 Y85.826 E.00575
G1 X41.603 Y85.299 E.00453
G1 X40.013 Y82.798 E.02005
G1 X38.523 Y79.499 E.02449
; printing object Llav Pochita 5.stl id:0 copy 0
G1 E-.8
EXCLUDE_OBJECT_START NAME=Llav_Pochita_5.stl_id_0_copy_0
G1 Z.3 F21000
G1 X45.904 Y57.566 Z.3
G1 Z.1
G1 E.8 F1800
;TYPE:Outer wall
;WIDTH:0.187499
G1 F3000
G1 X45.802 Y57.548 E.0007
G1 X44.596 Y58.191 E.00925
G3 X43.128 Y58.697 I-3.232 J-7.001 E.01052
G3 X42.247 Y58.744 I-.719 J-5.231 E.00597
G1 X41.594 Y58.628 E.00448
G1 X40.966 Y58.348 E.00465
G1 X40.408 Y57.955 E.00461
G1 X39.96 Y57.436 E.00464
G1 X39.623 Y56.841 E.00463
G1 X39.439 Y56.181 E.00464
G1 X39.388 Y55.498 E.00463
G3 X40.254 Y52.873 I5.448 J.342 E.01891
G3 X41.1 Y51.778 I6.314 J4.004 E.00937
G2 X42.265 Y50.314 I-16.671 J-14.466 E.01266
G3 X48.978 Y44.331 I22.594 J18.595 E.06108
G3 X50.922 Y43.379 I5.669 J9.112 E.01467
G3 X52.726 Y43.146 I1.638 J5.591 E.01235
G1 X53.257 Y43.176 E.0036
G3 X60.719 Y40.782 I7.794 J11.471 E.05374
G3 X62.765 Y40.994 I-.1 J10.951 E.01394
G1 X63.111 Y40.731 E.00294
G3 X65.629 Y39.479 I3.809 J4.506 E.01921
G3 X67.402 Y39.514 I.797 J4.571 E.01207
G1 X68.131 Y39.792 E.00528
G1 X68.637 Y40.11 E.00404
G1 X69.556 Y40.02 E.00625
G3 X75.253 Y41.099 I-.912 J20.4 E.03935
G3 X78.434 Y42.75 I-4.119 J11.823 E.02433
G1 X79.139 Y43.348 E.00625
G1 X79.706 Y43.97 E.00569
G1 X80.001 Y44.513 E.00418
G1 X80.141 Y44.96 E.00317
G1 X80.206 Y45.559 E.00408
G1 X80.08 Y46.161 E.00416
G1 X79.815 Y46.719 E.00418
G1 X79.831 Y46.818 E.00068
G3 X82.7 Y50.853 I-6.479 J7.643 E.03384
G3 X83.061 Y56.6 I-10.131 J3.522 E.03944
G1 X82.699 Y57.944 E.00942
G3 X83.562 Y61.573 I-10.036 J4.304 E.02536
G1 X83.522 Y62.155 E.00394
G1 X83.355 Y62.704 E.00388
G1 X83.036 Y63.193 E.00395
G1 X82.626 Y63.588 E.00385
G1 X82.176 Y63.832 E.00346
G1 X81.662 Y63.984 E.00362
G1 X81.01 Y63.992 E.00442
G3 X79.499 Y63.447 I2.078 J-8.127 E.01088
G1 X79.43 Y63.518 E.00067
G3 X78.079 Y69.257 I-25.51 J-2.977 E.03998
G1 X78.1 Y69.344 E.00061
G3 X82.983 Y74.159 I-77.056 J83.022 E.0464
G1 X83.802 Y75.099 E.00844
G3 X84.849 Y77.031 I-4.438 J3.654 E.01495
G1 X84.947 Y77.597 E.00388
G1 X84.981 Y77.998 E.00273
G3 X84.765 Y79.105 I-4.878 J-.379 E.00765
G3 X81.917 Y81.394 I-3.621 J-1.588 E.02569
G3 X80.519 Y81.437 I-.889 J-6.116 E.00948
G1 X78.13 Y81.27 E.0162
G3 X69.548 Y80.429 I35.524 J-406.588 E.05834
G1 X69.467 Y80.489 E.00068
G3 X69.46 Y82.971 I-3.515 J1.23 E.01712
G3 X62.885 Y81.98 I-3.177 J-1.225 E.06231
G1 X62.828 Y81.913 E.00059
G1 X62.05 Y82.197 E.00561
G1 X61.491 Y82.202 E.00378
G1 X60.928 Y82.054 E.00393
G1 X60.518 Y82.29 E.00321
G1 X59.951 Y82.48 E.00404
G1 X59.712 Y82.852 E.00299
G1 X59.336 Y83.242 E.00367
G1 X59.007 Y83.455 E.00266
G1 X58.516 Y83.633 E.00353
G1 X58.197 Y83.646 E.00216
G1 X57.472 Y83.578 E.00492
G1 X57.04 Y83.835 E.0034
G1 X56.563 Y83.983 E.00338
G1 X56.325 Y84.354 E.00298
G1 X55.95 Y84.745 E.00366
G1 X55.619 Y84.958 E.00267
G1 X55.13 Y85.135 E.00352
G1 X54.805 Y85.148 E.0022
G1 X54.06 Y85.074 E.00506
G1 X53.589 Y85.371 E.00377
G1 X53.329 Y85.451 E.00184
G1 X52.814 Y85.534 E.00353
G1 X52.233 Y85.43 E.00399
G1 X52.138 Y85.469 E.0007
G1 X51.87 Y85.894 E.0034
G1 X51.516 Y86.24 E.00335
G1 X51.099 Y86.464 E.0032
G1 X50.614 Y86.596 E.0034
G1 X50.012 Y86.558 E.00408
G1 X49.653 Y86.448 E.00254
G1 X49.174 Y86.145 E.00384
G1 X48.758 Y85.697 E.00413
G1 X48.122 Y85.881 E.00448
G3 X46.371 Y85.28 I-.313 J-1.938 E.01304
G1 X46.005 Y84.752 E.00435
G3 X44.78 Y84.913 I-.94 J-2.417 E.00844
G3 X43.194 Y82.977 I.351 J-1.905 E.01841
G1 X43.239 Y82.473 E.00342
G3 X42.161 Y81.886 I.672 J-2.517 E.00837
G1 X41.92 Y81.585 E.00261
G1 X41.692 Y81.052 E.00392
G3 X41.641 Y80.29 I1.832 J-.504 E.0052
G1 X41.804 Y79.665 E.00437
G1 X41.131 Y79.263 E.0053
G1 X40.764 Y78.885 E.00357
G1 X40.524 Y78.398 E.00367
G1 X40.416 Y77.869 E.00365
G1 X40.482 Y77.317 E.00377
G1 X40.672 Y76.827 E.00355
G1 X41.014 Y76.408 E.00366
G1 X41.498 Y76.039 E.00412
G1 X41.252 Y75.29 E.00533
G1 X41.252 Y74.758 E.0036
G1 X41.384 Y74.243 E.0036
G1 X41.666 Y73.793 E.0036
G1 X42.078 Y73.397 E.00387
G1 X41.963 Y72.595 E.00548
G1 X42.067 Y72.054 E.00372
G1 X42.302 Y71.561 E.00369
G1 X42.679 Y71.17 E.00367
G1 X43.011 Y70.956 E.00267
G1 X43.501 Y70.779 E.00353
G3 X44.586 Y70.811 I.395 J5.054 E.00736
G3 X44.831 Y69.86 I5.861 J1.003 E.00665
G1 X45.111 Y69.451 E.00335
G1 X45.495 Y69.106 E.00349
G1 X46.039 Y68.861 E.00403
G1 X46.615 Y68.792 E.00392
G1 X46.695 Y68.703 E.00081
G1 X46.922 Y68.224 E.00358
G1 X47.172 Y67.911 E.00271
G1 X47.59 Y67.581 E.0036
G1 X48.127 Y67.38 E.00388
G1 X48.516 Y67.34 E.00265
G1 X49.115 Y67.434 E.0041
G1 X49.42 Y67.558 E.00223
G1 X49.986 Y67.24 E.00439
G1 X50.581 Y67.054 E.00422
G1 X50.624 Y65.663 E.00941
G3 X51.44 Y62.223 I11.183 J.836 E.02402
G1 X51.619 Y61.752 E.00341
G2 X50.788 Y61.226 I-4.703 J6.501 E.00666
G3 X48.245 Y60.791 I1.081 J-13.991 E.01748
G1 X47.698 Y60.587 E.00395
G3 X46.058 Y58.79 I1.309 J-2.842 E.01691
G1 X45.919 Y58.114 E.00467
G1 X45.904 Y57.581 E.00361
G1 X46.042 Y57.478 F21000
;TYPE:Inner wall
G1 F3000
G1 X45.892 Y57.377 E.00123
G1 X45.722 Y57.402 E.00116
G1 X44.526 Y58.041 E.00917
G3 X43.096 Y58.533 I-3.15 J-6.821 E.01025
G3 X42.259 Y58.578 I-.693 J-5.116 E.00568
G1 X41.643 Y58.468 E.00424
G1 X41.048 Y58.204 E.0044
G1 X40.52 Y57.832 E.00437
G1 X40.096 Y57.34 E.00439
G1 X39.776 Y56.778 E.00438
G1 X39.603 Y56.152 E.00439
G1 X39.554 Y55.504 E.0044
G3 X40.394 Y52.962 I5.275 J.333 E.01831
G3 X41.226 Y51.885 I6.209 J3.94 E.00922
G2 X42.394 Y50.419 I-16.815 J-14.584 E.01268
G3 X49.066 Y44.472 I22.462 J18.487 E.0607
G3 X50.675 Y43.633 I6.537 J10.564 E.01229
G3 X52.433 Y43.298 I1.896 J5.175 E.01216
G1 X53.184 Y43.353 E.00509
G1 X53.346 Y43.316 E.00112
G3 X60.721 Y40.948 I7.709 J11.34 E.05313
G3 X62.76 Y41.16 I-.113 J11.007 E.01388
G1 X62.937 Y41.1 E.00126
G1 X63.598 Y40.562 E.00577
G3 X66.171 Y39.577 I3.095 J4.232 E.01886
G1 X66.709 Y39.575 E.00364
G1 X67.356 Y39.674 E.00443
G1 X68.057 Y39.942 E.00507
G1 X68.608 Y40.278 E.00437
G1 X69.553 Y40.186 E.00642
G3 X75.197 Y41.255 I-.906 J20.225 E.03899
G3 X78.332 Y42.881 I-4.063 J11.667 E.02398
G1 X79.023 Y43.468 E.00613
G1 X79.572 Y44.07 E.00551
G1 X79.779 Y44.406 E.00267
G1 X79.979 Y44.997 E.00422
G1 X80.04 Y45.552 E.00378
G1 X79.922 Y46.108 E.00384
G1 X79.67 Y46.639 E.00398
G1 X79.64 Y46.775 E.00094
G1 X79.72 Y46.941 E.00124
G3 X82.806 Y51.75 I-6.221 J7.388 E.03924
G3 X82.996 Y56.123 I-10.273 J2.636 E.02982
G3 X82.539 Y57.84 I-10.122 J-1.775 E.01204
G1 X82.543 Y58.003 E.0011
G3 X83.395 Y61.581 I-9.899 J4.248 E.02501
G1 X83.359 Y62.125 E.00369
G1 X83.204 Y62.633 E.0036
G1 X82.908 Y63.088 E.00367
G1 X82.528 Y63.454 E.00357
G1 X82.113 Y63.678 E.00319
G1 X81.642 Y63.818 E.00333
G1 X81.031 Y63.826 E.00414
G3 X79.524 Y63.28 I2.155 J-8.308 E.01085
G1 X79.355 Y63.336 E.0012
G1 X79.265 Y63.495 E.00124
G3 X78.196 Y68.394 I-24.062 J-2.686 E.03398
G1 X77.909 Y69.298 E.00642
G1 X77.986 Y69.465 E.00124
G3 X82.959 Y74.381 I-73.439 J79.256 E.04732
G3 X84.201 Y75.956 I-8.122 J7.682 E.01359
G1 X84.51 Y76.56 E.00459
G3 X84.781 Y77.611 I-3.024 J1.341 E.00738
G1 X84.814 Y77.993 E.0026
G3 X84.611 Y79.041 I-4.614 J-.352 E.00723
G3 X81.889 Y81.23 I-3.465 J-1.521 E.02456
G3 X80.527 Y81.272 I-.863 J-5.961 E.00924
G1 X78.144 Y81.105 E.01616
G3 X70.397 Y80.349 I31.571 J-363.948 E.05265
G1 X69.478 Y80.272 E.00624
G1 X69.329 Y80.392 E.0013
G1 X69.308 Y80.582 E.00129
G1 X69.47 Y81.206 E.00436
G1 X69.513 Y81.876 E.00454
G1 X69.442 Y82.459 E.00398
G1 X69.285 Y82.973 E.00363
G1 X69.038 Y83.45 E.00364
G1 X68.637 Y83.965 E.00441
G1 X68.236 Y84.326 E.00365
G1 X67.714 Y84.654 E.00417
G3 X64.404 Y84.384 I-1.424 J-2.96 E.02355
G1 X63.9 Y83.93 E.00459
G1 X63.505 Y83.408 E.00443
G1 X63.267 Y82.927 E.00363
G3 X63.02 Y81.871 I4.928 J-1.706 E.00735
G2 X62.799 Y81.743 I-.217 J.122 E.00181
G1 X62.021 Y82.033 E.00562
G1 X61.511 Y82.037 E.00345
G1 X60.882 Y81.887 E.00437
G1 X60.442 Y82.141 E.00344
G1 X59.837 Y82.35 E.00434
G1 X59.359 Y83.011 E.00552
G1 X58.959 Y83.293 E.00331
G1 X58.489 Y83.468 E.00339
G1 X57.959 Y83.49 E.00359
G1 X57.595 Y83.411 E.00252
G1 X57.402 Y83.427 E.00131
G1 X56.973 Y83.683 E.00338
G1 X56.452 Y83.852 E.0037
G1 X55.972 Y84.514 E.00553
G1 X55.572 Y84.795 E.00331
G1 X55.102 Y84.97 E.00339
G1 X54.565 Y84.991 E.00364
G1 X54.159 Y84.901 E.00281
G1 X53.972 Y84.933 E.00128
G1 X53.519 Y85.219 E.00362
G3 X52.817 Y85.367 I-.914 J-2.586 E.00487
G1 X52.205 Y85.261 E.0042
G1 X52.034 Y85.334 E.00126
G1 X51.741 Y85.789 E.00366
G1 X51.418 Y86.106 E.00306
G1 X51.039 Y86.31 E.00292
G1 X50.603 Y86.429 E.00306
G1 X50.042 Y86.394 E.0038
G1 X49.718 Y86.294 E.00229
G1 X49.28 Y86.017 E.0035
G1 X48.914 Y85.615 E.00368
G1 X48.751 Y85.524 E.00126
G1 X47.918 Y85.749 E.00584
G1 X47.391 Y85.701 E.00358
G1 X46.897 Y85.512 E.00358
G1 X46.495 Y85.17 E.00358
G1 X46.137 Y84.644 E.0043
G1 X45.985 Y84.577 E.00112
G1 X45.514 Y84.722 E.00334
G1 X44.985 Y84.76 E.00359
G1 X44.466 Y84.653 E.00359
G1 X44.012 Y84.379 E.00359
G1 X43.648 Y83.993 E.00359
G1 X43.435 Y83.508 E.00359
G1 X43.36 Y82.98 E.0036
G1 X43.411 Y82.481 E.0034
G1 X43.34 Y82.333 E.00111
G1 X42.552 Y81.994 E.0058
G1 X42.172 Y81.633 E.00355
G1 X41.973 Y81.322 E.0025
G1 X41.805 Y80.84 E.00345
G1 X41.806 Y80.313 E.00357
G1 X41.971 Y79.719 E.00417
G1 X41.927 Y79.545 E.00121
G1 X41.234 Y79.133 E.00546
G1 X40.9 Y78.788 E.00325
G1 X40.683 Y78.348 E.00332
G1 X40.582 Y77.862 E.00336
G1 X40.64 Y77.371 E.00335
G1 X40.816 Y76.911 E.00333
G1 X41.128 Y76.528 E.00334
G1 X41.607 Y76.174 E.00403
G1 X41.669 Y76.028 E.00107
G1 X41.417 Y75.264 E.00544
G1 X41.417 Y74.779 E.00328
G1 X41.537 Y74.309 E.00328
G1 X41.794 Y73.898 E.00328
G1 X42.224 Y73.476 E.00408
G1 X42.249 Y73.289 E.00128
G1 X42.142 Y72.764 E.00362
G1 X42.171 Y72.267 E.00337
G1 X42.356 Y71.805 E.00337
G1 X42.656 Y71.401 E.0034
G1 X43.057 Y71.119 E.00332
G1 X43.529 Y70.944 E.0034
G1 X44.089 Y70.923 E.00379
G1 X44.59 Y70.987 E.00342
G1 X44.742 Y70.887 E.00123
G3 X44.981 Y69.933 I5.998 J.999 E.00666
G1 X45.236 Y69.561 E.00305
G1 X45.582 Y69.249 E.00315
G1 X46.085 Y69.023 E.00373
G1 X46.604 Y68.958 E.00353
G1 X46.768 Y68.896 E.00119
G1 X46.972 Y68.453 E.0033
G1 X47.268 Y68.05 E.00338
G1 X47.667 Y67.729 E.00346
G1 X48.166 Y67.543 E.0036
G3 X48.856 Y67.561 I.311 J1.31 E.00472
G1 X49.424 Y67.725 E.004
G1 X49.595 Y67.668 E.00122
G1 X50.052 Y67.393 E.00361
G1 X50.563 Y67.251 E.00359
G1 X50.7 Y67.171 E.00108
G1 X50.761 Y67.006 E.00119
G3 X51.781 Y61.824 I11.361 J-.456 E.03606
G1 X51.751 Y61.64 E.00126
G2 X50.804 Y61.06 I-4.029 J5.514 E.00752
G3 X47.973 Y60.535 I.751 J-11.944 E.01952
G1 X47.353 Y60.201 E.00477
G1 X46.929 Y59.859 E.00368
G1 X46.484 Y59.343 E.00461
G1 X46.285 Y58.956 E.00295
G1 X46.117 Y58.316 E.00447
G1 X46.091 Y57.624 E.00469
G1 X46.05 Y57.489 E.00095
G1 X46.138 Y57.358 F21000
G1 F3000
G1 X46.068 Y57.273 E.00075
G1 X45.828 Y57.206 E.00169
G1 X45.643 Y57.257 E.0013
G1 X44.456 Y57.89 E.0091
G3 X43.064 Y58.37 I-3.068 J-6.64 E.00998
G1 X42.491 Y58.429 E.0039
G1 X42.09 Y58.399 E.00272
G1 X41.496 Y58.234 E.00417
G1 X40.954 Y57.96 E.00411
G1 X40.49 Y57.56 E.00415
G1 X40.114 Y57.079 E.00413
G1 X39.866 Y56.519 E.00414
G1 X39.731 Y55.923 E.00413
G3 X40.534 Y53.051 I5.012 J-.147 E.02049
G3 X41.353 Y51.992 I6.104 J3.876 E.00906
G2 X42.522 Y50.524 I-16.957 J-14.701 E.0127
G3 X49.153 Y44.614 I22.33 J18.378 E.06033
G3 X50.736 Y43.787 I6.432 J10.392 E.01209
G3 X52.435 Y43.464 I1.831 J5 E.01175
G1 X53.203 Y43.52 E.00521
G1 X53.434 Y43.457 E.00162
G3 X60.724 Y41.114 I7.623 J11.209 E.05251
G3 X62.689 Y41.318 I-.097 J10.53 E.01339
