; HEADER_BLOCK_START
; generated by OrcaSlicer 1.6.6 on 2023-08-29 at 15:01:39
; total layer number: 32
; HEADER_BLOCK_END

; THUMBNAIL_BLOCK_START
; THUMBNAIL_BLOCK_END

; external perimeters extrusion width = 0.15mm
; perimeters extrusion width = 0.17mm
; infill extrusion width = 0.24mm
; solid infill extrusion width = 0.21mm
; top infill extrusion width = 0.15mm
; first layer extrusion width = 0.19mm

; external perimeters extrusion width = 0.15mm
; perimeters extrusion width = 0.17mm
; infill extrusion width = 0.24mm
; solid infill extrusion width = 0.21mm
; top infill extrusion width = 0.15mm
; first layer extrusion width = 0.19mm

; EXECUTABLE_BLOCK_START
EXCLUDE_OBJECT_DEFINE NAME=Llav_Pochita_1.stl_id_0_copy_0 CENTER=41.0027,61.0739 POLYGON=[[23.1909,83.1958],[23.4168,37.7761],[23.4613,37.3535],[23.5697,36.9426],[23.7394,36.5531],[23.9666,36.194],[24.2458,35.8737],[24.5705,35.5997],[24.9332,35.3783],[25.4692,35.1452],[26.024,34.961],[26.593,34.8273],[27.1717,34.7451],[27.7554,34.7151],[54.4537,34.7151],[55.0374,34.7453],[55.616,34.8276],[56.185,34.9614],[56.7398,35.1454],[57.2759,35.3783],[57.6432,35.5987],[57.9724,35.8727],[58.2557,36.194],[58.4863,36.555],[58.6587,36.9471],[58.769,37.361],[58.8144,37.787],[58.3766,47.9937],[57.2737,62.0929],[55.6494,76.8755],[55.5595,77.6516],[55.5138,78.0097],[55.4678,78.3444],[55.4215,78.6534],[55.3751,78.9342],[55.3288,79.1844],[55.2827,79.4015],[55.1498,79.8894],[54.9834,80.343],[54.7861,80.7624],[54.561,81.1483],[54.3107,81.501],[54.0383,81.821],[53.7465,82.1086],[53.4381,82.3644],[53.116,82.5886],[52.7832,82.7819],[52.4423,82.9445],[52.0963,83.077],[51.748,83.1798],[51.4002,83.2532],[28.481,87.3668],[27.8997,87.4326],[27.3147,87.4225],[26.7359,87.3366],[26.1732,87.1763],[25.636,86.9444],[25.1335,86.6448],[24.674,86.2826],[24.2654,85.8638],[23.9146,85.3955],[23.6275,84.8857],[23.4089,84.343],[23.2626,83.7765],[23.1909,83.1958]]
EXCLUDE_OBJECT_DEFINE NAME=Llav_Pochita_10.stl_id_1_copy_0 CENTER=84.3364,52.9324 POLYGON=[[63.8058,48.4647],[63.8105,48.0969],[63.8725,47.7343],[68.8768,31.2579],[69.0655,30.7785],[69.3198,30.3305],[69.6347,29.9228],[70.0039,29.5636],[70.4641,29.2587],[70.9608,29.0179],[71.4852,28.8455],[72.0279,28.7446],[72.5792,28.7169],[72.7274,28.7169],[73.4363,28.749],[95.9825,30.8547],[96.3229,30.8889],[96.6418,30.948],[96.9394,31.0302],[97.2158,31.1337],[97.4712,31.2569],[97.7057,31.3979],[97.9196,31.555],[98.1128,31.7265],[98.2857,31.9106],[98.4384,32.1056],[98.571,32.3097],[98.6837,32.5211],[98.8501,32.959],[98.9388,33.4053],[104.332,62.0562],[104.859,66.1991],[104.867,66.5952],[104.804,66.9863],[103.632,70.7504],[103.476,71.1159],[103.257,71.4476],[101.031,74.4898],[100.76,74.7792],[100.441,75.0155],[100.086,75.1911],[95.9726,76.9902],[95.5959,77.1033],[95.205,77.1479],[94.8125,77.1225],[72.9032,73.5115],[72.398,73.362],[71.921,73.1383],[71.483,72.8455],[71.0939,72.4904],[66.0851,66.8786],[65.8236,66.4994],[65.6158,66.0883],[65.4655,65.6529],[65.3755,65.2011],[63.8058,48.4647]]
M73 P0 R62
M73 C39
;TYPE:Custom
START_PRINT T_BED=60 T_EXTRUDER=220
G90
G21
M83 ; use relative distances for extrusion
; filament start gcode

    PRESSURE_ADVANCE_SELECT FILAMENT=PLA
M106 S0
;LAYER_CHANGE
;Z:0.1
;HEIGHT:0.1
;BEFORE_LAYER_CHANGE
;0.1
G92 E0

;AFTER_LAYER_CHANGE
;0.1
SET_VELOCITY_LIMIT ACCEL=500 ACCEL_TO_DECEL=250
SET_VELOCITY_LIMIT SQUARE_CORNER_VELOCITY=9
G1 E-.8 F3000
G1 Z.2 F21000
G1 X24.442 Y88.948
G1 Z.2
G1 Z.1
G1 E.8 F1800
;TYPE:Skirt
;WIDTH:0.1875
G1 F3000
G1 X23.23 Y88.114 E.00995
G1 X22.399 Y87.262 E.00805
G1 X21.596 Y86.03 E.00995
G1 X21.151 Y84.926 E.00805
G1 X20.948 Y84.062 E.00601
G1 X20.859 Y83.184 E.00597
G1 X21.085 Y37.764 E.30727
G1 X21.206 Y36.759 E.00685
G1 X21.426 Y36.029 E.00515
G1 X21.768 Y35.307 E.00541
G1 X22.209 Y34.662 E.00528
G1 X23.067 Y33.817 E.00814
G1 X23.719 Y33.388 E.00528
G1 X24.734 Y32.932 E.00753
G1 X26.265 Y32.518 E.01073
G1 X71.719 Y26.433 E.31024
G1 X72.756 Y26.386 E.00703
G1 X96.748 Y28.596 E.16299
G1 X97.758 Y28.846 E.00704
G1 X98.908 Y29.399 E.00863
G1 X99.813 Y30.13 E.00787
G1 X100.527 Y31.039 E.00782
G1 X101.03 Y32.131 E.00813
G1 X101.231 Y32.974 E.00586
G1 X106.624 Y61.625 E.19723
G1 X107.19 Y66.151 E.03086
G1 X107.17 Y66.963 E.0055
G1 X107.031 Y67.68 E.00494
G1 X105.622 Y72.03 E.03094
G1 X105.139 Y72.825 E.00629
G1 X102.913 Y75.867 E.0255
G1 X102.15 Y76.652 E.0074
G1 X101.474 Y77.106 E.00551
G1 X96.897 Y79.13 E.03385
G1 X95.948 Y79.409 E.00669
G1 X28.743 Y89.684 E.45993
G1 X27.274 Y89.754 E.00995
G1 X26.393 Y89.643 E.00601
G1 X25.549 Y89.423 E.00591
G1 X24.456 Y88.953 E.00805
G1 X24.527 Y88.805 F21000
G1 F3000
G1 X23.333 Y87.984 E.0098
G1 X22.532 Y87.163 E.00776
G1 X21.74 Y85.949 E.0098
G1 X21.312 Y84.885 E.00776
G1 X21.113 Y84.042 E.00586
G1 X21.025 Y83.185 E.00583
G1 X21.251 Y37.765 E.30727
G1 X21.367 Y36.801 E.00657
G1 X21.578 Y36.095 E.00498
G1 X21.909 Y35.395 E.00524
G1 X22.334 Y34.771 E.00511
G1 X23.174 Y33.944 E.00797
G1 X23.805 Y33.529 E.00511
G1 X24.787 Y33.089 E.00728
G1 X26.288 Y32.683 E.01052
G1 X71.741 Y26.598 E.31023
G1 X72.756 Y26.552 E.00687
G1 X96.717 Y28.759 E.16279
G1 X97.699 Y29.002 E.00684
G1 X98.822 Y29.542 E.00843
G1 X99.692 Y30.244 E.00756
G1 X100.387 Y31.129 E.00762
G1 X100.875 Y32.19 E.00789
G1 X101.067 Y33.005 E.00566
G1 X106.461 Y61.655 E.19723
G1 X107.024 Y66.154 E.03067
G1 X107.006 Y66.937 E.0053
G1 X106.873 Y67.631 E.00478
G1 X105.469 Y71.965 E.03082
G1 X105.005 Y72.727 E.00603
G1 X102.779 Y75.769 E.0255
G1 X102.051 Y76.518 E.00707
G1 X101.401 Y76.958 E.00531
G1 X96.831 Y78.978 E.0338
G1 X95.923 Y79.244 E.0064
G1 X28.725 Y89.519 E.45989
G1 X27.277 Y89.588 E.0098
G1 X26.418 Y89.479 E.00586
G1 X25.594 Y89.264 E.00576
G1 X24.541 Y88.811 E.00776
; printing object Llav Pochita 1.stl id:0 copy 0
G1 E-.8
EXCLUDE_OBJECT_START NAME=Llav_Pochita_1.stl_id_0_copy_0
G1 Z.3 F21000
G1 X25.598 Y41.056 Z.3
G1 Z.1
M73 C38
G1 E.8 F1800
;TYPE:Outer wall
;WIDTH:0.187499
G1 F3000
G1 X25.055 Y40.688 E.00444
G1 X24.406 Y40.067 E.00607
G3 X23.613 Y38.591 I3.571 J-2.87 E.0114
G1 X23.521 Y37.983 E.00416
G1 X23.554 Y37.37 E.00415
G1 X23.74 Y36.788 E.00414
G1 X24.042 Y36.25 E.00417
G1 X24.469 Y35.808 E.00416
G1 X24.977 Y35.462 E.00416
G3 X27.756 Y34.809 I2.882 J6.029 E.01947
G3 X29.526 Y34.929 I-.089 J14.38 E.01201
G1 X31.837 Y35.299 E.01583
G1 X32.27 Y35.071 E.00331
G1 X32.898 Y34.884 E.00443
G1 X33.223 Y34.862 E.00221
G1 X35.695 Y34.862 E.01672
G1 X36.396 Y34.892 E.00475
G1 X36.921 Y34.997 E.00362
G1 X37.607 Y35.258 E.00497
G3 X38.436 Y35.857 I-1.659 J3.168 E.00695
G1 X38.534 Y35.864 E.00066
G3 X40.996 Y35.059 I2.532 J3.578 E.01779
G1 X41.72 Y35.092 E.0049
G3 X43.705 Y35.88 I-.624 J4.47 E.01459
G1 X44.409 Y35.38 E.00584
G1 X45.076 Y35.055 E.00502
G3 X46.077 Y34.862 I1.166 J3.35 E.00692
G1 X48.976 Y34.862 E.01961
G1 X49.621 Y34.954 E.00441
G1 X50.362 Y35.299 E.00552
G1 X52.677 Y34.929 E.01586
G3 X55.029 Y34.839 I1.66 J12.547 E.01594
G3 X57.233 Y35.462 I-.62 J6.403 E.01558
G1 X57.748 Y35.808 E.0042
G1 X58.181 Y36.251 E.00419
G1 X58.487 Y36.789 E.00419
G1 X58.677 Y37.378 E.00419
G1 X58.711 Y37.996 E.00419
G1 X58.659 Y38.406 E.00279
G3 X57.58 Y40.334 I-3.931 J-.934 E.01514
G3 X56.618 Y41.084 I-4.002 J-4.143 E.00826
G1 X56.61 Y41.18 E.00065
G3 X58.235 Y46.1 I-9.393 J5.831 E.03538
G3 X58.179 Y49.18 I-15.286 J1.264 E.02088
G3 X57.224 Y53.895 I-28.772 J-3.371 E.03258
G1 X57.281 Y55.259 E.00924
G1 X57.281 Y59.938 E.03165
G3 X56.536 Y65.232 I-18.013 J.164 E.0363
G3 X55.783 Y67.312 I-191.322 J-68.067 E.01496
G1 X56.017 Y67.887 E.0042
G1 X56.101 Y68.428 E.0037
G3 X55.937 Y72.421 I-60.287 J-.469 E.02704
G3 X55.329 Y78.639 I-88.324 J-5.502 E.04227
G3 X54.703 Y80.719 I-6.825 J-.92 E.01476
G1 X54.236 Y81.443 E.00583
G1 X53.683 Y82.039 E.0055
G1 X53.065 Y82.509 E.00525
G1 X52.405 Y82.858 E.00505
G1 X51.725 Y83.089 E.00486
G1 X51.046 Y83.204 E.00466
G3 X47.267 Y83.371 I-6.999 J-115.978 E.02559
G3 X32.153 Y83.257 I-5.981 J-209.783 E.10227
G1 X32.076 Y83.327 E.0007
G3 X31.55 Y85.046 I-5.004 J-.592 E.01223
G3 X26.339 Y78.744 I-3.86 J-2.114 E.11608
G1 X26.847 Y78.606 E.00356
G1 X26.895 Y78.519 E.00067
G3 X26.145 Y69.183 I99.003 J-12.651 E.06339
G1 X26.145 Y68.404 E.00527
G1 X26.228 Y67.894 E.0035
G1 X26.465 Y67.249 E.00465
G3 X24.967 Y59.924 I16.18 J-7.124 E.05097
G1 X24.971 Y55.271 E.03148
G1 X25.021 Y53.869 E.00949
G3 X23.947 Y47.985 I26.576 J-7.887 E.04054
G3 X24.815 Y42.701 I12.452 J-.668 E.03651
G3 X25.629 Y41.153 I9.397 J3.95 E.01185
G1 X25.602 Y41.071 E.00058
G1 X25.723 Y40.965 F21000
;TYPE:Inner wall
G1 F3000
G1 X25.691 Y40.919 E.00038
G1 X25.159 Y40.558 E.00434
G1 X24.531 Y39.958 E.00588
G3 X23.773 Y38.545 I3.422 J-2.748 E.01091
G1 X23.686 Y37.975 E.0039
G1 X23.718 Y37.401 E.00389
G1 X23.893 Y36.853 E.00389
G1 X24.175 Y36.35 E.00391
G1 X24.576 Y35.935 E.0039
G1 X25.053 Y35.609 E.00391
G3 X27.757 Y34.975 I2.804 J5.871 E.01893
G3 X29.505 Y35.094 I-.088 J14.197 E.01186
G1 X31.894 Y35.462 E.01636
G1 X32.336 Y35.224 E.00339
G1 X32.928 Y35.049 E.00418
G1 X33.229 Y35.028 E.00204
G1 X35.931 Y35.028 E.01828
G1 X36.623 Y35.087 E.0047
G1 X37.312 Y35.311 E.0049
G1 X37.94 Y35.659 E.00485
G1 X38.37 Y36.012 E.00377
G1 X38.513 Y36.042 E.00098
G1 X39.295 Y35.616 E.00603
G3 X40.771 Y35.241 I1.835 J4.124 E.01035
G3 X42.457 Y35.437 I.276 J4.977 E.01155
G1 X43.135 Y35.723 E.00497
G1 X43.582 Y36.007 E.00359
G1 X43.763 Y36.042 E.00125
G1 X44.696 Y35.4 E.00766
G1 X45.367 Y35.149 E.00485
G1 X46.087 Y35.028 E.00494
G1 X48.964 Y35.028 E.01946
G1 X49.574 Y35.115 E.00417
G1 X50.212 Y35.425 E.0048
G1 X50.388 Y35.463 E.00121
G1 X52.699 Y35.094 E.01583
G3 X55.014 Y35.004 I1.637 J12.363 E.0157
G3 X57.157 Y35.61 I-.604 J6.232 E.01515
G1 X57.642 Y35.935 E.00395
G1 X58.048 Y36.351 E.00393
G1 X58.335 Y36.856 E.00393
G1 X58.513 Y37.409 E.00393
G1 X58.545 Y37.988 E.00393
G1 X58.535 Y38.182 E.00131
G3 X57.159 Y40.491 I-3.937 J-.783 E.01854
G1 X56.549 Y40.927 E.00507
G1 X56.439 Y41.08 E.00128
G1 X56.466 Y41.263 E.00125
G3 X58.069 Y46.115 I-9.252 J5.749 E.03489
G3 X58.014 Y49.162 I-15.108 J1.249 E.02065
G3 X57.059 Y53.903 I-30.663 J-3.713 E.03275
G1 X57.115 Y55.261 E.0092
G1 X57.115 Y59.937 E.03163
G3 X55.63 Y67.186 I-17.492 J.193 E.05044
G1 X55.629 Y67.374 E.00127
G1 X55.856 Y67.932 E.00407
G1 X55.935 Y68.441 E.00348
G3 X55.771 Y72.41 I-60.151 J-.483 E.02688
G3 X55.165 Y78.613 I-88.167 J-5.492 E.04217
G3 X54.555 Y80.641 I-6.659 J-.896 E.01439
G1 X54.105 Y81.341 E.00563
G1 X53.571 Y81.915 E.0053
G1 X52.976 Y82.369 E.00506
G1 X52.339 Y82.705 E.00487
G1 X51.684 Y82.927 E.00468
G1 X51.027 Y83.039 E.00451
G3 X47.262 Y83.205 I-6.972 J-115.56 E.0255
G3 X32.144 Y83.091 I-5.982 J-210.308 E.1023
G1 X31.976 Y83.17 E.00125
G1 X31.912 Y83.301 E.00099
G3 X28.907 Y86.994 I-4.282 J-.416 E.03413
G3 X26.382 Y78.904 I-1.221 J-4.058 E.08947
G1 X26.915 Y78.758 E.00374
G1 X27.041 Y78.629 E.00122
G1 X27.059 Y78.496 E.00091
G3 X26.311 Y69.18 I98.841 J-12.628 E.06325
G3 X26.389 Y67.939 I5.48 J-.279 E.00843
G1 X26.619 Y67.374 E.00413
G1 X26.619 Y67.187 E.00127
G3 X25.133 Y59.923 I16.029 J-7.062 E.05054
G1 X25.137 Y55.274 E.03145
G1 X25.181 Y53.824 E.00981
G3 X24.113 Y47.977 I26.411 J-7.841 E.04029
G3 X24.969 Y42.766 I12.285 J-.66 E.036
G3 X25.766 Y41.25 I9.037 J3.789 E.0116
G1 X25.793 Y41.066 E.00126
G1 X25.731 Y40.977 E.00073
G1 X25.849 Y40.861 F21000
G1 F3000
G1 X25.784 Y40.782 E.00069
G1 X25.264 Y40.429 E.00425
G1 X24.657 Y39.848 E.00569
G3 X23.933 Y38.5 I3.272 J-2.626 E.01041
G1 X23.852 Y37.967 E.00364
G1 X23.881 Y37.431 E.00363
G1 X24.045 Y36.919 E.00363
G1 X24.309 Y36.449 E.00365
G1 X24.683 Y36.062 E.00364
G1 X25.13 Y35.757 E.00366
G3 X27.758 Y35.141 I2.725 J5.714 E.0184
G3 X29.483 Y35.259 I-.087 J14.014 E.0117
G1 X31.784 Y35.627 E.01577
G1 X31.945 Y35.621 E.00109
G1 X32.402 Y35.378 E.0035
G1 X32.957 Y35.213 E.00392
G1 X33.235 Y35.194 E.00188
G1 X35.931 Y35.194 E.01824
G1 X36.591 Y35.25 E.00448
G1 X37.246 Y35.463 E.00466
G1 X37.843 Y35.794 E.00461
G1 X38.33 Y36.177 E.00419
G1 X38.559 Y36.203 E.00156
G1 X39.584 Y35.664 E.00783
G1 X40.279 Y35.469 E.00488
G1 X41 Y35.392 E.0049
G1 X41.681 Y35.423 E.00461
G1 X42.406 Y35.595 E.00504
G1 X43.055 Y35.869 E.00476
G1 X43.595 Y36.194 E.00427
G1 X43.839 Y36.194 E.00165
G1 X44.772 Y35.548 E.00768
G1 X45.41 Y35.309 E.00461
G1 X46.097 Y35.194 E.00471
G1 X48.952 Y35.194 E.01931
G1 X49.526 Y35.276 E.00392
G1 X50.215 Y35.61 E.00518
G1 X50.414 Y35.627 E.00135
G1 X52.72 Y35.259 E.0158
G3 X54.999 Y35.17 I1.615 J12.18 E.01545
G3 X57.081 Y35.758 I-.587 J6.061 E.01471
G1 X57.535 Y36.063 E.0037
G1 X57.915 Y36.451 E.00367
G1 X58.183 Y36.923 E.00367
G1 X58.349 Y37.439 E.00367
G1 X58.379 Y37.981 E.00367
G1 X58.37 Y38.162 E.00123
G3 X57.056 Y40.36 I-3.765 J-.758 E.01767
G1 X56.331 Y40.916 E.00618
G1 X56.266 Y41.145 E.00161
G1 X56.323 Y41.347 E.00142
G3 X57.904 Y46.131 I-9.112 J5.666 E.03441
G3 X57.849 Y49.144 I-14.929 J1.234 E.02042
G3 X57.289 Y52.338 I-28.11 J-3.276 E.02195
G1 X56.893 Y53.91 E.01097
G1 X56.949 Y55.263 E.00916
G1 X56.949 Y59.935 E.03161
G3 X56.218 Y65.136 I-17.676 J.167 E.03566
G3 X55.453 Y67.197 I-33.105 J-11.103 E.01488
G1 X55.475 Y67.436 E.00163
G1 X55.695 Y67.976 E.00394
G1 X55.768 Y68.453 E.00326
G3 X55.606 Y72.4 I-60.02 J-.497 E.02673
G3 X55.001 Y78.588 I-88.01 J-5.482 E.04207
G3 X54.408 Y80.564 I-6.493 J-.872 E.01402
G1 X53.973 Y81.239 E.00543
G1 X53.459 Y81.792 E.00511
G1 X52.886 Y82.229 E.00487
G1 X52.273 Y82.552 E.00469
G1 X51.643 Y82.766 E.0045
G1 X51.009 Y82.874 E.00435
G3 X47.257 Y83.039 I-6.944 J-115.147 E.0254
G3 X32.058 Y82.937 I-6.095 J-224.853 E.10284
G1 X31.855 Y83.056 E.00159
G1 X31.748 Y83.275 E.00165
G3 X26.92 Y78.931 I-4.06 J-.343 E.12233
G1 X27.131 Y78.797 E.00169
G1 X27.194 Y78.695 E.00081
G1 X27.224 Y78.473 E.00152
G3 X26.477 Y69.177 I98.68 J-12.605 E.06311
G3 X26.55 Y67.984 I5.267 J-.277 E.0081
G1 X26.794 Y67.365 E.00451
G1 X26.772 Y67.124 E.00164
G3 X25.299 Y59.921 I15.877 J-6.999 E.05011
G1 X25.303 Y55.278 E.03141
G1 X25.341 Y53.78 E.01013
G3 X24.279 Y47.968 I26.246 J-7.795 E.04004
G3 X25.122 Y42.83 I12.118 J-.651 E.0355
G3 X25.72 Y41.66 I6.97 J2.826 E.0089
G1 X25.959 Y41.2 E.00351
G1 X25.934 Y40.965 E.0016
G1 X25.858 Y40.872 E.00081
G1 E-.8
G1 Z.3 F21000
G1 X29.773 Y82.841 Z.3
G1 Z.1
G1 E.8 F1800
;TYPE:Outer wall
G1 F3000
G1 X29.732 Y83.352 E.00347
G3 X28.556 Y84.84 I-2.103 J-.452 E.01329
G1 X28.096 Y84.983 E.00326
G3 X26.969 Y84.904 I-.411 J-2.199 E.00773
G1 X26.535 Y84.678 E.00331
G1 X26.276 Y84.485 E.00219
G1 X25.958 Y84.109 E.00333
G1 X25.794 Y83.835 E.00216
G1 X25.642 Y83.363 E.00335
G1 X25.594 Y83.05 E.00214
G1 X25.634 Y82.552 E.00338
G1 X25.707 Y82.248 E.00212
G1 X25.935 Y81.8 E.0034
G1 X26.116 Y81.55 E.00209
G1 X26.5 Y81.219 E.00343
G3 X27.14 Y80.915 I1.097 J1.484 E.00483
G1 X27.59 Y80.86 E.00306
G1 X27.75 Y81.085 E.00187
G2 X28.981 Y82.356 I4.345 J-2.98 E.01202
G1 X29.76 Y82.833 E.00618
G1 X29.909 Y82.775 F21000
;TYPE:Inner wall
G1 F3000
G1 X29.944 Y82.888 E.0008
G1 X29.892 Y83.395 E.00345
G1 X29.791 Y83.754 E.00253
G1 X29.559 Y84.191 E.00335
G1 X29.323 Y84.492 E.00259
G1 X28.929 Y84.816 E.00345
G1 X28.611 Y84.997 E.00248
G1 X28.119 Y85.148 E.00348
G1 X27.76 Y85.194 E.00245
G1 X27.244 Y85.146 E.0035
G1 X26.898 Y85.054 E.00243
G1 X26.436 Y84.812 E.00352
G1 X26.153 Y84.597 E.0024
G1 X25.816 Y84.195 E.00355
G1 X25.638 Y83.892 E.00238
G1 X25.478 Y83.388 E.00357
G1 X25.428 Y83.043 E.00236
G1 X25.472 Y82.514 E.0036
G1 X25.556 Y82.179 E.00233
G1 X25.8 Y81.703 E.00362
G1 X26.003 Y81.429 E.00231
G1 X26.412 Y81.078 E.00364
G3 X27.112 Y80.751 I1.194 J1.644 E.00526
G1 X27.614 Y80.69 E.00342
G1 X27.752 Y80.79 E.00115
G1 X27.888 Y80.993 E.00165
G2 X29.077 Y82.22 I4.193 J-2.873 E.01161
G1 X29.891 Y82.717 E.00646
G1 X29.905 Y82.761 E.00031
G1 X30.059 Y82.686 F21000
G1 F3000
G1 X30.081 Y82.718 E.00026
G3 X29.94 Y83.827 I-2.525 J.241 E.00763
G1 X29.691 Y84.291 E.00356
G1 X29.433 Y84.616 E.0028
G1 X29.013 Y84.959 E.00367
G1 X28.665 Y85.154 E.00269
G1 X28.143 Y85.312 E.00369
G1 X27.751 Y85.36 E.00267
G1 X27.204 Y85.307 E.00372
G1 X26.826 Y85.204 E.00265
G1 X26.337 Y84.945 E.00374
G1 X26.03 Y84.709 E.00262
G1 X25.674 Y84.281 E.00377
G1 X25.482 Y83.948 E.0026
G1 X25.314 Y83.414 E.00379
