; HEADER_BLOCK_START
; generated by OrcaSlicer 1.6.6 on 2023-08-29 at 12:34:26
; total layer number: 38
; HEADER_BLOCK_END

; THUMBNAIL_BLOCK_START
; THUMBNAIL_BLOCK_END

; external perimeters extrusion width = 0.15mm
; perimeters extrusion width = 0.17mm
; infill extrusion width = 0.24mm
; solid infill extrusion width = 0.21mm
; top infill extrusion width = 0.15mm
; first layer extrusion width = 0.19mm

; external perimeters extrusion width = 0.15mm
; perimeters extrusion width = 0.17mm
; infill extrusion width = 0.24mm
; solid infill extrusion width = 0.21mm
; top infill extrusion width = 0.15mm
; first layer extrusion width = 0.19mm

; EXECUTABLE_BLOCK_START
EXCLUDE_OBJECT_DEFINE NAME=Llav_Pochita_7.stl_id_0_copy_0 CENTER=45.6159,80.6444 POLYGON=[[18.0758,66.2172],[18.1329,65.6507],[18.2128,65.3295],[18.319,65.0273],[18.4495,64.7441],[18.6022,64.4799],[18.7751,64.2345],[18.9662,64.0078],[19.1735,63.8],[19.3949,63.6107],[19.8723,63.288],[20.3822,63.0392],[20.9084,62.8639],[21.4349,62.7614],[21.6423,62.7377],[51.0555,60.4415],[51.9184,60.3766],[52.1329,60.3811],[52.347,60.394],[52.5605,60.4154],[53.2002,60.5216],[53.8232,60.7016],[54.4211,60.9527],[61.5061,64.9157],[62.0173,65.2814],[62.4743,65.713],[62.8687,66.2024],[72.8872,80.8484],[73.0532,81.2108],[73.144,81.5989],[73.1561,81.9973],[72.8445,85.4323],[72.7892,85.8271],[72.0833,90.1456],[71.9653,90.5147],[71.7785,90.8541],[71.5296,91.1511],[71.2282,91.3946],[67.9031,93.7015],[67.5462,93.8774],[63.6177,95.4667],[63.2732,95.5583],[32.4488,100.84],[31.915,100.912],[31.3765,100.901],[30.846,100.808],[25.9125,99.6685],[25.5111,99.5145],[25.1446,99.2899],[24.8251,99.0023],[24.3839,98.4678],[24.0022,97.8895],[23.6842,97.2738],[23.4336,96.6277],[23.2532,95.9586],[19.6096,81.9386],[19.4823,81.4227],[19.4276,80.8942],[18.105,66.7859],[18.0758,66.2172]]
EXCLUDE_OBJECT_DEFINE NAME=Llav_Pochita_4.stl_id_1_copy_0 CENTER=77.6345,29.7923 POLYGON=[[50.0309,32.3454],[50.0598,31.96],[50.5321,28.5251],[50.6094,28.1438],[51.9727,24.5244],[52.1187,24.1665],[52.331,23.8435],[57.4844,18.2446],[57.9212,17.8361],[58.4102,17.4919],[58.942,17.2183],[59.4357,17.0269],[73.6157,11.8643],[74.2178,11.6451],[74.8425,11.5029],[75.4802,11.4398],[75.7165,11.4398],[76.4341,11.4977],[102.15,15.6118],[102.674,15.7327],[103.163,15.9131],[103.612,16.1503],[104.017,16.4414],[104.373,16.7835],[104.676,17.174],[104.919,17.6099],[105.089,18.0485],[105.196,18.5063],[105.238,18.9745],[105.215,19.444],[105.127,19.9058],[101.804,32.6182],[101.763,32.769],[101.723,32.8893],[101.687,32.9839],[101.656,33.058],[101.484,33.4114],[101.273,33.7258],[101.027,34.0033],[100.749,34.2462],[100.443,34.4567],[100.113,34.6371],[83.5446,42.7839],[82.6058,43.2444],[81.599,43.7015],[80.5283,44.1516],[79.3978,44.5912],[78.2117,45.0168],[76.9741,45.4249],[75.689,45.8121],[74.3606,46.1747],[72.9931,46.5094],[65.5228,48.0905],[65.0058,48.1447],[64.4865,48.1217],[63.9763,48.0221],[63.4865,47.8479],[63.0279,47.6032],[62.6106,47.2932],[54.1642,40.6094],[53.8637,40.3703],[53.6143,40.0782],[53.4255,39.7439],[51.8618,36.928],[51.6981,36.5779],[50.195,33.0971],[50.0765,32.7292],[50.0309,32.3454]]
M73 P0 R62
M73 C38
;TYPE:Custom
START_PRINT T_BED=60 T_EXTRUDER=220
G90
G21
M83 ; use relative distances for extrusion
; filament start gcode

    PRESSURE_ADVANCE_SELECT FILAMENT=PLA
M106 S0
;LAYER_CHANGE
;Z:0.1
;HEIGHT:0.1
;BEFORE_LAYER_CHANGE
;0.1
G92 E0

;AFTER_LAYER_CHANGE
;0.1
SET_VELOCITY_LIMIT ACCEL=500 ACCEL_TO_DECEL=250
SET_VELOCITY_LIMIT SQUARE_CORNER_VELOCITY=9
G1 E-.8 F3000
G1 Z.2 F21000
G1 X24.293 Y101.503
G1 Z.2
G1 Z.1
G1 E.8 F1800
;TYPE:Skirt
;WIDTH:0.1875
G1 F3000
G1 X23.265 Y100.736 E.00868
G1 X22.585 Y99.952 E.00701
G1 X21.93 Y98.96 E.00805
G1 X21.259 Y97.471 E.01105
G1 X17.218 Y81.982 E.1083
G1 X15.747 Y66.337 E.1063
G1 X15.87 Y65.087 E.0085
G1 X16.119 Y64.254 E.00588
G1 X16.43 Y63.577 E.00504
G1 X16.981 Y62.744 E.00676
G1 X50.537 Y22.353 E.35524
M73 C37
G1 X56.328 Y16.133 E.0575
G1 X57.068 Y15.585 E.00622
G1 X58.099 Y15.044 E.00788
G1 X73.42 Y9.454 E.11033
G1 X74.613 Y9.182 E.00828
G1 X75.748 Y9.109 E.00769
G1 X76.802 Y9.195 E.00716
G1 X102.519 Y13.309 E.17618
G1 X103.482 Y13.545 E.00671
G1 X104.701 Y14.088 E.00903
G1 X105.378 Y14.548 E.00554
G1 X105.989 Y15.102 E.00558
G1 X106.52 Y15.746 E.00565
G1 X106.955 Y16.472 E.00572
G1 X107.264 Y17.208 E.0054
G1 X107.518 Y18.296 E.00756
G1 X107.567 Y19.089 E.00537
G1 X107.383 Y20.496 E.0096
G1 X104.06 Y33.208 E.08889
G1 X103.753 Y34.079 E.00625
G1 X73.821 Y91.979 E.44094
G1 X73.317 Y92.649 E.00567
G1 X72.694 Y93.209 E.00567
G1 X68.934 Y95.793 E.03086
G1 X64.492 Y97.629 E.03251
G1 X63.667 Y97.857 E.00579
G1 X32.227 Y103.223 E.21577
G1 X31.33 Y103.233 E.00607
G1 X30.321 Y103.081 E.00691
G1 X25.388 Y101.941 E.03425
G1 X24.307 Y101.509 E.00787
G1 X24.38 Y101.361 F21000
G1 F3000
G1 X23.376 Y100.612 E.00847
G1 X22.713 Y99.847 E.00685
G1 X22.078 Y98.883 E.00781
G1 X21.414 Y97.411 E.01093
G1 X17.379 Y81.942 E.10815
G1 X15.913 Y66.329 E.10609
G1 X16.031 Y65.127 E.00816
G1 X16.276 Y64.309 E.00578
G1 X16.574 Y63.66 E.00483
G1 X17.109 Y62.85 E.00657
G1 X50.665 Y22.459 E.35524
G1 X56.442 Y16.254 E.05736
G1 X57.163 Y15.721 E.00607
G1 X58.159 Y15.199 E.0076
G1 X73.477 Y9.61 E.11031
G1 X74.629 Y9.347 E.008
G1 X75.747 Y9.275 E.00758
G1 X76.776 Y9.359 E.00699
G1 X102.492 Y13.473 E.17618
G1 X103.424 Y13.701 E.00649
G1 X104.623 Y14.235 E.00888
G1 X105.281 Y14.682 E.00538
G1 X105.874 Y15.222 E.00542
G1 X106.388 Y15.848 E.00548
G1 X106.81 Y16.553 E.00555
G1 X107.109 Y17.268 E.00525
G1 X107.353 Y18.311 E.00725
G1 X107.402 Y19.081 E.00522
G1 X107.223 Y20.454 E.00937
G1 X103.9 Y33.166 E.08889
G1 X103.603 Y34.007 E.00603
G1 X73.676 Y91.899 E.44088
G1 X73.19 Y92.542 E.00545
G1 X72.589 Y93.08 E.00545
G1 X68.861 Y95.644 E.03062
G1 X64.43 Y97.475 E.03243
G1 X63.639 Y97.693 E.00555
G1 X32.205 Y103.059 E.21573
G1 X31.334 Y103.067 E.0059
G1 X30.358 Y102.919 E.00667
G1 X25.425 Y101.779 E.03425
G1 X24.393 Y101.367 E.00751
; printing object Llav Pochita 7.stl id:0 copy 0
G1 E-.8
EXCLUDE_OBJECT_START NAME=Llav_Pochita_7.stl_id_0_copy_0
G1 Z.3 F21000
G1 X62.836 Y74.51 Z.3
G1 Z.1
G1 E.8 F1800
;TYPE:Outer wall
;WIDTH:0.187499
G1 F3000
G1 X63.321 Y74.633 E.00338
G1 X63.67 Y74.802 E.00262
G1 X63.762 Y74.788 E.00063
G1 X64.33 Y74.276 E.00517
G3 X65.382 Y73.958 I1.227 J2.161 E.0075
G1 X65.908 Y74.031 E.00359
G1 X66.256 Y74.176 E.00255
G1 X66.643 Y74.443 E.00318
G1 X67.008 Y74.858 E.00374
G3 X67.29 Y76.05 I-1.848 J1.067 E.0084
G1 X67.272 Y76.774 E.0049
G1 X67.363 Y76.815 E.00068
G1 X68.321 Y76.602 E.00664
G1 X68.805 Y76.602 E.00328
G1 X69.328 Y76.724 E.00363
G1 X69.8 Y77.013 E.00374
G1 X70.18 Y77.414 E.00374
G1 X70.414 Y77.915 E.00374
G1 X70.51 Y78.459 E.00374
G1 X70.428 Y79.006 E.00374
G1 X70.189 Y79.573 E.00416
G1 X70.251 Y79.652 E.00068
G1 X71.437 Y79.96 E.00829
G1 X71.977 Y80.136 E.00384
G3 X72.964 Y81.241 I-.817 J1.722 E.01029
G1 X73.056 Y81.798 E.00382
G1 X73.062 Y81.991 E.0013
G1 X72.932 Y82.537 E.0038
G1 X72.747 Y82.899 E.00275
G1 X72.393 Y83.313 E.00368
G1 X71.89 Y83.601 E.00392
G1 X71.847 Y83.677 E.00059
G3 X72.344 Y84.191 I-11.607 J11.74 E.00484
G3 X72.724 Y85.619 I-1.498 J1.163 E.01027
G1 X72.571 Y86.163 E.00382
G1 X72.253 Y86.625 E.0038
G1 X71.946 Y86.898 E.00278
G1 X71.472 Y87.153 E.00364
G1 X70.909 Y87.269 E.00389
G1 X70.9 Y87.369 E.00068
G1 X71.737 Y88.701 E.01064
G1 X71.955 Y89.214 E.00377
G1 X72.034 Y89.759 E.00372
G1 X71.934 Y90.303 E.00374
G1 X71.701 Y90.801 E.00372
G1 X71.323 Y91.197 E.0037
G1 X70.995 Y91.411 E.00265
G1 X70.498 Y91.594 E.00358
G1 X69.964 Y91.622 E.00362
G2 X68.814 Y91.358 I-11.891 J49.273 E.00798
G1 X68.751 Y91.439 E.00069
G1 X68.738 Y92.145 E.00478
G1 X68.647 Y92.594 E.00309
G3 X65.873 Y93.633 I-1.812 J-.613 E.02293
G1 X65.37 Y93.245 E.0043
G1 X65.284 Y93.286 E.00064
G3 X64.503 Y94.657 I-42.279 J-23.184 E.01067
G1 X64.17 Y95.038 E.00342
G1 X63.746 Y95.303 E.00339
G1 X63.259 Y95.465 E.00347
G1 X62.747 Y95.486 E.00347
G3 X61.714 Y95.067 I.383 J-2.422 E.0076
G1 X61.364 Y94.68 E.00353
G1 X61.11 Y94.202 E.00366
G1 X61.048 Y94.155 E.00053
G2 X60.495 Y94.516 I9.015 J14.411 E.00447
G1 X59.992 Y94.7 E.00362
G3 X59.153 Y94.678 I-.342 J-3.006 E.00569
G1 X58.639 Y94.453 E.0038
G1 X58.171 Y94.081 E.00404
G1 X58.071 Y94.105 E.0007
G1 X57.592 Y94.717 E.00525
G1 X57.312 Y94.936 E.00241
G1 X56.842 Y95.146 E.00348
G1 X56.457 Y95.214 E.00265
G1 X55.968 Y95.205 E.00331
G1 X55.507 Y95.069 E.00325
G1 X55.077 Y94.788 E.00348
G1 X54.677 Y94.379 E.00387
G1 X54.2 Y94.54 E.0034
G1 X53.715 Y94.592 E.0033
G1 X53.267 Y94.548 E.00305
G1 X52.752 Y94.334 E.00377
G1 X52.498 Y94.16 E.00209
G3 X51.731 Y94.455 I-3.935 J-9.074 E.00556
G1 X51.049 Y94.467 E.00462
G1 X50.965 Y94.509 E.00063
G3 X49.539 Y96.752 I-17.051 J-9.264 E.018
G1 X49.181 Y97.131 E.00352
G1 X48.615 Y97.556 E.00479
G1 X47.99 Y97.833 E.00462
G1 X47.315 Y97.996 E.0047
G3 X44.01 Y98.182 I-3.436 J-31.578 E.02241
G3 X35.931 Y97.362 I.653 J-46.659 E.055
G1 X35.163 Y97.238 E.00527
G1 X35.118 Y97.353 E.00083
G3 X28.779 Y99.135 I-3.406 J.049 E.06043
G1 X28.53 Y98.676 E.00353
G1 X28.429 Y98.689 E.00069
G1 X27.898 Y99.215 E.00506
G1 X27.702 Y99.335 E.00155
G1 X27.162 Y99.578 E.004
G1 X26.555 Y99.653 E.00414
G1 X26.139 Y99.615 E.00283
G1 X25.553 Y99.43 E.00416
G1 X25.201 Y99.214 E.00279
G1 X24.786 Y98.807 E.00393
G3 X23.228 Y95.063 I4.846 J-4.212 E.02791
G1 X23.198 Y94.547 E.0035
G3 X22.19 Y90.33 I9.965 J-4.609 E.02953
G3 X22.221 Y87.799 I136.804 J.402 E.01712
G3 X22.686 Y84.651 I18.644 J1.148 E.02155
G1 X22.637 Y84.561 E.00069
G1 X21.712 Y84.168 E.0068
G3 X19.521 Y80.888 I1.547 J-3.405 E.02811
G3 X19.933 Y70.927 I63.41 J-2.369 E.06752
G1 X20.119 Y70.169 E.00528
G1 X20.285 Y69.797 E.00276
G1 X20.253 Y69.702 E.00068
G1 X19.839 Y69.42 E.00339
G1 X19.112 Y68.762 E.00663
G3 X18.406 Y65.063 I2.678 J-2.428 E.0268
G1 X18.682 Y64.53 E.00405
G1 X19.036 Y64.071 E.00392
G3 X21.447 Y62.855 I2.981 J2.91 E.01861
G3 X22.694 Y62.856 I.619 J4.597 E.00846
G3 X23.882 Y63.052 I-1.357 J11.907 E.00815
G1 X24.856 Y63.166 E.00663
G1 X25.989 Y63.154 E.00767
G2 X27.291 Y62.951 I-1.267 J-12.359 E.00892
G1 X28.724 Y62.556 E.01005
G3 X30.676 Y62.244 I2.641 J10.281 E.0134
G1 X31.72 Y62.274 E.00706
G3 X34.561 Y63.087 I-.992 J8.836 E.02008
G3 X40.764 Y62.505 I5.853 J29.023 E.04223
G3 X43.469 Y62.628 I-1.308 J58.701 E.01832
G3 X47.49 Y61.297 I13.029 J32.633 E.02867
G1 X50.218 Y60.664 E.01894
G3 X51.925 Y60.471 I2.105 J10.927 E.01163
G3 X56.331 Y62.645 I.006 J5.538 E.03444
G1 X56.707 Y63.26 E.00487
G1 X56.981 Y63.926 E.00487
G1 X57.1 Y64.42 E.00344
G1 X57.186 Y64.471 E.00068
G3 X59.408 Y64.347 I1.791 J12.134 E.01507
G1 X60.05 Y64.436 E.00439
G3 X62.614 Y66.036 I-1.078 J4.583 E.02081
G3 X63.587 Y67.899 I-5.235 J3.92 E.01428
G1 X63.673 Y68.639 E.00504
G3 X63.534 Y69.636 I-3.301 J.049 E.00683
G1 X63.256 Y70.314 E.00496
G1 X63.014 Y70.665 E.00289
G1 X63.005 Y70.744 E.00054
G3 X63.376 Y71.738 I-4.445 J2.222 E.00719
G3 X62.825 Y74.414 I-3.848 J.603 E.01889
G1 X62.835 Y74.495 E.00055
G1 X62.726 Y74.609 F21000
;TYPE:Inner wall
G1 F3000
G1 X62.774 Y74.67 E.00052
G3 X63.702 Y74.976 I-.487 J3.036 E.00664
G1 X63.874 Y74.912 E.00124
G1 X64.426 Y74.413 E.00504
G1 X64.885 Y74.206 E.00341
G1 X65.379 Y74.125 E.00338
G1 X65.868 Y74.193 E.00334
G1 X66.243 Y74.36 E.00277
G1 X66.659 Y74.678 E.00355
G1 X66.944 Y75.104 E.00347
G1 X67.108 Y75.596 E.00351
G3 X67.113 Y76.825 I-11.955 J.662 E.00832
G1 X67.219 Y76.949 E.00111
G1 X67.399 Y76.978 E.00123
G1 X68.345 Y76.767 E.00656
G1 X68.761 Y76.765 E.00281
G1 X69.265 Y76.878 E.0035
G1 X69.695 Y77.142 E.00342
G1 X70.042 Y77.508 E.00341
G1 X70.255 Y77.965 E.00341
G1 X70.343 Y78.461 E.00341
G1 X70.268 Y78.96 E.00341
G1 X70.027 Y79.525 E.00415
G1 X70.058 Y79.699 E.0012
G1 X70.209 Y79.812 E.00127
G3 X71.744 Y80.229 I-11.473 J45.27 E.01076
G1 X72.203 Y80.466 E.00349
G1 X72.561 Y80.842 E.00351
G1 X72.806 Y81.295 E.00349
G1 X72.89 Y81.803 E.00348
G1 X72.837 Y82.321 E.00352
G1 X72.625 Y82.781 E.00343
G1 X72.285 Y83.185 E.00357
G3 X71.754 Y83.497 I-19.095 J-31.873 E.00417
G1 X71.687 Y83.617 E.00093
G1 X71.704 Y83.78 E.00111
G3 X72.32 Y84.43 I-3.911 J4.319 E.00606
G1 X72.519 Y84.91 E.00351
G1 X72.584 Y85.422 E.00349
G1 X72.477 Y85.932 E.00353
G1 X72.243 Y86.39 E.00348
G1 X71.878 Y86.742 E.00343
G1 X71.422 Y86.994 E.00352
G1 X70.826 Y87.122 E.00412
G1 X70.726 Y87.275 E.00124
G1 X70.759 Y87.458 E.00125
G3 X71.75 Y89.096 I-29.42 J18.906 E.01295
G1 X71.854 Y89.589 E.00341
G1 X71.828 Y90.091 E.0034
G1 X71.643 Y90.561 E.00342
G1 X71.347 Y90.965 E.00339
G1 X70.943 Y91.252 E.00335
G1 X70.469 Y91.429 E.00342
G1 X69.979 Y91.455 E.00332
G2 X68.821 Y91.19 I-11.646 J48.29 E.00804
G1 X68.655 Y91.266 E.00123
G1 X68.585 Y91.439 E.00127
G1 X68.585 Y92.023 E.00395
G1 X68.49 Y92.542 E.00357
G1 X68.265 Y93.007 E.00349
G1 X67.902 Y93.374 E.00349
G1 X67.455 Y93.633 E.00349
G1 X66.948 Y93.732 E.00349
G1 X66.432 Y93.694 E.00349
G1 X65.958 Y93.49 E.00349
G1 X65.437 Y93.091 E.00444
G1 X65.281 Y93.089 E.00105
G1 X65.139 Y93.206 E.00124
G3 X64.415 Y94.491 I-76.68 J-42.329 E.00998
G1 X64.062 Y94.911 E.00371
G1 X63.675 Y95.153 E.00309
G1 X63.234 Y95.3 E.00315
G1 X62.76 Y95.319 E.00321
G1 X62.22 Y95.173 E.00378
G1 X61.82 Y94.937 E.00315
G1 X61.5 Y94.584 E.00322
G1 X61.225 Y94.077 E.0039
G1 X61.056 Y93.989 E.00129
G1 X60.877 Y94.044 E.00127
G1 X60.44 Y94.357 E.00363
G1 X59.963 Y94.535 E.00344
G3 X59.195 Y94.516 I-.311 J-3.088 E.00521
G1 X58.724 Y94.311 E.00347
G1 X58.266 Y93.944 E.00397
G1 X58.092 Y93.912 E.0012
G1 X57.94 Y94.003 E.0012
G1 X57.473 Y94.599 E.00512
G1 X57.222 Y94.796 E.00216
G1 X56.795 Y94.987 E.00317
G1 X56.447 Y95.048 E.00238
G1 X55.994 Y95.041 E.00307
G1 X55.577 Y94.917 E.00294
G1 X55.186 Y94.663 E.00315
G1 X54.847 Y94.3 E.00336
G1 X54.678 Y94.212 E.00129
G3 X53.313 Y94.387 I-.974 J-2.178 E.00945
G1 X52.833 Y94.187 E.00352
G1 X52.612 Y94.034 E.00182
G1 X52.465 Y93.989 E.00104
G3 X51.703 Y94.29 I-3.06 J-6.63 E.00554
G1 X51.071 Y94.302 E.00428
G1 X50.908 Y94.337 E.00113
G1 X50.761 Y94.535 E.00167
G3 X49.417 Y96.64 I-15.161 J-8.197 E.01691
G1 X49.069 Y97.008 E.00342
G1 X48.53 Y97.412 E.00456
G1 X47.937 Y97.676 E.00439
G1 X47.292 Y97.831 E.00449
G3 X44.011 Y98.016 I-3.41 J-31.367 E.02224
G3 X35.249 Y97.066 I.71 J-47.448 E.05971
G1 X35.126 Y97.074 E.00083
G1 X34.992 Y97.178 E.00114
G3 X34.867 Y98.12 I-465.044 J-61.172 E.00643
G1 X34.681 Y98.706 E.00416
G3 X33.027 Y100.37 I-3.046 J-1.373 E.01622
G1 X32.449 Y100.569 E.00414
G3 X30.126 Y100.232 I-.709 J-3.283 E.01622
G1 X29.642 Y99.902 E.00396
G3 X28.713 Y98.64 I2.474 J-2.795 E.01068
G2 X28.313 Y98.571 I-.23 J.138 E.00312
G1 X27.795 Y99.084 E.00493
G1 X27.474 Y99.28 E.00254
G1 X26.924 Y99.453 E.0039
G1 X26.359 Y99.487 E.00383
G1 X25.803 Y99.348 E.00388
G1 X25.301 Y99.081 E.00385
G1 X24.914 Y98.702 E.00366
G3 X23.394 Y95.055 I4.719 J-4.106 E.02719
G1 X23.351 Y94.483 E.00388
G3 X22.356 Y90.324 I9.811 J-4.544 E.02911
G3 X22.387 Y87.807 I136.078 J.4 E.01703
G3 X22.848 Y84.69 I18.269 J1.109 E.02134
G1 X22.832 Y84.537 E.00104
G1 X22.702 Y84.409 E.00124
G1 X21.784 Y84.018 E.00675
G1 X21.343 Y83.78 E.00339
G1 X20.768 Y83.313 E.00501
G1 X20.287 Y82.748 E.00501
G1 X19.95 Y82.089 E.00501
G1 X19.739 Y81.378 E.00501
G1 X19.687 Y80.878 E.0034
G3 X20.062 Y71.276 I62.614 J-2.36 E.06507
G1 X20.185 Y70.596 E.00467
G1 X20.456 Y69.763 E.00593
G1 X20.386 Y69.599 E.00121
G1 X19.942 Y69.29 E.00366
G1 X19.235 Y68.649 E.00646
G3 X18.561 Y65.125 I2.561 J-2.316 E.02552
G1 X18.822 Y64.62 E.00385
G3 X21.469 Y63.019 I3.108 J2.151 E.02156
G3 X22.674 Y63.02 I.599 J4.449 E.00818
G3 X23.863 Y63.217 I-1.365 J11.956 E.00815
G1 X24.858 Y63.332 E.00678
G1 X25.991 Y63.32 E.00767
G2 X27.335 Y63.111 I-1.211 J-12.182 E.00921
G1 X28.764 Y62.717 E.01003
G3 X30.68 Y62.41 I2.599 J10.106 E.01315
G1 X31.706 Y62.44 E.00694
G3 X34.406 Y63.215 I-.732 J7.632 E.01911
G1 X34.591 Y63.25 E.00127
G3 X40.762 Y62.671 I5.823 J28.862 E.04201
G3 X43.528 Y62.783 I-3.196 J113.241 E.01872
G3 X47.532 Y61.458 I12.967 J32.473 E.02855
G1 X50.249 Y60.828 E.01887
G3 X52.268 Y60.658 I1.784 J9.129 E.01373
G3 X56.454 Y63.129 I-.34 J5.356 E.03413
G1 X56.743 Y63.757 E.00467
G1 X56.935 Y64.447 E.00484
