; HEADER_BLOCK_START
; generated by OrcaSlicer 1.6.6 on 2023-08-28 at 18:34:25
; total layer number: 32
; HEADER_BLOCK_END

; THUMBNAIL_BLOCK_START
; THUMBNAIL_BLOCK_END

; external perimeters extrusion width = 0.15mm
; perimeters extrusion width = 0.17mm
; infill extrusion width = 0.24mm
; solid infill extrusion width = 0.21mm
; top infill extrusion width = 0.15mm
; first layer extrusion width = 0.19mm

; EXECUTABLE_BLOCK_START
EXCLUDE_OBJECT_DEFINE NAME=Llav_Pochita_8.stl_id_0_copy_0 CENTER=56.9569,63.489 POLYGON=[[36.1303,50.094],[36.4196,39.9411],[36.4486,39.4774],[36.552,39.0245],[36.7271,38.5942],[36.9693,38.1977],[37.2722,37.8455],[37.628,37.5467],[38.0273,37.3093],[38.4596,37.1393],[38.9137,37.0412],[39.8611,36.9002],[40.8163,36.8305],[55.1697,36.5085],[55.3244,36.5131],[75.5109,38.1525],[75.9283,38.2027],[76.3301,38.3265],[76.7034,38.5199],[77.0363,38.7768],[77.318,39.0889],[77.5396,39.4462],[77.694,39.8373],[77.7762,40.2496],[77.7836,40.67],[73.9939,71.7469],[73.9128,72.2485],[73.7665,72.744],[73.5552,73.2156],[73.2828,73.6547],[69.6797,78.849],[69.3644,79.277],[68.9879,79.6523],[68.5589,79.9662],[53.3463,89.3315],[52.9674,89.4987],[52.5646,89.595],[47.6393,90.4387],[47.264,90.4694],[46.883,90.4368],[46.5129,90.3405],[46.1643,90.1833],[41.9188,87.9697],[41.5799,87.7392],[41.288,87.4516],[38.8228,84.8184],[38.5599,84.4708],[38.3684,84.0793],[36.7094,79.1688],[36.6562,78.7484],[36.1367,50.63],[36.1303,50.094]]
M73 P0 R36
M73 C19
;TYPE:Custom
START_PRINT T_BED=60 T_EXTRUDER=220
G90
G21
M83 ; use relative distances for extrusion
; filament start gcode

    PRESSURE_ADVANCE_SELECT FILAMENT=PLA
M106 S0
;LAYER_CHANGE
;Z:0.1
;HEIGHT:0.1
;BEFORE_LAYER_CHANGE
;0.1
G92 E0

;AFTER_LAYER_CHANGE
;0.1
SET_VELOCITY_LIMIT ACCEL=500 ACCEL_TO_DECEL=250
SET_VELOCITY_LIMIT SQUARE_CORNER_VELOCITY=9
G1 E-.8 F3000
G1 Z.2 F21000
G1 X35.504 Y36.325
G1 Z.2
G1 Z.1
G1 E.8 F1800
;TYPE:Skirt
;WIDTH:0.1875
G1 F3000
G1 X36.436 Y35.542 E.00823
G1 X37.174 Y35.139 E.00569
G1 X37.967 Y34.86 E.00569
G1 X39.518 Y34.594 E.01064
G1 X40.764 Y34.499 E.00846
G1 X55.242 Y34.178 E.09797
G1 X76.207 Y35.887 E.1423
G1 X77.017 Y36.098 E.00566
G1 X78.137 Y36.68 E.00854
G1 X79.049 Y37.526 E.00842
G1 X79.521 Y38.217 E.00566
G1 X79.981 Y39.381 E.00847
G1 X80.108 Y40.209 E.00566
G1 X80.099 Y40.952 E.00503
G1 X76.296 Y72.119 E.21241
M73 P0 R35
G1 X76.149 Y72.909 E.00543
G1 X75.895 Y73.698 E.00561
G1 X75.252 Y74.901 E.00923
G1 X71.242 Y80.66 E.04748
G1 X70.634 Y81.304 E.00599
G1 X69.936 Y81.848 E.00599
G1 X54.288 Y91.465 E.12426
G1 X52.958 Y91.894 E.00945
G1 X48.033 Y92.737 E.03381
G1 X46.684 Y92.76 E.00913
G1 X45.926 Y92.597 E.00525
G1 X45.206 Y92.309 E.00525
G1 X40.841 Y90.038 E.03329
G1 X40.268 Y89.668 E.00461
G1 X39.586 Y89.045 E.00625
G1 X37.12 Y86.412 E.0244
G1 X36.465 Y85.496 E.00762
G1 X36.159 Y84.826 E.00498
G1 X34.5 Y79.915 E.03506
G1 X34.325 Y78.791 E.00769
G1 X33.798 Y50.122 E.19398
G1 X34.088 Y39.875 E.06935
G1 X34.175 Y38.958 E.00623
G1 X34.567 Y37.715 E.00882
G1 X34.979 Y36.982 E.00569
G1 X35.495 Y36.337 E.00559
G1 X35.624 Y36.44 F21000
G1 F3000
G1 X35.63 Y36.433 E.00006
G1 X36.521 Y35.685 E.00787
G1 X37.235 Y35.293 E.00551
G1 X38.002 Y35.022 E.00551
G1 X39.542 Y34.758 E.01057
G1 X40.768 Y34.665 E.00832
G1 X55.237 Y34.344 E.09791
G1 X76.187 Y36.052 E.1422
G1 X76.968 Y36.257 E.00546
G1 X78.035 Y36.812 E.00814
G1 X78.926 Y37.637 E.00822
G1 X79.38 Y38.305 E.00546
G1 X79.818 Y39.414 E.00807
G1 X79.942 Y40.212 E.00546
G1 X79.934 Y40.932 E.00488
G1 X76.132 Y72.093 E.21237
G1 X75.99 Y72.862 E.00529
G1 X75.743 Y73.63 E.00546
G1 X75.111 Y74.813 E.00907
G1 X71.108 Y80.562 E.04739
G1 X70.517 Y81.186 E.00582
G1 X69.838 Y81.714 E.00582
G1 X54.221 Y91.313 E.12401
G1 X52.93 Y91.73 E.00917
G1 X48.005 Y92.574 E.03381
G1 X46.698 Y92.595 E.00884
G1 X45.967 Y92.437 E.00506
G1 X45.274 Y92.158 E.00506
G1 X40.917 Y89.89 E.03323
G1 X40.362 Y89.53 E.00448
G1 X39.707 Y88.932 E.006
G1 X37.242 Y86.299 E.0244
G1 X36.614 Y85.423 E.00729
G1 X36.316 Y84.773 E.00484
G1 X34.657 Y79.862 E.03506
G1 X34.491 Y78.788 E.00735
G1 X33.964 Y50.12 E.19398
G1 X34.254 Y39.879 E.06931
G1 X34.337 Y38.995 E.00601
G1 X34.721 Y37.778 E.00864
G1 X35.121 Y37.069 E.00551
G1 X35.615 Y36.452 E.00534
; printing object Llav Pochita 8.stl id:0 copy 0
G1 E-.8
EXCLUDE_OBJECT_START NAME=Llav_Pochita_8.stl_id_0_copy_0
G1 Z.3 F21000
G1 X62.407 Y77.493 Z.3
G1 Z.1
G1 E.8 F1800
;TYPE:Outer wall
;WIDTH:0.187499
G1 F3000
G3 X62.638 Y78.775 I-2.809 J1.168 E.00888
G3 X62.201 Y79.907 I-2.467 J-.301 E.00829
G1 X61.765 Y80.332 E.00412
G1 X61.406 Y80.553 E.00285
G1 X60.841 Y80.752 E.00405
G1 X60.341 Y80.788 E.00339
G1 X59.783 Y80.707 E.00382
G1 X59.697 Y80.752 E.00065
G3 X59.886 Y81.521 I-36.638 J9.416 E.00536
G1 X59.869 Y82.066 E.00369
G1 X59.736 Y82.581 E.0036
G1 X59.46 Y83.053 E.0037
G1 X59.078 Y83.466 E.00381
G1 X58.581 Y83.763 E.00392
G1 X58.058 Y83.932 E.00372
G1 X57.495 Y83.968 E.00382
G1 X57.433 Y84.046 E.00067
G1 X57.381 Y84.653 E.00412
G1 X57.183 Y85.225 E.00409
G1 X56.837 Y85.696 E.00396
G1 X56.384 Y86.075 E.00399
G1 X55.848 Y86.299 E.00393
G1 X55.438 Y86.37 E.00282
G3 X54.353 Y86.297 I-.185 J-5.341 E.00737
G1 X54.287 Y86.374 E.00069
G3 X54.42 Y87.479 I-3.628 J.997 E.00756
G1 X54.307 Y88.062 E.00402
G1 X54.027 Y88.585 E.00402
G1 X53.629 Y89.026 E.00402
G1 X53.119 Y89.329 E.00402
G1 X52.551 Y89.502 E.00402
G1 X51.958 Y89.498 E.00402
G1 X51.378 Y89.351 E.00405
G2 X49.638 Y88.633 I-385.571 J931.846 E.01273
G1 X49.546 Y88.669 E.00066
G1 X48.87 Y89.667 E.00816
G1 X48.455 Y90.012 E.00365
G1 X47.974 Y90.257 E.00365
G1 X47.444 Y90.361 E.00365
G1 X46.899 Y90.344 E.00369
G1 X46.377 Y90.176 E.00371
G1 X45.906 Y89.896 E.00371
G1 X45.531 Y89.496 E.00371
G1 X45.254 Y89.019 E.00374
G2 X44.701 Y87.702 I-98.238 J40.468 E.00966
G1 X44.606 Y87.68 E.00066
G1 X43.866 Y87.989 E.00543
G1 X43.293 Y88.134 E.004
G1 X42.706 Y88.138 E.00397
G1 X42.144 Y87.967 E.00397
G1 X41.64 Y87.667 E.00397
G1 X41.247 Y87.23 E.00397
G1 X40.97 Y86.712 E.00397
G1 X40.859 Y86.136 E.00397
G2 X40.869 Y85.461 I-3.476 J-.386 E.00457
G3 X39.562 Y85.248 I-.207 J-2.844 E.00904
G3 X38.37 Y82.812 I.973 J-1.986 E.01975
G3 X39.008 Y81.279 I11.969 J4.082 E.01124
G1 X38.971 Y81.187 E.00067
G3 X37.569 Y80.308 I17.218 J-29 E.01119
G3 X37.218 Y77.417 I1.211 J-1.614 E.02201
G1 X37.639 Y77.019 E.00392
G2 X38.461 Y76.624 I-22.136 J-47.079 E.00617
G1 X38.477 Y76.527 E.00067
G1 X38.047 Y75.689 E.00637
G1 X37.875 Y75.139 E.00389
G1 X37.846 Y74.569 E.00386
G1 X37.997 Y74.016 E.00388
G1 X38.279 Y73.522 E.00385
G1 X38.553 Y73.241 E.00265
G1 X39.034 Y72.949 E.0038
G1 X39.596 Y72.779 E.00398
G1 X39.66 Y72.706 E.00065
G1 X39.681 Y72.204 E.0034
G1 X39.807 Y71.726 E.00335
G1 X40.159 Y71.158 E.00452
G1 X40.167 Y71.066 E.00063
G3 X38.732 Y61.423 I10.423 J-6.48 E.06783
G3 X41.565 Y55.783 I15.801 J4.406 E.04297
G1 X41.608 Y55.666 E.00084
G3 X41.301 Y52.785 I5.045 J-1.996 E.01984
G1 X41.074 Y52.475 E.0026
G1 X40.974 Y52.482 E.00068
G3 X39.729 Y53.243 I-2.241 J-2.265 E.00995
G1 X39.074 Y53.344 E.00448
G1 X38.526 Y53.3 E.00372
G3 X36.312 Y51.138 I.521 J-2.748 E.02218
G3 X36.224 Y50.095 I3.514 J-.823 E.00711
G1 X36.512 Y39.996 E.06835
G1 X36.542 Y39.491 E.00342
G1 X36.727 Y38.842 E.00456
G1 X37.045 Y38.253 E.00453
G1 X37.506 Y37.772 E.00451
G1 X37.899 Y37.494 E.00326
G1 X38.485 Y37.23 E.00435
G1 X39.872 Y36.993 E.00952
G3 X45.73 Y37.735 I1.357 J12.782 E.0403
G1 X46.431 Y37.998 E.00506
G3 X52.991 Y37.749 I3.848 J14.87 E.04476
G1 X53.328 Y37.381 E.00338
G1 X53.804 Y37.004 E.00411
G1 X54.357 Y36.733 E.00417
G1 X54.968 Y36.619 E.0042
G1 X55.62 Y36.64 E.00441
G2 X60.137 Y37.346 I20.147 J-114.228 E.03093
G3 X63.215 Y38.055 I-2.087 J16.087 E.0214
G3 X65.326 Y39.18 I-3.175 J8.499 E.01624
G1 X66.023 Y39.753 E.0061
G3 X68.318 Y39.903 I.181 J14.777 E.01557
G1 X68.448 Y39.555 E.00252
G1 X68.73 Y39.038 E.00398
G1 X69.121 Y38.602 E.00396
G1 X69.629 Y38.29 E.00403
G1 X70.177 Y38.109 E.0039
G1 X70.665 Y38.073 E.00331
G1 X75.397 Y38.242 E.03203
G3 X76.972 Y38.846 I-.096 J2.607 E.01162
G1 X77.349 Y39.317 E.00408
G1 X77.604 Y39.864 E.00408
G1 X77.686 Y40.461 E.00408
G1 X77.69 Y40.663 E.00137
G1 X77.557 Y41.252 E.00408
G1 X77.287 Y41.796 E.00411
G1 X76.296 Y43.256 E.01194
G1 X76.282 Y43.3 E.00031
G3 X74.728 Y46.507 I-3.897 J.092 E.02504
G3 X72.616 Y47.373 I-2.726 J-3.641 E.01561
G1 X72.563 Y47.451 E.00063
G3 X72.335 Y53.665 I-51.081 J1.237 E.04209
G3 X71.991 Y54.778 I-4.766 J-.863 E.0079
G3 X69.914 Y56.555 I-3.424 J-1.9 E.01889
G1 X69.865 Y56.629 E.0006
G3 X68.677 Y64.556 I-27.111 J-.008 E.05443
G1 X68.696 Y64.634 E.00054
G3 X73.002 Y69.231 I-223.547 J213.748 E.04261
G3 X73.586 Y70.083 I-2.559 J2.377 E.00701
G1 X73.831 Y70.757 E.00485
G3 X73.9 Y71.739 I-3.139 J.713 E.00669
G1 X73.762 Y72.429 E.00476
G3 X72.886 Y73.989 I-4.091 J-1.271 E.0122
G3 X71.658 Y74.853 I-3.005 J-2.965 E.01021
G1 X70.733 Y75.125 E.00652
G3 X69.704 Y75.226 I-1.261 J-7.546 E.007
G1 X69.683 Y75.323 E.00067
G3 X65.054 Y79.968 I-2.98 J1.659 E.0596
G3 X63.336 Y77.469 I1.709 J-3.015 E.02123
G1 X63.258 Y77.421 E.00062
G1 X62.479 Y77.446 E.00528
G1 X62.419 Y77.485 E.00048
G1 X62.265 Y77.448 F21000
;TYPE:Inner wall
G1 F3000
G1 X62.232 Y77.518 E.00052
G1 X62.401 Y78.009 E.00351
G1 X62.471 Y78.571 E.00383
G1 X62.403 Y79.132 E.00382
G1 X62.167 Y79.647 E.00383
G1 X61.813 Y80.087 E.00382
G1 X61.332 Y80.405 E.0039
G1 X60.812 Y80.587 E.00373
G1 X60.347 Y80.621 E.00315
G1 X59.753 Y80.541 E.00406
G1 X59.616 Y80.595 E.00099
G1 X59.524 Y80.757 E.00126
G3 X59.721 Y81.538 I-25.108 J6.735 E.00544
G1 X59.705 Y82.042 E.00341
G1 X59.581 Y82.517 E.00332
G1 X59.327 Y82.955 E.00342
G1 X58.973 Y83.337 E.00352
G1 X58.512 Y83.612 E.00363
G1 X58.032 Y83.767 E.00342
G1 X57.5 Y83.8 E.0036
G1 X57.343 Y83.87 E.00117
G1 X57.267 Y84.042 E.00127
G1 X57.218 Y84.619 E.00392
G1 X57.035 Y85.148 E.00378
G1 X56.716 Y85.583 E.00365
G1 X56.297 Y85.932 E.00369
G1 X55.803 Y86.139 E.00362
G3 X54.964 Y86.2 I-.584 J-2.253 E.00573
G1 X54.363 Y86.13 E.00409
G1 X54.193 Y86.203 E.00125
G1 X54.121 Y86.366 E.00121
G3 X54.254 Y87.468 I-3.892 J1.03 E.00753
G1 X54.15 Y88.006 E.00371
G1 X53.891 Y88.49 E.00371
G1 X53.524 Y88.897 E.00371
G1 X53.052 Y89.177 E.00371
G1 X52.527 Y89.337 E.00371
G1 X51.979 Y89.333 E.00371
G1 X51.435 Y89.195 E.0038
G1 X49.711 Y88.483 E.01261
G1 X49.556 Y88.472 E.00105
G1 X49.407 Y88.579 E.00125
G1 X48.747 Y89.555 E.00797
G1 X48.363 Y89.874 E.00337
G1 X47.919 Y90.1 E.00337
G1 X47.431 Y90.195 E.00337
G1 X46.927 Y90.18 E.00341
G1 X46.445 Y90.025 E.00342
G1 X46.01 Y89.766 E.00342
G1 X45.665 Y89.397 E.00342
G1 X45.404 Y88.949 E.0035
G2 X44.847 Y87.621 I-102.923 J42.423 E.00975
G1 X44.725 Y87.523 E.00106
G1 X44.542 Y87.527 E.00124
G3 X43.452 Y87.947 I-4.216 J-9.318 E.00791
G1 X42.911 Y87.983 E.00367
G1 X42.377 Y87.888 E.00367
G1 X41.895 Y87.64 E.00367
G1 X41.487 Y87.283 E.00367
G1 X41.203 Y86.821 E.00367
G1 X41.038 Y86.305 E.00367
G3 X41.038 Y85.421 I17.958 J-.429 E.00599
G1 X40.925 Y85.298 E.00113
G3 X39.996 Y85.228 I.519 J-12.969 E.0063
G1 X39.468 Y84.998 E.0039
G1 X39.015 Y84.642 E.0039
G1 X38.698 Y84.161 E.0039
G1 X38.513 Y83.615 E.0039
G1 X38.509 Y83.039 E.0039
G1 X38.655 Y82.47 E.00397
G1 X39.155 Y81.36 E.00824
G1 X39.168 Y81.194 E.00113
G1 X39.057 Y81.045 E.00125
G3 X37.753 Y80.238 I30.792 J-51.2 E.01038
G1 X37.383 Y79.909 E.00335
G1 X37.083 Y79.462 E.00364
G1 X36.94 Y78.924 E.00377
G1 X36.945 Y78.371 E.00374
G1 X37.129 Y77.853 E.00372
G1 X37.347 Y77.52 E.00269
G1 X37.729 Y77.16 E.00355
G2 X38.577 Y76.743 I-8.35 J-18.03 E.00639
G1 X38.643 Y76.631 E.00089
G1 X38.625 Y76.451 E.00122
G3 X38.069 Y75.283 I8.566 J-4.787 E.00875
G1 X38.01 Y74.762 E.00355
G1 X38.083 Y74.243 E.00354
G1 X38.312 Y73.774 E.00353
G1 X38.661 Y73.368 E.00362
G1 X39.102 Y73.1 E.00349
G1 X39.698 Y72.916 E.00423
G1 X39.797 Y72.815 E.00095
G3 X39.907 Y71.953 I3.09 J-.041 E.0059
G3 X40.338 Y71.158 I3.909 J1.602 E.00613
G1 X40.311 Y70.984 E.0012
G3 X38.823 Y61.761 I10.252 J-6.385 E.06489
G3 X41.433 Y56.247 I15.365 J3.897 E.04153
G1 X41.758 Y55.789 E.0038
G1 X41.765 Y55.61 E.00121
G3 X41.397 Y53.386 I4.699 J-1.919 E.01538
G1 X41.453 Y52.696 E.00468
G1 X41.165 Y52.336 E.00312
G1 X40.983 Y52.3 E.00126
G2 X40.273 Y52.815 I5.851 J8.804 E.00593
G1 X39.686 Y53.082 E.00436
G1 X39.068 Y53.177 E.00423
G1 X38.554 Y53.135 E.00349
G1 X38.137 Y53.026 E.00292
G1 X37.564 Y52.725 E.00438
G1 X37.075 Y52.306 E.00436
G1 X36.718 Y51.762 E.0044
G1 X36.531 Y51.281 E.00349
G1 X36.396 Y50.608 E.00465
G1 X36.39 Y50.096 E.00346
G1 X36.658 Y40.712 E.06351
G1 X36.693 Y39.724 E.00669
G1 X36.801 Y39.103 E.00426
G1 X37.072 Y38.528 E.0043
G1 X37.455 Y38.031 E.00425
G1 X37.984 Y37.637 E.00446
G1 X38.53 Y37.391 E.00405
G1 X39.892 Y37.158 E.00935
G3 X46.321 Y38.148 I1.335 J12.699 E.04449
G1 X46.467 Y38.16 E.00099
G3 X52.951 Y37.913 I3.813 J14.869 E.04423
G1 X53.11 Y37.883 E.0011
G1 X53.448 Y37.497 E.00347
G1 X53.893 Y37.144 E.00384
G1 X54.41 Y36.891 E.0039
G1 X54.981 Y36.784 E.00393
G1 X55.599 Y36.805 E.00418
G2 X60.112 Y37.51 I20.131 J-114.152 E.0309
G3 X63.157 Y38.211 I-2.065 J15.934 E.02118
G3 X65.862 Y39.859 I-2.608 J7.325 E.02158
G1 X66.022 Y39.919 E.00116
G3 X68.311 Y40.077 I.166 J14.243 E.01554
G1 X68.465 Y39.996 E.00118
G3 X69.228 Y38.73 I2.697 J.762 E.01012
G1 X69.7 Y38.44 E.00374
G1 X70.205 Y38.274 E.0036
G1 X70.668 Y38.24 E.00314
G1 X75.391 Y38.408 E.03197
G1 X75.874 Y38.458 E.00328
G1 X76.412 Y38.663 E.00389
G1 X76.859 Y38.968 E.00366
G1 X77.208 Y39.405 E.00378
G1 X77.444 Y39.911 E.00378
G1 X77.52 Y40.464 E.00378
G1 X77.523 Y40.651 E.00127
G1 X77.401 Y41.196 E.00378
G1 X77.146 Y41.708 E.00387
G1 X76.132 Y43.215 E.01229
G3 X76.011 Y44.303 I-10.202 J-.584 E.00741
G1 X75.75 Y45.004 E.00506
G1 X75.504 Y45.439 E.00338
G1 X75.042 Y46.018 E.00501
G3 X72.614 Y47.202 I-3.087 J-3.247 E.01856
G1 X72.449 Y47.298 E.0013
G1 X72.397 Y47.452 E.0011
G3 X72.186 Y53.553 I-52.239 J1.243 E.04132
G3 X71.843 Y54.702 I-4.568 J-.737 E.00814
G3 X70.359 Y56.179 I-3.166 J-1.698 E.01437
G1 X69.762 Y56.465 E.00448
G1 X69.699 Y56.625 E.00116
G3 X68.508 Y64.578 I-28.333 J-.175 E.05459
G1 X68.577 Y64.75 E.00125
G3 X72.923 Y69.391 I-219.607 J210.02 E.04301
G1 X73.325 Y69.926 E.00453
G1 X73.601 Y70.573 E.00476
G1 X73.737 Y71.257 E.00472
G1 X73.697 Y71.956 E.00473
G1 X73.584 Y72.444 E.00339
G1 X73.325 Y73.093 E.00473
G1 X72.923 Y73.683 E.00483
G3 X71.596 Y74.698 I-3.099 J-2.675 E.01138
G1 X70.698 Y74.962 E.00633
G3 X69.706 Y75.045 I-.937 J-5.225 E.00675
G1 X69.572 Y75.124 E.00105
G1 X69.509 Y75.287 E.00118
G3 X69.841 Y76.186 I-10.9 J4.53 E.00649
G1 X69.941 Y76.778 E.00406
G3 X69.247 Y78.998 I-3.367 J.167 E.01607
G1 X68.858 Y79.414 E.00385
G3 X66.978 Y80.217 I-2.146 J-2.422 E.01408
G1 X66.306 Y80.197 E.00454
G1 X65.768 Y80.082 E.00372
G1 X65.198 Y79.851 E.00416
G3 X63.503 Y77.448 I1.618 J-2.94 E.02059
G1 X63.394 Y77.294 E.00128
G1 X63.252 Y77.255 E.00099
G1 X62.473 Y77.28 E.00528
G1 X62.31 Y77.348 E.0012
G1 X62.271 Y77.434 E.00064
G1 X62.108 Y77.368 F21000
G1 F3000
G1 X62.069 Y77.574 E.00142
G1 X62.241 Y78.055 E.00345
G1 X62.305 Y78.571 E.00352
G1 X62.242 Y79.086 E.00351
G1 X62.025 Y79.56 E.00352
G1 X61.701 Y79.964 E.0035
G1 X61.258 Y80.256 E.00359
G1 X60.783 Y80.423 E.0034
G1 X60.353 Y80.454 E.00292
G1 X59.83 Y80.379 E.00357
G1 X59.602 Y80.41 E.00156
G1 X59.425 Y80.56 E.00157
G1 X59.356 Y80.775 E.00153
G1 X59.502 Y81.265 E.00346
G1 X59.562 Y81.867 E.00409
G1 X59.427 Y82.454 E.00408
G1 X59.201 Y82.845 E.00306
G1 X58.868 Y83.207 E.00333
G1 X58.461 Y83.453 E.00321
G1 X58.005 Y83.602 E.00325
G1 X57.49 Y83.634 E.00349
G1 X57.296 Y83.697 E.00138
G1 X57.137 Y83.878 E.00163
G3 X57.021 Y84.75 I-12.395 J-1.21 E.00595
G1 X56.8 Y85.206 E.00342
G1 X56.481 Y85.59 E.00338
G1 X56.064 Y85.862 E.00337
G1 X55.59 Y86.027 E.0034
G1 X55.162 Y86.057 E.0029
G1 X54.419 Y85.967 E.00506
G1 X54.232 Y85.987 E.00128
G1 X54.034 Y86.134 E.00167
G1 X53.955 Y86.358 E.0016
G3 X54.088 Y87.456 I-4.165 J1.063 E.0075
G1 X53.993 Y87.95 E.00341
G1 X53.755 Y88.394 E.00341
G1 X53.418 Y88.768 E.00341
G1 X52.985 Y89.026 E.00341
G1 X52.503 Y89.172 E.00341
G1 X52 Y89.169 E.00341
G1 X51.492 Y89.039 E.00355
G2 X49.685 Y88.304 I-28.776 J68.141 E.01319
G1 X49.462 Y88.328 E.00152
