; HEADER_BLOCK_START
; generated by OrcaSlicer 1.6.6 on 2023-08-28 at 19:28:37
; total layer number: 32
; HEADER_BLOCK_END

; THUMBNAIL_BLOCK_START
; THUMBNAIL_BLOCK_END

; external perimeters extrusion width = 0.15mm
; perimeters extrusion width = 0.17mm
; infill extrusion width = 0.24mm
; solid infill extrusion width = 0.21mm
; top infill extrusion width = 0.15mm
; first layer extrusion width = 0.19mm

; EXECUTABLE_BLOCK_START
EXCLUDE_OBJECT_DEFINE NAME=Llav_Pochita_8.stl_id_0_copy_0 CENTER=60,60 POLYGON=[[39.1734,46.605],[39.4626,36.4521],[39.4917,35.9884],[39.5951,35.5355],[39.7701,35.1052],[40.0123,34.7087],[40.3153,34.3565],[40.671,34.0578],[41.0703,33.8203],[41.5027,33.6503],[41.9568,33.5523],[42.9041,33.4112],[43.8594,33.3415],[58.2128,33.0196],[58.3675,33.0241],[78.5539,34.6635],[78.9714,34.7137],[79.3732,34.8375],[79.7465,35.031],[80.0793,35.2878],[80.3611,35.5999],[80.5827,35.9572],[80.737,36.3483],[80.8192,36.7606],[80.8266,37.181],[77.037,68.2579],[76.9559,68.7595],[76.8095,69.2551],[76.5983,69.7266],[76.3258,70.1657],[72.7227,75.36],[72.4074,75.788],[72.0309,76.1633],[71.6019,76.4772],[56.3894,85.8425],[56.0105,86.0097],[55.6077,86.106],[50.6824,86.9497],[50.307,86.9804],[49.926,86.9478],[49.556,86.8515],[49.2074,86.6943],[44.9618,84.4807],[44.6229,84.2503],[44.331,83.9626],[41.8658,81.3294],[41.603,80.9818],[41.4114,80.5903],[39.7524,75.6798],[39.6993,75.2594],[39.1798,47.141],[39.1734,46.605]]
M73 P0 R33
M73 C20
;TYPE:Custom
START_PRINT T_BED=60 T_EXTRUDER=220
G90
G21
M83 ; use relative distances for extrusion
; filament start gcode

    PRESSURE_ADVANCE_SELECT FILAMENT=PLA
M106 S0
;LAYER_CHANGE
;Z:0.1
;HEIGHT:0.1
;BEFORE_LAYER_CHANGE
;0.1
G92 E0

;AFTER_LAYER_CHANGE
;0.1
SET_VELOCITY_LIMIT ACCEL=500 ACCEL_TO_DECEL=250
SET_VELOCITY_LIMIT SQUARE_CORNER_VELOCITY=9
G1 E-.8 F3000
G1 Z.2 F21000
G1 X38.547 Y32.836
G1 Z.2
G1 Z.1
G1 E.8 F1800
;TYPE:Skirt
;WIDTH:0.1875
G1 F3000
G1 X39.479 Y32.053 E.00823
G1 X40.217 Y31.65 E.00569
G1 X41.011 Y31.371 E.00569
G1 X42.561 Y31.105 E.01064
G1 X43.807 Y31.01 E.00846
G1 X58.285 Y30.689 E.09797
G1 X79.25 Y32.398 E.1423
G1 X80.06 Y32.609 E.00566
G1 X81.18 Y33.191 E.00854
G1 X82.092 Y34.037 E.00842
G1 X82.565 Y34.728 E.00566
G1 X83.024 Y35.892 E.00847
G1 X83.151 Y36.72 E.00566
G1 X83.142 Y37.463 E.00503
G1 X79.339 Y68.63 E.21241
G1 X79.192 Y69.42 E.00543
G1 X78.938 Y70.209 E.00561
G1 X78.295 Y71.412 E.00923
G1 X74.285 Y77.171 E.04748
G1 X73.677 Y77.815 E.00599
G1 X72.979 Y78.359 E.00599
G1 X57.331 Y87.976 E.12426
G1 X56.001 Y88.405 E.00945
G1 X51.076 Y89.248 E.03381
G1 X49.727 Y89.271 E.00913
G1 X48.969 Y89.108 E.00525
G1 X48.249 Y88.82 E.00525
G1 X43.884 Y86.549 E.03329
G1 X43.312 Y86.179 E.00461
G1 X42.629 Y85.556 E.00625
G1 X40.163 Y82.923 E.0244
G1 X39.508 Y82.007 E.00762
G1 X39.202 Y81.337 E.00498
G1 X37.543 Y76.426 E.03506
G1 X37.368 Y75.303 E.00769
G1 X36.841 Y46.633 E.19398
G1 X37.132 Y36.386 E.06935
G1 X37.218 Y35.469 E.00623
G1 X37.61 Y34.226 E.00882
G1 X38.022 Y33.493 E.00569
G1 X38.538 Y32.848 E.00559
G1 X38.667 Y32.951 F21000
G1 F3000
G1 X38.673 Y32.944 E.00006
G1 X39.564 Y32.196 E.00787
G1 X40.278 Y31.804 E.00551
G1 X41.046 Y31.533 E.00551
G1 X42.585 Y31.269 E.01057
G1 X43.811 Y31.176 E.00832
G1 X58.28 Y30.855 E.09791
G1 X79.23 Y32.563 E.1422
G1 X80.011 Y32.768 E.00546
G1 X81.078 Y33.323 E.00814
G1 X81.969 Y34.148 E.00822
G1 X82.423 Y34.816 E.00546
G1 X82.861 Y35.925 E.00807
G1 X82.985 Y36.723 E.00546
G1 X82.977 Y37.443 E.00488
G1 X79.175 Y68.604 E.21237
G1 X79.033 Y69.373 E.00529
G1 X78.786 Y70.141 E.00546
G1 X78.154 Y71.324 E.00907
G1 X74.151 Y77.073 E.04739
G1 X73.56 Y77.697 E.00582
G1 X72.881 Y78.225 E.00582
G1 X57.264 Y87.824 E.12401
G1 X55.973 Y88.241 E.00917
G1 X51.048 Y89.085 E.03381
G1 X49.741 Y89.106 E.00884
G1 X49.01 Y88.948 E.00506
G1 X48.317 Y88.669 E.00506
G1 X43.96 Y86.401 E.03323
G1 X43.405 Y86.041 E.00448
G1 X42.75 Y85.443 E.006
G1 X40.285 Y82.81 E.0244
G1 X39.657 Y81.934 E.00729
G1 X39.359 Y81.284 E.00484
G1 X37.7 Y76.373 E.03506
G1 X37.534 Y75.299 E.00735
G1 X37.007 Y46.631 E.19398
G1 X37.297 Y36.39 E.06931
G1 X37.38 Y35.506 E.00601
G1 X37.764 Y34.289 E.00864
G1 X38.164 Y33.58 E.00551
G1 X38.658 Y32.963 E.00534
; printing object Llav Pochita 8.stl id:0 copy 0
G1 E-.8
EXCLUDE_OBJECT_START NAME=Llav_Pochita_8.stl_id_0_copy_0
G1 Z.3 F21000
G1 X65.45 Y74.004 Z.3
G1 Z.1
G1 E.8 F1800
;TYPE:Outer wall
;WIDTH:0.187499
G1 F3000
G3 X65.681 Y75.286 I-2.809 J1.168 E.00888
G3 X65.244 Y76.418 I-2.467 J-.301 E.00829
G1 X64.808 Y76.843 E.00412
G1 X64.449 Y77.064 E.00285
G1 X63.884 Y77.263 E.00405
G1 X63.384 Y77.299 E.00339
G1 X62.826 Y77.218 E.00382
G1 X62.74 Y77.263 E.00065
G3 X62.929 Y78.032 I-36.638 J9.416 E.00536
G1 X62.912 Y78.577 E.00369
G1 X62.779 Y79.092 E.0036
G1 X62.504 Y79.564 E.0037
G1 X62.121 Y79.977 E.00381
G1 X61.624 Y80.274 E.00392
G1 X61.101 Y80.443 E.00372
G1 X60.538 Y80.479 E.00382
G1 X60.476 Y80.557 E.00067
G1 X60.424 Y81.164 E.00412
G1 X60.226 Y81.736 E.00409
G1 X59.88 Y82.207 E.00396
G1 X59.427 Y82.586 E.00399
G1 X58.891 Y82.81 E.00393
G1 X58.481 Y82.881 E.00282
G3 X57.396 Y82.808 I-.185 J-5.341 E.00737
G1 X57.33 Y82.885 E.00069
G3 X57.463 Y83.99 I-3.628 J.997 E.00756
G1 X57.35 Y84.573 E.00402
G1 X57.07 Y85.096 E.00402
G1 X56.672 Y85.537 E.00402
G1 X56.162 Y85.84 E.00402
G1 X55.594 Y86.013 E.00402
G1 X55.001 Y86.009 E.00402
G1 X54.421 Y85.862 E.00405
G2 X52.681 Y85.144 I-385.571 J931.846 E.01273
G1 X52.589 Y85.18 E.00066
G1 X51.913 Y86.178 E.00816
G1 X51.498 Y86.523 E.00365
G1 X51.017 Y86.768 E.00365
G1 X50.487 Y86.872 E.00365
G1 X49.942 Y86.855 E.00369
G1 X49.42 Y86.687 E.00371
G1 X48.949 Y86.407 E.00371
G1 X48.574 Y86.007 E.00371
G1 X48.297 Y85.53 E.00374
G2 X47.744 Y84.213 I-98.238 J40.468 E.00966
G1 X47.649 Y84.191 E.00066
G1 X46.909 Y84.501 E.00543
G1 X46.336 Y84.645 E.004
G1 X45.749 Y84.649 E.00397
G1 X45.187 Y84.478 E.00397
G1 X44.683 Y84.178 E.00397
G1 X44.29 Y83.741 E.00397
G1 X44.013 Y83.223 E.00397
G1 X43.903 Y82.647 E.00397
G2 X43.912 Y81.972 I-3.476 J-.386 E.00457
G3 X42.605 Y81.759 I-.207 J-2.844 E.00904
G3 X41.413 Y79.323 I.973 J-1.986 E.01975
G3 X42.051 Y77.79 I11.969 J4.082 E.01124
G1 X42.014 Y77.698 E.00067
G3 X40.612 Y76.819 I17.218 J-29 E.01119
G3 X40.261 Y73.928 I1.211 J-1.614 E.02201
G1 X40.682 Y73.53 E.00392
G2 X41.504 Y73.135 I-22.136 J-47.079 E.00617
G1 X41.52 Y73.038 E.00067
G1 X41.09 Y72.2 E.00637
G1 X40.918 Y71.65 E.00389
G1 X40.89 Y71.08 E.00386
G1 X41.04 Y70.527 E.00388
G1 X41.322 Y70.033 E.00385
G1 X41.596 Y69.752 E.00265
G1 X42.077 Y69.46 E.0038
G1 X42.639 Y69.29 E.00398
G1 X42.703 Y69.217 E.00065
G1 X42.724 Y68.715 E.0034
G1 X42.85 Y68.237 E.00335
G1 X43.202 Y67.669 E.00452
G1 X43.21 Y67.577 E.00063
G3 X41.775 Y57.934 I10.423 J-6.48 E.06783
G3 X44.608 Y52.294 I15.801 J4.406 E.04297
G1 X44.651 Y52.177 E.00084
G3 X44.344 Y49.296 I5.045 J-1.996 E.01984
G1 X44.117 Y48.986 E.0026
G1 X44.017 Y48.993 E.00068
G3 X42.772 Y49.754 I-2.241 J-2.265 E.00995
G1 X42.117 Y49.855 E.00448
G1 X41.569 Y49.811 E.00372
G3 X39.355 Y47.649 I.521 J-2.748 E.02218
G3 X39.267 Y46.606 I3.514 J-.823 E.00711
G1 X39.555 Y36.507 E.06835
G1 X39.585 Y36.002 E.00342
G1 X39.77 Y35.353 E.00456
G1 X40.088 Y34.764 E.00453
M73 C19
G1 X40.549 Y34.283 E.00451
G1 X40.942 Y34.005 E.00326
G1 X41.528 Y33.741 E.00435
G1 X42.915 Y33.504 E.00952
G3 X48.773 Y34.246 I1.357 J12.782 E.0403
G1 X49.474 Y34.509 E.00506
G3 X56.034 Y34.261 I3.848 J14.87 E.04476
G1 X56.371 Y33.893 E.00338
G1 X56.847 Y33.515 E.00411
G1 X57.401 Y33.244 E.00417
G1 X58.011 Y33.13 E.0042
G1 X58.663 Y33.151 E.00441
G2 X63.18 Y33.857 I20.147 J-114.228 E.03093
G3 X66.258 Y34.566 I-2.087 J16.087 E.0214
G3 X68.369 Y35.692 I-3.175 J8.499 E.01624
G1 X69.066 Y36.264 E.0061
G3 X71.361 Y36.414 I.181 J14.777 E.01557
G1 X71.491 Y36.066 E.00252
G1 X71.773 Y35.549 E.00398
G1 X72.164 Y35.113 E.00396
G1 X72.673 Y34.801 E.00403
G1 X73.22 Y34.62 E.0039
G1 X73.708 Y34.585 E.00331
G1 X78.44 Y34.753 E.03203
G3 X80.015 Y35.357 I-.096 J2.607 E.01162
G1 X80.392 Y35.828 E.00408
G1 X80.647 Y36.375 E.00408
G1 X80.729 Y36.972 E.00408
G1 X80.733 Y37.174 E.00137
G1 X80.6 Y37.763 E.00408
G1 X80.33 Y38.307 E.00411
G1 X79.339 Y39.767 E.01194
G1 X79.325 Y39.811 E.00031
G3 X77.771 Y43.018 I-3.897 J.092 E.02504
G3 X75.659 Y43.884 I-2.726 J-3.641 E.01561
G1 X75.606 Y43.962 E.00063
G3 X75.378 Y50.176 I-51.081 J1.237 E.04209
G3 X75.034 Y51.289 I-4.766 J-.863 E.0079
G3 X72.957 Y53.066 I-3.424 J-1.9 E.01889
G1 X72.908 Y53.14 E.0006
G3 X71.72 Y61.067 I-27.111 J-.008 E.05443
G1 X71.739 Y61.145 E.00054
G3 X76.045 Y65.742 I-223.547 J213.748 E.04261
G3 X76.629 Y66.594 I-2.559 J2.377 E.00701
G1 X76.874 Y67.268 E.00485
G3 X76.943 Y68.25 I-3.139 J.713 E.00669
G1 X76.805 Y68.94 E.00476
G3 X75.929 Y70.5 I-4.091 J-1.271 E.0122
G3 X74.701 Y71.364 I-3.005 J-2.965 E.01021
G1 X73.776 Y71.636 E.00652
G3 X72.747 Y71.737 I-1.261 J-7.546 E.007
G1 X72.726 Y71.834 E.00067
G3 X68.097 Y76.479 I-2.98 J1.659 E.0596
G3 X66.379 Y73.98 I1.709 J-3.015 E.02123
G1 X66.301 Y73.932 E.00062
G1 X65.522 Y73.957 E.00528
G1 X65.462 Y73.996 E.00048
G1 X65.308 Y73.959 F21000
;TYPE:Inner wall
G1 F3000
G1 X65.275 Y74.029 E.00052
G1 X65.444 Y74.52 E.00351
G1 X65.514 Y75.082 E.00383
G1 X65.446 Y75.643 E.00382
G1 X65.21 Y76.158 E.00383
G1 X64.856 Y76.598 E.00382
G1 X64.375 Y76.916 E.0039
G1 X63.855 Y77.098 E.00373
G1 X63.39 Y77.132 E.00315
G1 X62.796 Y77.052 E.00406
G1 X62.659 Y77.106 E.00099
G1 X62.567 Y77.268 E.00126
G3 X62.764 Y78.049 I-25.108 J6.735 E.00544
G1 X62.748 Y78.553 E.00341
G1 X62.624 Y79.028 E.00332
G1 X62.37 Y79.466 E.00342
G1 X62.016 Y79.848 E.00352
G1 X61.555 Y80.123 E.00363
G1 X61.075 Y80.278 E.00342
G1 X60.543 Y80.311 E.0036
G1 X60.386 Y80.381 E.00117
G1 X60.31 Y80.553 E.00127
G1 X60.262 Y81.13 E.00392
G1 X60.078 Y81.659 E.00378
G1 X59.759 Y82.094 E.00365
G1 X59.34 Y82.443 E.00369
G1 X58.846 Y82.65 E.00362
G3 X58.007 Y82.711 I-.584 J-2.253 E.00573
G1 X57.407 Y82.641 E.00409
G1 X57.236 Y82.714 E.00125
G1 X57.164 Y82.877 E.00121
G3 X57.297 Y83.979 I-3.892 J1.03 E.00753
G1 X57.193 Y84.517 E.00371
G1 X56.934 Y85.001 E.00371
G1 X56.567 Y85.408 E.00371
G1 X56.095 Y85.688 E.00371
G1 X55.57 Y85.848 E.00371
G1 X55.022 Y85.844 E.00371
G1 X54.478 Y85.706 E.0038
G1 X52.754 Y84.994 E.01261
G1 X52.599 Y84.983 E.00105
G1 X52.45 Y85.09 E.00125
G1 X51.79 Y86.066 E.00797
G1 X51.407 Y86.385 E.00337
G1 X50.962 Y86.611 E.00337
G1 X50.474 Y86.706 E.00337
G1 X49.97 Y86.691 E.00341
G1 X49.488 Y86.536 E.00342
G1 X49.054 Y86.278 E.00342
G1 X48.708 Y85.908 E.00342
G1 X48.448 Y85.46 E.0035
G2 X47.89 Y84.132 I-102.923 J42.423 E.00975
G1 X47.768 Y84.034 E.00106
G1 X47.585 Y84.038 E.00124
G3 X46.495 Y84.458 I-4.216 J-9.318 E.00791
G1 X45.954 Y84.494 E.00367
G1 X45.42 Y84.399 E.00367
G1 X44.938 Y84.151 E.00367
G1 X44.53 Y83.794 E.00367
G1 X44.246 Y83.332 E.00367
G1 X44.081 Y82.816 E.00367
G3 X44.081 Y81.932 I17.958 J-.429 E.00599
G1 X43.968 Y81.809 E.00113
G3 X43.039 Y81.739 I.519 J-12.969 E.0063
G1 X42.511 Y81.509 E.0039
G1 X42.058 Y81.153 E.0039
G1 X41.741 Y80.672 E.0039
G1 X41.556 Y80.126 E.0039
G1 X41.552 Y79.55 E.0039
G1 X41.699 Y78.981 E.00397
G1 X42.198 Y77.871 E.00824
G1 X42.211 Y77.705 E.00113
G1 X42.1 Y77.556 E.00125
G3 X40.796 Y76.749 I30.792 J-51.2 E.01038
G1 X40.426 Y76.42 E.00335
G1 X40.126 Y75.973 E.00364
G1 X39.983 Y75.435 E.00377
G1 X39.988 Y74.882 E.00374
G1 X40.172 Y74.364 E.00372
G1 X40.39 Y74.031 E.00269
G1 X40.772 Y73.671 E.00355
G2 X41.62 Y73.254 I-8.35 J-18.03 E.00639
G1 X41.686 Y73.142 E.00089
G1 X41.668 Y72.962 E.00122
G3 X41.113 Y71.794 I8.566 J-4.787 E.00875
G1 X41.053 Y71.273 E.00355
G1 X41.126 Y70.754 E.00354
G1 X41.355 Y70.285 E.00353
G1 X41.704 Y69.879 E.00362
G1 X42.145 Y69.611 E.00349
G1 X42.741 Y69.427 E.00423
G1 X42.84 Y69.326 E.00095
G3 X42.951 Y68.464 I3.09 J-.041 E.0059
G3 X43.381 Y67.669 I3.909 J1.602 E.00613
G1 X43.354 Y67.495 E.0012
G3 X41.866 Y58.272 I10.252 J-6.385 E.06489
G3 X44.476 Y52.758 I15.365 J3.897 E.04153
G1 X44.801 Y52.3 E.0038
G1 X44.808 Y52.121 E.00121
G3 X44.44 Y49.897 I4.699 J-1.919 E.01538
G1 X44.496 Y49.207 E.00468
G1 X44.208 Y48.847 E.00312
G1 X44.026 Y48.811 E.00126
G2 X43.316 Y49.326 I5.851 J8.804 E.00593
G1 X42.729 Y49.593 E.00436
G1 X42.111 Y49.688 E.00423
G1 X41.597 Y49.646 E.00349
G1 X41.181 Y49.537 E.00292
G1 X40.607 Y49.236 E.00438
G1 X40.118 Y48.817 E.00436
G1 X39.761 Y48.273 E.0044
G1 X39.574 Y47.792 E.00349
G1 X39.439 Y47.119 E.00465
G1 X39.433 Y46.607 E.00346
G1 X39.701 Y37.223 E.06351
G1 X39.737 Y36.235 E.00669
G1 X39.844 Y35.614 E.00426
G1 X40.115 Y35.039 E.0043
G1 X40.498 Y34.542 E.00425
G1 X41.027 Y34.148 E.00446
G1 X41.573 Y33.902 E.00405
G1 X42.935 Y33.669 E.00935
G3 X49.364 Y34.659 I1.335 J12.699 E.04449
G1 X49.51 Y34.671 E.00099
G3 X55.994 Y34.424 I3.813 J14.869 E.04423
G1 X56.153 Y34.394 E.0011
G1 X56.491 Y34.008 E.00347
G1 X56.936 Y33.655 E.00384
G1 X57.453 Y33.402 E.0039
G1 X58.024 Y33.295 E.00393
G1 X58.642 Y33.316 E.00418
G2 X63.155 Y34.021 I20.131 J-114.152 E.0309
G3 X66.2 Y34.722 I-2.065 J15.934 E.02118
G3 X68.905 Y36.37 I-2.608 J7.325 E.02158
G1 X69.065 Y36.43 E.00116
G3 X71.354 Y36.588 I.166 J14.243 E.01554
G1 X71.508 Y36.507 E.00118
G3 X72.271 Y35.241 I2.697 J.762 E.01012
G1 X72.743 Y34.951 E.00374
G1 X73.248 Y34.785 E.0036
G1 X73.711 Y34.751 E.00314
G1 X78.434 Y34.919 E.03197
G1 X78.917 Y34.969 E.00328
G1 X79.455 Y35.174 E.00389
G1 X79.902 Y35.479 E.00366
G1 X80.251 Y35.916 E.00378
G1 X80.487 Y36.422 E.00378
G1 X80.563 Y36.975 E.00378
G1 X80.566 Y37.162 E.00127
G1 X80.444 Y37.707 E.00378
G1 X80.189 Y38.219 E.00387
G1 X79.175 Y39.726 E.01229
G3 X79.054 Y40.814 I-10.202 J-.584 E.00741
G1 X78.794 Y41.515 E.00506
G1 X78.547 Y41.95 E.00338
G1 X78.085 Y42.529 E.00501
G3 X75.658 Y43.713 I-3.087 J-3.247 E.01856
G1 X75.492 Y43.809 E.0013
G1 X75.44 Y43.963 E.0011
G3 X75.229 Y50.064 I-52.239 J1.243 E.04132
G3 X74.886 Y51.213 I-4.568 J-.737 E.00814
G3 X73.402 Y52.69 I-3.166 J-1.698 E.01437
G1 X72.805 Y52.976 E.00448
G1 X72.742 Y53.136 E.00116
G3 X71.551 Y61.089 I-28.333 J-.175 E.05459
G1 X71.62 Y61.261 E.00125
G3 X75.966 Y65.902 I-219.607 J210.02 E.04301
G1 X76.368 Y66.437 E.00453
G1 X76.644 Y67.084 E.00476
G1 X76.781 Y67.768 E.00472
G1 X76.74 Y68.467 E.00473
G1 X76.627 Y68.955 E.00339
G1 X76.368 Y69.604 E.00473
G1 X75.966 Y70.194 E.00483
G3 X74.639 Y71.209 I-3.099 J-2.675 E.01138
G1 X73.741 Y71.473 E.00633
M73 P1 R33
G3 X72.749 Y71.556 I-.937 J-5.225 E.00675
G1 X72.615 Y71.635 E.00105
G1 X72.552 Y71.798 E.00118
G3 X72.884 Y72.697 I-10.9 J4.53 E.00649
G1 X72.984 Y73.289 E.00406
G3 X72.29 Y75.509 I-3.367 J.167 E.01607
G1 X71.902 Y75.925 E.00385
G3 X70.021 Y76.728 I-2.146 J-2.422 E.01408
G1 X69.349 Y76.708 E.00454
G1 X68.811 Y76.593 E.00372
G1 X68.241 Y76.362 E.00416
G3 X66.546 Y73.959 I1.618 J-2.94 E.02059
G1 X66.437 Y73.805 E.00128
G1 X66.296 Y73.766 E.00099
G1 X65.516 Y73.791 E.00528
G1 X65.353 Y73.86 E.0012
G1 X65.314 Y73.945 E.00064
G1 X65.151 Y73.879 F21000
G1 F3000
G1 X65.112 Y74.085 E.00142
G1 X65.284 Y74.566 E.00345
G1 X65.348 Y75.082 E.00352
G1 X65.285 Y75.597 E.00351
G1 X65.068 Y76.071 E.00352
G1 X64.744 Y76.475 E.0035
G1 X64.301 Y76.767 E.00359
G1 X63.826 Y76.934 E.0034
G1 X63.396 Y76.965 E.00292
G1 X62.874 Y76.89 E.00357
G1 X62.645 Y76.921 E.00156
G1 X62.468 Y77.071 E.00157
G1 X62.399 Y77.286 E.00153
G1 X62.545 Y77.776 E.00346
G1 X62.605 Y78.378 E.00409
G1 X62.47 Y78.965 E.00408
G1 X62.244 Y79.356 E.00306
G1 X61.911 Y79.718 E.00333
G1 X61.504 Y79.964 E.00321
G1 X61.048 Y80.113 E.00325
G1 X60.533 Y80.145 E.00349
G1 X60.339 Y80.208 E.00138
G1 X60.18 Y80.389 E.00163
G3 X60.064 Y81.261 I-12.395 J-1.21 E.00595
G1 X59.844 Y81.717 E.00342
G1 X59.524 Y82.101 E.00338
G1 X59.107 Y82.373 E.00337
G1 X58.633 Y82.538 E.0034
G1 X58.205 Y82.568 E.0029
G1 X57.462 Y82.478 E.00506
G1 X57.275 Y82.498 E.00128
G1 X57.077 Y82.645 E.00167
G1 X56.998 Y82.869 E.0016
G3 X57.131 Y83.967 I-4.165 J1.063 E.0075
G1 X57.036 Y84.461 E.00341
G1 X56.798 Y84.905 E.00341
G1 X56.461 Y85.279 E.00341
G1 X56.028 Y85.537 E.00341
G1 X55.546 Y85.683 E.00341
G1 X55.043 Y85.68 E.00341
G1 X54.535 Y85.55 E.00355
G2 X52.728 Y84.815 I-28.776 J68.141 E.01319
G1 X52.505 Y84.839 E.00152
G1 X52.31 Y85.001 E.00172
