; generated by SuperSlicer 2.5.59 on 2023-03-13 at 01:29:16 UTC


;
;

;
;
; 

; external perimeters extrusion width = 0.15mm
; perimeters extrusion width = 0.17mm
; infill extrusion width = 0.24mm
; solid infill extrusion width = 0.21mm
; top infill extrusion width = 0.15mm
; first layer extrusion width = 0.19mm

; external perimeters extrusion width = 0.15mm
; perimeters extrusion width = 0.17mm
; infill extrusion width = 0.24mm
; solid infill extrusion width = 0.21mm
; top infill extrusion width = 0.17mm
; first layer extrusion width = 0.19mm

; external perimeters extrusion width = 0.15mm
; perimeters extrusion width = 0.17mm
; infill extrusion width = 0.24mm
; solid infill extrusion width = 0.21mm
; top infill extrusion width = 0.15mm
; first layer extrusion width = 0.19mm

; external perimeters extrusion width = 0.15mm
; perimeters extrusion width = 0.17mm
; infill extrusion width = 0.24mm
; solid infill extrusion width = 0.21mm
; top infill extrusion width = 0.17mm
; first layer extrusion width = 0.19mm

; external perimeters extrusion width = 0.15mm
; perimeters extrusion width = 0.17mm
; infill extrusion width = 0.24mm
; solid infill extrusion width = 0.21mm
; top infill extrusion width = 0.15mm
; first layer extrusion width = 0.19mm

; external perimeters extrusion width = 0.15mm
; perimeters extrusion width = 0.17mm
; infill extrusion width = 0.24mm
; solid infill extrusion width = 0.21mm
; top infill extrusion width = 0.17mm
; first layer extrusion width = 0.19mm

; external perimeters extrusion width = 0.15mm
; perimeters extrusion width = 0.17mm
; infill extrusion width = 0.24mm
; solid infill extrusion width = 0.21mm
; top infill extrusion width = 0.15mm
; first layer extrusion width = 0.19mm

; external perimeters extrusion width = 0.15mm
; perimeters extrusion width = 0.17mm
; infill extrusion width = 0.24mm
; solid infill extrusion width = 0.21mm
; top infill extrusion width = 0.17mm
; first layer extrusion width = 0.19mm

; external perimeters extrusion width = 0.15mm
; perimeters extrusion width = 0.17mm
; infill extrusion width = 0.24mm
; solid infill extrusion width = 0.21mm
; top infill extrusion width = 0.15mm
; first layer extrusion width = 0.19mm

; external perimeters extrusion width = 0.15mm
; perimeters extrusion width = 0.17mm
; infill extrusion width = 0.24mm
; solid infill extrusion width = 0.21mm
; top infill extrusion width = 0.17mm
; first layer extrusion width = 0.19mm

; object:{"name":"LogoVancouver","id":"LogoVancouver.STL id:0 copy 0","object_center":[42.742050,59.993648,0.000000],"boundingbox_center":[42.742050,59.993648,2.224427],"boundingbox_size":[28.515906,11.500000,4.448854]}
EXCLUDE_OBJECT_DEFINE NAME=LogoVancouver_STL_id_0_copy_0 CENTER=42.742050,59.993648 POLYGON=[[28.484096,54.243648],[28.688026,54.243648],[57.000004,54.977248],[57.000004,65.724068],[52.091872,65.727448],[28.484096,65.743652],[28.484096,54.243648]]
; object:{"name":"LogoVancouver","id":"LogoVancouver.STL id:1 copy 0","object_center":[42.742050,77.494499,0.000000],"boundingbox_center":[42.742050,77.494499,2.224427],"boundingbox_size":[28.515906,11.500000,4.448854]}
EXCLUDE_OBJECT_DEFINE NAME=LogoVancouver_STL_id_1_copy_0 CENTER=42.742050,77.494499 POLYGON=[[28.484096,71.744496],[28.688026,71.744496],[57.000004,72.478104],[57.000004,83.224920],[52.091872,83.228296],[47.508440,83.231448],[30.058670,83.243424],[28.484096,83.244496],[28.484096,71.744496]]
; object:{"name":"LogoVancouver","id":"LogoVancouver.STL id:2 copy 0","object_center":[77.257952,59.993648,0.000000],"boundingbox_center":[77.257952,59.993648,2.224427],"boundingbox_size":[28.515906,11.500000,4.448854]}
EXCLUDE_OBJECT_DEFINE NAME=LogoVancouver_STL_id_2_copy_0 CENTER=77.257952,59.993648 POLYGON=[[62.999996,54.243648],[63.203928,54.243648],[91.515896,54.977248],[91.515896,65.724068],[86.607776,65.727448],[62.999996,65.743652],[62.999996,54.243648]]
; object:{"name":"LogoVancouver","id":"LogoVancouver.STL id:3 copy 0","object_center":[77.257952,77.494499,0.000000],"boundingbox_center":[77.257952,77.494499,2.224427],"boundingbox_size":[28.515906,11.500000,4.448854]}
EXCLUDE_OBJECT_DEFINE NAME=LogoVancouver_STL_id_3_copy_0 CENTER=77.257952,77.494499 POLYGON=[[62.999996,71.744496],[63.203928,71.744496],[91.515896,72.478104],[91.515896,83.224920],[86.607776,83.228296],[82.024336,83.231448],[64.574568,83.243424],[62.999996,83.244496],[62.999996,71.744496]]
; object:{"name":"LogoVancouver","id":"LogoVancouver.STL id:4 copy 0","object_center":[59.981937,42.504652,0.000000],"boundingbox_center":[59.981937,42.504652,2.224427],"boundingbox_size":[28.515906,11.500000,4.448854]}
EXCLUDE_OBJECT_DEFINE NAME=LogoVancouver_STL_id_4_copy_0 CENTER=59.981937,42.504652 POLYGON=[[45.723984,36.754652],[45.927912,36.754652],[74.239888,37.488252],[74.239888,48.235072],[69.331760,48.238444],[64.748320,48.241592],[47.298556,48.253572],[45.723984,48.254652],[45.723984,36.754652]]
; plater:{"center":[60.000001,59.999575,0.000000],"boundingbox_center":[60.000001,59.999575,2.224427],"boundingbox_size":[63.031808,46.489847,4.448854]}

M73 P0 R59
M73 P0 R59
;TYPE:Custom
; custom gcode: start_gcode
START_PRINT T_BED=60 T_EXTRUDER=200
; custom gcode end: start_gcode
M107
G21 ; set units to millimeters
G90 ; use absolute coordinates
M82 ; use absolute distances for extrusion
G92 E0
; custom gcode: start_filament_gcode
; Filament gcode

    PRESSURE_ADVANCE_SELECT FILAMENT=PLA
; custom gcode end: start_filament_gcode
;_TOOLCHANGE 0
M109 S200 ; set temperature and wait for it to be reached
M190 S60 ; set bed temperature and wait for it to be reached
;LAYER_CHANGE
;Z:0.1
;HEIGHT:0.1
G1 Z0.1 F12000
M73 P0 R59
G1 E-0.8 F3000
M204 S2000
G1 X39.344 Y38.784 F12000
G1 E0 F1800
;TYPE:Skirt
;WIDTH:0.195
G1 X26.262 Y52.055 E0.13445
G1 X25.718 Y52.79 E0.14105
G1 X25.324 Y54.344 E0.15261
G1 X25.324 Y83.144 E0.36041
G1 X25.853 Y84.924 E0.37381
G1 X27.031 Y86.011 E0.38537
G1 X28.584 Y86.405 E0.39693
G1 X91.418 Y86.385 E0.85028
G1 X93.196 Y85.857 E0.86366
G1 X94.282 Y84.678 E0.87522
G1 X94.676 Y83.125 E0.88678
G1 X94.676 Y55.077 E1.08915
G1 X94.547 Y54.168 E1.09577
G1 X93.735 Y52.786 E1.10734
G1 X76.459 Y35.297 E1.2847
G1 X75.767 Y34.763 E1.29101
G1 X74.225 Y34.329 E1.30257
G1 X45.98 Y33.595 E1.50642
G1 X45.824 Y33.594 E1.50755
G1 X44.873 Y33.736 E1.51448
G1 X43.502 Y34.566 E1.52605
G1 X39.344 Y38.784 E1.56878
G1 X39.468 Y38.906 F12000
G1 F1800
G1 X26.386 Y52.177 E1.70323
G1 X25.891 Y52.835 E1.70917
G1 X25.497 Y54.344 E1.72042
G1 X25.497 Y83.144 E1.92822
G1 X25.952 Y84.757 E1.94031
G1 X27.076 Y85.838 E1.95155
G1 X28.584 Y86.231 E1.9628
G1 X91.418 Y86.212 E2.41614
G1 X93.029 Y85.757 E2.42822
G1 X94.109 Y84.633 E2.43947
G1 X94.503 Y83.125 E2.45071
G1 X94.503 Y55.077 E2.65308
M73 P0 R59
G1 X94.392 Y54.257 E2.65904
G1 X93.612 Y52.908 E2.67029
G1 X76.336 Y35.419 E2.84765
G1 X74.22 Y34.503 E2.86429
G1 X45.975 Y33.769 E3.06814
M73 P0 R59
G1 X44.965 Y33.89 E3.07549
G1 X43.626 Y34.688 E3.08673
G1 X39.468 Y38.906 E3.12947
G92 E0
G1 E-0.8 F3000
; printing object LogoVancouver.STL id:0 copy 0
EXCLUDE_OBJECT_START NAME=LogoVancouver_STL_id_0_copy_0
; acceleration to travel
M204 S4000
G1 X42.749 Y53.847 F12000
; decel to extrusion
M204 S2000
G1 X44.389 Y61.317
; end travel
G1 E0 F1800
;TYPE:Internal perimeter
;WIDTH:0.1875
G1 X43.809 Y61.906 E0.00571
G1 X40.899 Y59.456 E0.03198
G1 X38.501 Y61.891 E0.05557
G1 X29.112 Y55.001 E0.13596
;WIDTH:0.151658
G1 X29.144 Y55.23 E0.13726
;WIDTH:0.1875
G1 X38.518 Y62.11 E0.21753
G1 X40.909 Y59.682 E0.24105
G1 X43.82 Y62.132 E0.26732
G1 X44.279 Y61.666 E0.27184
G1 X45.198 Y61.681 E0.27818
G1 X45.608 Y60.456 E0.2871
G1 X46.517 Y59.883 E0.29452
G1 X46.869 Y61.339 E0.30487
G1 X47.835 Y61.317 E0.31153
G1 X48.146 Y59.712 E0.32283
G1 X49.358 Y60.882 E0.33446
G1 X53.145 Y58.022 E0.36721
G1 X53.244 Y58.156 E0.36836
G1 X49.345 Y61.1 E0.40209
G1 X48.251 Y60.044 E0.41259
G1 X47.972 Y61.48 E0.42269
G1 X46.739 Y61.508 E0.4312
G1 X46.41 Y60.146 E0.44088
G1 X45.746 Y60.565 E0.44629
G1 X45.317 Y61.849 E0.45564
G1 X44.347 Y61.833 E0.46233
G1 X43.83 Y62.358 E0.46742
G1 X40.92 Y59.908 E0.49369
G1 X38.536 Y62.329 E0.51714
G1 X29.176 Y55.46 E0.59729
G1 X29.176 Y65.051 E0.6635
G1 X56.308 Y65.033 E0.8508
G1 X56.308 Y55.932 E0.91362
G1 X53.377 Y58.057 E0.93861
G1 X53.278 Y57.923 E0.93976
G1 X56.474 Y55.606 E0.96701
G1 X56.474 Y65.199 E1.03323
G1 X29.01 Y65.217 E1.22282
G1 X29.01 Y55.132 E1.29244
;WIDTH:0.151658
G1 X28.978 Y54.903 E1.29374
;WIDTH:0.1875
G1 X29.098 Y54.785 E1.2949
;TYPE:External perimeter
G1 X38.483 Y61.672 E1.37526
G1 X40.888 Y59.23 E1.39892
G1 X43.798 Y61.681 E1.42518
G1 X44.468 Y61 E1.43177
G1 X44.569 Y61.338 E1.43421
G1 X44.96 Y61.345 E1.43691
G1 X45.33 Y60.238 E1.44496
G1 X46.731 Y59.355 E1.45639
G1 X47.129 Y61.001 E1.46809
G1 X47.56 Y60.992 E1.47106
G1 X47.937 Y59.047 E1.48473
G1 X49.384 Y60.446 E1.49862
G1 X53.013 Y57.705 E1.53002
G1 X56.508 Y55.171 E1.55982
G1 X56.806 Y55.171 E1.56187
G1 X56.806 Y65.53 E1.63339
G1 X28.678 Y65.55 E1.82756
G1 X28.678 Y54.477 E1.904
G1 X28.964 Y54.687 E1.90645
;TYPE:Internal perimeter
G1 X28.844 Y54.804 E1.90762
G1 X28.844 Y65.384 E1.98065
G1 X56.64 Y65.365 E2.17253
G1 X56.64 Y55.281 E2.24214
G1 X53.112 Y57.839 E2.27222
G1 X49.371 Y60.664 E2.30458
G1 X48.041 Y59.379 E2.31735
G1 X47.697 Y61.154 E2.32983
G1 X46.999 Y61.17 E2.33465
G1 X46.624 Y59.619 E2.34567
G1 X45.469 Y60.347 E2.35509
G1 X45.079 Y61.513 E2.36358
G1 X44.445 Y61.502 E2.36796
G1 X44.389 Y61.317 E2.3693
G92 E0
G1 E-0.8 F3000
; acceleration to travel
M204 S4000
G1 X52.254 Y58.031 F12000
; decel to extrusion
M204 S2000
G1 X56.258 Y56.358
; end travel
G1 E0 F1800
;TYPE:Solid infill
;WIDTH:0.195642
G1 F2400
G1 X56.07 Y56.17 E0.00191
G1 X55.936 Y56.27 F12000
G1 F2400
G1 X56.258 Y56.593 E0.0052
G1 X56.258 Y56.828 F12000
G1 F2400
G1 X55.801 Y56.37 E0.00986
G1 X55.666 Y56.47 F12000
G1 F2400
G1 X56.258 Y57.062 E0.0159
G1 X56.258 Y57.297 F12000
G1 F2400
G1 X55.531 Y56.57 E0.0233
G1 X55.396 Y56.67 F12000
G1 F2400
G1 X56.258 Y57.532 E0.03208
G1 X56.258 Y57.767 F12000
G1 F2400
G1 X55.262 Y56.77 E0.04223
G1 X55.127 Y56.87 F12000
G1 F2400
G1 X56.258 Y58.002 E0.05376
G1 X56.258 Y58.237 F12000
G1 F2400
G1 X54.992 Y56.97 E0.06666
G1 X54.857 Y57.07 F12000
G1 F2400
G1 X56.258 Y58.471 E0.08093
G1 X56.258 Y58.706 F12000
G1 F2400
G1 X54.723 Y57.17 E0.09657
G1 X54.588 Y57.27 F12000
G1 F2400
G1 X56.258 Y58.941 E0.11359
G1 X56.258 Y59.176 F12000
G1 F2400
G1 X54.453 Y57.37 E0.13198
G1 X54.318 Y57.471 F12000
G1 F2400
G1 X56.258 Y59.411 E0.15174
G1 X56.258 Y59.645 F12000
G1 F2400
G1 X54.183 Y57.571 E0.17288
G1 X54.049 Y57.671 F12000
G1 F2400
G1 X56.258 Y59.88 E0.19538
G1 X56.258 Y60.115 F12000
G1 F2400
G1 X53.914 Y57.771 E0.21927
G1 X53.779 Y57.871 F12000
G1 F2400
G1 X56.258 Y60.35 E0.24452
G1 X56.258 Y60.585 F12000
G1 F2400
G1 X53.644 Y57.971 E0.27115
G1 X53.51 Y58.071 F12000
G1 F2400
G1 X56.258 Y60.819 E0.29915
G1 X56.258 Y61.054 F12000
G1 F2400
G1 X53.375 Y58.171 E0.32852
G1 X53.24 Y58.271 F12000
G1 F2400
G1 X56.258 Y61.289 E0.35926
G1 X56.258 Y61.524 F12000
G1 F2400
G1 X53.105 Y58.371 E0.39138
G1 X52.97 Y58.471 F12000
G1 F2400
G1 X56.258 Y61.759 E0.42487
G1 X56.258 Y61.994 F12000
G1 F2400
G1 X52.836 Y58.571 E0.45974
G1 X52.701 Y58.671 F12000
G1 F2400
G1 X56.258 Y62.228 E0.49598
G1 X56.258 Y62.463 F12000
G1 F2400
G1 X52.566 Y58.771 E0.53359
G1 X52.431 Y58.871 F12000
G1 F2400
G1 X56.258 Y62.698 E0.57257
G1 X56.258 Y62.933 F12000
G1 F2400
G1 X52.297 Y58.971 E0.61293
G1 X52.162 Y59.071 F12000
G1 F2400
G1 X56.258 Y63.168 E0.65465
G1 X56.258 Y63.402 F12000
G1 F2400
G1 X52.027 Y59.171 E0.69776
G1 X51.892 Y59.271 F12000
G1 F2400
G1 X56.258 Y63.637 E0.74223
G1 X56.258 Y63.872 F12000
G1 F2400
G1 X51.757 Y59.371 E0.78808
G1 X51.623 Y59.471 F12000
G1 F2400
G1 X56.258 Y64.107 E0.8353
G1 X56.258 Y64.342 F12000
G1 F2400
G1 X51.488 Y59.571 E0.88389
G1 X51.353 Y59.671 F12000
G1 F2400
G1 X56.258 Y64.577 E0.93386
G1 X56.258 Y64.811 F12000
G1 F2400
G1 X51.218 Y59.771 E0.9852
G1 X51.084 Y59.871 F12000
G1 F2400
G1 X56.195 Y64.983 E1.03727
G1 X55.961 Y64.983 F12000
G1 F2400
G1 X50.949 Y59.971 E1.08832
G1 X50.814 Y60.071 F12000
G1 F2400
G1 X55.726 Y64.983 E1.13835
G1 X55.491 Y64.983 F12000
G1 F2400
G1 X50.679 Y60.172 E1.18737
G1 X50.544 Y60.272 F12000
G1 F2400
G1 X55.257 Y64.984 E1.23537
G1 X55.022 Y64.984 F12000
G1 F2400
G1 X50.41 Y60.372 E1.28235
G1 X50.275 Y60.472 F12000
G1 F2400
G1 X54.787 Y64.984 E1.32831
G1 X54.553 Y64.984 F12000
G1 F2400
G1 X50.14 Y60.572 E1.37326
G1 X50.005 Y60.672 F12000
G1 F2400
G1 X54.318 Y64.984 E1.41719
G1 X54.083 Y64.984 F12000
G1 F2400
G1 X49.871 Y60.772 E1.4601
G1 X49.736 Y60.872 F12000
G1 F2400
G1 X53.849 Y64.985 E1.502
G1 X53.614 Y64.985 F12000
G1 F2400
G1 X49.601 Y60.972 E1.54287
G1 X49.466 Y61.072 F12000
G1 F2400
G1 X53.379 Y64.985 E1.58273
G1 X53.145 Y64.985 F12000
G1 F2400
G1 X48.883 Y60.723 E1.62615
G1 X48.248 Y60.323 F12000
G1 F2400
G1 X52.91 Y64.985 E1.67364
G1 X52.675 Y64.985 F12000
G1 F2400
G1 X48.209 Y60.519 E1.71913
G1 X48.171 Y60.716 F12000
G1 F2400
G1 X52.441 Y64.986 E1.76262
G1 X52.206 Y64.986 F12000
G1 F2400
G1 X48.133 Y60.913 E1.80411
G1 X48.095 Y61.109 F12000
G1 F2400
G1 X51.971 Y64.986 E1.8436
G1 X51.737 Y64.986 F12000
G1 F2400
G1 X48.057 Y61.306 E1.88108
G1 X48.019 Y61.503 F12000
G1 F2400
G1 X51.502 Y64.986 E1.91657
G1 X51.267 Y64.986 F12000
G1 F2400
G1 X47.815 Y61.534 E1.95174
G1 X47.585 Y61.539 F12000
G1 F2400
G1 X51.033 Y64.987 E1.98686
G1 X50.798 Y64.987 F12000
G1 F2400
G1 X47.356 Y61.544 E2.02192
G1 X47.126 Y61.549 F12000
G1 F2400
G1 X50.563 Y64.987 E2.05694
G1 X50.329 Y64.987 F12000
G1 F2400
G1 X46.897 Y61.555 E2.0919
; acceleration to travel
M204 S4000
G1 X46.623 Y60.968 F12000
; decel to extrusion
M204 S2000
G1 X46.487 Y60.675
; end travel
G1 F2400
G1 X46.169 Y60.357 E2.09514
G1 X46.025 Y60.448 F12000
G1 F2400
G1 X46.562 Y60.985 E2.10061
G1 X46.636 Y61.295 F12000
G1 F2400
G1 X45.881 Y60.539 E2.1083
G1 X45.767 Y60.66 F12000
G1 F2400
G1 X50.094 Y64.987 E2.15238
G1 X49.86 Y64.987 F12000
G1 F2400
G1 X45.708 Y60.836 E2.19467
G1 X45.649 Y61.012 F12000
G1 F2400
G1 X49.625 Y64.987 E2.23516
G1 X49.39 Y64.988 F12000
G1 F2400
G1 X45.591 Y61.188 E2.27387
G1 X45.532 Y61.364 F12000
G1 F2400
G1 X49.156 Y64.988 E2.31078
G1 X48.921 Y64.988 F12000
G1 F2400
G1 X45.473 Y61.54 E2.34591
G1 X45.414 Y61.716 F12000
G1 F2400
G1 X48.686 Y64.988 E2.37924
G1 X48.452 Y64.988 F12000
G1 F2400
G1 X45.355 Y61.892 E2.41078
G1 X45.124 Y61.895 F12000
G1 F2400
G1 X48.217 Y64.988 E2.44229
G1 X47.982 Y64.989 F12000
G1 F2400
G1 X44.885 Y61.891 E2.47384
G1 X44.646 Y61.888 F12000
G1 F2400
G1 X47.748 Y64.989 E2.50543
G1 X47.513 Y64.989 F12000
G1 F2400
G1 X44.408 Y61.884 E2.53706
G1 X44.271 Y61.982 F12000
G1 F2400
G1 X47.278 Y64.989 E2.56769
G1 X47.044 Y64.989 F12000
G1 F2400
G1 X44.154 Y62.1 E2.59712
G1 X44.038 Y62.218 F12000
G1 F2400
G1 X46.809 Y64.989 E2.62535
G1 X46.574 Y64.99 F12000
G1 F2400
G1 X43.921 Y62.337 E2.65238
G1 X43.471 Y62.121 F12000
G1 F2400
G1 X46.34 Y64.99 E2.6816
G1 X46.105 Y64.99 F12000
G1 F2400
G1 X41.984 Y60.869 E2.72358
; acceleration to travel
M204 S4000
G1 X41.254 Y60.296 F12000
; decel to extrusion
M204 S2000
G1 X40.89 Y60.009
; end travel
G1 F2400
G1 X45.87 Y64.99 E2.77431
G1 X45.636 Y64.99 F12000
G1 F2400
G1 X40.773 Y60.127 E2.82385
G1 X40.657 Y60.246 F12000
G1 F2400
G1 X45.401 Y64.99 E2.87218
G1 X45.166 Y64.991 F12000
G1 F2400
G1 X40.54 Y60.364 E2.91931
G1 X40.424 Y60.482 F12000
G1 F2400
G1 X44.932 Y64.991 E2.96523
G1 X44.697 Y64.991 F12000
G1 F2400
G1 X40.307 Y60.601 E3.00995
G1 X40.191 Y60.719 F12000
G1 F2400
G1 X44.462 Y64.991 E3.05346
G1 X44.228 Y64.991 F12000
G1 F2400
G1 X40.074 Y60.837 E3.09578
G1 X39.958 Y60.956 F12000
G1 F2400
G1 X43.993 Y64.991 E3.13688
G1 X43.759 Y64.992 F12000
G1 F2400
G1 X39.841 Y61.074 E3.17679
G1 X39.725 Y61.192 F12000
G1 F2400
G1 X43.524 Y64.992 E3.21549
G1 X43.289 Y64.992 F12000
G1 F2400
G1 X39.608 Y61.311 E3.25299
G1 X39.492 Y61.429 F12000
G1 F2400
G1 X43.055 Y64.992 E3.28928
G1 X42.82 Y64.992 F12000
G1 F2400
G1 X39.375 Y61.547 E3.32438
G1 X39.259 Y61.666 F12000
G1 F2400
G1 X42.585 Y64.992 E3.35826
