; HEADER_BLOCK_START
; generated by OrcaSlicer 1.6.6 on 2023-08-27 at 19:58:25
; total layer number: 28
; HEADER_BLOCK_END

; THUMBNAIL_BLOCK_START
; THUMBNAIL_BLOCK_END

; external perimeters extrusion width = 0.15mm
; perimeters extrusion width = 0.17mm
; infill extrusion width = 0.24mm
; solid infill extrusion width = 0.21mm
; top infill extrusion width = 0.15mm
; first layer extrusion width = 0.19mm

; external perimeters extrusion width = 0.15mm
; perimeters extrusion width = 0.17mm
; infill extrusion width = 0.24mm
; solid infill extrusion width = 0.21mm
; top infill extrusion width = 0.15mm
; first layer extrusion width = 0.19mm

; external perimeters extrusion width = 0.15mm
; perimeters extrusion width = 0.17mm
; infill extrusion width = 0.24mm
; solid infill extrusion width = 0.21mm
; top infill extrusion width = 0.15mm
; first layer extrusion width = 0.19mm

; EXECUTABLE_BLOCK_START
EXCLUDE_OBJECT_DEFINE NAME=LogoBase-80p.STL_id_0_copy_0 CENTER=77.638,72.6 POLYGON=[[62.5,62.5],[92.7759,62.5],[92.7759,82.6791],[62.5,82.7],[62.5,62.5]]
EXCLUDE_OBJECT_DEFINE NAME=LogoBase-80p.STL_id_1_copy_0 CENTER=77.638,47.3993 POLYGON=[[62.5,37.2993],[92.7759,37.2993],[92.7759,57.4784],[62.5,57.4993],[62.5,37.2993]]
EXCLUDE_OBJECT_DEFINE NAME=LogoBase-80p.STL_id_2_copy_0 CENTER=42.362,59.9996 POLYGON=[[27.2241,49.8996],[57.5,49.8996],[57.5,70.0787],[27.2241,70.0996],[27.2241,49.8996]]
M73 P0 R24
;TYPE:Custom
START_PRINT T_BED=60 T_EXTRUDER=220
G90
G21
M83 ; use relative distances for extrusion
; filament start gcode

    PRESSURE_ADVANCE_SELECT FILAMENT=PLA
M106 S0
;LAYER_CHANGE
;Z:0.1
;HEIGHT:0.1
;BEFORE_LAYER_CHANGE
;0.1
G92 E0

;AFTER_LAYER_CHANGE
;0.1
SET_VELOCITY_LIMIT ACCEL=500 ACCEL_TO_DECEL=250
SET_VELOCITY_LIMIT SQUARE_CORNER_VELOCITY=9
G1 E-.8 F3000
G1 Z.2 F21000
G1 X26.44 Y47.703
G1 Z.2
G1 Z.1
G1 E.8 F1800
;TYPE:Skirt
;WIDTH:0.1875
G1 F3000
G1 X61.716 Y35.103 E.25341
G1 X62.5 Y34.967 E.00539
G1 X92.776 Y34.967 E.20482
G1 X94.069 Y35.359 E.00914
G1 X94.928 Y36.402 E.00914
G1 X95.108 Y37.299 E.00619
G1 X95.108 Y82.679 E.307
G1 X94.717 Y83.972 E.00914
G1 X93.674 Y84.831 E.00914
G1 X92.778 Y85.011 E.00618
G1 X62.502 Y85.032 E.20482
G1 X61.716 Y84.896 E.0054
G1 X26.44 Y72.296 E.25341
G1 X25.353 Y71.492 E.00914
G1 X24.892 Y70.1 E.00992
G1 X24.892 Y49.9 E.13665
G1 X25.283 Y48.606 E.00914
G1 X26.428 Y47.713 E.00982
G1 X26.495 Y47.86 F21000
G1 F3000
G1 X61.771 Y35.259 E.25341
G1 X62.5 Y35.133 E.005
G1 X92.776 Y35.133 E.20482
G1 X94.017 Y35.524 E.0088
G1 X94.81 Y36.555 E.0088
G1 X94.942 Y37.299 E.00511
G1 X94.942 Y82.679 E.307
G1 X94.551 Y83.92 E.0088
G1 X93.52 Y84.713 E.0088
G1 X92.777 Y84.845 E.0051
G1 X62.501 Y84.866 E.20482
G1 X61.771 Y84.74 E.00501
G1 X26.495 Y72.139 E.25341
G1 X25.458 Y71.354 E.0088
G1 X25.058 Y70.1 E.00891
G1 X25.058 Y49.9 E.13665
G1 X25.449 Y48.659 E.0088
G1 X26.484 Y47.869 E.00881
; printing object LogoBase-80p.STL id:2 copy 0
G1 E-.8
EXCLUDE_OBJECT_START NAME=LogoBase-80p.STL_id_2_copy_0
G1 Z.3 F21000
G1 X27.318 Y70.006 Z.3
G1 Z.1
G1 E.8 F1800
;TYPE:Outer wall
;WIDTH:0.187499
G1 F3000
G1 X27.318 Y49.993 E.13538
G1 X57.406 Y49.993 E.20355
G1 X57.406 Y59.993 E.06765
G1 X57.406 Y69.985 E.0676
G1 X27.333 Y70.006 E.20345
G1 X27.484 Y69.84 F21000
;TYPE:Inner wall
G1 F3000
G1 X27.484 Y50.159 E.13314
G1 X57.24 Y50.159 E.2013
G1 X57.24 Y59.993 E.06652
G1 X57.24 Y69.819 E.06648
G1 X27.499 Y69.84 E.2012
M73 P1 R24
G1 X27.65 Y69.674 F21000
G1 F3000
G1 X27.65 Y50.325 E.13089
G1 X57.074 Y50.325 E.19906
G1 X57.074 Y59.993 E.0654
G1 X57.074 Y69.653 E.06535
G1 X27.665 Y69.674 E.19895
G1 E-.8
G1 Z.3 F21000
G1 X56.687 Y50.375 Z.3
G1 Z.1
G1 E.8 F1800
;TYPE:Bottom surface
;WIDTH:0.188303
G1 F6300
G1 X56.95 Y50.638 E.00253
G1 X56.95 Y50.874 E.0016
G1 X56.526 Y50.45 E.00408
G1 X56.29 Y50.45 E.0016
G1 X56.95 Y51.11 E.00634
G1 X56.95 Y51.346 E.0016
G1 X56.054 Y50.45 E.00861
G1 X55.818 Y50.45 E.0016
G1 X56.95 Y51.582 E.01088
G1 X56.95 Y51.818 E.0016
G1 X55.582 Y50.45 E.01315
G1 X55.346 Y50.45 E.0016
G1 X56.95 Y52.054 E.01542
G1 X56.95 Y52.29 E.0016
G1 X55.11 Y50.45 E.01769
G1 X54.874 Y50.45 E.0016
G1 X56.95 Y52.526 E.01995
G1 X56.95 Y52.762 E.0016
G1 X54.638 Y50.45 E.02222
G1 X54.402 Y50.45 E.0016
G1 X56.95 Y52.997 E.02449
G1 X56.95 Y53.233 E.0016
G1 X54.166 Y50.45 E.02676
G1 X53.93 Y50.45 E.0016
G1 X56.95 Y53.469 E.02903
G1 X56.95 Y53.705 E.0016
G1 X53.694 Y50.45 E.0313
G1 X53.458 Y50.45 E.0016
G1 X56.95 Y53.941 E.03356
G1 X56.95 Y54.177 E.0016
G1 X53.222 Y50.45 E.03583
G1 X52.986 Y50.45 E.0016
G1 X56.95 Y54.413 E.0381
G1 X56.95 Y54.649 E.0016
G1 X52.751 Y50.45 E.04037
G1 X52.515 Y50.45 E.0016
G1 X56.95 Y54.885 E.04264
G1 X56.95 Y55.121 E.0016
G1 X52.279 Y50.45 E.04491
G1 X52.043 Y50.45 E.0016
G1 X56.95 Y55.357 E.04717
G1 X56.95 Y55.593 E.0016
G1 X51.807 Y50.45 E.04944
G1 X51.571 Y50.45 E.0016
G1 X56.95 Y55.829 E.05171
G1 X56.95 Y56.065 E.0016
G1 X51.335 Y50.45 E.05398
G1 X51.099 Y50.45 E.0016
G1 X56.95 Y56.301 E.05625
G1 X56.95 Y56.537 E.0016
G1 X50.863 Y50.45 E.05852
G1 X50.627 Y50.45 E.0016
G1 X56.95 Y56.773 E.06078
G1 X56.95 Y57.009 E.0016
G1 X50.391 Y50.45 E.06305
G1 X50.155 Y50.45 E.0016
G1 X56.95 Y57.245 E.06532
G1 X56.95 Y57.481 E.0016
G1 X49.919 Y50.45 E.06759
G1 X49.683 Y50.45 E.0016
G1 X56.95 Y57.716 E.06986
G1 X56.95 Y57.952 E.0016
G1 X49.447 Y50.45 E.07213
G1 X49.211 Y50.45 E.0016
G1 X56.95 Y58.188 E.07439
G1 X56.95 Y58.424 E.0016
G1 X48.975 Y50.45 E.07666
G1 X48.739 Y50.45 E.0016
G1 X56.95 Y58.66 E.07893
G1 X56.95 Y58.896 E.0016
G1 X48.503 Y50.45 E.0812
G1 X48.267 Y50.45 E.0016
G1 X56.95 Y59.132 E.08347
G1 X56.95 Y59.368 E.0016
G1 X48.031 Y50.45 E.08574
G1 X47.796 Y50.45 E.0016
G1 X56.95 Y59.604 E.088
G1 X56.95 Y59.84 E.0016
G1 X47.56 Y50.45 E.09027
G1 X47.324 Y50.45 E.0016
G1 X56.95 Y60.076 E.09254
G1 X56.95 Y60.312 E.0016
G1 X47.088 Y50.45 E.09481
G1 X46.852 Y50.45 E.0016
G1 X56.95 Y60.548 E.09708
G1 X56.95 Y60.784 E.0016
G1 X46.616 Y50.45 E.09935
G1 X46.38 Y50.45 E.0016
G1 X56.95 Y61.02 E.10161
G1 X56.95 Y61.256 E.0016
G1 X46.144 Y50.45 E.10388
G1 X45.908 Y50.45 E.0016
G1 X56.95 Y61.492 E.10615
G1 X56.95 Y61.728 E.0016
G1 X45.672 Y50.45 E.10842
G1 X45.436 Y50.45 E.0016
G1 X56.95 Y61.964 E.11069
G1 X56.95 Y62.2 E.0016
G1 X45.2 Y50.45 E.11296
G1 X44.964 Y50.45 E.0016
G1 X56.95 Y62.436 E.11522
M73 P2 R24
G1 X56.95 Y62.671 E.0016
G1 X44.728 Y50.45 E.11749
G1 X44.492 Y50.45 E.0016
G1 X56.95 Y62.907 E.11976
G1 X56.95 Y63.143 E.0016
G1 X44.256 Y50.45 E.12203
G1 X44.02 Y50.45 E.0016
G1 X56.95 Y63.379 E.1243
G1 X56.95 Y63.615 E.0016
G1 X43.784 Y50.45 E.12657
G1 X43.548 Y50.45 E.0016
G1 X56.95 Y63.851 E.12883
G1 X56.95 Y64.087 E.0016
G1 X43.312 Y50.45 E.1311
G1 X43.077 Y50.45 E.0016
G1 X56.95 Y64.323 E.13337
G1 X56.95 Y64.559 E.0016
G1 X42.841 Y50.45 E.13564
G1 X42.605 Y50.45 E.0016
G1 X56.95 Y64.795 E.13791
G1 X56.95 Y65.031 E.0016
G1 X42.369 Y50.45 E.14018
G1 X42.133 Y50.45 E.0016
G1 X56.95 Y65.267 E.14244
G1 X56.95 Y65.503 E.0016
G1 X41.897 Y50.45 E.14471
G1 X41.661 Y50.45 E.0016
G1 X56.95 Y65.739 E.14698
G1 X56.95 Y65.975 E.0016
G1 X41.425 Y50.45 E.14925
G1 X41.189 Y50.45 E.0016
G1 X56.95 Y66.211 E.15152
G1 X56.95 Y66.447 E.0016
G1 X40.953 Y50.45 E.15378
G1 X40.717 Y50.45 E.0016
G1 X56.95 Y66.683 E.15605
G1 X56.95 Y66.919 E.0016
G1 X40.481 Y50.45 E.15832
G1 X40.245 Y50.45 E.0016
G1 X56.95 Y67.155 E.16059
G1 X56.95 Y67.391 E.0016
G1 X40.009 Y50.45 E.16286
G1 X39.773 Y50.45 E.0016
G1 X56.95 Y67.626 E.16513
G1 X56.95 Y67.862 E.0016
G1 X39.537 Y50.45 E.16739
G1 X39.301 Y50.45 E.0016
G1 X56.95 Y68.098 E.16966
G1 X56.95 Y68.334 E.0016
G1 X39.065 Y50.45 E.17193
G1 X38.829 Y50.45 E.0016
G1 X56.95 Y68.57 E.1742
G1 X56.95 Y68.806 E.0016
G1 X38.593 Y50.45 E.17647
G1 X38.357 Y50.45 E.0016
G1 X56.95 Y69.042 E.17874
G1 X56.95 Y69.278 E.0016
G1 X38.122 Y50.45 E.181
G1 X37.886 Y50.45 E.0016
G1 X56.95 Y69.529 E.18334
G1 X56.729 Y69.529 E.0015
G1 X37.65 Y50.45 E.18342
G1 X37.414 Y50.45 E.0016
G1 X56.493 Y69.529 E.18342
G1 X56.257 Y69.529 E.0016
G1 X37.178 Y50.45 E.18342
G1 X36.942 Y50.45 E.0016
G1 X56.021 Y69.529 E.18342
G1 X55.785 Y69.53 E.0016
G1 X36.706 Y50.45 E.18342
G1 X36.47 Y50.45 E.0016
G1 X55.55 Y69.53 E.18342
G1 X55.314 Y69.53 E.0016
G1 X36.234 Y50.45 E.18343
M73 P3 R24
G1 X35.998 Y50.45 E.0016
G1 X55.078 Y69.53 E.18343
G1 X54.842 Y69.53 E.0016
G1 X35.762 Y50.45 E.18343
G1 X35.526 Y50.45 E.0016
G1 X54.606 Y69.53 E.18343
M73 P3 R23
G1 X54.371 Y69.531 E.0016
G1 X35.29 Y50.45 E.18343
G1 X35.054 Y50.45 E.0016
G1 X54.135 Y69.531 E.18343
G1 X53.899 Y69.531 E.0016
G1 X34.818 Y50.45 E.18343
G1 X34.582 Y50.45 E.0016
G1 X53.663 Y69.531 E.18344
G1 X53.428 Y69.531 E.0016
G1 X34.346 Y50.45 E.18344
G1 X34.11 Y50.45 E.0016
G1 X53.192 Y69.531 E.18344
G1 X52.956 Y69.532 E.0016
G1 X33.874 Y50.45 E.18344
G1 X33.638 Y50.45 E.0016
G1 X52.72 Y69.532 E.18344
G1 X52.484 Y69.532 E.0016
G1 X33.402 Y50.45 E.18344
G1 X33.167 Y50.45 E.0016
G1 X52.249 Y69.532 E.18345
G1 X52.013 Y69.532 E.0016
G1 X32.931 Y50.45 E.18345
G1 X32.695 Y50.45 E.0016
G1 X51.777 Y69.532 E.18345
G1 X51.541 Y69.533 E.0016
G1 X32.459 Y50.45 E.18345
G1 X32.223 Y50.45 E.0016
G1 X51.305 Y69.533 E.18345
G1 X51.07 Y69.533 E.0016
G1 X31.987 Y50.45 E.18345
G1 X31.751 Y50.45 E.0016
G1 X50.834 Y69.533 E.18346
G1 X50.598 Y69.533 E.0016
G1 X31.515 Y50.45 E.18346
G1 X31.279 Y50.45 E.0016
G1 X50.362 Y69.533 E.18346
G1 X50.126 Y69.533 E.0016
G1 X31.043 Y50.45 E.18346
G1 X30.807 Y50.45 E.0016
G1 X49.891 Y69.534 E.18346
G1 X49.655 Y69.534 E.0016
G1 X30.571 Y50.45 E.18346
G1 X30.335 Y50.45 E.0016
G1 X49.419 Y69.534 E.18346
G1 X49.183 Y69.534 E.0016
G1 X30.099 Y50.45 E.18347
G1 X29.863 Y50.45 E.0016
G1 X48.948 Y69.534 E.18347
G1 X48.712 Y69.534 E.0016
G1 X29.627 Y50.45 E.18347
G1 X29.391 Y50.45 E.0016
G1 X48.476 Y69.535 E.18347
G1 X48.24 Y69.535 E.0016
G1 X29.155 Y50.45 E.18347
G1 X28.919 Y50.45 E.0016
G1 X48.004 Y69.535 E.18347
G1 X47.769 Y69.535 E.0016
G1 X28.683 Y50.45 E.18348
G1 X28.448 Y50.45 E.0016
G1 X47.533 Y69.535 E.18348
M73 P4 R23
G1 X47.297 Y69.535 E.0016
G1 X28.212 Y50.45 E.18348
G1 X27.976 Y50.45 E.0016
G1 X47.061 Y69.536 E.18348
G1 X46.825 Y69.536 E.0016
G1 X27.774 Y50.485 E.18315
G1 X27.774 Y50.721 E.0016
G1 X46.59 Y69.536 E.18088
G1 X46.354 Y69.536 E.0016
G1 X27.774 Y50.957 E.17861
G1 X27.774 Y51.193 E.0016
G1 X46.118 Y69.536 E.17635
G1 X45.882 Y69.536 E.0016
G1 X27.774 Y51.429 E.17408
G1 X27.774 Y51.665 E.0016
G1 X45.646 Y69.537 E.17181
G1 X45.411 Y69.537 E.0016
G1 X27.774 Y51.9 E.16955
G1 X27.774 Y52.136 E.0016
G1 X45.175 Y69.537 E.16728
G1 X44.939 Y69.537 E.0016
G1 X27.774 Y52.372 E.16501
G1 X27.774 Y52.608 E.0016
G1 X44.703 Y69.537 E.16275
G1 X44.468 Y69.537 E.0016
G1 X27.774 Y52.844 E.16048
G1 X27.774 Y53.08 E.0016
G1 X44.232 Y69.538 E.15821
G1 X43.996 Y69.538 E.0016
G1 X27.774 Y53.316 E.15595
G1 X27.774 Y53.552 E.0016
G1 X43.76 Y69.538 E.15368
G1 X43.524 Y69.538 E.0016
G1 X27.774 Y53.788 E.15141
G1 X27.774 Y54.024 E.0016
G1 X43.289 Y69.538 E.14915
G1 X43.053 Y69.538 E.0016
G1 X27.774 Y54.26 E.14688
G1 X27.774 Y54.496 E.0016
G1 X42.817 Y69.539 E.14461
G1 X42.581 Y69.539 E.0016
G1 X27.774 Y54.732 E.14235
G1 X27.774 Y54.968 E.0016
G1 X42.345 Y69.539 E.14008
G1 X42.11 Y69.539 E.0016
G1 X27.774 Y55.204 E.13781
G1 X27.774 Y55.44 E.0016
G1 X41.874 Y69.539 E.13555
G1 X41.638 Y69.539 E.0016
G1 X27.774 Y55.676 E.13328
G1 X27.774 Y55.912 E.0016
G1 X41.402 Y69.54 E.13101
G1 X41.166 Y69.54 E.0016
G1 X27.774 Y56.148 E.12874
G1 X27.774 Y56.384 E.0016
G1 X40.931 Y69.54 E.12648
G1 X40.695 Y69.54 E.0016
G1 X27.774 Y56.62 E.12421
G1 X27.774 Y56.855 E.0016
G1 X40.459 Y69.54 E.12194
G1 X40.223 Y69.54 E.0016
G1 X27.774 Y57.091 E.11968
G1 X27.774 Y57.327 E.0016
G1 X39.988 Y69.54 E.11741
G1 X39.752 Y69.541 E.0016
G1 X27.774 Y57.563 E.11514
G1 X27.774 Y57.799 E.0016
G1 X39.516 Y69.541 E.11288
G1 X39.28 Y69.541 E.0016
G1 X27.774 Y58.035 E.11061
G1 X27.774 Y58.271 E.0016
G1 X39.044 Y69.541 E.10834
G1 X38.809 Y69.541 E.0016
G1 X27.774 Y58.507 E.10608
G1 X27.774 Y58.743 E.0016
G1 X38.573 Y69.541 E.10381
M73 P5 R23
G1 X38.337 Y69.542 E.0016
G1 X27.774 Y58.979 E.10154
G1 X27.774 Y59.215 E.0016
G1 X38.101 Y69.542 E.09928
G1 X37.865 Y69.542 E.0016
G1 X27.774 Y59.451 E.09701
G1 X27.774 Y59.687 E.0016
G1 X37.63 Y69.542 E.09474
G1 X37.394 Y69.542 E.0016
G1 X27.774 Y59.923 E.09248
G1 X27.774 Y60.159 E.0016
G1 X37.158 Y69.542 E.09021
G1 X36.922 Y69.543 E.0016
G1 X27.774 Y60.395 E.08794
G1 X27.774 Y60.631 E.0016
G1 X36.686 Y69.543 E.08568
G1 X36.451 Y69.543 E.0016
G1 X27.774 Y60.867 E.08341
G1 X27.774 Y61.103 E.0016
G1 X36.215 Y69.543 E.08114
G1 X35.979 Y69.543 E.0016
G1 X27.774 Y61.339 E.07888
G1 X27.774 Y61.575 E.0016
G1 X35.743 Y69.543 E.07661
G1 X35.508 Y69.544 E.0016
G1 X27.774 Y61.81 E.07434
G1 X27.774 Y62.046 E.0016
G1 X35.272 Y69.544 E.07208
G1 X35.036 Y69.544 E.0016
G1 X27.774 Y62.282 E.06981
G1 X27.774 Y62.518 E.0016
G1 X34.8 Y69.544 E.06754
G1 X34.564 Y69.544 E.0016
G1 X27.774 Y62.754 E.06528
G1 X27.774 Y62.99 E.0016
G1 X34.329 Y69.544 E.06301
G1 X34.093 Y69.545 E.0016
G1 X27.774 Y63.226 E.06074
G1 X27.774 Y63.462 E.0016
G1 X33.857 Y69.545 E.05848
G1 X33.621 Y69.545 E.0016
G1 X27.774 Y63.698 E.05621
G1 X27.774 Y63.934 E.0016
G1 X33.385 Y69.545 E.05394
G1 X33.15 Y69.545 E.0016
G1 X27.774 Y64.17 E.05167
G1 X27.774 Y64.406 E.0016
G1 X32.914 Y69.545 E.04941
G1 X32.678 Y69.546 E.0016
G1 X27.774 Y64.642 E.04714
G1 X27.774 Y64.878 E.0016
G1 X32.442 Y69.546 E.04487
G1 X32.207 Y69.546 E.0016
G1 X27.774 Y65.114 E.04261
G1 X27.774 Y65.35 E.0016
G1 X31.971 Y69.546 E.04034
G1 X31.735 Y69.546 E.0016
G1 X27.774 Y65.586 E.03807
G1 X27.774 Y65.822 E.0016
G1 X31.499 Y69.546 E.03581
G1 X31.263 Y69.547 E.0016
G1 X27.774 Y66.058 E.03354
G1 X27.774 Y66.294 E.0016
G1 X31.028 Y69.547 E.03127
G1 X30.792 Y69.547 E.0016
G1 X27.774 Y66.529 E.02901
G1 X27.774 Y66.765 E.0016
G1 X30.556 Y69.547 E.02674
G1 X30.32 Y69.547 E.0016
G1 X27.774 Y67.001 E.02447
G1 X27.774 Y67.237 E.0016
G1 X30.084 Y69.547 E.02221
G1 X29.849 Y69.547 E.0016
G1 X27.774 Y67.473 E.01994
G1 X27.774 Y67.709 E.0016
G1 X29.613 Y69.548 E.01767
G1 X29.377 Y69.548 E.0016
G1 X27.774 Y67.945 E.01541
G1 X27.774 Y68.181 E.0016
G1 X29.141 Y69.548 E.01314
G1 X28.905 Y69.548 E.0016
G1 X27.774 Y68.417 E.01087
G1 X27.774 Y68.653 E.0016
G1 X28.67 Y69.548 E.00861
G1 X28.434 Y69.548 E.0016
G1 X27.774 Y68.889 E.00634
G1 X27.774 Y69.125 E.0016
G1 X28.198 Y69.549 E.00407
G1 X27.962 Y69.549 E.0016
G1 X27.7 Y69.286 E.00252
; stop printing object LogoBase-80p.STL id:2 copy 0
; printing object LogoBase-80p.STL id:0 copy 0
G1 E-.8 F3000
EXCLUDE_OBJECT_END NAME=LogoBase-80p.STL_id_2_copy_0
EXCLUDE_OBJECT_START NAME=LogoBase-80p.STL_id_0_copy_0
G1 Z.3 F21000
G1 X62.594 Y82.606 Z.3
G1 Z.1
G1 E.8 F1800
;TYPE:Outer wall
;WIDTH:0.187499
G1 F3000
G1 X62.594 Y62.594 E.13538
G1 X92.682 Y62.594 E.20355
G1 X92.682 Y72.593 E.06765
G1 X92.682 Y82.585 E.0676
G1 X62.609 Y82.606 E.20345
G1 X62.76 Y82.44 F21000
;TYPE:Inner wall
G1 F3000
G1 X62.76 Y62.76 E.13314
G1 X92.516 Y62.76 E.2013
G1 X92.516 Y72.593 E.06652
G1 X92.516 Y82.419 E.06648
G1 X62.775 Y82.44 E.2012
G1 X62.926 Y82.274 F21000
M73 P6 R23
G1 F3000
G1 X62.926 Y62.926 E.13089
G1 X92.35 Y62.926 E.19906
G1 X92.35 Y72.593 E.0654
G1 X92.35 Y82.254 E.06535
G1 X62.941 Y82.274 E.19895
G1 E-.8
G1 Z.3 F21000
G1 X91.963 Y62.976 Z.3
G1 Z.1
G1 E.8 F1800
;TYPE:Bottom surface
;WIDTH:0.188303
G1 F6300
G1 X92.226 Y63.238 E.00253
G1 X92.226 Y63.474 E.0016
G1 X91.802 Y63.05 E.00408
G1 X91.566 Y63.05 E.0016
G1 X92.226 Y63.71 E.00634
G1 X92.226 Y63.946 E.0016
G1 X91.33 Y63.05 E.00861
G1 X91.094 Y63.05 E.0016
G1 X92.226 Y64.182 E.01088
G1 X92.226 Y64.418 E.0016
G1 X90.858 Y63.05 E.01315
G1 X90.622 Y63.05 E.0016
G1 X92.226 Y64.654 E.01542
G1 X92.226 Y64.89 E.0016
G1 X90.386 Y63.05 E.01769
G1 X90.15 Y63.05 E.0016
G1 X92.226 Y65.126 E.01995
G1 X92.226 Y65.362 E.0016
G1 X89.914 Y63.05 E.02222
G1 X89.678 Y63.05 E.0016
G1 X92.226 Y65.598 E.02449
G1 X92.226 Y65.834 E.0016
G1 X89.442 Y63.05 E.02676
G1 X89.206 Y63.05 E.0016
G1 X92.226 Y66.07 E.02903
G1 X92.226 Y66.306 E.0016
G1 X88.97 Y63.05 E.0313
G1 X88.734 Y63.05 E.0016
G1 X92.226 Y66.542 E.03356
G1 X92.226 Y66.778 E.0016
G1 X88.498 Y63.05 E.03583
G1 X88.262 Y63.05 E.0016
