; HEADER_BLOCK_START
; generated by OrcaSlicer 1.6.4-beta3 on 2023-08-19 at 16:39:07
; total layer number: 44
; HEADER_BLOCK_END

; THUMBNAIL_BLOCK_START
; THUMBNAIL_BLOCK_END

; external perimeters extrusion width = 0.15mm
; perimeters extrusion width = 0.17mm
; infill extrusion width = 0.24mm
; solid infill extrusion width = 0.21mm
; top infill extrusion width = 0.15mm
; first layer extrusion width = 0.19mm

; external perimeters extrusion width = 0.15mm
; perimeters extrusion width = 0.17mm
; infill extrusion width = 0.24mm
; solid infill extrusion width = 0.21mm
; top infill extrusion width = 0.15mm
; first layer extrusion width = 0.19mm

; external perimeters extrusion width = 0.15mm
; perimeters extrusion width = 0.17mm
; infill extrusion width = 0.24mm
; solid infill extrusion width = 0.21mm
; top infill extrusion width = 0.15mm
; first layer extrusion width = 0.19mm

; EXECUTABLE_BLOCK_START
EXCLUDE_OBJECT_DEFINE NAME=LogoVancouver.STL_id_0_copy_0 CENTER=60.0077,76.1935 POLYGON=[[45.7498,70.5969],[45.9537,70.5969],[74.2657,71.3109],[74.2657,81.771],[69.3575,81.7743],[64.7741,81.7774],[47.3243,81.789],[45.7498,81.7901],[45.7498,70.5969]]
EXCLUDE_OBJECT_DEFINE NAME=LogoVancouver.STL_id_1_copy_0 CENTER=60.0077,59.9997 POLYGON=[[45.7498,54.4031],[45.9537,54.4031],[74.2657,55.1171],[74.2657,65.5772],[69.3575,65.5805],[64.7741,65.5835],[47.3243,65.5952],[45.7498,65.5962],[45.7498,54.4031]]
EXCLUDE_OBJECT_DEFINE NAME=LogoVancouver.STL_id_2_copy_0 CENTER=59.9923,43.8058 POLYGON=[[45.7343,38.2092],[45.9383,38.2092],[74.2502,38.9233],[74.2502,49.3833],[69.3421,49.3866],[64.7587,49.3897],[47.3089,49.4013],[45.7343,49.4024],[45.7343,38.2092]]
M73 P0 R20
M73 C14
;TYPE:Custom
START_PRINT T_BED=60 T_EXTRUDER=220
G90
G21
M83 ; use relative distances for extrusion
; filament start gcode

    PRESSURE_ADVANCE_SELECT FILAMENT=PLA
M106 S0
;LAYER_CHANGE
;Z:0.1
;HEIGHT:0.1
;BEFORE_LAYER_CHANGE
;0.1
G92 E0

;AFTER_LAYER_CHANGE
;0.1
SET_VELOCITY_LIMIT ACCEL=500 ACCEL_TO_DECEL=250
SET_VELOCITY_LIMIT SQUARE_CORNER_VELOCITY=9
G1 E-.8 F3000
G1 Z.2 F21000
G1 X43.794 Y36.916
G1 Z.2
G1 Z.1
G1 E.8 F1800
;TYPE:Skirt
;WIDTH:0.1875
G1 F3000
G1 X44.837 Y36.057 E.00914
G1 X45.997 Y35.878 E.00794
G1 X74.309 Y36.592 E.19159
G1 X75.592 Y37.016 E.00914
G1 X76.425 Y38.08 E.00914
G1 X76.582 Y38.921 E.00579
G1 X76.598 Y81.771 E.28988
G1 X76.206 Y83.064 E.00914
G1 X75.163 Y83.923 E.00914
G1 X74.267 Y84.103 E.00618
G1 X45.751 Y84.122 E.19291
G1 X44.458 Y83.732 E.00914
G1 X43.598 Y82.689 E.00914
G1 X43.418 Y81.791 E.0062
G1 X43.402 Y38.209 E.29483
G1 X43.789 Y36.93 E.00904
G1 X43.955 Y36.982 F21000
G1 F3000
G1 X43.959 Y36.968 E.0001
G1 X44.99 Y36.175 E.0088
G1 X45.993 Y36.044 E.00684
G1 X74.305 Y36.758 E.19159
G1 X75.536 Y37.18 E.0088
G1 X76.303 Y38.231 E.0088
G1 X76.416 Y38.921 E.00473
G1 X76.432 Y81.771 E.28988
G1 X76.041 Y83.012 E.0088
G1 X75.01 Y83.805 E.0088
G1 X74.267 Y83.937 E.0051
G1 X45.751 Y83.956 E.19291
G1 X44.51 Y83.566 E.0088
G1 X43.716 Y82.535 E.0088
G1 X43.584 Y81.791 E.00511
G1 X43.568 Y38.209 E.29483
G1 X43.95 Y36.997 E.0086
; printing object LogoVancouver.STL id:0 copy 0
G1 E-.8
EXCLUDE_OBJECT_START NAME=LogoVancouver.STL_id_0_copy_0
G1 Z.3 F21000
G1 X64.658 Y77.163 Z.3
G1 Z.1
G1 E.8 F1800
;TYPE:Outer wall
;WIDTH:0.187499
G1 F3000
G1 X64.737 Y77.096 E.0007
G1 X65.139 Y75.079 E.01391
G1 X66.608 Y76.46 E.01364
G1 X66.714 Y76.467 E.00072
G3 X73.741 Y71.405 I134.577 J179.411 E.05859
G1 X74.172 Y71.405 E.00291
G1 X74.172 Y71.732 E.00221
G1 X74.172 Y81.677 E.06728
G1 X45.844 Y81.696 E.19164
G1 X45.844 Y70.691 E.07445
G1 X45.924 Y70.691 E.00054
G1 X55.681 Y77.66 E.08112
G2 X55.788 Y77.652 I.048 J-.068 E.00079
G1 X58.147 Y75.319 E.02245
G1 X61 Y77.657 E.02495
G1 X61.026 Y77.672 E.0002
G1 X61.111 Y77.652 E.00059
G1 X61.781 Y76.989 E.00638
G1 X61.91 Y77.407 E.00296
G1 X61.962 Y77.461 E.00051
G2 X62.154 Y77.411 I.065 J-.148 E.00145
G1 X62.512 Y76.37 E.00745
G1 X64.062 Y75.419 E.0123
G1 X64.409 Y76.816 E.00974
G1 X64.512 Y77.149 E.00236
G1 X64.643 Y77.161 E.00089
G1 X64.701 Y77.313 F21000
;TYPE:Inner wall
G1 F3000
G1 X64.822 Y77.265 E.00088
G1 X64.9 Y77.129 E.00106
G1 X65.243 Y75.405 E.01189
G1 X66.494 Y76.581 E.01161
G1 X66.645 Y76.648 E.00112
G1 X66.812 Y76.601 E.00118
G3 X73.752 Y71.6 I132.936 J177.179 E.05787
G1 X74.006 Y71.571 E.00173
G1 X74.006 Y71.732 E.00109
G1 X74.006 Y81.511 E.06616
G1 X46.01 Y81.53 E.1894
M73 P1 R20
G1 X46.01 Y70.956 E.07153
G1 X55.585 Y77.795 E.0796
G1 X55.73 Y77.842 E.00103
G1 X55.904 Y77.77 E.00128
G1 X58.158 Y75.542 E.02143
G1 X60.895 Y77.786 E.02394
G1 X61.053 Y77.842 E.00114
G1 X61.228 Y77.77 E.00128
G1 X61.703 Y77.3 E.00452
G1 X61.751 Y77.456 E.0011
G1 X61.906 Y77.618 E.00152
G2 X62.228 Y77.581 I.119 J-.384 E.00225
G1 X62.311 Y77.465 E.00097
G1 X62.65 Y76.48 E.00704
G1 X63.955 Y75.679 E.01036
G2 X64.351 Y77.217 I21.702 J-4.764 E.01074
G1 X64.46 Y77.31 E.00097
G1 X64.662 Y77.329 E.00137
G1 X64.687 Y77.319 E.00019
G1 X64.743 Y77.481 F21000
G1 F3000
G1 X64.933 Y77.389 E.00143
G1 X65.063 Y77.161 E.00177
G1 X65.348 Y75.732 E.00986
G1 X66.38 Y76.702 E.00959
G2 X66.665 Y76.815 I.284 J-.302 E.00212
G1 X66.91 Y76.734 E.00175
G3 X73.84 Y71.741 I132.74 J176.914 E.05778
G1 X73.84 Y81.345 E.06497
G1 X46.176 Y81.364 E.18715
G1 X46.176 Y71.279 E.06823
G1 X55.488 Y77.93 E.07742
G2 X55.801 Y78.002 I.241 J-.338 E.00223
G1 X56.021 Y77.888 E.00167
G1 X58.168 Y75.766 E.02042
G1 X60.789 Y77.914 E.02293
G2 X61.053 Y78.008 I.263 J-.321 E.00193
G1 X61.272 Y77.946 E.00154
G1 X61.661 Y77.576 E.00363
G1 X61.851 Y77.775 E.00186
G1 X62.148 Y77.793 E.00201
G1 X62.33 Y77.713 E.00134
G1 X62.468 Y77.519 E.00161
G1 X62.787 Y76.591 E.00664
G1 X63.849 Y75.939 E.00843
G1 X64.211 Y77.307 E.00957
G1 X64.393 Y77.462 E.00161
G1 X64.728 Y77.489 E.00228
G1 X64.73 Y77.488 E.00001
G1 E-.8
G1 Z.3 F21000
G1 X66.646 Y76.71 Z.3
G1 X73.79 Y72.168
G1 Z.1
G1 E.8 F1800
;TYPE:Internal solid infill
;WIDTH:0.188473
G1 F3000
G1 X73.65 Y72.028 E.00135
G1 X73.512 Y72.125 E.00115
G1 X73.715 Y72.329 E.00196
G1 X73.715 Y72.565 E.00161
G1 X73.373 Y72.223 E.00329
G1 X73.235 Y72.321 E.00115
G1 X73.715 Y72.801 E.00462
G1 X73.715 Y73.038 E.00161
G1 X73.096 Y72.419 E.00596
G1 X72.958 Y72.516 E.00115
G1 X73.715 Y73.274 E.00729
G1 X73.715 Y73.51 E.00161
G1 X72.819 Y72.614 E.00862
G1 X72.681 Y72.712 E.00115
G1 X73.715 Y73.746 E.00995
G1 X73.715 Y73.982 E.00161
G1 X72.542 Y72.809 E.01129
G1 X72.404 Y72.907 E.00115
G1 X73.715 Y74.219 E.01262
G1 X73.715 Y74.455 E.00161
G1 X72.265 Y73.005 E.01395
G1 X72.127 Y73.103 E.00115
G1 X73.715 Y74.691 E.01528
G1 X73.715 Y74.927 E.00161
G1 X71.989 Y73.2 E.01662
G1 X71.85 Y73.298 E.00115
G1 X73.715 Y75.163 E.01795
G1 X73.715 Y75.4 E.00161
G1 X71.712 Y73.396 E.01928
G1 X71.573 Y73.494 E.00115
G1 X73.715 Y75.636 E.02062
G1 X73.715 Y75.872 E.00161
G1 X71.435 Y73.591 E.02195
G1 X71.296 Y73.689 E.00115
G1 X73.715 Y76.108 E.02328
G1 X73.715 Y76.344 E.00161
G1 X71.158 Y73.787 E.02461
G1 X71.019 Y73.884 E.00115
G1 X73.715 Y76.58 E.02595
G1 X73.715 Y76.817 E.00161
G1 X70.881 Y73.982 E.02728
G1 X70.742 Y74.08 E.00115
G1 X73.715 Y77.053 E.02861
G1 X73.715 Y77.289 E.00161
G1 X70.604 Y74.178 E.02994
G1 X70.466 Y74.276 E.00115
G1 X73.715 Y77.525 E.03127
G1 X73.715 Y77.761 E.00161
G1 X70.33 Y74.376 E.03258
G1 X70.193 Y74.476 E.00115
G1 X73.715 Y77.998 E.03389
G1 X73.715 Y78.234 E.00161
G1 X70.057 Y74.576 E.0352
G1 X69.921 Y74.676 E.00115
G1 X73.715 Y78.47 E.03651
G1 X73.715 Y78.706 E.00161
G1 X69.785 Y74.776 E.03782
G1 X69.649 Y74.876 E.00115
G1 X73.715 Y78.942 E.03913
G1 X73.715 Y79.179 E.00161
G1 X69.513 Y74.976 E.04044
G1 X69.377 Y75.076 E.00115
G1 X73.715 Y79.415 E.04175
G1 X73.715 Y79.651 E.00161
G1 X69.241 Y75.176 E.04306
G1 X69.104 Y75.276 E.00115
G1 X73.715 Y79.887 E.04437
G1 X73.715 Y80.123 E.00161
G1 X68.968 Y75.376 E.04568
G1 X68.832 Y75.476 E.00115
G1 X73.715 Y80.36 E.04699
G1 X73.715 Y80.596 E.00161
G1 X68.696 Y75.576 E.0483
G1 X68.56 Y75.677 E.00115
G1 X73.715 Y80.832 E.04961
G1 X73.715 Y81.068 E.00161
G1 X68.424 Y75.777 E.05092
G1 X68.288 Y75.877 E.00115
G1 X73.632 Y81.221 E.05143
G1 X73.396 Y81.221 E.00161
G1 X68.152 Y75.977 E.05047
G1 X68.015 Y76.077 E.00115
G1 X73.16 Y81.221 E.04951
G1 X72.924 Y81.222 E.00161
G1 X67.879 Y76.177 E.04855
G1 X67.743 Y76.277 E.00115
G1 X72.688 Y81.222 E.04759
G1 X72.452 Y81.222 E.00161
G1 X67.607 Y76.377 E.04662
G1 X67.471 Y76.477 E.00115
G1 X72.216 Y81.222 E.04566
G1 X71.98 Y81.222 E.00161
G1 X67.335 Y76.577 E.0447
G1 X67.199 Y76.677 E.00115
G1 X71.744 Y81.222 E.04374
G1 X71.508 Y81.223 E.00161
G1 X67.062 Y76.777 E.04278
G3 X66.918 Y76.868 I-.332 J-.367 E.00117
G1 X71.272 Y81.223 E.0419
G1 X71.036 Y81.223 E.00161
G1 X66.742 Y76.929 E.04132
M73 P2 R20
G3 X66.472 Y76.896 I-.078 J-.478 E.00187
G1 X70.8 Y81.223 E.04164
G1 X70.564 Y81.223 E.00161
G1 X65.408 Y76.067 E.04962
G1 X65.369 Y76.264 E.00137
G1 X70.328 Y81.223 E.04772
G1 X70.092 Y81.223 E.00161
G1 X65.329 Y76.461 E.04583
G1 X65.29 Y76.658 E.00137
G1 X69.856 Y81.224 E.04393
G1 X69.619 Y81.224 E.00161
G1 X65.251 Y76.855 E.04204
G1 X65.212 Y77.052 E.00137
G1 X69.383 Y81.224 E.04015
G1 X69.147 Y81.224 E.00161
G1 X65.162 Y77.239 E.03835
G1 X65.089 Y77.402 E.00122
G1 X68.911 Y81.224 E.03678
G1 X68.675 Y81.224 E.00161
G1 X64.965 Y77.514 E.0357
G3 X64.809 Y77.594 I-.218 J-.233 E.00121
G1 X68.439 Y81.225 E.03494
G1 X68.203 Y81.225 E.00161
G1 X64.515 Y77.537 E.03549
G1 E-.8
G1 Z.3 F21000
G1 X63.932 Y76.481 Z.3
G1 Z.1
G1 E.8 F1800
G1 F3000
G1 X63.655 Y76.204 E.00266
G1 X63.509 Y76.294 E.00117
G1 X63.908 Y76.693 E.00384
G1 X63.986 Y77.007 E.0022
G1 X63.362 Y76.384 E.006
G1 X63.216 Y76.474 E.00117
G1 X67.967 Y81.225 E.04572
G1 X67.731 Y81.225 E.00161
G1 X63.07 Y76.564 E.04486
G1 X62.923 Y76.653 E.00117
G1 X67.495 Y81.225 E.044
G1 X67.259 Y81.225 E.00161
G1 X62.844 Y76.81 E.04249
G1 X62.783 Y76.986 E.00126
G1 X67.023 Y81.226 E.0408
G1 X66.787 Y81.226 E.00161
G1 X62.723 Y77.161 E.03911
G1 X62.663 Y77.337 E.00126
G1 X66.551 Y81.226 E.03742
G1 X66.315 Y81.226 E.00161
G1 X62.602 Y77.513 E.03573
G3 X62.524 Y77.671 I-.457 J-.129 E.00121
G1 X66.079 Y81.226 E.03421
G1 X65.843 Y81.226 E.00161
G1 X62.417 Y77.801 E.03297
G3 X62.267 Y77.887 I-.231 J-.23 E.00119
G1 X65.607 Y81.226 E.03214
G1 X65.371 Y81.227 E.00161
G1 X62.062 Y77.918 E.03184
G3 X61.665 Y77.747 I-.075 J-.374 E.00313
G1 X65.135 Y81.227 E.03344
G1 X64.899 Y81.227 E.00161
G1 X61.541 Y77.869 E.03231
G3 X61.421 Y77.985 I-.419 J-.312 E.00114
G1 X64.663 Y81.227 E.0312
G1 X64.427 Y81.227 E.00161
G1 X61.28 Y78.081 E.03028
G1 X61.094 Y78.13 E.00131
G1 X64.191 Y81.227 E.0298
G1 X63.955 Y81.228 E.00161
G1 X60.773 Y78.046 E.03062
G1 X59.551 Y77.06 E.01068
G1 X63.719 Y81.228 E.0401
G1 X63.483 Y81.228 E.00161
G1 X58.176 Y75.933 E.05101
G1 X58.063 Y76.045 E.00108
G1 X63.247 Y81.228 E.04988
G1 X63.011 Y81.228 E.00161
G1 X57.944 Y76.162 E.04875
G1 X57.826 Y76.279 E.00114
G1 X62.775 Y81.228 E.04763
G1 X62.538 Y81.229 E.00161
G1 X57.707 Y76.397 E.0465
G1 X57.588 Y76.514 E.00114
G1 X62.302 Y81.229 E.04537
G1 X62.066 Y81.229 E.00161
G1 X57.469 Y76.632 E.04424
G1 X57.35 Y76.749 E.00114
G1 X61.83 Y81.229 E.04311
G1 X61.594 Y81.229 E.00161
G1 X57.232 Y76.866 E.04198
G1 X57.113 Y76.984 E.00114
G1 X61.358 Y81.229 E.04085
G1 X61.122 Y81.229 E.00161
G1 X56.994 Y77.101 E.03973
G1 X56.875 Y77.219 E.00114
G1 X60.886 Y81.23 E.0386
G1 X60.65 Y81.23 E.00161
G1 X56.757 Y77.336 E.03747
G1 X56.638 Y77.454 E.00114
G1 X60.414 Y81.23 E.03634
G1 X60.178 Y81.23 E.00161
G1 X56.519 Y77.571 E.03521
G1 X56.4 Y77.688 E.00114
G1 X59.942 Y81.23 E.03408
G1 X59.706 Y81.23 E.00161
G1 X56.281 Y77.806 E.03296
G1 X56.163 Y77.923 E.00114
G1 X59.47 Y81.231 E.03183
G1 X59.234 Y81.231 E.00161
G1 X56.033 Y78.03 E.0308
G3 X55.875 Y78.108 I-.204 J-.215 E.00122
G1 X58.998 Y81.231 E.03005
G1 X58.762 Y81.231 E.00161
G1 X55.656 Y78.125 E.02989
G1 X55.42 Y78.035 E.00172
G1 X55.104 Y77.809 E.00264
G1 X58.526 Y81.231 E.03293
G1 X58.29 Y81.231 E.00161
G1 X54.277 Y77.218 E.03862
G1 X53.45 Y76.628 E.00691
G1 X58.054 Y81.232 E.0443
G1 X57.818 Y81.232 E.00161
G1 X52.624 Y76.037 E.04999
G1 X51.797 Y75.447 E.00691
G1 X57.582 Y81.232 E.05567
M73 C13
G1 X57.346 Y81.232 E.00161
G1 X50.97 Y74.856 E.06135
G1 X50.144 Y74.266 E.00691
G1 X57.11 Y81.232 E.06704
G1 X56.874 Y81.232 E.00161
G1 X49.317 Y73.675 E.07272
M73 P3 R20
G1 X48.49 Y73.085 E.00691
G1 X56.638 Y81.232 E.07841
G1 X56.402 Y81.233 E.00161
G1 X47.664 Y72.495 E.08409
G1 X46.837 Y71.904 E.00691
G1 X56.166 Y81.233 E.08977
G1 X55.93 Y81.233 E.00161
G1 X46.3 Y71.604 E.09267
G1 X46.3 Y71.84 E.00161
G1 X55.693 Y81.233 E.0904
G1 X55.457 Y81.233 E.00161
G1 X46.3 Y72.076 E.08812
G1 X46.3 Y72.312 E.00161
G1 X55.221 Y81.233 E.08585
G1 X54.985 Y81.234 E.00161
G1 X46.3 Y72.548 E.08358
G1 X46.3 Y72.784 E.00161
G1 X54.749 Y81.234 E.08131
G1 X54.513 Y81.234 E.00161
G1 X46.3 Y73.021 E.07904
G1 X46.3 Y73.257 E.00161
G1 X54.277 Y81.234 E.07677
G1 X54.041 Y81.234 E.00161
G1 X46.3 Y73.493 E.0745
G1 X46.3 Y73.729 E.00161
G1 X53.805 Y81.234 E.07222
G1 X53.569 Y81.234 E.00161
G1 X46.3 Y73.965 E.06995
G1 X46.3 Y74.202 E.00161
G1 X53.333 Y81.235 E.06768
G1 X53.097 Y81.235 E.00161
G1 X46.3 Y74.438 E.06541
G1 X46.3 Y74.674 E.00161
G1 X52.861 Y81.235 E.06314
G1 X52.625 Y81.235 E.00161
G1 X46.3 Y74.91 E.06087
G1 X46.3 Y75.146 E.00161
G1 X52.389 Y81.235 E.0586
G1 X52.153 Y81.235 E.00161
G1 X46.3 Y75.383 E.05632
G1 X46.3 Y75.619 E.00161
G1 X51.917 Y81.236 E.05405
G1 X51.681 Y81.236 E.00161
G1 X46.3 Y75.855 E.05178
G1 X46.3 Y76.091 E.00161
G1 X51.445 Y81.236 E.04951
G1 X51.209 Y81.236 E.00161
G1 X46.3 Y76.327 E.04724
G1 X46.3 Y76.564 E.00161
G1 X50.973 Y81.236 E.04497
G1 X50.737 Y81.236 E.00161
G1 X46.3 Y76.8 E.0427
G1 X46.3 Y77.036 E.00161
G1 X50.501 Y81.237 E.04042
G1 X50.265 Y81.237 E.00161
G1 X46.3 Y77.272 E.03815
G1 X46.3 Y77.508 E.00161
G1 X50.029 Y81.237 E.03588
G1 X49.793 Y81.237 E.00161
G1 X46.3 Y77.745 E.03361
G1 X46.3 Y77.981 E.00161
G1 X49.557 Y81.237 E.03134
G1 X49.321 Y81.237 E.00161
G1 X46.3 Y78.217 E.02907
G1 X46.3 Y78.453 E.00161
G1 X49.085 Y81.237 E.0268
G1 X48.848 Y81.238 E.00161
G1 X46.3 Y78.689 E.02452
G1 X46.3 Y78.925 E.00161
G1 X48.612 Y81.238 E.02225
G1 X48.376 Y81.238 E.00161
G1 X46.3 Y79.162 E.01998
G1 X46.3 Y79.398 E.00161
G1 X48.14 Y81.238 E.01771
G1 X47.904 Y81.238 E.00161
G1 X46.3 Y79.634 E.01544
G1 X46.3 Y79.87 E.00161
G1 X47.668 Y81.238 E.01317
G1 X47.432 Y81.239 E.00161
G1 X46.3 Y80.106 E.0109
G1 X46.3 Y80.343 E.00161
G1 X47.196 Y81.239 E.00862
G1 X46.96 Y81.239 E.00161
G1 X46.3 Y80.579 E.00635
G1 X46.3 Y80.815 E.00161
G1 X46.724 Y81.239 E.00408
G1 X46.488 Y81.239 E.00161
G1 X46.225 Y80.976 E.00253
; stop printing object LogoVancouver.STL id:0 copy 0
; printing object LogoVancouver.STL id:1 copy 0
G1 E-.8
EXCLUDE_OBJECT_END NAME=LogoVancouver.STL_id_0_copy_0
EXCLUDE_OBJECT_START NAME=LogoVancouver.STL_id_1_copy_0
G1 Z.3 F21000
G1 X64.658 Y60.969 Z.3
G1 Z.1
G1 E.8 F1800
;TYPE:Outer wall
;WIDTH:0.187499
G1 F3000
G1 X64.737 Y60.902 E.0007
G1 X65.139 Y58.886 E.01391
G1 X66.608 Y60.267 E.01364
G1 X66.714 Y60.273 E.00072
G3 X73.741 Y55.211 I134.577 J179.411 E.05859
G1 X74.172 Y55.211 E.00291
G1 X74.172 Y55.538 E.00221
G1 X74.172 Y65.483 E.06728
G1 X45.844 Y65.502 E.19164
G1 X45.844 Y54.497 E.07445
G1 X45.924 Y54.497 E.00054
G1 X55.681 Y61.466 E.08112
G2 X55.788 Y61.458 I.048 J-.068 E.00079
G1 X58.147 Y59.125 E.02245
M73 P4 R20
G1 X61 Y61.463 E.02495
G1 X61.026 Y61.478 E.0002
G1 X61.111 Y61.458 E.00059
G1 X61.781 Y60.796 E.00638
G1 X61.91 Y61.213 E.00296
G1 X61.962 Y61.267 E.00051
G2 X62.154 Y61.217 I.065 J-.148 E.00145
G1 X62.512 Y60.176 E.00745
G1 X64.062 Y59.225 E.0123
G1 X64.409 Y60.623 E.00974
G1 X64.512 Y60.956 E.00236
G1 X64.643 Y60.968 E.00089
G1 X64.701 Y61.119 F21000
;TYPE:Inner wall
G1 F3000
G1 X64.822 Y61.071 E.00088
G1 X64.9 Y60.935 E.00106
G1 X65.243 Y59.212 E.01189
G1 X66.494 Y60.388 E.01161
G1 X66.645 Y60.454 E.00112
G1 X66.812 Y60.407 E.00118
G3 X73.752 Y55.406 I132.936 J177.179 E.05787
G1 X74.006 Y55.377 E.00173
G1 X74.006 Y55.538 E.00109
G1 X74.006 Y65.318 E.06616
G1 X46.01 Y65.336 E.1894
G1 X46.01 Y54.762 E.07153
M73 P4 R19
G1 X55.585 Y61.602 E.0796
G1 X55.73 Y61.648 E.00103
G1 X55.904 Y61.576 E.00128
