; HEADER_BLOCK_START
; generated by OrcaSlicer 1.6.3 on 2023-06-27 at 09:12:57
; total layer number: 28
; HEADER_BLOCK_END

; THUMBNAIL_BLOCK_START
; THUMBNAIL_BLOCK_END

; external perimeters extrusion width = 0.15mm
; perimeters extrusion width = 0.15mm
; infill extrusion width = 0.15mm
; solid infill extrusion width = 0.15mm
; top infill extrusion width = 0.15mm
; first layer extrusion width = 0.15mm

; external perimeters extrusion width = 0.15mm
; perimeters extrusion width = 0.15mm
; infill extrusion width = 0.15mm
; solid infill extrusion width = 0.15mm
; top infill extrusion width = 0.15mm
; first layer extrusion width = 0.15mm

; external perimeters extrusion width = 0.15mm
; perimeters extrusion width = 0.15mm
; infill extrusion width = 0.15mm
; solid infill extrusion width = 0.15mm
; top infill extrusion width = 0.15mm
; first layer extrusion width = 0.15mm

; EXECUTABLE_BLOCK_START
EXCLUDE_OBJECT_DEFINE NAME=LogoBase-80p.STL_id_0_copy_0 CENTER=77.638,72.5091 POLYGON=[[62.5,62.5],[92.7759,62.5],[92.7759,82.4976],[62.5,82.5183],[62.5,62.5]]
EXCLUDE_OBJECT_DEFINE NAME=LogoBase-80p.STL_id_1_copy_0 CENTER=77.638,47.4902 POLYGON=[[62.5,37.481],[92.7759,37.481],[92.7759,57.4786],[62.5,57.4993],[62.5,37.481]]
EXCLUDE_OBJECT_DEFINE NAME=LogoBase-80p.STL_id_2_copy_0 CENTER=42.362,59.9996 POLYGON=[[27.2241,49.9905],[57.5,49.9905],[57.5,69.9881],[27.2241,70.0088],[27.2241,49.9905]]
M73 P0 R37
;TYPE:Custom
START_PRINT T_BED=60 T_EXTRUDER=220
G90
G21
M83 ; use relative distances for extrusion
; filament start gcode

    PRESSURE_ADVANCE_SELECT FILAMENT=PLA
M106 S0
;LAYER_CHANGE
;Z:0.1
;HEIGHT:0.1
;BEFORE_LAYER_CHANGE
;0.1
G92 E0

;AFTER_LAYER_CHANGE
;0.1
M204 S500
G1 E-.8 F3000
G1 Z.2 F21000
G1 X26.47 Y47.863
G1 Z.1
G1 E.8 F1800
;TYPE:Skirt
;WIDTH:0.15
G1 F3000
G1 X61.746 Y35.354 E.19602
G1 X62.5 Y35.224 E.00401
G1 X92.776 Y35.224 E.15856
G1 X94.046 Y35.615 E.00696
G1 X94.876 Y36.653 E.00696
G1 X95.033 Y37.481 E.00441
G1 X95.033 Y82.498 E.23576
G1 X94.642 Y83.767 E.00696
G1 X93.604 Y84.597 E.00696
G1 X92.777 Y84.755 E.00441
G1 X62.502 Y84.775 E.15856
G1 X61.746 Y84.646 E.00402
G1 X26.47 Y72.136 E.19602
G1 X25.404 Y71.343 E.00696
G1 X24.967 Y70.009 E.00735
G1 X24.967 Y49.991 E.10484
G1 X25.358 Y48.721 E.00696
G1 X26.452 Y47.877 E.00723
G1 X26.513 Y47.984 F21000
G1 F3000
G1 X61.789 Y35.475 E.19602
G1 X62.5 Y35.352 E.00378
G1 X92.776 Y35.352 E.15856
G1 X94.005 Y35.743 E.00675
G1 X94.783 Y36.772 E.00675
G1 X94.904 Y37.481 E.00377
G1 X94.904 Y82.498 E.23576
G1 X94.514 Y83.726 E.00675
G1 X93.485 Y84.504 E.00675
G1 X92.777 Y84.626 E.00376
G1 X62.501 Y84.647 E.15856
G1 X61.789 Y84.524 E.00379
G1 X26.513 Y72.015 E.19602
G1 X25.485 Y71.236 E.00675
G1 X25.096 Y70.009 E.00674
G1 X25.096 Y49.991 E.10484
G1 X25.486 Y48.762 E.00675
G1 X26.495 Y47.998 E.00663
; printing object LogoBase-80p.STL id:2 copy 0
EXCLUDE_OBJECT_START NAME=LogoBase-80p.STL_id_2_copy_0
G1 E-.8
G1 Z.3 F21000
G1 X57.425 Y50.066 Z.1
G1 E.8 F1800
;TYPE:Outer wall
;WIDTH:0.149999
G1 F3000
G1 X57.425 Y69.913 E.10394
G1 X27.299 Y69.934 E.15777
G1 X27.299 Y50.066 E.10405
G1 X57.403 Y50.066 E.15766
G1 X57.415 Y50.094
G1 X57.296 Y50.194 F21000
;TYPE:Inner wall
G1 F3000
G1 X57.296 Y69.785 E.1026
G1 X27.428 Y69.805 E.15643
G1 X27.428 Y50.194 E.10271
G1 X57.274 Y50.194 E.15631
G1 X57.168 Y50.323 F21000
G1 F3000
G1 X57.168 Y69.656 E.10125
G1 X27.556 Y69.676 E.15508
G1 X27.556 Y50.323 E.10136
G1 X57.145 Y50.323 E.15496
G1 X56.869 Y50.361 F21000
;TYPE:Bottom surface
;WIDTH:0.150314
G1 F6300
G1 X57.072 Y50.564 E.00151
G1 X57.072 Y50.746 E.00096
G1 X56.744 Y50.419 E.00243
G1 X56.562 Y50.419 E.00096
G1 X57.072 Y50.928 E.00378
G1 X57.072 Y51.111 E.00096
G1 X56.38 Y50.419 E.00513
G1 X56.198 Y50.419 E.00096
G1 X57.072 Y51.293 E.00649
G1 X57.072 Y51.475 E.00096
G1 X56.016 Y50.419 E.00784
G1 X55.833 Y50.419 E.00096
G1 X57.072 Y51.657 E.00919
G1 X57.072 Y51.839 E.00096
G1 X55.651 Y50.419 E.01055
G1 X55.469 Y50.419 E.00096
G1 X57.072 Y52.022 E.0119
G1 X57.072 Y52.204 E.00096
G1 X55.287 Y50.419 E.01325
G1 X55.104 Y50.419 E.00096
G1 X57.072 Y52.386 E.01461
G1 X57.072 Y52.568 E.00096
G1 X54.922 Y50.419 E.01596
G1 X54.74 Y50.419 E.00096
G1 X57.072 Y52.751 E.01731
G1 X57.072 Y52.933 E.00096
G1 X54.558 Y50.419 E.01866
G1 X54.375 Y50.419 E.00096
G1 X57.072 Y53.115 E.02002
G1 X57.072 Y53.297 E.00096
G1 X54.193 Y50.419 E.02137
G1 X54.011 Y50.419 E.00096
G1 X57.072 Y53.479 E.02272
G1 X57.072 Y53.662 E.00096
G1 X53.829 Y50.419 E.02408
G1 X53.647 Y50.419 E.00096
G1 X57.072 Y53.844 E.02543
G1 X57.072 Y54.026 E.00096
G1 X53.464 Y50.419 E.02678
G1 X53.282 Y50.419 E.00096
G1 X57.072 Y54.208 E.02813
G1 X57.072 Y54.391 E.00096
G1 X53.1 Y50.419 E.02949
G1 X52.918 Y50.419 E.00096
G1 X57.072 Y54.573 E.03084
G1 X57.072 Y54.755 E.00096
G1 X52.735 Y50.419 E.03219
G1 X52.553 Y50.419 E.00096
G1 X57.072 Y54.937 E.03355
G1 X57.072 Y55.12 E.00096
G1 X52.371 Y50.419 E.0349
G1 X52.189 Y50.419 E.00096
G1 X57.072 Y55.302 E.03625
G1 X57.072 Y55.484 E.00096
G1 X52.007 Y50.419 E.03761
G1 X51.824 Y50.419 E.00096
G1 X57.072 Y55.666 E.03896
G1 X57.072 Y55.848 E.00096
G1 X51.642 Y50.419 E.04031
G1 X51.46 Y50.419 E.00096
G1 X57.072 Y56.031 E.04166
G1 X57.072 Y56.213 E.00096
G1 X51.278 Y50.419 E.04302
G1 X51.095 Y50.419 E.00096
G1 X57.072 Y56.395 E.04437
G1 X57.072 Y56.577 E.00096
G1 X50.913 Y50.419 E.04572
M73 P1 R37
G1 X50.731 Y50.419 E.00096
G1 X57.072 Y56.76 E.04708
G1 X57.072 Y56.942 E.00096
G1 X50.549 Y50.419 E.04843
G1 X50.366 Y50.419 E.00096
G1 X57.072 Y57.124 E.04978
G1 X57.072 Y57.306 E.00096
G1 X50.184 Y50.419 E.05114
G1 X50.002 Y50.419 E.00096
G1 X57.072 Y57.488 E.05249
G1 X57.072 Y57.671 E.00096
G1 X49.82 Y50.419 E.05384
G1 X49.638 Y50.419 E.00096
G1 X57.072 Y57.853 E.05519
G1 X57.072 Y58.035 E.00096
G1 X49.455 Y50.419 E.05655
G1 X49.273 Y50.419 E.00096
G1 X57.072 Y58.217 E.0579
G1 X57.072 Y58.4 E.00096
G1 X49.091 Y50.419 E.05925
G1 X48.909 Y50.419 E.00096
G1 X57.072 Y58.582 E.06061
G1 X57.072 Y58.764 E.00096
G1 X48.726 Y50.419 E.06196
G1 X48.544 Y50.419 E.00096
G1 X57.072 Y58.946 E.06331
G1 X57.072 Y59.129 E.00096
G1 X48.362 Y50.419 E.06466
G1 X48.18 Y50.419 E.00096
G1 X57.072 Y59.311 E.06602
G1 X57.072 Y59.493 E.00096
G1 X47.998 Y50.419 E.06737
G1 X47.815 Y50.419 E.00096
G1 X57.072 Y59.675 E.06872
G1 X57.072 Y59.857 E.00096
G1 X47.633 Y50.419 E.07008
G1 X47.451 Y50.419 E.00096
G1 X57.072 Y60.04 E.07143
G1 X57.072 Y60.222 E.00096
G1 X47.269 Y50.419 E.07278
G1 X47.086 Y50.419 E.00096
G1 X57.072 Y60.404 E.07414
G1 X57.072 Y60.586 E.00096
G1 X46.904 Y50.419 E.07549
G1 X46.722 Y50.419 E.00096
G1 X57.072 Y60.769 E.07684
G1 X57.072 Y60.951 E.00096
G1 X46.54 Y50.419 E.07819
G1 X46.357 Y50.419 E.00096
G1 X57.072 Y61.133 E.07955
G1 X57.072 Y61.315 E.00096
G1 X46.175 Y50.419 E.0809
G1 X45.993 Y50.419 E.00096
G1 X57.072 Y61.497 E.08225
G1 X57.072 Y61.68 E.00096
G1 X45.811 Y50.419 E.08361
G1 X45.629 Y50.419 E.00096
G1 X57.072 Y61.862 E.08496
G1 X57.072 Y62.044 E.00096
G1 X45.446 Y50.419 E.08631
G1 X45.264 Y50.419 E.00096
G1 X57.072 Y62.226 E.08767
G1 X57.072 Y62.409 E.00096
G1 X45.082 Y50.419 E.08902
G1 X44.9 Y50.419 E.00096
G1 X57.072 Y62.591 E.09037
G1 X57.072 Y62.773 E.00096
G1 X44.717 Y50.419 E.09172
G1 X44.535 Y50.419 E.00096
G1 X57.072 Y62.955 E.09308
G1 X57.072 Y63.138 E.00096
G1 X44.353 Y50.419 E.09443
G1 X44.171 Y50.419 E.00096
G1 X57.072 Y63.32 E.09578
G1 X57.072 Y63.502 E.00096
G1 X43.989 Y50.419 E.09714
G1 X43.806 Y50.419 E.00096
G1 X57.072 Y63.684 E.09849
G1 X57.072 Y63.866 E.00096
G1 X43.624 Y50.419 E.09984
G1 X43.442 Y50.419 E.00096
G1 X57.072 Y64.049 E.10119
G1 X57.072 Y64.231 E.00096
G1 X43.26 Y50.419 E.10255
G1 X43.077 Y50.419 E.00096
G1 X57.072 Y64.413 E.1039
G1 X57.072 Y64.595 E.00096
G1 X42.895 Y50.419 E.10525
G1 X42.713 Y50.419 E.00096
G1 X57.072 Y64.778 E.10661
G1 X57.072 Y64.96 E.00096
G1 X42.531 Y50.419 E.10796
G1 X42.348 Y50.419 E.00096
G1 X57.072 Y65.142 E.10931
G1 X57.072 Y65.324 E.00096
G1 X42.166 Y50.419 E.11067
G1 X41.984 Y50.419 E.00096
G1 X57.072 Y65.506 E.11202
G1 X57.072 Y65.689 E.00096
G1 X41.802 Y50.419 E.11337
G1 X41.62 Y50.419 E.00096
G1 X57.072 Y65.871 E.11472
G1 X57.072 Y66.053 E.00096
G1 X41.437 Y50.419 E.11608
G1 X41.255 Y50.419 E.00096
G1 X57.072 Y66.235 E.11743
G1 X57.072 Y66.418 E.00096
G1 X41.073 Y50.419 E.11878
G1 X40.891 Y50.419 E.00096
G1 X57.072 Y66.6 E.12014
G1 X57.072 Y66.782 E.00096
G1 X40.708 Y50.419 E.12149
G1 X40.526 Y50.419 E.00096
G1 X57.072 Y66.964 E.12284
G1 X57.072 Y67.147 E.00096
G1 X40.344 Y50.419 E.1242
G1 X40.162 Y50.419 E.00096
G1 X57.072 Y67.329 E.12555
G1 X57.072 Y67.511 E.00096
G1 X39.98 Y50.419 E.1269
G1 X39.797 Y50.419 E.00096
G1 X57.072 Y67.693 E.12825
G1 X57.072 Y67.875 E.00096
G1 X39.615 Y50.419 E.12961
G1 X39.433 Y50.419 E.00096
G1 X57.072 Y68.058 E.13096
G1 X57.072 Y68.24 E.00096
G1 X39.251 Y50.419 E.13231
G1 X39.068 Y50.419 E.00096
G1 X57.072 Y68.422 E.13367
G1 X57.072 Y68.604 E.00096
G1 X38.886 Y50.419 E.13502
M73 P2 R37
G1 X38.704 Y50.419 E.00096
G1 X57.072 Y68.787 E.13637
G1 X57.072 Y68.969 E.00096
G1 X38.522 Y50.419 E.13772
G1 X38.339 Y50.419 E.00096
G1 X57.072 Y69.151 E.13908
G1 X57.072 Y69.333 E.00096
G1 X38.157 Y50.419 E.14043
G1 X37.975 Y50.419 E.00096
G1 X57.072 Y69.515 E.14178
G1 X57.072 Y69.56 E.00023
G1 X56.934 Y69.56 E.00072
G1 X37.793 Y50.419 E.14211
G1 X37.611 Y50.419 E.00096
G1 X56.752 Y69.56 E.14212
G1 X56.57 Y69.56 E.00096
G1 X37.428 Y50.419 E.14212
G1 X37.246 Y50.419 E.00096
G1 X56.388 Y69.56 E.14212
G1 X56.205 Y69.56 E.00096
G1 X37.064 Y50.419 E.14212
M73 P2 R36
G1 X36.882 Y50.419 E.00096
G1 X56.023 Y69.561 E.14212
G1 X55.841 Y69.561 E.00096
G1 X36.699 Y50.419 E.14212
G1 X36.517 Y50.419 E.00096
G1 X55.659 Y69.561 E.14212
G1 X55.477 Y69.561 E.00096
G1 X36.335 Y50.419 E.14212
G1 X36.153 Y50.419 E.00096
G1 X55.295 Y69.561 E.14212
G1 X55.113 Y69.561 E.00096
G1 X35.971 Y50.419 E.14212
G1 X35.788 Y50.419 E.00096
G1 X54.931 Y69.561 E.14212
G1 X54.749 Y69.561 E.00096
G1 X35.606 Y50.419 E.14213
G1 X35.424 Y50.419 E.00096
G1 X54.566 Y69.562 E.14213
G1 X54.384 Y69.562 E.00096
G1 X35.242 Y50.419 E.14213
G1 X35.059 Y50.419 E.00096
G1 X54.202 Y69.562 E.14213
G1 X54.02 Y69.562 E.00096
G1 X34.877 Y50.419 E.14213
G1 X34.695 Y50.419 E.00096
G1 X53.838 Y69.562 E.14213
G1 X53.656 Y69.562 E.00096
G1 X34.513 Y50.419 E.14213
G1 X34.331 Y50.419 E.00096
G1 X53.474 Y69.562 E.14213
G1 X53.292 Y69.562 E.00096
G1 X34.148 Y50.419 E.14213
G1 X33.966 Y50.419 E.00096
G1 X53.11 Y69.563 E.14213
G1 X52.928 Y69.563 E.00096
G1 X33.784 Y50.419 E.14213
G1 X33.602 Y50.419 E.00096
G1 X52.745 Y69.563 E.14214
G1 X52.563 Y69.563 E.00096
G1 X33.419 Y50.419 E.14214
G1 X33.237 Y50.419 E.00096
G1 X52.381 Y69.563 E.14214
G1 X52.199 Y69.563 E.00096
G1 X33.055 Y50.419 E.14214
G1 X32.873 Y50.419 E.00096
G1 X52.017 Y69.563 E.14214
G1 X51.835 Y69.563 E.00096
G1 X32.69 Y50.419 E.14214
G1 X32.508 Y50.419 E.00096
G1 X51.653 Y69.564 E.14214
G1 X51.471 Y69.564 E.00096
G1 X32.326 Y50.419 E.14214
G1 X32.144 Y50.419 E.00096
G1 X51.289 Y69.564 E.14214
G1 X51.107 Y69.564 E.00096
G1 X31.962 Y50.419 E.14214
G1 X31.779 Y50.419 E.00096
G1 X50.924 Y69.564 E.14214
G1 X50.742 Y69.564 E.00096
G1 X31.597 Y50.419 E.14215
G1 X31.415 Y50.419 E.00096
G1 X50.56 Y69.564 E.14215
G1 X50.378 Y69.564 E.00096
G1 X31.233 Y50.419 E.14215
G1 X31.05 Y50.419 E.00096
G1 X50.196 Y69.565 E.14215
G1 X50.014 Y69.565 E.00096
G1 X30.868 Y50.419 E.14215
G1 X30.686 Y50.419 E.00096
G1 X49.832 Y69.565 E.14215
G1 X49.65 Y69.565 E.00096
G1 X30.504 Y50.419 E.14215
G1 X30.322 Y50.419 E.00096
G1 X49.468 Y69.565 E.14215
G1 X49.286 Y69.565 E.00096
G1 X30.139 Y50.419 E.14215
G1 X29.957 Y50.419 E.00096
G1 X49.103 Y69.565 E.14215
G1 X48.921 Y69.565 E.00096
G1 X29.775 Y50.419 E.14215
G1 X29.593 Y50.419 E.00096
G1 X48.739 Y69.566 E.14216
G1 X48.557 Y69.566 E.00096
G1 X29.41 Y50.419 E.14216
M73 P3 R36
G1 X29.228 Y50.419 E.00096
G1 X48.375 Y69.566 E.14216
G1 X48.193 Y69.566 E.00096
G1 X29.046 Y50.419 E.14216
G1 X28.864 Y50.419 E.00096
G1 X48.011 Y69.566 E.14216
G1 X47.829 Y69.566 E.00096
G1 X28.681 Y50.419 E.14216
G1 X28.499 Y50.419 E.00096
G1 X47.647 Y69.566 E.14216
G1 X47.464 Y69.566 E.00096
G1 X28.317 Y50.419 E.14216
G1 X28.135 Y50.419 E.00096
G1 X47.282 Y69.567 E.14216
G1 X47.1 Y69.567 E.00096
G1 X27.953 Y50.419 E.14216
G1 X27.77 Y50.419 E.00096
G1 X46.918 Y69.567 E.14217
G1 X46.736 Y69.567 E.00096
G1 X27.653 Y50.483 E.14169
G1 X27.653 Y50.666 E.00096
G1 X46.554 Y69.567 E.14034
G1 X46.372 Y69.567 E.00096
G1 X27.653 Y50.848 E.13898
G1 X27.653 Y51.03 E.00096
G1 X46.19 Y69.567 E.13763
G1 X46.008 Y69.567 E.00096
G1 X27.653 Y51.212 E.13628
G1 X27.653 Y51.395 E.00096
G1 X45.826 Y69.568 E.13493
G1 X45.643 Y69.568 E.00096
G1 X27.653 Y51.577 E.13358
G1 X27.653 Y51.759 E.00096
G1 X45.461 Y69.568 E.13222
G1 X45.279 Y69.568 E.00096
G1 X27.653 Y51.941 E.13087
G1 X27.653 Y52.123 E.00096
G1 X45.097 Y69.568 E.12952
G1 X44.915 Y69.568 E.00096
G1 X27.653 Y52.306 E.12817
G1 X27.653 Y52.488 E.00096
G1 X44.733 Y69.568 E.12682
G1 X44.551 Y69.568 E.00096
G1 X27.653 Y52.67 E.12546
G1 X27.653 Y52.852 E.00096
G1 X44.369 Y69.569 E.12411
G1 X44.187 Y69.569 E.00096
G1 X27.653 Y53.035 E.12276
G1 X27.653 Y53.217 E.00096
G1 X44.005 Y69.569 E.12141
G1 X43.822 Y69.569 E.00096
G1 X27.653 Y53.399 E.12005
G1 X27.653 Y53.581 E.00096
G1 X43.64 Y69.569 E.1187
G1 X43.458 Y69.569 E.00096
G1 X27.653 Y53.764 E.11735
G1 X27.653 Y53.946 E.00096
G1 X43.276 Y69.569 E.116
G1 X43.094 Y69.569 E.00096
G1 X27.653 Y54.128 E.11465
G1 X27.653 Y54.31 E.00096
G1 X42.912 Y69.57 E.11329
G1 X42.73 Y69.57 E.00096
G1 X27.653 Y54.492 E.11194
G1 X27.653 Y54.675 E.00096
G1 X42.548 Y69.57 E.11059
G1 X42.366 Y69.57 E.00096
G1 X27.653 Y54.857 E.10924
G1 X27.653 Y55.039 E.00096
G1 X42.184 Y69.57 E.10789
G1 X42.001 Y69.57 E.00096
G1 X27.653 Y55.221 E.10653
G1 X27.653 Y55.404 E.00096
G1 X41.819 Y69.57 E.10518
G1 X41.637 Y69.57 E.00096
G1 X27.653 Y55.586 E.10383
G1 X27.653 Y55.768 E.00096
G1 X41.455 Y69.571 E.10248
G1 X41.273 Y69.571 E.00096
G1 X27.653 Y55.95 E.10113
G1 X27.653 Y56.132 E.00096
G1 X41.091 Y69.571 E.09977
G1 X40.909 Y69.571 E.00096
G1 X27.653 Y56.315 E.09842
G1 X27.653 Y56.497 E.00096
G1 X40.727 Y69.571 E.09707
G1 X40.545 Y69.571 E.00096
G1 X27.653 Y56.679 E.09572
G1 X27.653 Y56.861 E.00096
G1 X40.362 Y69.571 E.09437
G1 X40.18 Y69.571 E.00096
G1 X27.653 Y57.044 E.09301
G1 X27.653 Y57.226 E.00096
G1 X39.998 Y69.572 E.09166
G1 X39.816 Y69.572 E.00096
G1 X27.653 Y57.408 E.09031
G1 X27.653 Y57.59 E.00096
G1 X39.634 Y69.572 E.08896
G1 X39.452 Y69.572 E.00096
G1 X27.653 Y57.773 E.08761
G1 X27.653 Y57.955 E.00096
G1 X39.27 Y69.572 E.08625
G1 X39.088 Y69.572 E.00096
G1 X27.653 Y58.137 E.0849
G1 X27.653 Y58.319 E.00096
G1 X38.906 Y69.572 E.08355
G1 X38.724 Y69.572 E.00096
G1 X27.653 Y58.501 E.0822
G1 X27.653 Y58.684 E.00096
G1 X38.541 Y69.573 E.08085
G1 X38.359 Y69.573 E.00096
G1 X27.653 Y58.866 E.07949
G1 X27.653 Y59.048 E.00096
G1 X38.177 Y69.573 E.07814
G1 X37.995 Y69.573 E.00096
G1 X27.653 Y59.23 E.07679
M73 P4 R36
G1 X27.653 Y59.413 E.00096
G1 X37.813 Y69.573 E.07544
G1 X37.631 Y69.573 E.00096
G1 X27.653 Y59.595 E.07409
G1 X27.653 Y59.777 E.00096
G1 X37.449 Y69.573 E.07273
G1 X37.267 Y69.573 E.00096
G1 X27.653 Y59.959 E.07138
G1 X27.653 Y60.141 E.00096
G1 X37.085 Y69.574 E.07003
G1 X36.903 Y69.574 E.00096
G1 X27.653 Y60.324 E.06868
G1 X27.653 Y60.506 E.00096
G1 X36.72 Y69.574 E.06733
G1 X36.538 Y69.574 E.00096
G1 X27.653 Y60.688 E.06597
G1 X27.653 Y60.87 E.00096
G1 X36.356 Y69.574 E.06462
G1 X36.174 Y69.574 E.00096
G1 X27.653 Y61.053 E.06327
G1 X27.653 Y61.235 E.00096
G1 X35.992 Y69.574 E.06192
G1 X35.81 Y69.574 E.00096
G1 X27.653 Y61.417 E.06057
G1 X27.653 Y61.599 E.00096
G1 X35.628 Y69.575 E.05921
G1 X35.446 Y69.575 E.00096
G1 X27.653 Y61.782 E.05786
G1 X27.653 Y61.964 E.00096
G1 X35.264 Y69.575 E.05651
G1 X35.082 Y69.575 E.00096
G1 X27.653 Y62.146 E.05516
G1 X27.653 Y62.328 E.00096
G1 X34.899 Y69.575 E.0538
G1 X34.717 Y69.575 E.00096
G1 X27.653 Y62.51 E.05245
G1 X27.653 Y62.693 E.00096
G1 X34.535 Y69.575 E.0511
G1 X34.353 Y69.575 E.00096
G1 X27.653 Y62.875 E.04975
G1 X27.653 Y63.057 E.00096
G1 X34.171 Y69.576 E.0484
G1 X33.989 Y69.576 E.00096
G1 X27.653 Y63.239 E.04704
