; HEADER_BLOCK_START
; generated by OrcaSlicer 1.6.3 on 2023-07-04 at 19:37:02
; total layer number: 44
; HEADER_BLOCK_END

; THUMBNAIL_BLOCK_START
; THUMBNAIL_BLOCK_END

; external perimeters extrusion width = 0.12mm
; perimeters extrusion width = 0.12mm
; infill extrusion width = 0.12mm
; solid infill extrusion width = 0.12mm
; top infill extrusion width = 0.12mm
; first layer extrusion width = 0.20mm

; external perimeters extrusion width = 0.12mm
; perimeters extrusion width = 0.12mm
; infill extrusion width = 0.12mm
; solid infill extrusion width = 0.12mm
; top infill extrusion width = 0.12mm
; first layer extrusion width = 0.20mm

; external perimeters extrusion width = 0.12mm
; perimeters extrusion width = 0.12mm
; infill extrusion width = 0.12mm
; solid infill extrusion width = 0.12mm
; top infill extrusion width = 0.12mm
; first layer extrusion width = 0.20mm

; EXECUTABLE_BLOCK_START
EXCLUDE_OBJECT_DEFINE NAME=LogoVancouver.STL_id_0_copy_0 CENTER=60.0075,76.5003 POLYGON=[[45.7496,70.7503],[45.9535,70.7503],[74.2655,71.4839],[74.2655,82.2308],[69.3574,82.2341],[64.7739,82.2373],[47.3242,82.2493],[45.7496,82.2503],[45.7496,70.7503]]
EXCLUDE_OBJECT_DEFINE NAME=LogoVancouver.STL_id_1_copy_0 CENTER=60.0075,59.9996 POLYGON=[[45.7496,54.2496],[45.9535,54.2496],[74.2655,54.9832],[74.2655,65.7301],[69.3574,65.7334],[64.7739,65.7366],[47.3242,65.7486],[45.7496,65.7496],[45.7496,54.2496]]
EXCLUDE_OBJECT_DEFINE NAME=LogoVancouver.STL_id_2_copy_0 CENTER=59.9925,43.4989 POLYGON=[[45.7345,37.7489],[45.9384,37.7489],[74.2504,38.4825],[74.2504,49.2294],[69.3423,49.2327],[64.7588,49.2359],[47.3091,49.2479],[45.7345,49.2489],[45.7345,37.7489]]
M73 P0 R32
M73 C24
;TYPE:Custom
START_PRINT T_BED=60 T_EXTRUDER=220
G90
G21
M83 ; use relative distances for extrusion
; filament start gcode

    PRESSURE_ADVANCE_SELECT FILAMENT=PLA
M106 S0
;LAYER_CHANGE
;Z:0.1
;HEIGHT:0.1
;BEFORE_LAYER_CHANGE
;0.1
G92 E0

;AFTER_LAYER_CHANGE
;0.1
M204 S500
G1 E-.8 F3000
G1 Z.2 F21000
G1 X43.769 Y36.448
G1 Z.1
G1 E.8 F1800
;TYPE:Skirt
;WIDTH:0.2
G1 F3000
G1 X44.813 Y35.579 E.00988
G1 X45.999 Y35.393 E.00873
G1 X74.311 Y36.126 E.20602
G1 X75.602 Y36.551 E.00988
G1 X76.443 Y37.618 E.00988
G1 X76.607 Y38.48 E.00639
G1 X76.623 Y82.231 E.31826
G1 X76.231 Y83.532 E.00988
G1 X75.187 Y84.4 E.00988
G1 X74.267 Y84.588 E.00683
G1 X45.751 Y84.607 E.20744
G1 X44.45 Y84.217 E.00988
G1 X43.581 Y83.173 E.00988
G1 X43.393 Y82.251 E.00684
G1 X43.377 Y37.749 E.32373
G1 X43.762 Y36.47 E.00972
G1 X43.94 Y36.525 F21000
G1 F3000
G1 X43.947 Y36.504 E.00016
G1 X44.979 Y35.706 E.00949
G1 X45.995 Y35.571 E.00745
G1 X74.307 Y36.305 E.20602
G1 X75.541 Y36.728 E.00949
G1 X76.313 Y37.78 E.00949
G1 X76.429 Y38.481 E.00516
G1 X76.444 Y82.231 E.31826
G1 X76.053 Y83.476 E.00949
G1 X75.021 Y84.274 E.00949
G1 X74.267 Y84.409 E.00557
G1 X45.751 Y84.429 E.20744
G1 X44.506 Y84.039 E.00949
G1 X43.707 Y83.007 E.00949
G1 X43.571 Y82.251 E.00559
G1 X43.556 Y37.749 E.32373
G1 X43.933 Y36.547 E.00917
; printing object LogoVancouver.STL id:0 copy 0
EXCLUDE_OBJECT_START NAME=LogoVancouver.STL_id_0_copy_0
G1 E-.8
G1 Z.3 F21000
G1 X64.73 Y77.497 Z.1
G1 E.8 F1800
;TYPE:Outer wall
G1 F3000
G1 X65.143 Y75.367 E.01579
G1 X66.657 Y76.829 E.01532
M73 P0 R31
G1 X70.223 Y74.136 E.03251
G1 X73.744 Y71.584 E.03163
G1 X74.165 Y71.584 E.00307
G1 X74.165 Y82.131 E.07672
G1 X45.85 Y82.15 E.20598
G1 X45.85 Y70.85 E.0822
G1 X45.921 Y70.85 E.00052
G1 X55.739 Y78.055 E.08859
G1 X58.148 Y75.609 E.02498
G1 X61.058 Y78.06 E.02768
G1 X61.778 Y77.328 E.00746
G1 X61.922 Y77.809 E.00365
G1 X62.14 Y77.813 E.00159
G1 X62.518 Y76.683 E.00866
G1 X64.057 Y75.713 E.01324
G1 X64.49 Y77.503 E.0134
G1 X64.707 Y77.498 E.00158
G1 X64.756 Y77.513
G1 X64.881 Y77.657 F21000
;TYPE:Inner wall
G1 F3000
G1 X65.256 Y75.724 E.01432
G1 X66.643 Y77.064 E.01403
G1 X70.329 Y74.28 E.0336
G1 X73.801 Y71.762 E.0312
G1 X73.987 Y71.762 E.00135
G1 X73.987 Y81.952 E.07413
G1 X46.028 Y81.972 E.20338
G1 X46.028 Y71.151 E.07872
G1 X55.758 Y78.291 E.08779
G1 X58.159 Y75.852 E.0249
G1 X61.069 Y78.303 E.02768
G1 X61.693 Y77.669 E.00647
G1 X61.788 Y77.986 E.00241
G1 X62.268 Y77.994 E.00349
G1 X62.667 Y76.8 E.00915
G1 X63.942 Y75.996 E.01097
G1 X64.35 Y77.685 E.01263
G1 X64.872 Y77.673 E.00379
G1 X64.993 Y77.848 F21000
G1 F3000
G1 X65.026 Y77.848 E.00024
G1 X65.368 Y76.081 E.01309
G1 X66.629 Y77.298 E.01275
G1 X70.436 Y74.423 E.0347
G1 X73.808 Y71.978 E.03031
G1 X73.808 Y81.774 E.07126
G1 X46.207 Y81.793 E.20079
G1 X46.207 Y71.503 E.07485
G1 X55.776 Y78.526 E.08635
G1 X58.17 Y76.095 E.02482
G1 X61.081 Y78.546 E.02768
G1 X61.609 Y78.009 E.00547
G1 X61.654 Y78.162 E.00116
G1 X62.396 Y78.174 E.00539
G1 X62.816 Y76.917 E.00964
G1 X63.827 Y76.28 E.00869
G1 X64.21 Y77.866 E.01187
G1 X64.971 Y77.849 E.00553
G1 E-.8
G1 Z.3 F21000
G1 X73.55 Y72.231 Z.1
M73 C23
G1 E.8 F1800
;TYPE:Bottom surface
;WIDTH:0.200378
G1 F6300
G1 X73.675 Y72.356 E.00128
G1 X73.675 Y72.609 E.00184
G1 X73.461 Y72.395 E.0022
G1 X73.314 Y72.502 E.00132
G1 X73.675 Y72.862 E.00371
G1 X73.675 Y73.115 E.00184
G1 X73.168 Y72.608 E.00523
G1 X73.021 Y72.714 E.00132
G1 X73.675 Y73.368 E.00674
G1 X73.675 Y73.621 E.00184
G1 X72.874 Y72.821 E.00825
G1 X72.728 Y72.927 E.00132
G1 X73.675 Y73.874 E.00976
G1 X73.675 Y74.127 E.00184
G1 X72.581 Y73.033 E.01127
G1 X72.434 Y73.14 E.00132
G1 X73.675 Y74.38 E.01279
G1 X73.675 Y74.633 E.00184
G1 X72.288 Y73.246 E.0143
G1 X72.141 Y73.352 E.00132
G1 X73.675 Y74.886 E.01581
G1 X73.675 Y75.139 E.00184
G1 X71.994 Y73.459 E.01732
G1 X71.848 Y73.565 E.00132
G1 X73.675 Y75.392 E.01883
G1 X73.675 Y75.645 E.00184
G1 X71.701 Y73.672 E.02035
G1 X71.554 Y73.778 E.00132
G1 X73.675 Y75.898 E.02186
G1 X73.675 Y76.151 E.00184
G1 X71.408 Y73.884 E.02337
G1 X71.261 Y73.991 E.00132
G1 X73.675 Y76.404 E.02488
G1 X73.675 Y76.657 E.00184
G1 X71.114 Y74.097 E.0264
G1 X70.967 Y74.203 E.00132
G1 X73.675 Y76.91 E.02791
G1 X73.675 Y77.163 E.00184
G1 X70.821 Y74.31 E.02942
G1 X70.674 Y74.416 E.00132
G1 X73.675 Y77.416 E.03093
G1 X73.675 Y77.669 E.00184
G1 X70.527 Y74.522 E.03244
M73 P1 R31
G1 X70.383 Y74.631 E.00132
G1 X73.675 Y77.922 E.03393
G1 X73.675 Y78.175 E.00184
G1 X70.239 Y74.74 E.03542
G1 X70.095 Y74.849 E.00132
G1 X73.675 Y78.428 E.0369
G1 X73.675 Y78.682 E.00184
G1 X69.951 Y74.958 E.03839
G1 X69.806 Y75.066 E.00132
G1 X73.675 Y78.935 E.03988
G1 X73.675 Y79.188 E.00184
G1 X69.662 Y75.175 E.04136
G1 X69.518 Y75.284 E.00132
G1 X73.675 Y79.441 E.04285
G1 X73.675 Y79.694 E.00184
G1 X69.374 Y75.393 E.04434
G1 X69.23 Y75.502 E.00132
G1 X73.675 Y79.947 E.04582
G1 X73.675 Y80.2 E.00184
G1 X69.086 Y75.611 E.04731
G1 X68.942 Y75.72 E.00132
G1 X73.675 Y80.453 E.04879
G1 X73.675 Y80.706 E.00184
G1 X68.797 Y75.829 E.05028
G1 X68.653 Y75.937 E.00132
G1 X73.675 Y80.959 E.05177
G1 X73.675 Y81.212 E.00184
G1 X68.509 Y76.046 E.05325
G1 X68.365 Y76.155 E.00132
G1 X73.675 Y81.465 E.05474
G1 X73.675 Y81.64 E.00128
G1 X73.597 Y81.64 E.00057
G1 X68.221 Y76.264 E.05542
G1 X68.077 Y76.373 E.00132
G1 X73.344 Y81.64 E.0543
G1 X73.091 Y81.641 E.00184
G1 X67.932 Y76.482 E.05318
G1 X67.788 Y76.591 E.00132
G1 X72.838 Y81.641 E.05206
G1 X72.586 Y81.641 E.00184
G1 X67.644 Y76.7 E.05094
G1 X67.5 Y76.808 E.00132
G1 X72.333 Y81.641 E.04982
G1 X72.08 Y81.641 E.00184
G1 X67.356 Y76.917 E.0487
G1 X67.212 Y77.026 E.00132
G1 X71.827 Y81.641 E.04758
G1 X71.574 Y81.642 E.00184
G1 X67.067 Y77.135 E.04646
G1 X66.923 Y77.244 E.00132
G1 X71.321 Y81.642 E.04534
G1 X71.068 Y81.642 E.00184
G1 X66.779 Y77.353 E.04422
G1 X66.635 Y77.462 E.00132
G1 X70.816 Y81.642 E.0431
G1 X70.563 Y81.642 E.00184
G1 X65.423 Y76.503 E.05299
G1 X65.382 Y76.715 E.00157
G1 X70.31 Y81.643 E.0508
G1 X70.057 Y81.643 E.00184
G1 X65.341 Y76.926 E.04862
G1 X65.3 Y77.138 E.00157
G1 X69.804 Y81.643 E.04644
G1 X69.551 Y81.643 E.00184
G1 X65.259 Y77.35 E.04425
G1 X65.217 Y77.562 E.00157
G1 X69.298 Y81.643 E.04207
G1 X69.046 Y81.643 E.00184
G1 X65.176 Y77.774 E.03989
G1 X65.128 Y77.979 E.00154
G1 X68.793 Y81.644 E.03778
G1 X68.54 Y81.644 E.00184
G1 X64.881 Y77.985 E.03772
G1 X64.634 Y77.991 E.0018
G1 X68.287 Y81.644 E.03766
G1 X68.034 Y81.644 E.00184
G1 X64.308 Y77.918 E.03842
G1 E-.8 F3000
G1 Z.3 F21000
G1 X63.881 Y76.732 Z.1
G1 E.8 F1800
G1 F6300
G1 X63.68 Y76.531 E.00207
G1 X63.525 Y76.629 E.00134
G1 X63.853 Y76.957 E.00338
G1 X63.933 Y77.29 E.0025
G1 X63.37 Y76.727 E.00581
G1 X63.214 Y76.824 E.00134
G1 X64.123 Y77.733 E.00937
G1 E-.8 F3000
G1 Z.3 F21000
G1 X63.001 Y76.864 Z.1
G1 E.8 F1800
G1 F6300
G1 X67.781 Y81.644 E.04928
G1 X67.528 Y81.644 E.00184
G1 X62.918 Y77.034 E.04753
G1 X62.855 Y77.224 E.00146
G1 X67.276 Y81.645 E.04558
G1 X67.023 Y81.645 E.00184
G1 X62.791 Y77.413 E.04362
G1 X62.728 Y77.603 E.00146
G1 X66.77 Y81.645 E.04167
G1 X66.517 Y81.645 E.00184
G1 X62.664 Y77.793 E.03972
G1 X62.601 Y77.982 E.00146
G1 X66.264 Y81.645 E.03776
G1 X66.011 Y81.645 E.00184
G1 X62.538 Y78.172 E.03581
G1 X62.492 Y78.31 E.00106
G1 X62.421 Y78.309 E.00051
G1 X65.758 Y81.646 E.0344
G1 X65.506 Y81.646 E.00184
G1 X62.164 Y78.304 E.03445
G1 X61.907 Y78.3 E.00188
G1 X65.253 Y81.646 E.03449
G1 X65 Y81.646 E.00184
G1 X61.65 Y78.296 E.03454
G1 X61.554 Y78.294 E.0007
G1 X61.545 Y78.265 E.00023
G1 X61.456 Y78.355 E.00093
G1 X64.747 Y81.646 E.03393
G1 X64.494 Y81.647 E.00184
G1 X61.33 Y78.483 E.03262
G1 X61.205 Y78.61 E.0013
G1 X64.241 Y81.647 E.0313
G1 X63.988 Y81.647 E.00184
G1 X60.963 Y78.622 E.03119
G1 X59.361 Y77.272 E.01527
G1 X63.736 Y81.647 E.0451
G1 X63.483 Y81.647 E.00184
G1 X58.146 Y76.31 E.05502
G1 X58.02 Y76.438 E.0013
G1 X63.23 Y81.647 E.05371
G1 X62.977 Y81.648 E.00184
G1 X57.895 Y76.565 E.05239
G1 X57.769 Y76.693 E.0013
G1 X62.724 Y81.648 E.05108
G1 X62.471 Y81.648 E.00184
G1 X57.644 Y76.82 E.04977
G1 X57.518 Y76.948 E.0013
G1 X62.218 Y81.648 E.04846
G1 X61.966 Y81.648 E.00184
G1 X57.393 Y77.075 E.04714
G1 X57.267 Y77.203 E.0013
G1 X61.713 Y81.648 E.04583
G1 X61.46 Y81.649 E.00184
G1 X57.142 Y77.33 E.04452
G1 X57.016 Y77.458 E.0013
G1 X61.207 Y81.649 E.04321
G1 X60.954 Y81.649 E.00184
G1 X56.891 Y77.585 E.04189
G1 X56.765 Y77.713 E.0013
G1 X60.701 Y81.649 E.04058
G1 X60.448 Y81.649 E.00184
G1 X56.639 Y77.84 E.03927
G1 X56.514 Y77.968 E.0013
G1 X60.196 Y81.649 E.03796
G1 X59.943 Y81.65 E.00184
G1 X56.388 Y78.095 E.03664
G1 X56.263 Y78.223 E.0013
G1 X59.69 Y81.65 E.03533
G1 X59.437 Y81.65 E.00184
G1 X56.137 Y78.35 E.03402
G1 X56.012 Y78.478 E.0013
G1 X59.184 Y81.65 E.03271
G1 X58.931 Y81.65 E.00184
G1 X55.886 Y78.605 E.03139
G1 X55.791 Y78.702 E.00099
G1 X55.565 Y78.537 E.00204
G1 X58.679 Y81.651 E.0321
G1 X58.426 Y81.651 E.00184
G1 X54.614 Y77.839 E.0393
G1 X53.663 Y77.141 E.0086
G1 X58.173 Y81.651 E.04649
G1 X57.92 Y81.651 E.00184
G1 X52.712 Y76.444 E.05369
G1 X51.762 Y75.746 E.0086
G1 X57.667 Y81.651 E.06088
G1 X57.414 Y81.651 E.00184
G1 X50.811 Y75.048 E.06808
G1 X49.86 Y74.35 E.0086
G1 X57.161 Y81.652 E.07527
G1 X56.909 Y81.652 E.00184
G1 X48.909 Y73.653 E.08247
G1 X47.959 Y72.955 E.0086
G1 X56.656 Y81.652 E.08966
G1 X56.403 Y81.652 E.00184
G1 X47.008 Y72.257 E.09685
G1 X46.341 Y71.767 E.00603
G1 X46.341 Y71.843 E.00055
G1 X56.15 Y81.652 E.10113
G1 X55.897 Y81.652 E.00184
G1 X46.341 Y72.096 E.09852
G1 X46.341 Y72.349 E.00184
G1 X55.644 Y81.653 E.09591
G1 X55.391 Y81.653 E.00184
G1 X46.341 Y72.602 E.09331
G1 X46.341 Y72.855 E.00184
G1 X55.139 Y81.653 E.0907
M73 P2 R31
G1 X54.886 Y81.653 E.00184
G1 X46.341 Y73.108 E.08809
G1 X46.341 Y73.361 E.00184
G1 X54.633 Y81.653 E.08549
G1 X54.38 Y81.653 E.00184
G1 X46.341 Y73.614 E.08288
G1 X46.341 Y73.867 E.00184
G1 X54.127 Y81.654 E.08027
G1 X53.874 Y81.654 E.00184
G1 X46.341 Y74.12 E.07767
G1 X46.341 Y74.373 E.00184
G1 X53.621 Y81.654 E.07506
G1 X53.369 Y81.654 E.00184
G1 X46.341 Y74.626 E.07245
G1 X46.341 Y74.879 E.00184
G1 X53.116 Y81.654 E.06985
G1 X52.863 Y81.654 E.00184
G1 X46.341 Y75.132 E.06724
G1 X46.341 Y75.385 E.00184
G1 X52.61 Y81.655 E.06463
G1 X52.357 Y81.655 E.00184
G1 X46.341 Y75.638 E.06203
G1 X46.341 Y75.891 E.00184
G1 X52.104 Y81.655 E.05942
G1 X51.851 Y81.655 E.00184
G1 X46.341 Y76.144 E.05681
G1 X46.341 Y76.397 E.00184
G1 X51.599 Y81.655 E.05421
G1 X51.346 Y81.656 E.00184
G1 X46.341 Y76.65 E.0516
G1 X46.341 Y76.903 E.00184
G1 X51.093 Y81.656 E.04899
G1 X50.84 Y81.656 E.00184
G1 X46.341 Y77.156 E.04639
G1 X46.341 Y77.409 E.00184
G1 X50.587 Y81.656 E.04378
G1 X50.334 Y81.656 E.00184
G1 X46.341 Y77.662 E.04117
G1 X46.341 Y77.916 E.00184
G1 X50.081 Y81.656 E.03857
G1 X49.829 Y81.657 E.00184
G1 X46.341 Y78.169 E.03596
G1 X46.341 Y78.422 E.00184
G1 X49.576 Y81.657 E.03335
G1 X49.323 Y81.657 E.00184
G1 X46.341 Y78.675 E.03075
G1 X46.341 Y78.928 E.00184
G1 X49.07 Y81.657 E.02814
G1 X48.817 Y81.657 E.00184
G1 X46.341 Y79.181 E.02553
G1 X46.341 Y79.434 E.00184
G1 X48.564 Y81.657 E.02293
G1 X48.311 Y81.658 E.00184
G1 X46.341 Y79.687 E.02032
G1 X46.341 Y79.94 E.00184
G1 X48.059 Y81.658 E.01771
G1 X47.806 Y81.658 E.00184
G1 X46.341 Y80.193 E.01511
G1 X46.341 Y80.446 E.00184
G1 X47.553 Y81.658 E.0125
G1 X47.3 Y81.658 E.00184
G1 X46.341 Y80.699 E.00989
G1 X46.341 Y80.952 E.00184
G1 X47.047 Y81.658 E.00728
G1 X46.794 Y81.659 E.00184
G1 X46.341 Y81.205 E.00468
G1 X46.341 Y81.458 E.00184
G1 X46.622 Y81.739 E.0029
; stop printing object LogoVancouver.STL id:0 copy 0
EXCLUDE_OBJECT_END NAME=LogoVancouver.STL_id_0_copy_0
; printing object LogoVancouver.STL id:1 copy 0
EXCLUDE_OBJECT_START NAME=LogoVancouver.STL_id_1_copy_0
G1 E-.8 F3000
G1 Z.3 F21000
G1 X64.73 Y60.997 Z.1
G1 E.8 F1800
;TYPE:Outer wall
;WIDTH:0.2
G1 F3000
G1 X65.143 Y58.866 E.01579
G1 X66.657 Y60.329 E.01532
G1 X70.223 Y57.636 E.03251
G1 X73.744 Y55.083 E.03163
G1 X74.165 Y55.083 E.00307
G1 X74.165 Y65.63 E.07672
G1 X45.85 Y65.65 E.20598
G1 X45.85 Y54.35 E.0822
G1 X45.921 Y54.35 E.00052
G1 X55.739 Y61.555 E.08859
G1 X58.148 Y59.108 E.02498
G1 X61.058 Y61.559 E.02768
G1 X61.778 Y60.828 E.00746
G1 X61.922 Y61.309 E.00365
G1 X62.14 Y61.312 E.00159
G1 X62.518 Y60.183 E.00866
G1 X64.057 Y59.212 E.01324
G1 X64.49 Y61.002 E.0134
G1 X64.707 Y60.997 E.00158
G1 X64.756 Y61.012
G1 X64.881 Y61.156 F21000
;TYPE:Inner wall
G1 F3000
G1 X65.256 Y59.223 E.01432
G1 X66.643 Y60.563 E.01403
G1 X70.329 Y57.779 E.0336
G1 X73.801 Y55.262 E.0312
G1 X73.987 Y55.262 E.00135
G1 X73.987 Y65.452 E.07413
G1 X46.028 Y65.471 E.20338
G1 X46.028 Y54.65 E.07872
G1 X55.758 Y61.79 E.08779
G1 X58.159 Y59.351 E.0249
G1 X61.069 Y61.802 E.02768
G1 X61.693 Y61.168 E.00647
G1 X61.788 Y61.485 E.00241
G1 X62.268 Y61.493 E.00349
G1 X62.667 Y60.3 E.00915
G1 X63.942 Y59.496 E.01097
G1 X64.35 Y61.184 E.01263
G1 X64.872 Y61.172 E.00379
G1 X64.993 Y61.348 F21000
G1 F3000
G1 X65.026 Y61.347 E.00024
G1 X65.368 Y59.58 E.01309
G1 X66.629 Y60.798 E.01275
G1 X70.436 Y57.923 E.0347
G1 X73.808 Y55.477 E.03031
G1 X73.808 Y65.273 E.07126
G1 X46.207 Y65.292 E.20079
G1 X46.207 Y55.002 E.07485
G1 X55.776 Y62.025 E.08635
G1 X58.17 Y59.594 E.02482
G1 X61.081 Y62.045 E.02768
G1 X61.609 Y61.509 E.00547
G1 X61.654 Y61.661 E.00116
G1 X62.396 Y61.673 E.00539
G1 X62.816 Y60.417 E.00964
G1 X63.827 Y59.779 E.00869
G1 X64.21 Y61.366 E.01187
G1 X64.971 Y61.348 E.00553
G1 E-.8
G1 Z.3 F21000
G1 X73.55 Y55.731 Z.1
G1 E.8 F1800
;TYPE:Bottom surface
;WIDTH:0.200378
G1 F6300
G1 X73.675 Y55.855 E.00128
G1 X73.675 Y56.108 E.00184
G1 X73.461 Y55.895 E.0022
G1 X73.314 Y56.001 E.00132
G1 X73.675 Y56.361 E.00371
G1 X73.675 Y56.614 E.00184
G1 X73.168 Y56.107 E.00523
G1 X73.021 Y56.214 E.00132
G1 X73.675 Y56.867 E.00674
G1 X73.675 Y57.12 E.00184
G1 X72.874 Y56.32 E.00825
G1 X72.728 Y56.426 E.00132
G1 X73.675 Y57.373 E.00976
G1 X73.675 Y57.626 E.00184
G1 X72.581 Y56.533 E.01127
G1 X72.434 Y56.639 E.00132
G1 X73.675 Y57.879 E.01279
G1 X73.675 Y58.132 E.00184
G1 X72.288 Y56.745 E.0143
G1 X72.141 Y56.852 E.00132
G1 X73.675 Y58.385 E.01581
G1 X73.675 Y58.638 E.00184
G1 X71.994 Y56.958 E.01732
G1 X71.848 Y57.064 E.00132
G1 X73.675 Y58.891 E.01883
G1 X73.675 Y59.144 E.00184
G1 X71.701 Y57.171 E.02035
G1 X71.554 Y57.277 E.00132
G1 X73.675 Y59.398 E.02186
G1 X73.675 Y59.651 E.00184
G1 X71.408 Y57.384 E.02337
G1 X71.261 Y57.49 E.00132
G1 X73.675 Y59.904 E.02488
G1 X73.675 Y60.157 E.00184
G1 X71.114 Y57.596 E.0264
