; HEADER_BLOCK_START
; generated by OrcaSlicer 1.6.3 on 2023-06-27 at 13:02:45
; total layer number: 45
; HEADER_BLOCK_END

; THUMBNAIL_BLOCK_START
; THUMBNAIL_BLOCK_END

; external perimeters extrusion width = 0.15mm
; perimeters extrusion width = 0.15mm
; infill extrusion width = 0.15mm
; solid infill extrusion width = 0.15mm
; top infill extrusion width = 0.15mm
; first layer extrusion width = 0.20mm

; external perimeters extrusion width = 0.15mm
; perimeters extrusion width = 0.15mm
; infill extrusion width = 0.15mm
; solid infill extrusion width = 0.15mm
; top infill extrusion width = 0.15mm
; first layer extrusion width = 0.20mm

; external perimeters extrusion width = 0.15mm
; perimeters extrusion width = 0.15mm
; infill extrusion width = 0.15mm
; solid infill extrusion width = 0.15mm
; top infill extrusion width = 0.15mm
; first layer extrusion width = 0.20mm

; EXECUTABLE_BLOCK_START
EXCLUDE_OBJECT_DEFINE NAME=LogoMountains.STL_id_0_copy_0 CENTER=60,72.61 POLYGON=[[45.7386,69.444],[45.9202,69.2326],[45.9478,69.206],[45.9754,69.1866],[46.006,69.1716],[46.0402,69.1609],[46.0762,69.1549],[49.8001,68.9176],[51.9001,68.8595],[57.1337,68.805],[66.7561,68.8641],[67.1939,68.8762],[67.6304,68.9539],[74.2614,70.3553],[74.2614,70.7595],[66.6594,75.3388],[64.6053,76.1145],[61.0444,76.415],[55.7195,76.415],[45.7386,70.1153],[45.7386,69.444]]
EXCLUDE_OBJECT_DEFINE NAME=LogoMountains.STL_id_1_copy_0 CENTER=60,60 POLYGON=[[45.7386,56.8339],[45.9202,56.6226],[45.9478,56.596],[45.9754,56.5766],[46.006,56.5616],[46.0402,56.5509],[46.0762,56.5449],[49.8001,56.3076],[51.9001,56.2495],[57.1337,56.195],[66.7561,56.2541],[67.1939,56.2662],[67.6304,56.3439],[74.2614,57.7453],[74.2614,58.1495],[66.6594,62.7288],[64.6053,63.5045],[61.0444,63.805],[55.7195,63.805],[45.7386,57.5053],[45.7386,56.8339]]
EXCLUDE_OBJECT_DEFINE NAME=LogoMountains.STL_id_2_copy_0 CENTER=60,47.39 POLYGON=[[45.7386,44.2239],[45.9202,44.0126],[45.9478,43.9859],[45.9754,43.9666],[46.006,43.9516],[46.0402,43.9409],[46.0762,43.9349],[49.8001,43.6976],[51.9001,43.6394],[57.1337,43.585],[66.7561,43.6441],[67.1939,43.6562],[67.6304,43.7339],[74.2614,45.1353],[74.2614,45.5395],[66.6594,50.1188],[64.6053,50.8945],[61.0444,51.195],[55.7195,51.195],[45.7386,44.8952],[45.7386,44.2239]]
M73 P0 R33
M73 C19
;TYPE:Custom
START_PRINT T_BED=60 T_EXTRUDER=220
G90
G21
M83 ; use relative distances for extrusion
; filament start gcode

    PRESSURE_ADVANCE_SELECT FILAMENT=PLA
M106 S0
;LAYER_CHANGE
;Z:0.1
;HEIGHT:0.1
;BEFORE_LAYER_CHANGE
;0.1
G92 E0

;AFTER_LAYER_CHANGE
;0.1
M204 S500
G1 E-.8 F3000
G1 Z.2 F21000
G1 X44.133 Y42.476
G1 Z.1
G1 E.8 F1800
;TYPE:Skirt
;WIDTH:0.2
G1 F3000
G1 X44.934 Y41.852 E.00739
G1 X45.692 Y41.609 E.00579
G1 X49.65 Y41.345 E.02886
G1 X51.876 Y41.282 E.01619
G1 X57.148 Y41.228 E.03836
G1 X66.771 Y41.287 E.07
G1 X68.043 Y41.413 E.0093
G1 X74.749 Y42.829 E.04985
G1 X75.941 Y43.481 E.00988
G1 X76.618 Y45.135 E.013
G1 X76.618 Y70.76 E.1864
G1 X76.227 Y72.06 E.00988
G1 X75.478 Y72.779 E.00755
G1 X67.876 Y77.358 E.06456
G1 X65.438 Y78.32 E.01906
G1 X64.804 Y78.463 E.00473
G1 X61.044 Y78.772 E.02744
G1 X55.719 Y78.772 E.03874
G1 X54.461 Y78.408 E.00953
G1 X44.481 Y72.109 E.08586
G1 X43.589 Y71.083 E.00988
G1 X43.382 Y70.115 E.0072
G1 X43.382 Y44.224 E.18834
G1 X43.951 Y42.688 E.01192
G1 X44.118 Y42.493 E.00186
G1 X44.253 Y42.61 F21000
G1 F3000
G1 X44.268 Y42.593 E.00016
G1 X45.013 Y42.012 E.00687
G1 X45.721 Y41.785 E.00541
G1 X49.662 Y41.523 E.02873
G1 X51.877 Y41.461 E.01613
G1 X57.147 Y41.406 E.03834
G1 X66.77 Y41.466 E.07
G1 X68.012 Y41.589 E.00908
G1 X74.712 Y43.004 E.04981
G1 X75.849 Y43.644 E.00949
G1 X76.44 Y45.135 E.01167
G1 X76.44 Y70.76 E.1864
G1 X76.049 Y72.005 E.00949
G1 X75.386 Y72.626 E.00661
G1 X67.783 Y77.205 E.06456
G1 X65.375 Y78.153 E.01883
G1 X64.788 Y78.285 E.00437
G1 X61.044 Y78.594 E.02733
G1 X55.719 Y78.594 E.03874
G1 X54.557 Y78.257 E.00881
G1 X44.576 Y71.958 E.08586
G1 X43.732 Y70.962 E.00949
G1 X43.56 Y70.115 E.00629
G1 X43.56 Y44.224 E.18834
G1 X44.086 Y42.804 E.01102
G1 X44.239 Y42.627 E.0017
; printing object LogoMountains.STL id:0 copy 0
EXCLUDE_OBJECT_START NAME=LogoMountains.STL_id_0_copy_0
G1 E-.8
G1 Z.3 F21000
G1 X61.864 Y75.55 Z.1
G1 E.8 F1800
;TYPE:Outer wall
G1 F3000
G1 X61.039 Y76.286 E.00805
G1 X58.127 Y74.134 E.02634
G1 X55.71 Y76.29 E.02356
G1 X45.972 Y70.015 E.08427
G1 X45.839 Y70.015 E.00097
G1 X45.839 Y69.544 E.00343
G1 X45.912 Y69.544 E.00054
G1 X45.954 Y69.365 E.00134
G1 X46.024 Y69.276 E.00082
G1 X46.088 Y69.256 E.00048
G1 X46.244 Y69.268 E.00114
G1 X46.796 Y69.366 E.00408
G1 X47.359 Y69.419 E.00412
G1 X48.005 Y69.42 E.0047
G1 X48.429 Y69.393 E.00309
G1 X48.75 Y69.337 E.00237
G1 X49.589 Y69.06 E.00643
G1 X49.81 Y69.018 E.00164
G1 X50.67 Y69.015 E.00626
G1 X51.21 Y69.066 E.00395
G1 X51.908 Y68.959 E.00513
G1 X53.206 Y68.958 E.00945
G1 X53.595 Y68.965 E.00283
G1 X53.807 Y69 E.00157
G1 X54.387 Y69.218 E.0045
G1 X54.613 Y69.281 E.00171
G1 X54.838 Y69.31 E.00165
G1 X55.075 Y69.306 E.00173
G1 X55.412 Y69.25 E.00248
G1 X56.083 Y69.099 E.005
G1 X56.55 Y68.958 E.00355
G1 X56.754 Y68.917 E.00151
G1 X57.133 Y68.905 E.00275
G1 X57.732 Y68.935 E.00437
G1 X58.261 Y69.018 E.00389
G1 X58.677 Y69.146 E.00316
G1 X59.111 Y69.315 E.00339
G1 X59.393 Y69.392 E.00213
G1 X59.569 Y69.415 E.00129
G1 X59.777 Y69.398 E.00152
G1 X59.901 Y69.359 E.00095
G1 X60.403 Y69.124 E.00403
G1 X60.628 Y69.061 E.0017
G1 X60.911 Y69.019 E.00208
G1 X61.245 Y69.014 E.00243
G1 X61.713 Y69.068 E.00343
G1 X62.428 Y69.215 E.00531
G1 X62.579 Y69.226 E.0011
G1 X62.798 Y69.195 E.00161
G1 X63.172 Y69.06 E.00289
G1 X63.29 Y69.042 E.00086
G1 X63.476 Y69.041 E.00135
G1 X63.998 Y69.096 E.00382
G1 X65.141 Y69.135 E.00832
G1 X65.48 Y69.115 E.00247
G1 X66.078 Y69.02 E.0044
G1 X66.759 Y68.964 E.00497
G1 X67.184 Y68.976 E.00309
G1 X67.609 Y69.052 E.00314
G1 X68.531 Y69.286 E.00692
G1 X69.137 Y69.573 E.00488
G1 X69.769 Y69.778 E.00483
G1 X70.076 Y69.837 E.00227
G1 X70.75 Y69.866 E.0049
G1 X70.891 Y69.891 E.00105
G1 X71.01 Y69.93 E.00091
G1 X71.334 Y70.106 E.00268
G1 X71.503 Y70.173 E.00132
G1 X71.743 Y70.176 E.00174
G1 X72.033 Y70.103 E.00218
G1 X72.284 Y70.078 E.00183
G1 X72.45 Y70.099 E.00122
G1 X73.113 Y70.278 E.00499
G1 X73.46 Y70.318 E.00254
G1 X73.524 Y70.344 E.00051
G1 X73.601 Y70.455 E.00098
G1 X74.161 Y70.455 E.00407
G1 X74.161 Y70.66 E.00149
G1 X73.678 Y70.66 E.00352
G1 X70.102 Y72.936 E.03083
G1 X66.667 Y75.214 E.02998
G1 X65.012 Y73.81 E.01579
G1 X64.595 Y75.699 E.01407
G1 X64.178 Y74.185 E.01142
G1 X62.347 Y75.198 E.01523
G1 X62.029 Y76.033 E.0065
G1 X61.872 Y75.571 E.00355
G1 X61.836 Y75.54
G1 X61.947 Y75.237 F21000
;TYPE:Inner wall
G1 F3000
G1 X61.028 Y76.056 E.00895
G1 X58.117 Y73.904 E.02634
G1 X55.692 Y76.066 E.02363
G1 X46.017 Y69.832 E.08373
G1 X46.017 Y69.722 E.0008
G1 X46.054 Y69.722 E.00026
G1 X46.121 Y69.438 E.00213
G1 X46.772 Y69.544 E.0048
G1 X47.351 Y69.597 E.00423
G1 X48.01 Y69.599 E.0048
G1 X48.45 Y69.571 E.00321
G1 X48.793 Y69.511 E.00253
G1 X49.633 Y69.233 E.00644
G1 X49.827 Y69.196 E.00143
G1 X50.662 Y69.194 E.00608
G1 X51.215 Y69.246 E.00404
G1 X51.921 Y69.138 E.0052
G1 X53.579 Y69.144 E.01205
G1 X53.761 Y69.173 E.00135
G1 X54.331 Y69.387 E.00443
G1 X54.577 Y69.457 E.00186
G1 X54.828 Y69.489 E.00184
G1 X55.092 Y69.484 E.00192
G1 X55.446 Y69.425 E.00262
G1 X56.129 Y69.272 E.00509
G1 X56.593 Y69.131 E.00353
G1 X56.775 Y69.095 E.00134
G1 X57.131 Y69.084 E.00259
G1 X57.714 Y69.112 E.00424
G1 X58.221 Y69.192 E.00373
G1 X58.618 Y69.315 E.00302
G1 X59.055 Y69.484 E.00341
G1 X59.358 Y69.567 E.00229
G1 X59.564 Y69.594 E.00151
G1 X59.811 Y69.574 E.0018
G1 X59.966 Y69.526 E.00118
G1 X60.466 Y69.292 E.00401
G1 X60.665 Y69.236 E.00151
G1 X60.925 Y69.198 E.00191
G1 X61.236 Y69.193 E.00226
G1 X61.685 Y69.244 E.00329
G1 X62.404 Y69.393 E.00534
G1 X62.585 Y69.405 E.00132
G1 X62.841 Y69.369 E.00188
G1 X63.217 Y69.234 E.0029
G1 X63.304 Y69.221 E.00064
G1 X63.467 Y69.219 E.00119
G1 X63.985 Y69.274 E.00379
G1 X65.143 Y69.314 E.00843
G1 X65.499 Y69.293 E.00259
G1 X66.099 Y69.198 E.00442
G1 X66.764 Y69.143 E.00485
G1 X67.165 Y69.154 E.00292
G1 X67.572 Y69.226 E.003
G1 X68.47 Y69.455 E.00674
G1 X69.071 Y69.739 E.00484
G1 X69.725 Y69.951 E.005
G1 X70.055 Y70.015 E.00245
G1 X70.73 Y70.044 E.00492
G1 X70.848 Y70.065 E.00087
G1 X70.939 Y70.094 E.0007
G1 X71.259 Y70.268 E.00264
G1 X71.468 Y70.351 E.00164
G1 X71.764 Y70.355 E.00215
G1 X72.064 Y70.279 E.00225
G1 X72.281 Y70.258 E.00159
G1 X72.415 Y70.275 E.00098
G1 X73.079 Y70.454 E.005
G1 X73.409 Y70.492 E.00242
G1 X73.47 Y70.58 E.00078
G1 X70.005 Y72.786 E.02989
G1 X66.68 Y74.991 E.02902
G1 X64.901 Y73.482 E.01696
G1 X64.613 Y74.787 E.00972
G1 X64.529 Y74.789 E.00061
G1 X64.29 Y73.919 E.00657
G1 X62.203 Y75.074 E.01735
G1 X62.038 Y75.507 E.00337
G1 X61.954 Y75.259 E.00191
G1 X62.029 Y74.925 F21000
G1 F3000
G1 X61.017 Y75.827 E.00986
G1 X58.106 Y73.674 E.02634
G1 X55.675 Y75.842 E.0237
G1 X46.229 Y69.756 E.08174
G1 X46.258 Y69.634 E.00092
G1 X46.748 Y69.721 E.00362
M73 P0 R32
G1 X47.342 Y69.776 E.00434
G1 X48.016 Y69.778 E.0049
G1 X48.471 Y69.748 E.00332
G1 X48.837 Y69.684 E.0027
G1 X49.678 Y69.406 E.00645
G1 X49.844 Y69.375 E.00123
G1 X50.654 Y69.372 E.00589
G1 X51.221 Y69.426 E.00414
G1 X51.935 Y69.316 E.00526
G1 X53.562 Y69.322 E.01184
G1 X53.715 Y69.347 E.00112
G1 X54.275 Y69.557 E.00436
G1 X54.541 Y69.632 E.00201
G1 X54.818 Y69.668 E.00203
G1 X55.108 Y69.663 E.00211
G1 X55.481 Y69.6 E.00275
G1 X56.174 Y69.445 E.00517
G1 X56.795 Y69.273 E.00469
G1 X57.13 Y69.262 E.00244
G1 X57.696 Y69.29 E.00412
G1 X58.18 Y69.366 E.00357
G1 X58.559 Y69.484 E.00289
G1 X58.999 Y69.654 E.00343
G1 X59.323 Y69.743 E.00245
G1 X59.56 Y69.773 E.00174
G1 X59.845 Y69.751 E.00208
G1 X60.031 Y69.692 E.00142
G1 X60.528 Y69.46 E.00399
G1 X60.702 Y69.411 E.00132
G1 X60.94 Y69.376 E.00175
G1 X61.227 Y69.372 E.00209
G1 X61.656 Y69.421 E.00314
G1 X62.38 Y69.57 E.00537
G1 X62.592 Y69.584 E.00154
G1 X62.884 Y69.543 E.00215
G1 X63.319 Y69.399 E.00333
G1 X63.458 Y69.398 E.00102
G1 X63.973 Y69.452 E.00376
G1 X65.145 Y69.493 E.00854
G1 X65.519 Y69.471 E.00272
G1 X66.12 Y69.375 E.00443
G1 X66.769 Y69.322 E.00473
G1 X67.147 Y69.332 E.00276
G1 X67.534 Y69.401 E.00286
G1 X68.409 Y69.624 E.00657
G1 X69.005 Y69.906 E.0048
G1 X69.68 Y70.124 E.00516
G1 X70.034 Y70.192 E.00262
G1 X70.805 Y70.238 E.00562
G1 X71.183 Y70.43 E.00308
G1 X71.433 Y70.529 E.00195
G1 X71.785 Y70.534 E.00256
G1 X72.094 Y70.456 E.00232
G1 X72.279 Y70.438 E.00135
G1 X72.381 Y70.45 E.00075
G1 X73.055 Y70.632 E.00508
G1 X69.907 Y72.637 E.02715
G1 X66.693 Y74.768 E.02806
G1 X64.791 Y73.155 E.01814
G1 X64.594 Y74.045 E.00664
G1 X64.51 Y74.047 E.00061
G1 X64.402 Y73.653 E.00298
G1 X62.041 Y74.96 E.01963
G1 X62.036 Y74.946 E.0001
G1 E-.8
G1 Z.3 F21000
G1 X72.439 Y70.521 Z.1
G1 E.8 F1800
;TYPE:Bottom surface
;WIDTH:0.200338
G1 F6300
G1 X72.65 Y70.732 E.00217
G1 X72.495 Y70.83 E.00134
G1 X72.24 Y70.576 E.00262
G1 X72.023 Y70.612 E.0016
G1 X72.34 Y70.929 E.00327
G1 X72.186 Y71.027 E.00134
G1 X71.821 Y70.663 E.00376
G1 X71.57 Y70.665 E.00183
G1 X72.031 Y71.126 E.00475
G1 X71.877 Y71.224 E.00134
G1 X71.255 Y70.602 E.00641
G1 X70.77 Y70.371 E.00391
G1 X71.722 Y71.323 E.00981
G1 X71.568 Y71.421 E.00134
G1 X70.501 Y70.354 E.01099
G1 X70.232 Y70.338 E.00196
G1 X71.413 Y71.519 E.01217
G1 X71.258 Y71.618 E.00134
G1 X69.954 Y70.313 E.01345
G1 X69.64 Y70.252 E.00233
G1 X71.104 Y71.716 E.01509
G1 X70.949 Y71.815 E.00134
G1 X69.265 Y70.131 E.01736
G1 X68.873 Y69.991 E.00304
G1 X70.795 Y71.913 E.01981
G1 X70.64 Y72.011 E.00134
G1 X68.393 Y69.764 E.02316
G1 X68.045 Y69.669 E.00263
G1 X70.486 Y72.11 E.02515
G1 X70.331 Y72.208 E.00134
G1 X67.706 Y69.583 E.02706
G1 X67.379 Y69.51 E.00244
G1 X70.176 Y72.307 E.02883
G1 X70.022 Y72.405 E.00134
G1 X67.081 Y69.464 E.03031
G1 X66.821 Y69.457 E.0019
G1 X69.867 Y72.503 E.0314
G1 X69.715 Y72.604 E.00133
G1 X66.582 Y69.471 E.03229
G1 X66.349 Y69.491 E.00171
G1 X69.563 Y72.705 E.03313
G1 X69.41 Y72.805 E.00133
G1 X66.116 Y69.511 E.03395
G1 X65.898 Y69.546 E.00161
G1 X69.258 Y72.906 E.03464
G1 X69.106 Y73.007 E.00133
G1 X65.68 Y69.581 E.03532
G1 X65.455 Y69.609 E.00165
G1 X68.954 Y73.108 E.03607
G1 X68.802 Y73.209 E.00133
G1 X65.216 Y69.623 E.03696
G1 X64.96 Y69.62 E.00186
G1 X68.65 Y73.31 E.03803
G1 X68.498 Y73.411 E.00133
G1 X64.698 Y69.611 E.03916
G1 X64.436 Y69.602 E.00191
G1 X68.346 Y73.512 E.04029
G1 X68.194 Y73.612 E.00133
G1 X64.174 Y69.593 E.04143
G1 X63.908 Y69.58 E.00194
G1 X68.042 Y73.713 E.0426
G1 X67.889 Y73.814 E.00133
G1 X63.625 Y69.55 E.04395
G1 X63.355 Y69.533 E.00198
G1 X67.737 Y73.915 E.04517
G1 X67.585 Y74.016 E.00133
G1 X63.162 Y69.592 E.04559
G1 X62.972 Y69.655 E.00146
G1 X67.433 Y74.117 E.04598
G1 X67.281 Y74.218 E.00133
G1 X62.76 Y69.696 E.0466
G1 X62.525 Y69.714 E.00172
G1 X67.129 Y74.318 E.04746
M73 P1 R32
G1 X66.977 Y74.419 E.00133
G1 X62.234 Y69.677 E.04888
G1 X61.915 Y69.611 E.00237
G1 X66.825 Y74.52 E.0506
G1 X66.703 Y74.601 E.00106
G1 X66.37 Y74.318 E.00318
G1 X61.6 Y69.549 E.04916
G1 X61.315 Y69.516 E.00209
G1 X64.708 Y72.909 E.03497
G1 X64.662 Y73.117 E.00155
G1 X61.054 Y69.508 E.03719
G1 X60.821 Y69.529 E.0017
G1 X64.616 Y73.324 E.03912
G1 X64.571 Y73.531 E.00155
G1 X60.614 Y69.575 E.04078
G1 X60.437 Y69.65 E.0014
G1 X64.328 Y73.541 E.0401
G1 X64.165 Y73.631 E.00136
G1 X60.265 Y69.731 E.0402
G1 X60.092 Y69.812 E.00139
G1 X64.002 Y73.721 E.0403
G1 X63.839 Y73.811 E.00136
G1 X59.901 Y69.874 E.04059
G1 X59.674 Y69.899 E.00167
G1 X63.676 Y73.901 E.04126
G1 X63.513 Y73.992 E.00136
G1 X59.411 Y69.889 E.04228
G1 X59.086 Y69.817 E.00243
G1 X63.351 Y74.082 E.04396
G1 X63.188 Y74.172 E.00136
G1 X58.696 Y69.681 E.04629
G1 X58.309 Y69.546 E.00299
G1 X63.025 Y74.262 E.0486
G1 X62.862 Y74.352 E.00136
G1 X57.98 Y69.47 E.05031
G1 X57.681 Y69.424 E.00221
G1 X62.699 Y74.442 E.05173
G1 X62.536 Y74.532 E.00136
G1 X57.415 Y69.411 E.05279
G1 X57.148 Y69.397 E.00194
G1 X62.373 Y74.622 E.05385
G1 X62.211 Y74.713 E.00136
G1 X56.902 Y69.404 E.05472
G1 X56.815 Y69.407 E.00063
G1 X56.687 Y69.442 E.00097
G1 X62.009 Y74.764 E.05485
G1 X61.875 Y74.883 E.00131
G1 X56.489 Y69.497 E.05551
G1 X56.29 Y69.551 E.0015
G1 X61.741 Y75.002 E.05618
G1 X61.607 Y75.121 E.00131
G1 X56.087 Y69.601 E.05689
G1 X55.881 Y69.648 E.00154
G1 X61.474 Y75.24 E.05765
G1 X61.34 Y75.36 E.00131
G1 X55.674 Y69.694 E.0584
G1 X55.466 Y69.738 E.00155
G1 X61.206 Y75.479 E.05917
G1 X61.072 Y75.598 E.00131
G1 X55.249 Y69.775 E.06002
G1 X55.019 Y69.798 E.00168
G1 X60.495 Y75.274 E.05644
G1 X59.525 Y74.556 E.0088
G1 X54.764 Y69.796 E.04907
G1 X54.465 Y69.75 E.0022
G1 X58.554 Y73.839 E.04215
G1 X58.099 Y73.502 E.00413
G1 X58.028 Y73.565 E.00069
G1 X54.095 Y69.632 E.04053
G1 X53.69 Y69.48 E.00315
G1 X57.894 Y73.684 E.04333
G1 X57.76 Y73.804 E.00131
G1 X53.412 Y69.455 E.04482
G1 X53.158 Y69.454 E.00185
G1 X57.626 Y73.923 E.04606
G1 X57.493 Y74.042 E.00131
G1 X52.904 Y69.454 E.04729
G1 X52.65 Y69.453 E.00185
G1 X57.359 Y74.161 E.04853
G1 X57.225 Y74.281 E.00131
G1 X52.396 Y69.452 E.04977
G1 X52.143 Y69.451 E.00185
G1 X57.091 Y74.4 E.05101
G1 X56.958 Y74.519 E.00131
G1 X51.896 Y69.458 E.05217
G1 X51.677 Y69.491 E.00162
G1 X56.824 Y74.638 E.05305
G1 X56.69 Y74.758 E.00131
G1 X51.458 Y69.525 E.05393
G1 X51.238 Y69.559 E.00162
G1 X56.557 Y74.877 E.05482
G1 X56.423 Y74.996 E.00131
G1 X50.963 Y69.536 E.05628
G1 X50.683 Y69.509 E.00205
G1 X56.289 Y75.115 E.05778
G1 X56.155 Y75.235 E.00131
G1 X50.427 Y69.507 E.05904
G1 X50.175 Y69.507 E.00184
G1 X56.022 Y75.354 E.06026
G1 X55.888 Y75.473 E.00131
G1 X49.923 Y69.508 E.06148
G1 X49.701 Y69.54 E.00163
G1 X55.754 Y75.592 E.06239
G1 X55.662 Y75.675 E.0009
G1 X55.442 Y75.533 E.0019
G1 X49.511 Y69.602 E.06113
G1 X49.321 Y69.665 E.00146
G1 X54.731 Y75.075 E.05576
G1 X54.02 Y74.617 E.00617
G1 X49.131 Y69.728 E.05039
G1 X48.941 Y69.791 E.00146
G1 X53.308 Y74.158 E.04502
G1 X52.597 Y73.7 E.00617
G1 X48.735 Y69.838 E.03981
G1 X48.52 Y69.876 E.00159
G1 X51.886 Y73.242 E.03469
G1 X51.174 Y72.783 E.00617
G1 X48.285 Y69.894 E.02978
G1 X48.048 Y69.91 E.00174
G1 X50.463 Y72.325 E.0249
G1 X49.752 Y71.867 E.00617
G1 X47.796 Y69.911 E.02016
G1 X47.542 Y69.91 E.00185
