; generated by SuperSlicer 2.5.59 on 2022-12-27 at 01:33:09 UTC


;
;

;
;
; 

; external perimeters extrusion width = 0.46mm
; perimeters extrusion width = 0.46mm
; infill extrusion width = 0.64mm
; solid infill extrusion width = 0.56mm
; top infill extrusion width = 0.40mm
; first layer extrusion width = 0.50mm

; external perimeters extrusion width = 0.46mm
; perimeters extrusion width = 0.46mm
; infill extrusion width = 0.64mm
; solid infill extrusion width = 0.56mm
; top infill extrusion width = 0.40mm
; first layer extrusion width = 0.50mm

; external perimeters extrusion width = 0.46mm
; perimeters extrusion width = 0.46mm
; infill extrusion width = 0.64mm
; solid infill extrusion width = 0.56mm
; top infill extrusion width = 0.40mm
; first layer extrusion width = 0.50mm

; external perimeters extrusion width = 0.46mm
; perimeters extrusion width = 0.46mm
; infill extrusion width = 0.64mm
; solid infill extrusion width = 0.56mm
; top infill extrusion width = 0.40mm
; first layer extrusion width = 0.50mm

; external perimeters extrusion width = 0.46mm
; perimeters extrusion width = 0.46mm
; infill extrusion width = 0.64mm
; solid infill extrusion width = 0.56mm
; top infill extrusion width = 0.40mm
; first layer extrusion width = 0.50mm

; external perimeters extrusion width = 0.46mm
; perimeters extrusion width = 0.46mm
; infill extrusion width = 0.64mm
; solid infill extrusion width = 0.56mm
; top infill extrusion width = 0.40mm
; first layer extrusion width = 0.50mm

; object:{"name":"LogoBase-80p","id":"LogoBase-80p.STL id:0 copy 0","object_center":[78.137953,59.999575,0.000000],"boundingbox_center":[78.137953,59.999575,1.407800],"boundingbox_size":[30.275903,20.018280,2.815599]}
; object:{"name":"LogoBase-80p","id":"LogoBase-80p.STL id:1 copy 0","object_center":[78.137953,33.980445,0.000000],"boundingbox_center":[78.137953,33.980445,1.407800],"boundingbox_size":[30.275903,20.018280,2.815599]}
; object:{"name":"LogoBase-80p","id":"LogoBase-80p.STL id:2 copy 0","object_center":[41.862049,59.999575,0.000000],"boundingbox_center":[41.862049,59.999575,1.407800],"boundingbox_size":[30.275903,20.018280,2.815599]}
; object:{"name":"LogoBase-80p","id":"LogoBase-80p.STL id:3 copy 0","object_center":[41.862049,33.980445,0.000000],"boundingbox_center":[41.862049,33.980445,1.407800],"boundingbox_size":[30.275903,20.018280,2.815599]}
; object:{"name":"LogoBase-80p","id":"LogoBase-80p.STL id:4 copy 0","object_center":[78.137953,86.018705,0.000000],"boundingbox_center":[78.137953,86.018705,1.407800],"boundingbox_size":[30.275903,20.018280,2.815599]}
; object:{"name":"LogoBase-80p","id":"LogoBase-80p.STL id:5 copy 0","object_center":[41.862049,86.018705,0.000000],"boundingbox_center":[41.862049,86.018705,1.407800],"boundingbox_size":[30.275903,20.018280,2.815599]}
; plater:{"center":[60.000001,59.999575,0.000000],"boundingbox_center":[60.000001,59.999575,1.407800],"boundingbox_size":[66.551807,72.056540,2.815599]}

M73 P0 R19
;TYPE:Custom
; custom gcode: start_gcode
START_PRINT T_BED=60 T_EXTRUDER=220
; custom gcode end: start_gcode
M107
G21 ; set units to millimeters
G90 ; use absolute coordinates
M83 ; use relative distances for extrusion
; custom gcode: start_filament_gcode
; Filament gcode

    PRESSURE_ADVANCE_SELECT FILAMENT=PLA
; custom gcode end: start_filament_gcode
;_TOOLCHANGE 0
M109 S200 ; set temperature and wait for it to be reached
M190 S60 ; set bed temperature and wait for it to be reached
;LAYER_CHANGE
;Z:0.2
;HEIGHT:0.2
G1 Z0.12 F12000
G92 E0
M73 P0 R19
G1 E-0.8 F3000
M204 S2000
G1 X24.603 Y21.093 F12000
G1 E0.8 F1800
;TYPE:Skirt
;WIDTH:0.52
G1 X23.503 Y22.405 E0.06454
G1 X23.108 Y24.071 E0.06454
G1 X23.108 Y95.928 E2.70797
M73 P0 R19
G1 X23.845 Y98.149 E0.08819
G1 X25.158 Y99.249 E0.06454
G1 X26.824 Y99.643 E0.06454
G1 X93.178 Y99.623 E2.50062
G1 X95.397 Y98.886 E0.08809
G1 X96.497 Y97.574 E0.06454
G1 X96.892 Y95.907 E0.06454
G1 X96.892 Y24.071 E2.7072
G1 X96.155 Y21.85 E0.08819
G1 X94.842 Y20.75 E0.06454
G1 X93.176 Y20.356 E0.06454
G1 X26.824 Y20.356 E2.50053
G1 X24.603 Y21.093 E0.08819
G1 X24.981 Y21.443 F12000
G1 F1800
G1 X23.979 Y22.523 E0.05553
G1 X23.586 Y24.071 E0.06019
G1 X23.586 Y95.928 E2.70797
G1 X24.105 Y97.687 E0.06912
G1 X25.276 Y98.772 E0.06019
G1 X26.824 Y99.166 E0.06019
G1 X93.178 Y99.146 E2.50061
M73 P1 R19
G1 X94.935 Y98.626 E0.06904
G1 X96.021 Y97.455 E0.06019
G1 X96.414 Y95.907 E0.06019
G1 X96.414 Y24.071 E2.7072
G1 X95.895 Y22.312 E0.06912
G1 X94.724 Y21.227 E0.06019
G1 X93.176 Y20.833 E0.06019
G1 X26.824 Y20.833 E2.50053
G1 X25.065 Y21.352 E0.06912
G1 X24.981 Y21.443 E0.00466
G1 E-0.8 F3000
; printing object LogoBase-80p.STL id:0 copy 0
; acceleration to travel
M204 S4000
G1 X51.17 Y41.317 F12000
; decel to extrusion
M204 S2000
G1 X64.264 Y51.255
; end travel
G1 E0.8 F1800
;TYPE:Internal perimeter
;WIDTH:0.457079
G1 X92.012 Y51.255 E0.90778
G1 X92.012 Y68.725 E0.57154
G1 X64.264 Y68.744 E0.90778
G1 X64.264 Y51.255 E0.57217
G1 X63.807 Y50.798 F12000
G1 F1800
G1 X92.469 Y50.798 E0.93769
G1 X92.469 Y69.181 E0.60144
M73 P2 R19
G1 X63.807 Y69.201 E0.93769
G1 X63.807 Y50.798 E0.60208
M73 P2 R19
G1 X63.35 Y50.34 F12000
;TYPE:External perimeter
G1 F1800
G1 X92.926 Y50.34 E0.96759
G1 X92.926 Y69.638 E0.63134
G1 X63.35 Y69.658 E0.96759
G1 X63.35 Y50.34 E0.632
;WIPE_START
M204 S4000
G1 X63.696 Y50.54 F12000
;WIPE_END
G1 E-0.8 F3000
; acceleration to travel
G1 X82.368 Y51.717 F12000
; decel to extrusion
M204 S2000
G1 X91.875 Y52.316
; end travel
G1 E0.8 F1800
;TYPE:Solid infill
;WIDTH:0.502298
G1 F2400
G1 X90.951 Y51.392 E0.0474
G1 X90.304 Y51.392 F12000
G1 F2400
G1 X91.875 Y52.962 E0.08055
G1 X91.875 Y53.608 F12000
G1 F2400
G1 X89.658 Y51.392 E0.11371
G1 X89.011 Y51.392 F12000
G1 F2400
G1 X91.875 Y54.255 E0.14687
G1 X91.875 Y54.901 F12000
G1 F2400
G1 X88.365 Y51.392 E0.18003
G1 X87.719 Y51.392 F12000
G1 F2400
G1 X91.875 Y55.548 E0.21319
G1 X91.875 Y56.194 F12000
G1 F2400
G1 X87.072 Y51.392 E0.24635
G1 X86.426 Y51.392 F12000
G1 F2400
G1 X91.875 Y56.841 E0.2795
G1 X91.875 Y57.487 F12000
G1 F2400
G1 X85.779 Y51.392 E0.31266
G1 X85.133 Y51.392 F12000
G1 F2400
G1 X91.875 Y58.133 E0.34582
G1 X91.875 Y58.78 F12000
G1 F2400
G1 X84.487 Y51.392 E0.37898
G1 X83.84 Y51.392 F12000
G1 F2400
G1 X91.875 Y59.426 E0.41214
G1 X91.875 Y60.073 F12000
G1 F2400
G1 X83.194 Y51.392 E0.4453
G1 X82.547 Y51.392 F12000
G1 F2400
G1 X91.875 Y60.719 E0.47845
G1 X91.875 Y61.365 F12000
G1 F2400
G1 X81.901 Y51.392 E0.51161
G1 X81.255 Y51.392 F12000
G1 F2400
G1 X91.875 Y62.012 E0.54477
G1 X91.875 Y62.658 F12000
G1 F2400
G1 X80.608 Y51.392 E0.57793
G1 X79.962 Y51.392 F12000
G1 F2400
G1 X91.875 Y63.305 E0.61109
G1 X91.875 Y63.951 F12000
G1 F2400
G1 X79.315 Y51.392 E0.64425
G1 X78.669 Y51.392 F12000
G1 F2400
G1 X91.875 Y64.597 E0.6774
G1 X91.875 Y65.244 F12000
M73 P3 R18
G1 F2400
G1 X78.023 Y51.392 E0.71056
G1 X77.376 Y51.392 F12000
G1 F2400
G1 X91.875 Y65.89 E0.74372
G1 X91.875 Y66.537 F12000
G1 F2400
G1 X76.73 Y51.392 E0.77688
G1 X76.083 Y51.392 F12000
G1 F2400
G1 X91.875 Y67.183 E0.81004
G1 X91.875 Y67.829 F12000
G1 F2400
G1 X75.437 Y51.392 E0.8432
G1 X74.79 Y51.392 F12000
G1 F2400
G1 X91.875 Y68.476 E0.87635
G1 X91.34 Y68.588 F12000
G1 F2400
G1 X74.144 Y51.392 E0.88211
G1 X73.498 Y51.392 F12000
G1 F2400
G1 X90.694 Y68.589 E0.88213
G1 X90.049 Y68.589 F12000
G1 F2400
G1 X72.851 Y51.392 E0.88216
G1 X72.205 Y51.392 F12000
G1 F2400
G1 X89.403 Y68.589 E0.88218
G1 X88.757 Y68.59 F12000
G1 F2400
G1 X71.558 Y51.392 E0.8822
G1 X70.912 Y51.392 F12000
G1 F2400
G1 X88.111 Y68.59 E0.88222
G1 X87.465 Y68.591 F12000
G1 F2400
G1 X70.266 Y51.392 E0.88225
G1 X69.619 Y51.392 F12000
G1 F2400
G1 X86.819 Y68.591 E0.88227
G1 X86.173 Y68.592 F12000
G1 F2400
G1 X68.973 Y51.392 E0.88229
G1 X68.326 Y51.392 F12000
G1 F2400
G1 X85.527 Y68.592 E0.88231
G1 X84.881 Y68.592 F12000
G1 F2400
G1 X67.68 Y51.392 E0.88234
G1 X67.034 Y51.392 F12000
G1 F2400
G1 X84.235 Y68.593 E0.88236
G1 X83.589 Y68.593 F12000
G1 F2400
G1 X66.387 Y51.392 E0.88238
M73 P4 R18
G1 X65.741 Y51.392 F12000
G1 F2400
G1 X82.943 Y68.594 E0.8824
G1 X82.297 Y68.594 F12000
G1 F2400
G1 X65.094 Y51.392 E0.88243
G1 X64.448 Y51.392 F12000
G1 F2400
G1 X81.651 Y68.595 E0.88245
G1 X81.005 Y68.595 F12000
G1 F2400
G1 X64.401 Y51.991 E0.85171
G1 X64.401 Y52.638 F12000
G1 F2400
G1 X80.359 Y68.596 E0.81858
G1 X79.713 Y68.596 F12000
G1 F2400
G1 X64.401 Y53.284 E0.78544
G1 X64.401 Y53.931 F12000
G1 F2400
G1 X79.067 Y68.596 E0.7523
G1 X78.421 Y68.597 F12000
G1 F2400
G1 X64.401 Y54.577 E0.71917
G1 X64.401 Y55.223 F12000
G1 F2400
G1 X77.775 Y68.597 E0.68603
G1 X77.129 Y68.598 F12000
G1 F2400
G1 X64.401 Y55.87 E0.6529
G1 X64.401 Y56.516 F12000
G1 F2400
G1 X76.483 Y68.598 E0.61976
G1 X75.837 Y68.599 F12000
G1 F2400
G1 X64.401 Y57.163 E0.58663
G1 X64.401 Y57.809 F12000
G1 F2400
G1 X75.191 Y68.599 E0.55349
G1 X74.545 Y68.6 F12000
G1 F2400
G1 X64.401 Y58.455 E0.52035
G1 X64.401 Y59.102 F12000
G1 F2400
G1 X73.899 Y68.6 E0.48722
G1 X73.253 Y68.6 F12000
G1 F2400
G1 X64.401 Y59.748 E0.45408
G1 X64.401 Y60.395 F12000
G1 F2400
G1 X72.607 Y68.601 E0.42095
G1 X71.961 Y68.601 F12000
G1 F2400
G1 X64.401 Y61.041 E0.38781
G1 X64.401 Y61.688 F12000
G1 F2400
G1 X71.316 Y68.602 E0.35468
G1 X70.67 Y68.602 F12000
G1 F2400
G1 X64.401 Y62.334 E0.32154
G1 X64.401 Y62.98 F12000
G1 F2400
G1 X70.024 Y68.603 E0.2884
G1 X69.378 Y68.603 F12000
G1 F2400
G1 X64.401 Y63.627 E0.25527
G1 X64.401 Y64.273 F12000
G1 F2400
G1 X68.732 Y68.604 E0.22213
G1 X68.086 Y68.604 F12000
G1 F2400
G1 X64.401 Y64.92 E0.189
G1 X64.401 Y65.566 F12000
G1 F2400
G1 X67.44 Y68.604 E0.15586
G1 X66.794 Y68.605 F12000
G1 F2400
G1 X64.401 Y66.212 E0.12273
G1 X64.401 Y66.859 F12000
G1 F2400
G1 X66.148 Y68.605 E0.08959
G1 X65.502 Y68.606 F12000
G1 F2400
G1 X64.401 Y67.505 E0.05646
M73 P5 R18
G1 X64.401 Y68.152 F12000
G1 F2400
G1 X64.856 Y68.606 E0.02332
G1 E-0.8 F3000
; stop printing object LogoBase-80p.STL id:0 copy 0
; printing object LogoBase-80p.STL id:1 copy 0
; acceleration to travel
M204 S4000
G1 X64.459 Y51.248 F12000
; decel to extrusion
M204 S2000
G1 X64.264 Y42.725
; end travel
G1 E0.8 F1800
;TYPE:Internal perimeter
;WIDTH:0.457079
G1 X64.264 Y25.235 E0.57217
G1 X92.012 Y25.235 E0.90778
G1 X92.012 Y42.706 E0.57154
G1 X64.264 Y42.725 E0.90778
G1 X63.807 Y43.182 F12000
G1 F1800
G1 X63.807 Y24.778 E0.60208
G1 X92.469 Y24.778 E0.93769
G1 X92.469 Y43.162 E0.60144
G1 X63.807 Y43.182 E0.93769
G1 X63.35 Y43.639 F12000
;TYPE:External perimeter
G1 F1800
G1 X63.35 Y24.321 E0.632
G1 X92.926 Y24.321 E0.96759
G1 X92.926 Y43.619 E0.63134
G1 X63.35 Y43.639 E0.96759
;WIPE_START
M204 S4000
G1 X63.55 Y43.293 F12000
;WIPE_END
G1 E-0.8 F3000
; acceleration to travel
G1 X82.319 Y32.03 F12000
; decel to extrusion
M204 S2000
G1 X91.875 Y26.297
; end travel
G1 E0.8 F1800
;TYPE:Solid infill
;WIDTH:0.502298
G1 F2400
G1 X90.951 Y25.373 E0.0474
G1 X90.304 Y25.373 F12000
G1 F2400
G1 X91.875 Y26.943 E0.08055
G1 X91.875 Y27.589 F12000
G1 F2400
G1 X89.658 Y25.373 E0.11371
G1 X89.011 Y25.373 F12000
G1 F2400
G1 X91.875 Y28.236 E0.14687
G1 X91.875 Y28.882 F12000
G1 F2400
G1 X88.365 Y25.373 E0.18003
G1 X87.719 Y25.373 F12000
G1 F2400
G1 X91.875 Y29.529 E0.21319
G1 X91.875 Y30.175 F12000
G1 F2400
G1 X87.072 Y25.373 E0.24635
G1 X86.426 Y25.373 F12000
G1 F2400
G1 X91.875 Y30.821 E0.2795
M73 P6 R18
G1 X91.875 Y31.468 F12000
G1 F2400
G1 X85.779 Y25.373 E0.31266
G1 X85.133 Y25.373 F12000
G1 F2400
G1 X91.875 Y32.114 E0.34582
G1 X91.875 Y32.761 F12000
G1 F2400
G1 X84.487 Y25.373 E0.37898
G1 X83.84 Y25.373 F12000
G1 F2400
G1 X91.875 Y33.407 E0.41214
G1 X91.875 Y34.053 F12000
G1 F2400
G1 X83.194 Y25.373 E0.4453
G1 X82.547 Y25.373 F12000
G1 F2400
G1 X91.875 Y34.7 E0.47845
G1 X91.875 Y35.346 F12000
G1 F2400
G1 X81.901 Y25.373 E0.51161
G1 X81.255 Y25.373 F12000
G1 F2400
G1 X91.875 Y35.993 E0.54477
G1 X91.875 Y36.639 F12000
G1 F2400
G1 X80.608 Y25.373 E0.57793
G1 X79.962 Y25.373 F12000
G1 F2400
G1 X91.875 Y37.285 E0.61109
G1 X91.875 Y37.932 F12000
G1 F2400
G1 X79.315 Y25.373 E0.64425
G1 X78.669 Y25.373 F12000
G1 F2400
G1 X91.875 Y38.578 E0.6774
G1 X91.875 Y39.225 F12000
G1 F2400
G1 X78.023 Y25.373 E0.71056
G1 X77.376 Y25.373 F12000
G1 F2400
G1 X91.875 Y39.871 E0.74372
G1 X91.875 Y40.517 F12000
G1 F2400
G1 X76.73 Y25.373 E0.77688
G1 X76.083 Y25.373 F12000
G1 F2400
G1 X91.875 Y41.164 E0.81004
G1 X91.875 Y41.81 F12000
G1 F2400
G1 X75.437 Y25.373 E0.8432
G1 X74.79 Y25.373 F12000
G1 F2400
G1 X91.875 Y42.457 E0.87635
G1 X91.34 Y42.569 F12000
G1 F2400
G1 X74.144 Y25.373 E0.88211
G1 X73.498 Y25.373 F12000
G1 F2400
G1 X90.694 Y42.569 E0.88213
G1 X90.049 Y42.57 F12000
G1 F2400
G1 X72.851 Y25.373 E0.88216
G1 X72.205 Y25.373 F12000
G1 F2400
G1 X89.403 Y42.57 E0.88218
G1 X88.757 Y42.571 F12000
G1 F2400
G1 X71.558 Y25.373 E0.8822
M73 P7 R18
G1 X70.912 Y25.373 F12000
G1 F2400
G1 X88.111 Y42.571 E0.88222
G1 X87.465 Y42.572 F12000
G1 F2400
G1 X70.266 Y25.373 E0.88225
G1 X69.619 Y25.373 F12000
G1 F2400
G1 X86.819 Y42.572 E0.88227
G1 X86.173 Y42.572 F12000
G1 F2400
G1 X68.973 Y25.373 E0.88229
G1 X68.326 Y25.373 F12000
G1 F2400
G1 X85.527 Y42.573 E0.88231
G1 X84.881 Y42.573 F12000
G1 F2400
G1 X67.68 Y25.373 E0.88234
G1 X67.034 Y25.373 F12000
G1 F2400
G1 X84.235 Y42.574 E0.88236
G1 X83.589 Y42.574 F12000
G1 F2400
G1 X66.387 Y25.373 E0.88238
G1 X65.741 Y25.373 F12000
G1 F2400
G1 X82.943 Y42.575 E0.8824
M73 P8 R18
G1 X82.297 Y42.575 F12000
G1 F2400
G1 X65.094 Y25.373 E0.88243
G1 X64.448 Y25.373 F12000
G1 F2400
G1 X81.651 Y42.576 E0.88245
G1 X81.005 Y42.576 F12000
G1 F2400
G1 X64.401 Y25.972 E0.85171
G1 X64.401 Y26.619 F12000
G1 F2400
G1 X80.359 Y42.576 E0.81858
G1 X79.713 Y42.577 F12000
G1 F2400
G1 X64.401 Y27.265 E0.78544
G1 X64.401 Y27.911 F12000
G1 F2400
G1 X79.067 Y42.577 E0.7523
G1 X78.421 Y42.578 F12000
G1 F2400
G1 X64.401 Y28.558 E0.71917
G1 X64.401 Y29.204 F12000
G1 F2400
G1 X77.775 Y42.578 E0.68603
G1 X77.129 Y42.579 F12000
G1 F2400
G1 X64.401 Y29.851 E0.6529
G1 X64.401 Y30.497 F12000
G1 F2400
G1 X76.483 Y42.579 E0.61976
M73 P8 R17
G1 X75.837 Y42.58 F12000
G1 F2400
G1 X64.401 Y31.144 E0.58663
G1 X64.401 Y31.79 F12000
G1 F2400
G1 X75.191 Y42.58 E0.55349
G1 X74.545 Y42.58 F12000
G1 F2400
G1 X64.401 Y32.436 E0.52035
G1 X64.401 Y33.083 F12000
G1 F2400
G1 X73.899 Y42.581 E0.48722
G1 X73.253 Y42.581 F12000
G1 F2400
G1 X64.401 Y33.729 E0.45408
G1 X64.401 Y34.376 F12000
G1 F2400
G1 X72.607 Y42.582 E0.42095
G1 X71.961 Y42.582 F12000
G1 F2400
G1 X64.401 Y35.022 E0.38781
G1 X64.401 Y35.668 F12000
G1 F2400
G1 X71.316 Y42.583 E0.35468
G1 X70.67 Y42.583 F12000
G1 F2400
G1 X64.401 Y36.315 E0.32154
G1 X64.401 Y36.961 F12000
G1 F2400
G1 X70.024 Y42.584 E0.2884
G1 X69.378 Y42.584 F12000
G1 F2400
G1 X64.401 Y37.608 E0.25527
G1 X64.401 Y38.254 F12000
G1 F2400
G1 X68.732 Y42.584 E0.22213
G1 X68.086 Y42.585 F12000
G1 F2400
G1 X64.401 Y38.9 E0.189
G1 X64.401 Y39.547 F12000
G1 F2400
G1 X67.44 Y42.585 E0.15586
G1 X66.794 Y42.586 F12000
G1 F2400
G1 X64.401 Y40.193 E0.12273
G1 X64.401 Y40.84 F12000
G1 F2400
G1 X66.148 Y42.586 E0.08959
G1 X65.502 Y42.587 F12000
G1 F2400
G1 X64.401 Y41.486 E0.05646
G1 X64.401 Y42.132 F12000
G1 F2400
G1 X64.856 Y42.587 E0.02332
G1 E-0.8 F3000
; stop printing object LogoBase-80p.STL id:1 copy 0
; printing object LogoBase-80p.STL id:3 copy 0
; acceleration to travel
M204 S4000
G1 X58.739 Y42.667 F12000
; decel to extrusion
M204 S2000
G1 X55.736 Y42.706
; end travel
G1 E0.8 F1800
;TYPE:Internal perimeter
;WIDTH:0.457079
G1 X27.988 Y42.725 E0.90778
G1 X27.988 Y25.235 E0.57217
G1 X55.736 Y25.235 E0.90778
G1 X55.736 Y42.706 E0.57154
G1 X56.193 Y43.162 F12000
G1 F1800
G1 X27.531 Y43.182 E0.93769
G1 X27.531 Y24.778 E0.60208
G1 X56.193 Y24.778 E0.93769
G1 X56.193 Y43.162 E0.60144
G1 X56.65 Y43.619 F12000
;TYPE:External perimeter
G1 F1800
G1 X27.074 Y43.639 E0.96759
M73 P9 R17
G1 X27.074 Y24.321 E0.632
G1 X56.65 Y24.321 E0.96759
G1 X56.65 Y43.619 E0.63134
;WIPE_START
M204 S4000
G1 X56.304 Y43.419 F12000
;WIPE_END
G1 E-0.8 F3000
; acceleration to travel
G1 X55.836 Y32.073 F12000
; decel to extrusion
M204 S2000
G1 X55.599 Y26.297
; end travel
G1 E0.8 F1800
;TYPE:Solid infill
;WIDTH:0.502298
G1 F2400
