; HEADER_BLOCK_START
; generated by OrcaSlicer 1.6.3 on 2023-06-27 at 09:22:15
; total layer number: 44
; HEADER_BLOCK_END

; THUMBNAIL_BLOCK_START
; THUMBNAIL_BLOCK_END

; external perimeters extrusion width = 0.15mm
; perimeters extrusion width = 0.15mm
; infill extrusion width = 0.15mm
; solid infill extrusion width = 0.15mm
; top infill extrusion width = 0.15mm
; first layer extrusion width = 0.15mm

; external perimeters extrusion width = 0.15mm
; perimeters extrusion width = 0.15mm
; infill extrusion width = 0.15mm
; solid infill extrusion width = 0.15mm
; top infill extrusion width = 0.15mm
; first layer extrusion width = 0.15mm

; external perimeters extrusion width = 0.15mm
; perimeters extrusion width = 0.15mm
; infill extrusion width = 0.15mm
; solid infill extrusion width = 0.15mm
; top infill extrusion width = 0.15mm
; first layer extrusion width = 0.15mm

; external perimeters extrusion width = 0.15mm
; perimeters extrusion width = 0.15mm
; infill extrusion width = 0.15mm
; solid infill extrusion width = 0.15mm
; top infill extrusion width = 0.15mm
; first layer extrusion width = 0.15mm

; EXECUTABLE_BLOCK_START
EXCLUDE_OBJECT_DEFINE NAME=LogoVancouver.STL_id_0_copy_0 CENTER=60.01,84.2904 POLYGON=[[45.752,78.6938],[45.9559,78.6938],[74.2679,79.4079],[74.2679,89.8679],[69.3598,89.8712],[64.7764,89.8743],[47.3266,89.8859],[45.752,89.887],[45.752,78.6938]]
EXCLUDE_OBJECT_DEFINE NAME=LogoVancouver.STL_id_1_copy_0 CENTER=60.01,68.0966 POLYGON=[[45.752,62.5],[45.9559,62.5],[74.2679,63.214],[74.2679,73.6741],[69.3598,73.6774],[64.7764,73.6804],[47.3266,73.6921],[45.752,73.6931],[45.752,62.5]]
EXCLUDE_OBJECT_DEFINE NAME=LogoVancouver.STL_id_2_copy_0 CENTER=60.01,51.9027 POLYGON=[[45.752,46.3062],[45.9559,46.3062],[74.2679,47.0202],[74.2679,57.4802],[69.3598,57.4835],[64.7764,57.4866],[47.3266,57.4983],[45.752,57.4993],[45.752,46.3062]]
EXCLUDE_OBJECT_DEFINE NAME=LogoVancouver.STL_id_3_copy_0 CENTER=59.99,35.7089 POLYGON=[[45.7321,30.1123],[45.936,30.1123],[74.248,30.8264],[74.248,41.2864],[69.3399,41.2897],[64.7564,41.2928],[47.3066,41.3044],[45.7321,41.3055],[45.7321,30.1123]]
M73 P0 R35
M73 C27
;TYPE:Custom
START_PRINT T_BED=60 T_EXTRUDER=220
G90
G21
M83 ; use relative distances for extrusion
; filament start gcode

    PRESSURE_ADVANCE_SELECT FILAMENT=PLA
M106 S0
;LAYER_CHANGE
;Z:0.1
;HEIGHT:0.1
;BEFORE_LAYER_CHANGE
;0.1
G92 E0

;AFTER_LAYER_CHANGE
;0.1
M204 S500
G1 E-.8 F3000
G1 Z.2 F21000
G1 X43.866 Y28.842
G1 Z.1
G1 E.8 F1800
;TYPE:Skirt
;WIDTH:0.15
G1 F3000
G1 X44.904 Y28.013 E.00696
G1 X45.993 Y27.856 E.00576
G1 X74.305 Y28.57 E.14832
G1 X75.565 Y28.993 E.00696
G1 X76.368 Y30.051 E.00696
G1 X76.505 Y30.824 E.00411
G1 X76.525 Y89.868 E.30923
G1 X76.134 Y91.138 E.00696
G1 X75.096 Y91.968 E.00696
G1 X74.269 Y92.125 E.00441
G1 X45.754 Y92.144 E.14934
G1 X44.483 Y91.754 E.00696
G1 X43.653 Y90.716 E.00696
G1 X43.495 Y89.888 E.00442
G1 X43.475 Y30.112 E.31306
G1 X43.86 Y28.864 E.00684
G1 X43.987 Y28.905 F21000
G1 F3000
G1 X43.994 Y28.883 E.00012
G1 X45.023 Y28.106 E.00675
G1 X45.99 Y27.984 E.0051
G1 X74.302 Y28.698 E.14832
G1 X75.52 Y29.12 E.00675
G1 X76.272 Y30.168 E.00675
G1 X76.377 Y30.824 E.00348
G1 X76.396 Y89.868 E.30923
G1 X76.006 Y91.097 E.00675
G1 X74.977 Y91.875 E.00675
G1 X74.269 Y91.996 E.00376
G1 X45.753 Y92.016 E.14934
G1 X44.524 Y91.626 E.00675
G1 X43.746 Y90.598 E.00675
G1 X43.623 Y89.888 E.00377
G1 X43.604 Y30.112 E.31306
G1 X43.981 Y28.926 E.00652
; printing object LogoVancouver.STL id:0 copy 0
EXCLUDE_OBJECT_START NAME=LogoVancouver.STL_id_0_copy_0
G1 E-.8
G1 Z.3 F21000
G1 X64.711 Y85.24 Z.1
G1 E.8 F1800
;TYPE:Outer wall
G1 F3000
G1 X65.13 Y83.14 E.01122
G1 X66.662 Y84.58 E.01102
G1 X70.21 Y81.972 E.02306
G1 X73.737 Y79.483 E.02261
G1 X74.193 Y79.483 E.00239
G1 X74.193 Y89.793 E.054
G1 X45.827 Y89.812 E.14856
G1 X45.827 Y78.769 E.05783
G1 X45.936 Y78.772 E.00057
G1 X55.738 Y85.773 E.06308
G1 X58.148 Y83.391 E.01775
G1 X61.059 Y85.776 E.01971
G1 X61.793 Y85.051 E.0054
G1 X61.944 Y85.543 E.0027
G1 X62.124 Y85.546 E.00094
G1 X62.499 Y84.454 E.00605
G1 X64.076 Y83.487 E.00969
G1 X64.513 Y85.244 E.00948
G1 X64.689 Y85.24 E.00092
G1 X64.737 Y85.255
G1 X64.819 Y85.354 F21000
;TYPE:Inner wall
G1 F3000
G1 X65.21 Y83.392 E.01048
G1 X66.652 Y84.747 E.01036
G1 X70.285 Y82.077 E.02362
G1 X73.778 Y79.611 E.02239
G1 X74.064 Y79.611 E.0015
G1 X74.064 Y89.665 E.05265
G1 X45.956 Y89.683 E.14721
G1 X45.956 Y78.944 E.05625
G1 X55.752 Y85.941 E.06305
G1 X58.157 Y83.564 E.01771
G1 X61.067 Y85.949 E.01971
G1 X61.732 Y85.292 E.0049
G1 X61.848 Y85.67 E.00207
G1 X62.215 Y85.676 E.00192
G1 X62.605 Y84.54 E.00629
G1 X63.994 Y83.688 E.00853
G1 X64.413 Y85.375 E.0091
G1 X64.807 Y85.366 E.00206
G1 X64.928 Y85.469 F21000
G1 F3000
G1 X65.291 Y83.644 E.00974
G1 X66.642 Y84.914 E.00971
G1 X70.36 Y82.181 E.02417
M73 P0 R34
G1 X73.819 Y79.74 E.02217
G1 X73.936 Y79.74 E.00061
G1 X73.936 Y89.536 E.0513
G1 X46.084 Y89.555 E.14586
G1 X46.084 Y79.193 E.05426
G1 X55.765 Y86.108 E.06231
G1 X58.165 Y83.737 E.01767
G1 X61.075 Y86.122 E.01971
G1 X61.671 Y85.533 E.00439
G1 X61.753 Y85.797 E.00145
G1 X62.306 Y85.806 E.0029
G1 X62.712 Y84.625 E.00654
G1 X63.911 Y83.89 E.00737
G1 X64.313 Y85.506 E.00872
G1 X64.923 Y85.492 E.0032
G1 X64.923 Y85.491 E.00001
G1 E-.8
G1 Z.3 F21000
G1 X66.653 Y84.733 Z.1
G1 X73.897 Y80.039
G1 E.8 F1800
;TYPE:Bottom surface
;WIDTH:0.150311
G1 F6300
G1 X73.759 Y79.9 E.00103
G1 X73.652 Y79.976 E.00069
G1 X73.839 Y80.163 E.00139
G1 X73.839 Y80.346 E.00096
G1 X73.545 Y80.051 E.00219
G1 X73.438 Y80.127 E.00069
G1 X73.839 Y80.528 E.00298
G1 X73.839 Y80.71 E.00096
G1 X73.331 Y80.202 E.00377
G1 X73.225 Y80.277 E.00069
G1 X73.839 Y80.892 E.00457
G1 X73.839 Y81.075 E.00096
G1 X73.118 Y80.353 E.00536
G1 X73.011 Y80.428 E.00069
G1 X73.839 Y81.257 E.00615
G1 X73.839 Y81.439 E.00096
G1 X72.904 Y80.504 E.00694
G1 X72.797 Y80.579 E.00069
G1 X73.839 Y81.621 E.00774
G1 X73.839 Y81.803 E.00096
G1 X72.69 Y80.654 E.00853
G1 X72.584 Y80.73 E.00069
G1 X73.839 Y81.986 E.00932
G1 X73.839 Y82.168 E.00096
G1 X72.477 Y80.805 E.01012
G1 X72.37 Y80.881 E.00069
G1 X73.839 Y82.35 E.01091
G1 X73.839 Y82.532 E.00096
G1 X72.263 Y80.956 E.0117
G1 X72.156 Y81.031 E.00069
G1 X73.839 Y82.715 E.0125
G1 X73.839 Y82.897 E.00096
G1 X72.049 Y81.107 E.01329
G1 X71.943 Y81.182 E.00069
G1 X73.839 Y83.079 E.01408
G1 X73.839 Y83.261 E.00096
G1 X71.836 Y81.258 E.01488
G1 X71.729 Y81.333 E.00069
G1 X73.839 Y83.443 E.01567
M73 C26
G1 X73.839 Y83.626 E.00096
G1 X71.622 Y81.408 E.01646
G1 X71.515 Y81.484 E.00069
G1 X73.839 Y83.808 E.01726
G1 X73.839 Y83.99 E.00096
G1 X71.408 Y81.559 E.01805
G1 X71.302 Y81.634 E.00069
G1 X73.839 Y84.172 E.01884
G1 X73.839 Y84.355 E.00096
G1 X71.195 Y81.71 E.01964
G1 X71.088 Y81.785 E.00069
G1 X73.839 Y84.537 E.02043
G1 X73.839 Y84.719 E.00096
G1 X70.981 Y81.861 E.02122
G1 X70.874 Y81.936 E.00069
G1 X73.839 Y84.901 E.02201
M73 P1 R34
G1 X73.839 Y85.083 E.00096
G1 X70.767 Y82.011 E.02281
G1 X70.661 Y82.087 E.00069
G1 X73.839 Y85.266 E.0236
G1 X73.839 Y85.448 E.00096
G1 X70.554 Y82.162 E.02439
G1 X70.447 Y82.238 E.00069
G1 X73.839 Y85.63 E.02519
G1 X73.839 Y85.812 E.00096
G1 X70.341 Y82.314 E.02597
G1 X70.236 Y82.392 E.00068
G1 X73.839 Y85.995 E.02675
G1 X73.839 Y86.177 E.00096
G1 X70.131 Y82.469 E.02753
G1 X70.026 Y82.546 E.00068
G1 X73.839 Y86.359 E.02831
G1 X73.839 Y86.541 E.00096
G1 X69.921 Y82.623 E.02909
G1 X69.816 Y82.7 E.00068
G1 X73.839 Y86.723 E.02987
G1 X73.839 Y86.906 E.00096
G1 X69.711 Y82.778 E.03065
G1 X69.606 Y82.855 E.00068
G1 X73.839 Y87.088 E.03143
G1 X73.839 Y87.27 E.00096
G1 X69.501 Y82.932 E.03221
G1 X69.396 Y83.009 E.00068
G1 X73.839 Y87.452 E.03299
G1 X73.839 Y87.635 E.00096
G1 X69.291 Y83.086 E.03377
G1 X69.186 Y83.163 E.00068
G1 X73.839 Y87.817 E.03455
G1 X73.839 Y87.999 E.00096
G1 X69.081 Y83.241 E.03533
G1 X68.976 Y83.318 E.00068
G1 X73.839 Y88.181 E.03611
G1 X73.839 Y88.363 E.00096
G1 X68.871 Y83.395 E.03689
G1 X68.766 Y83.472 E.00068
G1 X73.839 Y88.546 E.03767
G1 X73.839 Y88.728 E.00096
G1 X68.661 Y83.549 E.03845
G1 X68.556 Y83.627 E.00068
G1 X73.839 Y88.91 E.03923
G1 X73.839 Y89.092 E.00096
G1 X68.451 Y83.704 E.04001
G1 X68.346 Y83.781 E.00068
G1 X73.839 Y89.275 E.04079
G1 X73.839 Y89.44 E.00087
G1 X73.822 Y89.44 E.00009
G1 X68.241 Y83.858 E.04144
G1 X68.136 Y83.935 E.00068
G1 X73.64 Y89.44 E.04087
G1 X73.458 Y89.44 E.00096
G1 X68.031 Y84.013 E.04029
G1 X67.926 Y84.09 E.00068
G1 X73.276 Y89.44 E.03972
G1 X73.094 Y89.44 E.00096
G1 X67.821 Y84.167 E.03915
G1 X67.716 Y84.244 E.00068
G1 X72.912 Y89.44 E.03858
G1 X72.73 Y89.44 E.00096
G1 X67.611 Y84.321 E.03801
G1 X67.506 Y84.399 E.00068
G1 X72.548 Y89.441 E.03743
G1 X72.366 Y89.441 E.00096
G1 X67.401 Y84.476 E.03686
G1 X67.296 Y84.553 E.00068
G1 X72.184 Y89.441 E.03629
G1 X72.001 Y89.441 E.00096
G1 X67.191 Y84.63 E.03572
G1 X67.086 Y84.707 E.00068
G1 X71.819 Y89.441 E.03514
G1 X71.637 Y89.441 E.00096
G1 X66.981 Y84.785 E.03457
G1 X66.876 Y84.862 E.00068
G1 X71.455 Y89.441 E.034
G1 X71.273 Y89.441 E.00096
G1 X66.771 Y84.939 E.03343
G1 X66.666 Y85.016 E.00068
G1 X71.091 Y89.442 E.03286
G1 X70.909 Y89.442 E.00096
G1 X65.343 Y83.876 E.04132
G1 X65.313 Y84.028 E.00081
G1 X70.727 Y89.442 E.04019
G1 X70.545 Y89.442 E.00096
G1 X65.283 Y84.18 E.03907
G1 X65.252 Y84.332 E.00081
G1 X70.363 Y89.442 E.03794
G1 X70.18 Y89.442 E.00096
G1 X65.222 Y84.484 E.03681
G1 X65.192 Y84.636 E.00081
G1 X69.998 Y89.442 E.03569
G1 X69.816 Y89.442 E.00096
G1 X65.162 Y84.788 E.03456
G1 X65.131 Y84.94 E.00081
G1 X69.634 Y89.443 E.03343
G1 X69.452 Y89.443 E.00096
G1 X65.101 Y85.092 E.0323
G1 X65.071 Y85.244 E.00081
G1 X69.27 Y89.443 E.03118
G1 X69.088 Y89.443 E.00096
G1 X65.041 Y85.396 E.03005
G1 X65.01 Y85.548 E.00081
G1 X68.906 Y89.443 E.02892
G1 X68.724 Y89.443 E.00096
G1 X64.87 Y85.59 E.02861
G1 X64.692 Y85.594 E.00094
G1 X68.541 Y89.443 E.02858
G1 X68.359 Y89.443 E.00096
G1 X64.457 Y85.541 E.02897
G1 E-.8 F3000
G1 Z.3 F21000
G1 X63.983 Y84.338 Z.1
G1 E.8 F1800
G1 F6300
G1 X63.748 Y84.103 E.00175
G1 X63.635 Y84.172 E.0007
G1 X63.964 Y84.501 E.00244
G1 X64.024 Y84.743 E.00131
G1 X63.522 Y84.241 E.00373
G1 X63.409 Y84.311 E.0007
G1 X64.084 Y84.986 E.00501
G1 X64.144 Y85.228 E.00131
G1 X63.296 Y84.38 E.0063
G1 X63.183 Y84.449 E.0007
G1 X68.177 Y89.444 E.03708
G1 X67.995 Y89.444 E.00096
G1 X63.07 Y84.519 E.03657
G1 X62.957 Y84.588 E.0007
G1 X67.813 Y89.444 E.03605
G1 X67.631 Y89.444 E.00096
G1 X62.844 Y84.657 E.03554
G1 X62.792 Y84.689 E.00032
G1 X62.767 Y84.762 E.0004
G1 X67.449 Y89.444 E.03476
G1 X67.267 Y89.444 E.00096
G1 X62.72 Y84.898 E.03376
G1 X62.674 Y85.033 E.00075
G1 X67.085 Y89.444 E.03275
G1 X66.903 Y89.444 E.00096
G1 X62.627 Y85.169 E.03174
G1 X62.58 Y85.304 E.00075
G1 X66.72 Y89.445 E.03074
G1 X66.538 Y89.445 E.00096
G1 X62.534 Y85.44 E.02973
G1 X62.487 Y85.576 E.00075
G1 X66.356 Y89.445 E.02873
G1 X66.174 Y89.445 E.00096
G1 X62.441 Y85.711 E.02772
G1 X62.394 Y85.847 E.00075
G1 X65.992 Y89.445 E.02671
G1 X65.81 Y89.445 E.00096
G1 X62.267 Y85.902 E.0263
G1 X62.082 Y85.899 E.00097
G1 X65.628 Y89.445 E.02633
G1 X65.446 Y89.445 E.00096
G1 X61.838 Y85.837 E.02679
G1 X61.537 Y85.719 F21000
G1 F6300
G1 X65.264 Y89.445 E.02767
G1 X65.082 Y89.446 E.00096
G1 X61.487 Y85.851 E.02669
G1 X61.395 Y85.941 E.00068
G1 X64.899 Y89.446 E.02602
G1 X64.717 Y89.446 E.00096
G1 X61.303 Y86.032 E.02535
G1 X61.212 Y86.122 E.00068
G1 X64.535 Y89.446 E.02468
G1 X64.353 Y89.446 E.00096
G1 X61.12 Y86.213 E.024
G1 X61.081 Y86.252 E.00029
G1 X60.502 Y85.777 E.00393
G1 X64.171 Y89.446 E.02724
G1 X63.989 Y89.446 E.00096
G1 X59.491 Y84.949 E.03339
G1 X58.481 Y84.121 E.00686
G1 X63.807 Y89.446 E.03954
G1 X63.625 Y89.447 E.00096
G1 X58.107 Y83.929 E.04097
G1 X58.015 Y84.019 E.00068
G1 X63.443 Y89.447 E.04029
G1 X63.261 Y89.447 E.00096
G1 X57.924 Y84.11 E.03962
G1 X57.832 Y84.201 E.00068
G1 X63.078 Y89.447 E.03895
G1 X62.896 Y89.447 E.00096
G1 X57.741 Y84.291 E.03828
G1 X57.649 Y84.382 E.00068
G1 X62.714 Y89.447 E.03761
G1 X62.532 Y89.447 E.00096
G1 X57.557 Y84.472 E.03694
G1 X57.466 Y84.563 E.00068
G1 X62.35 Y89.447 E.03626
G1 X62.168 Y89.448 E.00096
G1 X57.374 Y84.654 E.03559
G1 X57.282 Y84.744 E.00068
G1 X61.986 Y89.448 E.03492
G1 X61.804 Y89.448 E.00096
G1 X57.191 Y84.835 E.03425
G1 X57.099 Y84.925 E.00068
G1 X61.622 Y89.448 E.03358
G1 X61.44 Y89.448 E.00096
G1 X57.007 Y85.016 E.03291
G1 X56.916 Y85.106 E.00068
G1 X61.257 Y89.448 E.03223
G1 X61.075 Y89.448 E.00096
G1 X56.824 Y85.197 E.03156
G1 X56.733 Y85.288 E.00068
G1 X60.893 Y89.448 E.03089
G1 X60.711 Y89.449 E.00096
G1 X56.641 Y85.378 E.03022
G1 X56.549 Y85.469 E.00068
G1 X60.529 Y89.449 E.02955
G1 X60.347 Y89.449 E.00096
G1 X56.458 Y85.559 E.02888
G1 X56.366 Y85.65 E.00068
G1 X60.165 Y89.449 E.0282
G1 X59.983 Y89.449 E.00096
G1 X56.274 Y85.741 E.02753
G1 X56.183 Y85.831 E.00068
G1 X59.801 Y89.449 E.02686
G1 X59.619 Y89.449 E.00096
G1 X56.091 Y85.922 E.02619
M73 P2 R34
G1 X55.999 Y86.012 E.00068
G1 X59.436 Y89.449 E.02552
G1 X59.254 Y89.449 E.00096
G1 X55.908 Y86.103 E.02485
G1 X55.816 Y86.193 E.00068
G1 X59.072 Y89.45 E.02417
G1 X58.89 Y89.45 E.00096
G1 X55.423 Y85.982 E.02574
G1 X54.785 Y85.527 E.00411
G1 X58.708 Y89.45 E.02913
G1 X58.526 Y89.45 E.00096
G1 X54.147 Y85.071 E.03251
G1 X53.51 Y84.616 E.00411
G1 X58.344 Y89.45 E.03589
G1 X58.162 Y89.45 E.00096
G1 X52.872 Y84.16 E.03928
G1 X52.234 Y83.705 E.00411
G1 X57.98 Y89.45 E.04266
G1 X57.798 Y89.45 E.00096
G1 X51.596 Y83.249 E.04604
G1 X50.958 Y82.794 E.00411
G1 X57.615 Y89.451 E.04942
G1 X57.433 Y89.451 E.00096
G1 X50.321 Y82.338 E.05281
G1 X49.683 Y81.882 E.00411
G1 X57.251 Y89.451 E.05619
G1 X57.069 Y89.451 E.00096
G1 X49.045 Y81.427 E.05957
G1 X48.407 Y80.971 E.00411
G1 X56.887 Y89.451 E.06296
G1 X56.705 Y89.451 E.00096
G1 X47.77 Y80.516 E.06634
G1 X47.132 Y80.06 E.00411
G1 X56.523 Y89.451 E.06972
G1 X56.341 Y89.451 E.00096
G1 X46.494 Y79.605 E.07311
G1 X46.18 Y79.381 E.00202
G1 X46.18 Y79.473 E.00049
G1 X56.159 Y89.452 E.07408
G1 X55.977 Y89.452 E.00096
G1 X46.18 Y79.656 E.07273
G1 X46.18 Y79.838 E.00096
G1 X55.794 Y89.452 E.07138
G1 X55.612 Y89.452 E.00096
G1 X46.18 Y80.02 E.07003
G1 X46.18 Y80.202 E.00096
G1 X55.43 Y89.452 E.06867
G1 X55.248 Y89.452 E.00096
G1 X46.18 Y80.385 E.06732
G1 X46.18 Y80.567 E.00096
G1 X55.066 Y89.452 E.06597
G1 X54.884 Y89.452 E.00096
G1 X46.18 Y80.749 E.06462
G1 X46.18 Y80.931 E.00096
G1 X54.702 Y89.453 E.06327
G1 X54.52 Y89.453 E.00096
G1 X46.18 Y81.113 E.06191
G1 X46.18 Y81.296 E.00096
G1 X54.338 Y89.453 E.06056
G1 X54.156 Y89.453 E.00096
G1 X46.18 Y81.478 E.05921
G1 X46.18 Y81.66 E.00096
G1 X53.973 Y89.453 E.05786
G1 X53.791 Y89.453 E.00096
G1 X46.18 Y81.842 E.05651
G1 X46.18 Y82.025 E.00096
G1 X53.609 Y89.453 E.05515
G1 X53.427 Y89.453 E.00096
G1 X46.18 Y82.207 E.0538
G1 X46.18 Y82.389 E.00096
G1 X53.245 Y89.454 E.05245
G1 X53.063 Y89.454 E.00096
G1 X46.18 Y82.571 E.0511
G1 X46.18 Y82.753 E.00096
G1 X52.881 Y89.454 E.04975
G1 X52.699 Y89.454 E.00096
G1 X46.18 Y82.936 E.04839
G1 X46.18 Y83.118 E.00096
G1 X52.517 Y89.454 E.04704
G1 X52.334 Y89.454 E.00096
G1 X46.18 Y83.3 E.04569
G1 X46.18 Y83.482 E.00096
G1 X52.152 Y89.454 E.04434
G1 X51.97 Y89.454 E.00096
G1 X46.18 Y83.665 E.04299
G1 X46.18 Y83.847 E.00096
G1 X51.788 Y89.454 E.04163
G1 X51.606 Y89.455 E.00096
G1 X46.18 Y84.029 E.04028
G1 X46.18 Y84.211 E.00096
G1 X51.424 Y89.455 E.03893
G1 X51.242 Y89.455 E.00096
G1 X46.18 Y84.393 E.03758
G1 X46.18 Y84.576 E.00096
G1 X51.06 Y89.455 E.03623
G1 X50.878 Y89.455 E.00096
G1 X46.18 Y84.758 E.03487
G1 X46.18 Y84.94 E.00096
G1 X50.696 Y89.455 E.03352
G1 X50.513 Y89.455 E.00096
G1 X46.18 Y85.122 E.03217
G1 X46.18 Y85.305 E.00096
G1 X50.331 Y89.455 E.03082
G1 X50.149 Y89.456 E.00096
G1 X46.18 Y85.487 E.02947
G1 X46.18 Y85.669 E.00096
G1 X49.967 Y89.456 E.02811
G1 X49.785 Y89.456 E.00096
G1 X46.18 Y85.851 E.02676
G1 X46.18 Y86.033 E.00096
G1 X49.603 Y89.456 E.02541
G1 X49.421 Y89.456 E.00096
G1 X46.18 Y86.216 E.02406
G1 X46.18 Y86.398 E.00096
G1 X49.239 Y89.456 E.02271
G1 X49.057 Y89.456 E.00096
G1 X46.18 Y86.58 E.02135
G1 X46.18 Y86.762 E.00096
G1 X48.875 Y89.456 E.02
G1 X48.692 Y89.457 E.00096
G1 X46.18 Y86.945 E.01865
G1 X46.18 Y87.127 E.00096
