; generated by SuperSlicer 2.5.59 on 2023-08-30 at 21:30:25 UTC


;
;

;
;
; 

; external perimeters extrusion width = 0.15mm
; perimeters extrusion width = 0.17mm
; infill extrusion width = 0.24mm
; solid infill extrusion width = 0.21mm
; top infill extrusion width = 0.15mm
; first layer extrusion width = 0.19mm

; external perimeters extrusion width = 0.15mm
; perimeters extrusion width = 0.17mm
; infill extrusion width = 0.24mm
; solid infill extrusion width = 0.21mm
; top infill extrusion width = 0.15mm
; first layer extrusion width = 0.19mm

; external perimeters extrusion width = 0.15mm
; perimeters extrusion width = 0.17mm
; infill extrusion width = 0.24mm
; solid infill extrusion width = 0.21mm
; top infill extrusion width = 0.15mm
; first layer extrusion width = 0.19mm

; object:{"name":"LogoBase-80p","id":"LogoBase-80p.STL id:0 copy 0","object_center":[41.862048,46.990011,0.000000],"boundingbox_center":[41.862048,46.990011,1.407800],"boundingbox_size":[30.275903,20.018280,2.815599]}
EXCLUDE_OBJECT_DEFINE NAME=LogoBase_80p_STL_id_0_copy_0 CENTER=41.862048,46.990011 POLYGON=[[26.724098,36.980868],[57.000000,36.980868],[57.000000,56.978428],[26.724098,56.999148],[26.724098,36.980868]]
; object:{"name":"LogoBase-80p","id":"LogoBase-80p.STL id:1 copy 0","object_center":[41.862048,73.009141,0.000000],"boundingbox_center":[41.862048,73.009141,1.407800],"boundingbox_size":[30.275903,20.018280,2.815599]}
EXCLUDE_OBJECT_DEFINE NAME=LogoBase_80p_STL_id_1_copy_0 CENTER=41.862048,73.009141 POLYGON=[[26.724098,63.000000],[57.000000,63.000000],[57.000000,82.997560],[26.724098,83.018280],[26.724098,63.000000]]
; object:{"name":"LogoBase-80p","id":"LogoBase-80p.STL id:2 copy 0","object_center":[78.137952,59.999577,0.000000],"boundingbox_center":[78.137952,59.999577,1.407800],"boundingbox_size":[30.275903,20.018280,2.815599]}
EXCLUDE_OBJECT_DEFINE NAME=LogoBase_80p_STL_id_2_copy_0 CENTER=78.137952,59.999577 POLYGON=[[63.000004,49.990436],[93.275912,49.990436],[93.275912,69.988000],[63.000004,70.008712],[63.000004,49.990436]]
; plater:{"center":[60.000000,59.999576,0.000000],"boundingbox_center":[60.000000,59.999576,1.407800],"boundingbox_size":[66.551807,46.037410,2.815599]}

M73 P0 R44
;TYPE:Custom
; custom gcode: start_gcode
START_PRINT T_BED=60 T_EXTRUDER=210
; custom gcode end: start_gcode
M107
G21 ; set units to millimeters
G90 ; use absolute coordinates
M82 ; use absolute distances for extrusion
G92 E0
; custom gcode: start_filament_gcode
; Filament gcode

    PRESSURE_ADVANCE_SELECT FILAMENT=PLA
; custom gcode end: start_filament_gcode
;_TOOLCHANGE 0
M104 S210 ; set temperature
M109 S210 ; set temperature and wait for it to be reached
M190 S60 ; set bed temperature and wait for it to be reached
;LAYER_CHANGE
;Z:0.1
;HEIGHT:0.1
G1 Z0.1 F12000
M73 P0 R44
G1 E-0.8 F2400
M204 S2000
G1 X25.044 Y34.349 F12000
G1 E0 F1800
;TYPE:Skirt
;WIDTH:0.195
G1 X23.958 Y35.527 E0.01156
G1 X23.564 Y37.081 E0.02312
G1 X23.564 Y82.918 E0.35384
G1 X24.094 Y84.7 E0.36725
G1 X25.273 Y85.786 E0.37881
G1 X26.826 Y86.179 E0.39038
G1 X56.902 Y86.158 E0.60737
G1 X58.001 Y85.967 E0.61542
G1 X94.277 Y72.957 E0.89347
G1 X96.042 Y71.441 E0.91026
G1 X96.436 Y69.888 E0.92182
G1 X96.436 Y50.09 E1.06466
G1 X95.606 Y47.917 E1.08145
G1 X94.277 Y47.022 E1.09301
G1 X58.001 Y34.012 E1.37106
M73 P0 R44
G1 X56.9 Y33.821 E1.37912
G1 X26.824 Y33.821 E1.59612
G1 X25.044 Y34.349 E1.60951
G1 X25.181 Y34.481 F12000
G1 F1800
G1 X24.131 Y35.573 E1.62044
G1 X23.737 Y37.081 E1.63169
G1 X23.737 Y82.918 E1.9624
G1 X24.193 Y84.533 E1.97451
G1 X25.318 Y85.612 E1.98576
G1 X26.826 Y86.005 E1.997
G1 X56.902 Y85.984 E2.214
G1 X57.942 Y85.803 E2.22161
G1 X94.218 Y72.794 E2.49966
G1 X95.869 Y71.396 E2.51527
G1 X96.263 Y69.888 E2.52652
G1 X96.263 Y50.09 E2.66936
G1 X95.505 Y48.064 E2.68496
G1 X94.218 Y47.185 E2.69621
G1 X57.942 Y34.175 E2.97426
G1 X56.9 Y33.994 E2.98189
G1 X26.824 Y33.994 E3.19889
G1 X25.211 Y34.449 E3.21098
G1 X25.181 Y34.481 E3.21129
G92 E0
G1 E-0.8 F2400
; printing object LogoBase-80p.STL id:0 copy 0
EXCLUDE_OBJECT_START NAME=LogoBase_80p_STL_id_0_copy_0
G1 X27.084 Y56.39 F12000
G1 E0 F1800
;TYPE:Internal perimeter
;WIDTH:0.1875
G1 X27.25 Y56.307 E0.00128
G1 X27.25 Y37.59 E0.13049
;WIDTH:0.149719
G1 X27.416 Y37.756 E0.13178
;WIDTH:0.1875
G1 X27.416 Y56.307 E0.25984
G1 X56.308 Y56.287 E0.45929
G1 X56.308 Y37.673 E0.58779
G1 X27.499 Y37.673 E0.78666
;WIDTH:0.149719
G1 X27.333 Y37.507 E0.78796
;WIDTH:0.1875
G1 X56.474 Y37.507 E0.98912
G1 X56.474 Y56.453 E1.11991
G1 X27.25 Y56.473 E1.32165
G1 X27.084 Y56.556 E1.32293
;WIDTH:0.149669
G1 X26.918 Y56.722 E1.32422
;TYPE:External perimeter
;WIDTH:0.1875
G1 X26.918 Y37.175 E1.45916
G1 X56.806 Y37.175 E1.66549
G1 X56.806 Y56.785 E1.80086
G1 X27.001 Y56.805 E2.00661
;TYPE:Internal perimeter
;WIDTH:0.149669
G1 X27.167 Y56.639 E2.00791
;WIDTH:0.1875
G1 X56.64 Y56.619 E2.21136
G1 X56.64 Y37.341 E2.34444
G1 X27.084 Y37.341 E2.54847
G1 X27.084 Y56.39 E2.67998
G92 E0
G1 E-0.8 F2400
G1 X56.258 Y38.058 F12000
G1 E0 F1800
;TYPE:Solid infill
;WIDTH:0.189966
G1 F2400
G1 X55.923 Y37.723 E0.00332
G1 X55.688 Y37.723 F12000
G1 F2400
G1 X56.258 Y38.293 E0.00896
G1 X56.258 Y38.528 F12000
G1 F2400
G1 X55.453 Y37.723 E0.01693
G1 X55.218 Y37.723 F12000
G1 F2400
G1 X56.258 Y38.763 E0.02722
G1 X56.258 Y38.997 F12000
G1 F2400
G1 X54.983 Y37.723 E0.03983
G1 X54.749 Y37.723 F12000
G1 F2400
G1 X56.258 Y39.232 E0.05476
G1 X56.258 Y39.467 F12000
G1 F2400
G1 X54.514 Y37.723 E0.07202
G1 X54.279 Y37.723 F12000
G1 F2400
G1 X56.258 Y39.702 E0.09159
G1 X56.258 Y39.937 F12000
G1 F2400
G1 X54.044 Y37.723 E0.11349
G1 X53.809 Y37.723 F12000
G1 F2400
G1 X56.258 Y40.172 E0.13772
G1 X56.258 Y40.406 F12000
G1 F2400
G1 X53.575 Y37.723 E0.16426
G1 X53.34 Y37.723 F12000
G1 F2400
G1 X56.258 Y40.641 E0.19313
G1 X56.258 Y40.876 F12000
G1 F2400
G1 X53.105 Y37.723 E0.22432
G1 X52.87 Y37.723 F12000
G1 F2400
G1 X56.258 Y41.111 E0.25783
G1 X56.258 Y41.346 F12000
G1 F2400
G1 X52.635 Y37.723 E0.29367
G1 X52.4 Y37.723 F12000
G1 F2400
G1 X56.258 Y41.58 E0.33183
G1 X56.258 Y41.815 F12000
G1 F2400
G1 X52.166 Y37.723 E0.37231
G1 X51.931 Y37.723 F12000
G1 F2400
G1 X56.258 Y42.05 E0.41511
G1 X56.258 Y42.285 F12000
G1 F2400
G1 X51.696 Y37.723 E0.46024
G1 X51.461 Y37.723 F12000
G1 F2400
G1 X56.258 Y42.52 E0.50769
G1 X56.258 Y42.755 F12000
G1 F2400
G1 X51.226 Y37.723 E0.55746
G1 X50.992 Y37.723 F12000
G1 F2400
G1 X56.258 Y42.989 E0.60955
M73 P1 R43
G1 X56.258 Y43.224 F12000
G1 F2400
G1 X50.757 Y37.723 E0.66397
G1 X50.522 Y37.723 F12000
G1 F2400
G1 X56.258 Y43.459 E0.7207
G1 X56.258 Y43.694 F12000
G1 F2400
G1 X50.287 Y37.723 E0.77977
G1 X50.052 Y37.723 F12000
G1 F2400
G1 X56.258 Y43.929 E0.84115
G1 X56.258 Y44.163 F12000
G1 F2400
G1 X49.817 Y37.723 E0.90486
G1 X49.583 Y37.723 F12000
G1 F2400
G1 X56.258 Y44.398 E0.97088
G1 X56.258 Y44.633 F12000
G1 F2400
G1 X49.348 Y37.723 E1.03923
G1 X49.113 Y37.723 F12000
G1 F2400
G1 X56.258 Y44.868 E1.10991
G1 X56.258 Y45.103 F12000
G1 F2400
G1 X48.878 Y37.723 E1.1829
G1 X48.643 Y37.723 F12000
G1 F2400
G1 X56.258 Y45.337 E1.25822
G1 X56.258 Y45.572 F12000
G1 F2400
G1 X48.409 Y37.723 E1.33586
G1 X48.174 Y37.723 F12000
G1 F2400
G1 X56.258 Y45.807 E1.41583
G1 X56.258 Y46.042 F12000
G1 F2400
G1 X47.939 Y37.723 E1.49811
G1 X47.704 Y37.723 F12000
G1 F2400
G1 X56.258 Y46.277 E1.58272
G1 X56.258 Y46.512 F12000
G1 F2400
G1 X47.469 Y37.723 E1.66965
G1 X47.235 Y37.723 F12000
G1 F2400
G1 X56.258 Y46.746 E1.75891
G1 X56.258 Y46.981 F12000
G1 F2400
G1 X47 Y37.723 E1.85048
G1 X46.765 Y37.723 F12000
G1 F2400
G1 X56.258 Y47.216 E1.94438
G1 X56.258 Y47.451 F12000
G1 F2400
G1 X46.53 Y37.723 E2.04061
G1 X46.295 Y37.723 F12000
G1 F2400
G1 X56.258 Y47.686 E2.13915
G1 X56.258 Y47.92 F12000
G1 F2400
G1 X46.06 Y37.723 E2.24002
G1 X45.826 Y37.723 F12000
G1 F2400
G1 X56.258 Y48.155 E2.3432
G1 X56.258 Y48.39 F12000
G1 F2400
G1 X45.591 Y37.723 E2.44872
G1 X45.356 Y37.723 F12000
G1 F2400
G1 X56.258 Y48.625 E2.55655
G1 X56.258 Y48.86 F12000
G1 F2400
G1 X45.121 Y37.723 E2.66671
G1 X44.886 Y37.723 F12000
G1 F2400
G1 X56.258 Y49.095 E2.77919
G1 X56.258 Y49.329 F12000
G1 F2400
G1 X44.652 Y37.723 E2.89399
G1 X44.417 Y37.723 F12000
G1 F2400
G1 X56.258 Y49.564 E3.01111
G1 X56.258 Y49.799 F12000
G1 F2400
G1 X44.182 Y37.723 E3.13056
G1 X43.947 Y37.723 F12000
G1 F2400
G1 X56.258 Y50.034 E3.25233
G1 X56.258 Y50.269 F12000
G1 F2400
G1 X43.712 Y37.723 E3.37642
G1 X43.477 Y37.723 F12000
G1 F2400
G1 X56.258 Y50.503 E3.50283
G1 X56.258 Y50.738 F12000
G1 F2400
G1 X43.243 Y37.723 E3.63157
G1 X43.008 Y37.723 F12000
G1 F2400
G1 X56.258 Y50.973 E3.76263
G1 X56.258 Y51.208 F12000
G1 F2400
G1 X42.773 Y37.723 E3.89601
G1 X42.538 Y37.723 F12000
G1 F2400
G1 X56.258 Y51.443 E4.03172
G1 X56.258 Y51.677 F12000
G1 F2400
G1 X42.303 Y37.723 E4.16974
G1 X42.069 Y37.723 F12000
G1 F2400
G1 X56.258 Y51.912 E4.31009
G1 X56.258 Y52.147 F12000
G1 F2400
G1 X41.834 Y37.723 E4.45277
G1 X41.599 Y37.723 F12000
G1 F2400
G1 X56.258 Y52.382 E4.59776
G1 X56.258 Y52.617 F12000
G1 F2400
G1 X41.364 Y37.723 E4.74508
G1 X41.129 Y37.723 F12000
G1 F2400
G1 X56.258 Y52.852 E4.89472
G1 X56.258 Y53.086 F12000
G1 F2400
G1 X40.895 Y37.723 E5.04668
G1 X40.66 Y37.723 F12000
G1 F2400
G1 X56.258 Y53.321 E5.20096
M73 P2 R43
G1 X56.258 Y53.556 F12000
G1 F2400
G1 X40.425 Y37.723 E5.35757
G1 X40.19 Y37.723 F12000
G1 F2400
G1 X56.258 Y53.791 E5.5165
G1 X56.258 Y54.026 F12000
G1 F2400
G1 X39.955 Y37.723 E5.67775
G1 X39.72 Y37.723 F12000
G1 F2400
G1 X56.258 Y54.26 E5.84133
G1 X56.258 Y54.495 F12000
G1 F2400
G1 X39.486 Y37.723 E6.00722
G1 X39.251 Y37.723 F12000
G1 F2400
G1 X56.258 Y54.73 E6.17544
G1 X56.258 Y54.965 F12000
G1 F2400
G1 X39.016 Y37.723 E6.34599
G1 X38.781 Y37.723 F12000
G1 F2400
G1 X56.258 Y55.2 E6.51885
G1 X56.258 Y55.434 F12000
G1 F2400
G1 X38.546 Y37.723 E6.69404
G1 X38.312 Y37.723 F12000
G1 F2400
G1 X56.258 Y55.669 E6.87155
G1 X56.258 Y55.904 F12000
G1 F2400
G1 X38.077 Y37.723 E7.05138
G1 X37.842 Y37.723 F12000
G1 F2400
G1 X56.258 Y56.139 E7.23354
G1 X56.122 Y56.237 F12000
G1 F2400
G1 X37.607 Y37.723 E7.41667
G1 X37.372 Y37.723 F12000
G1 F2400
G1 X55.887 Y56.238 E7.5998
M73 P2 R43
G1 X55.653 Y56.238 F12000
G1 F2400
G1 X37.137 Y37.723 E7.78293
G1 X36.903 Y37.723 F12000
G1 F2400
G1 X55.418 Y56.238 E7.96606
G1 X55.183 Y56.238 F12000
G1 F2400
G1 X36.668 Y37.723 E8.1492
G1 X36.433 Y37.723 F12000
G1 F2400
G1 X54.949 Y56.238 E8.33233
G1 X54.714 Y56.238 F12000
G1 F2400
G1 X36.198 Y37.723 E8.51547
G1 X35.963 Y37.723 F12000
G1 F2400
G1 X54.479 Y56.238 E8.69861
G1 X54.245 Y56.239 F12000
G1 F2400
G1 X35.729 Y37.723 E8.88175
G1 X35.494 Y37.723 F12000
G1 F2400
G1 X54.01 Y56.239 E9.06489
G1 X53.775 Y56.239 F12000
G1 F2400
G1 X35.259 Y37.723 E9.24804
G1 X35.024 Y37.723 F12000
G1 F2400
G1 X53.541 Y56.239 E9.43118
G1 X53.306 Y56.239 F12000
G1 F2400
G1 X34.789 Y37.723 E9.61433
G1 X34.555 Y37.723 F12000
G1 F2400
G1 X53.071 Y56.239 E9.79748
G1 X52.837 Y56.24 F12000
G1 F2400
G1 X34.32 Y37.723 E9.98063
G1 X34.085 Y37.723 F12000
G1 F2400
G1 X52.602 Y56.24 E10.16378
G1 X52.367 Y56.24 F12000
G1 F2400
G1 X33.85 Y37.723 E10.34694
G1 X33.615 Y37.723 F12000
G1 F2400
G1 X52.133 Y56.24 E10.53009
G1 X51.898 Y56.24 F12000
G1 F2400
G1 X33.38 Y37.723 E10.71325
G1 X33.146 Y37.723 F12000
G1 F2400
G1 X51.664 Y56.24 E10.89641
G1 X51.429 Y56.241 F12000
G1 F2400
G1 X32.911 Y37.723 E11.07957
G1 X32.676 Y37.723 F12000
G1 F2400
G1 X51.194 Y56.241 E11.26273
G1 X50.96 Y56.241 F12000
G1 F2400
G1 X32.441 Y37.723 E11.4459
G1 X32.206 Y37.723 F12000
G1 F2400
G1 X50.725 Y56.241 E11.62906
G1 X50.49 Y56.241 F12000
G1 F2400
G1 X31.972 Y37.723 E11.81223
G1 X31.737 Y37.723 F12000
G1 F2400
G1 X50.256 Y56.241 E11.9954
G1 X50.021 Y56.242 F12000
G1 F2400
G1 X31.502 Y37.723 E12.17857
G1 X31.267 Y37.723 F12000
G1 F2400
G1 X49.786 Y56.242 E12.36174
G1 X49.552 Y56.242 F12000
G1 F2400
G1 X31.032 Y37.723 E12.54491
G1 X30.797 Y37.723 F12000
G1 F2400
G1 X49.317 Y56.242 E12.72808
G1 X49.082 Y56.242 F12000
G1 F2400
G1 X30.563 Y37.723 E12.91126
G1 X30.328 Y37.723 F12000
G1 F2400
G1 X48.848 Y56.242 E13.09444
G1 X48.613 Y56.243 F12000
G1 F2400
G1 X30.093 Y37.723 E13.27762
G1 X29.858 Y37.723 F12000
G1 F2400
G1 X48.378 Y56.243 E13.4608
G1 X48.144 Y56.243 F12000
G1 F2400
G1 X29.623 Y37.723 E13.64398
G1 X29.389 Y37.723 F12000
G1 F2400
G1 X47.909 Y56.243 E13.82717
G1 X47.674 Y56.243 F12000
G1 F2400
G1 X29.154 Y37.723 E14.01035
G1 X28.919 Y37.723 F12000
G1 F2400
G1 X47.44 Y56.243 E14.19354
G1 X47.205 Y56.243 F12000
G1 F2400
G1 X28.684 Y37.723 E14.37673
G1 X28.449 Y37.723 F12000
G1 F2400
G1 X46.97 Y56.244 E14.55992
M73 P3 R42
G1 X46.736 Y56.244 F12000
G1 F2400
G1 X28.215 Y37.723 E14.74311
G1 X27.98 Y37.723 F12000
G1 F2400
G1 X46.501 Y56.244 E14.9263
G1 X46.266 Y56.244 F12000
G1 F2400
G1 X27.745 Y37.723 E15.1095
G1 X27.51 Y37.723 F12000
G1 F2400
G1 X46.032 Y56.244 E15.2927
G1 X45.797 Y56.244 F12000
G1 F2400
G1 X27.466 Y37.913 E15.47401
G1 X27.466 Y38.148 F12000
G1 F2400
G1 X45.563 Y56.245 E15.653
G1 X45.328 Y56.245 F12000
G1 F2400
G1 X27.466 Y38.383 E15.82968
G1 X27.466 Y38.617 F12000
G1 F2400
G1 X45.093 Y56.245 E16.00403
G1 X44.859 Y56.245 F12000
G1 F2400
G1 X27.466 Y38.852 E16.17606
G1 X27.466 Y39.087 F12000
G1 F2400
G1 X44.624 Y56.245 E16.34577
G1 X44.389 Y56.245 F12000
G1 F2400
G1 X27.466 Y39.322 E16.51316
G1 X27.466 Y39.557 F12000
G1 F2400
G1 X44.155 Y56.246 E16.67823
G1 X43.92 Y56.246 F12000
G1 F2400
G1 X27.466 Y39.792 E16.84097
G1 X27.466 Y40.026 F12000
G1 F2400
G1 X43.685 Y56.246 E17.0014
G1 X43.451 Y56.246 F12000
G1 F2400
G1 X27.466 Y40.261 E17.1595
G1 X27.466 Y40.496 F12000
G1 F2400
G1 X43.216 Y56.246 E17.31529
G1 X42.981 Y56.246 F12000
G1 F2400
G1 X27.466 Y40.731 E17.46875
G1 X27.466 Y40.966 F12000
G1 F2400
G1 X42.747 Y56.247 E17.61989
G1 X42.512 Y56.247 F12000
G1 F2400
G1 X27.466 Y41.2 E17.76871
G1 X27.466 Y41.435 F12000
G1 F2400
G1 X42.277 Y56.247 E17.91521
G1 X42.043 Y56.247 F12000
G1 F2400
G1 X27.466 Y41.67 E18.05939
G1 X27.466 Y41.905 F12000
G1 F2400
G1 X41.808 Y56.247 E18.20125
G1 X41.573 Y56.247 F12000
G1 F2400
G1 X27.466 Y42.14 E18.34079
G1 X27.466 Y42.374 F12000
G1 F2400
G1 X41.339 Y56.247 E18.47801
G1 X41.104 Y56.248 F12000
G1 F2400
G1 X27.466 Y42.609 E18.6129
G1 X27.466 Y42.844 F12000
G1 F2400
G1 X40.869 Y56.248 E18.74548
G1 X40.635 Y56.248 F12000
G1 F2400
G1 X27.466 Y43.079 E18.87573
G1 X27.466 Y43.314 F12000
G1 F2400
G1 X40.4 Y56.248 E19.00366
G1 X40.165 Y56.248 F12000
G1 F2400
G1 X27.466 Y43.549 E19.12927
G1 X27.466 Y43.783 F12000
G1 F2400
G1 X39.931 Y56.248 E19.25257
G1 X39.696 Y56.249 F12000
G1 F2400
G1 X27.466 Y44.018 E19.37354
G1 X27.466 Y44.253 F12000
G1 F2400
G1 X39.462 Y56.249 E19.49218
G1 X39.227 Y56.249 F12000
G1 F2400
G1 X27.466 Y44.488 E19.60851
G1 X27.466 Y44.723 F12000
G1 F2400
G1 X38.992 Y56.249 E19.72252
G1 X38.758 Y56.249 F12000
G1 F2400
G1 X27.466 Y44.957 E19.83421
G1 X27.466 Y45.192 F12000
G1 F2400
G1 X38.523 Y56.249 E19.94357
G1 X38.288 Y56.25 F12000
G1 F2400
G1 X27.466 Y45.427 E20.05062
G1 X27.466 Y45.662 F12000
G1 F2400
G1 X38.054 Y56.25 E20.15534
G1 X37.819 Y56.25 F12000
G1 F2400
G1 X27.466 Y45.897 E20.25774
G1 X27.466 Y46.132 F12000
G1 F2400
G1 X37.584 Y56.25 E20.35782
G1 X37.35 Y56.25 F12000
G1 F2400
G1 X27.466 Y46.366 E20.45558
G1 X27.466 Y46.601 F12000
G1 F2400
G1 X37.115 Y56.25 E20.55102
G1 X36.88 Y56.251 F12000
G1 F2400
G1 X27.466 Y46.836 E20.64414
G1 X27.466 Y47.071 F12000
G1 F2400
G1 X36.646 Y56.251 E20.73494
G1 X36.411 Y56.251 F12000
G1 F2400
G1 X27.466 Y47.306 E20.82342
G1 X27.466 Y47.54 F12000
G1 F2400
G1 X36.176 Y56.251 E20.90957
G1 X35.942 Y56.251 F12000
G1 F2400
G1 X27.466 Y47.775 E20.99341
G1 X27.466 Y48.01 F12000
G1 F2400
G1 X35.707 Y56.251 E21.07492
G1 X35.472 Y56.252 F12000
G1 F2400
G1 X27.466 Y48.245 E21.15411
G1 X27.466 Y48.48 F12000
G1 F2400
G1 X35.238 Y56.252 E21.23099
G1 X35.003 Y56.252 F12000
G1 F2400
G1 X27.466 Y48.714 E21.30554
M73 P4 R42
G1 X27.466 Y48.949 F12000
G1 F2400
G1 X34.768 Y56.252 E21.37777
G1 X34.534 Y56.252 F12000
G1 F2400
G1 X27.466 Y49.184 E21.44768
G1 X27.466 Y49.419 F12000
G1 F2400
G1 X34.299 Y56.252 E21.51527
G1 X34.064 Y56.252 F12000
G1 F2400
G1 X27.466 Y49.654 E21.58053
G1 X27.466 Y49.889 F12000
