; HEADER_BLOCK_START
; generated by OrcaSlicer 1.6.3 on 2023-07-01 at 10:02:22
; total layer number: 48
; HEADER_BLOCK_END

; THUMBNAIL_BLOCK_START
; THUMBNAIL_BLOCK_END

; external perimeters extrusion width = 0.12mm
; perimeters extrusion width = 0.12mm
; infill extrusion width = 0.12mm
; solid infill extrusion width = 0.12mm
; top infill extrusion width = 0.12mm
; first layer extrusion width = 0.20mm

; EXECUTABLE_BLOCK_START
EXCLUDE_OBJECT_DEFINE NAME=LogoBoard.STL_id_0_copy_0 CENTER=60,60 POLYGON=[[45.74,56.75],[74.26,56.75],[74.26,63.25],[73.6511,63.25],[45.74,62.2883],[45.74,56.75]]
M73 P0 R13
M73 C10
;TYPE:Custom
START_PRINT T_BED=60 T_EXTRUDER=220
G90
G21
M83 ; use relative distances for extrusion
; filament start gcode

    PRESSURE_ADVANCE_SELECT FILAMENT=PLA
M106 S0
;LAYER_CHANGE
;Z:0.1
;HEIGHT:0.1
;BEFORE_LAYER_CHANGE
;0.1
G92 E0

;AFTER_LAYER_CHANGE
;0.1
M204 S500
G1 E-.8 F3000
G1 Z.2 F21000
G1 X44.819 Y54.58
G1 Z.1
G1 E.8 F1800
;TYPE:Skirt
;WIDTH:0.2
G1 F3000
G1 X45.74 Y54.393 E.00684
G1 X74.26 Y54.393 E.20746
G1 X75.561 Y54.784 E.00988
G1 X76.43 Y55.829 E.00988
G1 X76.617 Y56.75 E.00684
G1 X76.617 Y63.25 E.04728
G1 X76.226 Y64.551 E.00988
G1 X75.181 Y65.42 E.00988
G1 X74.26 Y65.607 E.00684
G1 X73.57 Y65.606 E.00502
G1 X45.659 Y64.644 E.20316
G1 X44.372 Y64.208 E.00988
G1 X43.54 Y63.134 E.00988
G1 X43.383 Y62.288 E.00626
G1 X43.383 Y56.75 E.04029
G1 X43.774 Y55.449 E.00988
G1 X44.802 Y54.595 E.00972
G1 X44.924 Y54.753 F21000
G1 F3000
G1 X44.985 Y54.707 E.00055
G1 X45.74 Y54.571 E.00558
G1 X74.26 Y54.571 E.20746
G1 X75.505 Y54.962 E.00949
G1 X76.303 Y55.995 E.00949
G1 X76.439 Y56.75 E.00558
G1 X76.439 Y63.25 E.04728
G1 X76.048 Y64.495 E.00949
G1 X75.015 Y65.293 E.00949
G1 X74.26 Y65.429 E.00558
G1 X73.576 Y65.427 E.00497
G1 X45.665 Y64.466 E.20316
G1 X44.434 Y64.032 E.00949
G1 X43.672 Y62.973 E.00949
G1 X43.561 Y62.288 E.00504
G1 X43.561 Y56.75 E.04029
G1 X43.952 Y55.505 E.00949
G1 X44.906 Y54.767 E.00877
; printing object LogoBoard.STL id:0 copy 0
EXCLUDE_OBJECT_START NAME=LogoBoard.STL_id_0_copy_0
G1 E-.8
G1 Z.3 F21000
G1 X45.84 Y62.009 Z.1
G1 E.8 F1800
;TYPE:Outer wall
G1 F3000
G1 X45.84 Y56.85 E.03753
G1 X74.16 Y56.85 E.20601
G1 X74.16 Y63.15 E.04583
G1 X73.709 Y63.15 E.00328
G1 X73.67 Y63.082 E.00057
G1 X73.538 Y63.013 E.00108
G1 X73.104 Y62.953 E.00319
G1 X72.571 Y62.794 E.00404
G1 X72.344 Y62.753 E.00168
G1 X72.046 Y62.767 E.00217
G1 X71.639 Y62.862 E.00304
G1 X71.554 Y62.853 E.00063
G1 X70.987 Y62.571 E.0046
G1 X70.822 Y62.534 E.00123
G1 X70.044 Y62.489 E.00567
G1 X69.722 Y62.412 E.00241
G1 X69.175 Y62.218 E.00422
G1 X68.586 Y61.923 E.00479
G1 X68.249 Y61.828 E.00255
G1 X67.693 Y61.685 E.00417
G1 X67.263 Y61.597 E.0032
G1 X66.83 Y61.575 E.00315
G1 X66.212 Y61.621 E.00451
G1 X65.26 Y61.756 E.00699
G1 X64.325 Y61.731 E.00681
G1 X63.456 Y61.656 E.00634
G1 X63.254 Y61.661 E.00147
G1 X63.108 Y61.688 E.00108
G1 X62.712 Y61.835 E.00307
G1 X62.534 Y61.85 E.0013
G1 X61.687 Y61.68 E.00629
G1 X61.217 Y61.628 E.00343
G1 X60.862 Y61.639 E.00259
G1 X60.559 Y61.689 E.00223
G1 X60.278 Y61.779 E.00214
G1 X59.797 Y62.018 E.00391
G1 X59.648 Y62.05 E.00111
G1 X59.388 Y62.021 E.0019
G1 X59.1 Y61.929 E.0022
G1 X58.571 Y61.715 E.00415
G1 X58.132 Y61.601 E.0033
G1 X57.536 Y61.529 E.00437
G1 X56.943 Y61.515 E.00431
G1 X56.676 Y61.537 E.00195
G1 X56.064 Y61.717 E.00464
G1 X55.471 Y61.858 E.00443
G1 X55.1 Y61.933 E.00275
G1 X54.893 Y61.943 E.00151
G1 X54.68 Y61.92 E.00156
G1 X54.484 Y61.866 E.00148
G1 X53.878 Y61.626 E.00474
G1 X53.661 Y61.584 E.00161
G1 X51.916 Y61.571 E.01269
G1 X51.208 Y61.683 E.00522
G1 X50.889 Y61.645 E.00233
G1 X50.554 Y61.632 E.00244
G1 X49.774 Y61.636 E.00568
G1 X49.496 Y61.697 E.00207
G1 X48.656 Y61.987 E.00646
G1 X48.346 Y62.036 E.00229
G1 X47.761 Y62.063 E.00426
G1 X47.104 Y62.037 E.00478
G1 X46.097 Y61.88 E.00741
G1 X45.947 Y61.915 E.00112
G1 X45.857 Y61.994 E.00087
G1 X45.851 Y61.981
G1 X46.019 Y61.715 F21000
;TYPE:Inner wall
G1 F3000
G1 X46.019 Y57.029 E.03409
G1 X73.981 Y57.029 E.20341
M73 P1 R13
G1 X73.981 Y62.971 E.04323
G1 X73.812 Y62.971 E.00123
G1 X73.799 Y62.948 E.0002
G1 X73.593 Y62.841 E.00169
G1 X73.142 Y62.778 E.00331
G1 X72.613 Y62.62 E.00402
G1 X72.356 Y62.574 E.0019
G1 X72.021 Y62.589 E.00244
G1 X71.604 Y62.678 E.0031
G1 X71.047 Y62.402 E.00453
G1 X70.847 Y62.357 E.00149
G1 X70.07 Y62.311 E.00566
G1 X69.773 Y62.24 E.00222
G1 X69.245 Y62.053 E.00407
G1 X68.651 Y61.756 E.00483
G1 X68.296 Y61.655 E.00269
G1 X67.733 Y61.511 E.00422
G1 X67.285 Y61.42 E.00333
G1 X66.828 Y61.396 E.00333
G1 X66.193 Y61.444 E.00463
G1 X65.25 Y61.577 E.00693
G1 X64.335 Y61.553 E.00666
G1 X63.461 Y61.478 E.00638
G1 X63.236 Y61.483 E.00164
G1 X63.06 Y61.515 E.0013
G1 X62.673 Y61.659 E.00301
G1 X62.544 Y61.67 E.00094
G1 X61.714 Y61.503 E.00616
G1 X61.225 Y61.449 E.00358
G1 X60.844 Y61.461 E.00277
G1 X60.517 Y61.515 E.00241
G1 X60.211 Y61.613 E.00233
G1 X59.738 Y61.848 E.00384
G1 X59.639 Y61.869 E.00074
G1 X59.425 Y61.845 E.00156
G1 X59.16 Y61.761 E.00202
G1 X58.627 Y61.545 E.00418
G1 X58.166 Y61.425 E.00347
G1 X57.549 Y61.351 E.00452
G1 X56.938 Y61.336 E.00444
G1 X56.643 Y61.36 E.00216
G1 X56.019 Y61.545 E.00474
G1 X55.433 Y61.684 E.00438
G1 X55.078 Y61.755 E.00264
G1 X54.898 Y61.764 E.00131
G1 X54.713 Y61.744 E.00135
G1 X54.54 Y61.697 E.0013
G1 X53.929 Y61.454 E.00479
G1 X53.679 Y61.405 E.00185
G1 X51.903 Y61.392 E.01292
G1 X51.205 Y61.503 E.00514
G1 X50.904 Y61.467 E.00221
G1 X50.557 Y61.453 E.00252
G1 X49.754 Y61.457 E.00584
G1 X49.447 Y61.524 E.00228
G1 X48.612 Y61.813 E.00642
G1 X48.327 Y61.858 E.0021
G1 X47.76 Y61.885 E.00413
G1 X47.121 Y61.859 E.00465
G1 X46.09 Y61.698 E.00759
G1 X46.04 Y61.71 E.00037
G1 X46.197 Y61.534 F21000
G1 F3000
G1 X46.197 Y57.207 E.03148
G1 X73.803 Y57.207 E.20082
G1 X73.803 Y62.749 E.04031
G1 X73.648 Y62.668 E.00127
G1 X73.18 Y62.603 E.00344
G1 X72.655 Y62.446 E.00399
G1 X72.368 Y62.394 E.00212
G1 X71.997 Y62.412 E.00271
G1 X71.637 Y62.495 E.00269
G1 X71.107 Y62.232 E.0043
G1 X70.872 Y62.18 E.00176
G1 X70.096 Y62.134 E.00565
G1 X69.824 Y62.069 E.00204
G1 X69.315 Y61.889 E.00392
G1 X68.716 Y61.589 E.00487
G1 X68.342 Y61.483 E.00283
G1 X67.773 Y61.337 E.00427
G1 X67.308 Y61.242 E.00346
G1 X66.826 Y61.217 E.00351
G1 X66.173 Y61.266 E.00476
G1 X65.239 Y61.398 E.00686
G1 X64.345 Y61.375 E.00651
G1 X63.466 Y61.299 E.00641
G1 X63.217 Y61.305 E.00181
G1 X63.013 Y61.342 E.00151
G1 X62.633 Y61.483 E.00294
G1 X62.555 Y61.49 E.00058
G1 X61.742 Y61.327 E.00603
G1 X61.232 Y61.27 E.00373
G1 X60.827 Y61.282 E.00295
G1 X60.475 Y61.341 E.0026
G1 X60.144 Y61.447 E.00253
G1 X59.63 Y61.688 E.00413
G1 X59.462 Y61.67 E.00123
G1 X59.221 Y61.593 E.00184
G1 X58.683 Y61.376 E.00422
G1 X58.199 Y61.249 E.00364
G1 X57.562 Y61.173 E.00467
G1 X56.933 Y61.157 E.00457
G1 X56.61 Y61.184 E.00236
G1 X55.973 Y61.372 E.00483
G1 X55.395 Y61.509 E.00432
G1 X55.056 Y61.577 E.00252
G1 X54.903 Y61.585 E.00111
G1 X54.747 Y61.568 E.00115
G1 X54.597 Y61.527 E.00113
G1 X53.979 Y61.282 E.00483
G1 X53.697 Y61.227 E.00209
G1 X51.89 Y61.214 E.01315
G1 X51.201 Y61.323 E.00507
G1 X50.918 Y61.289 E.00208
G1 X50.56 Y61.275 E.0026
G1 X49.734 Y61.279 E.00601
G1 X49.399 Y61.352 E.0025
G1 X48.569 Y61.639 E.00639
G1 X48.309 Y61.68 E.00191
G1 X47.76 Y61.706 E.004
G1 X47.139 Y61.681 E.00452
G1 X46.219 Y61.537 E.00677
G1 E-.8
G1 Z.3 F21000
G1 X73.386 Y57.261 Z.1
G1 E.8 F1800
;TYPE:Bottom surface
;WIDTH:0.201125
G1 F6300
G1 X73.669 Y57.544 E.00293
G1 X73.669 Y57.798 E.00186
G1 X73.212 Y57.341 E.00473
G1 X72.958 Y57.341 E.00186
G1 X73.669 Y58.052 E.00736
G1 X73.669 Y58.306 E.00186
G1 X72.704 Y57.341 E.00999
G1 X72.45 Y57.341 E.00186
G1 X73.669 Y58.56 E.01262
G1 X73.669 Y58.814 E.00186
G1 X72.196 Y57.341 E.01525
G1 X71.942 Y57.341 E.00186
G1 X73.669 Y59.068 E.01788
G1 X73.669 Y59.322 E.00186
G1 X71.688 Y57.341 E.02051
G1 X71.434 Y57.341 E.00186
G1 X73.669 Y59.576 E.02314
G1 X73.669 Y59.83 E.00186
G1 X71.18 Y57.341 E.02577
G1 X70.926 Y57.341 E.00186
G1 X73.669 Y60.084 E.0284
G1 X73.669 Y60.339 E.00186
G1 X70.671 Y57.341 E.03103
G1 X70.417 Y57.341 E.00186
G1 X73.669 Y60.593 E.03366
G1 X73.669 Y60.847 E.00186
G1 X70.163 Y57.341 E.03629
G1 X69.909 Y57.341 E.00186
G1 X73.669 Y61.101 E.03892
G1 X73.669 Y61.355 E.00186
G1 X69.655 Y57.341 E.04155
G1 X69.401 Y57.341 E.00186
G1 X73.669 Y61.609 E.04418
G1 X73.669 Y61.863 E.00186
G1 X69.147 Y57.341 E.04681
G1 X68.893 Y57.341 E.00186
G1 X73.669 Y62.117 E.04944
G1 X73.669 Y62.371 E.00186
G1 X68.639 Y57.341 E.05208
G1 X68.385 Y57.341 E.00186
G1 X73.565 Y62.521 E.05363
G1 X73.27 Y62.48 E.00218
G1 X68.131 Y57.341 E.05321
G1 X67.877 Y57.341 E.00186
G1 X72.922 Y62.386 E.05223
G1 X72.578 Y62.296 E.0026
G1 X67.622 Y57.341 E.0513
G1 X67.368 Y57.341 E.00186
G1 X72.291 Y62.264 E.05096
M73 P2 R13
G1 X72.048 Y62.275 E.00178
G1 X67.114 Y57.341 E.05108
G1 X66.86 Y57.341 E.00186
G1 X71.832 Y62.313 E.05147
G1 X71.654 Y62.354 E.00134
G1 X71.585 Y62.32 E.00056
G1 X66.606 Y57.341 E.05155
G1 X66.352 Y57.341 E.00186
G1 X71.106 Y62.095 E.04921
G1 X70.798 Y62.041 E.00229
G1 X66.098 Y57.341 E.04866
G1 X65.844 Y57.341 E.00186
G1 X70.528 Y62.025 E.04849
G1 X70.258 Y62.009 E.00198
G1 X65.59 Y57.341 E.04833
G1 X65.336 Y57.341 E.00186
G1 X69.958 Y61.963 E.04785
G1 X69.582 Y61.841 E.0029
G1 X65.082 Y57.341 E.04659
G1 X64.827 Y57.341 E.00186
G1 X69.136 Y61.649 E.0446
G1 X68.765 Y61.464 E.00303
G1 X68.669 Y61.436 E.00073
G1 X64.573 Y57.341 E.0424
G1 X64.319 Y57.341 E.00186
G1 X68.316 Y61.338 E.04138
G1 X67.974 Y61.25 E.00258
G1 X64.065 Y57.341 E.04047
G1 X63.811 Y57.341 E.00186
G1 X67.644 Y61.174 E.03968
G1 X67.325 Y61.109 E.00238
G1 X63.557 Y57.341 E.03901
G1 X63.303 Y57.341 E.00186
G1 X67.057 Y61.095 E.03886
G1 X66.793 Y61.085 E.00193
G1 X63.049 Y57.341 E.03876
G1 X62.795 Y57.341 E.00186
G1 X66.557 Y61.103 E.03894
G1 X66.32 Y61.121 E.00173
G1 X62.541 Y57.341 E.03913
G1 X62.287 Y57.341 E.00186
G1 X66.088 Y61.143 E.03936
G1 X65.866 Y61.174 E.00165
G1 X62.033 Y57.341 E.03968
G1 X61.778 Y57.341 E.00186
G1 X65.643 Y61.206 E.04001
G1 X65.421 Y61.237 E.00165
G1 X61.524 Y57.341 E.04034
G1 X61.27 Y57.341 E.00186
G1 X65.192 Y61.263 E.0406
G1 X64.931 Y61.256 E.00191
G1 X61.016 Y57.341 E.04053
G1 X60.762 Y57.341 E.00186
G1 X64.67 Y61.249 E.04046
G1 X64.409 Y61.242 E.00191
G1 X60.508 Y57.341 E.04039
G1 X60.254 Y57.341 E.00186
G1 X64.135 Y61.222 E.04018
G1 X63.857 Y61.198 E.00204
G1 X60 Y57.341 E.03993
G1 X59.746 Y57.341 E.00186
G1 X63.579 Y61.174 E.03968
G1 X63.319 Y61.169 E.0019
G1 X59.492 Y57.341 E.03963
G1 X59.238 Y57.341 E.00186
G1 X63.089 Y61.192 E.03987
G1 X62.888 Y61.246 E.00152
G1 X58.984 Y57.341 E.04042
G1 X58.729 Y57.341 E.00186
G1 X62.703 Y61.315 E.04114
G1 X62.604 Y61.352 E.00077
G1 X62.471 Y61.337 E.00098
G1 X58.475 Y57.341 E.04136
G1 X58.221 Y57.341 E.00186
G1 X62.153 Y61.273 E.0407
G1 X61.835 Y61.209 E.00237
G1 X57.967 Y57.341 E.04004
G1 X57.713 Y57.341 E.00186
G1 X61.542 Y61.17 E.03964
G1 X61.257 Y61.138 E.0021
G1 X57.459 Y57.341 E.03931
G1 X57.205 Y57.341 E.00186
G1 X61.007 Y61.143 E.03936
M73 C9
G1 X60.767 Y61.157 E.00176
G1 X56.951 Y57.341 E.0395
G1 X56.697 Y57.341 E.00186
G1 X60.549 Y61.193 E.03988
G1 X60.344 Y61.242 E.00154
G1 X56.443 Y57.341 E.04039
M73 P3 R13
G1 X56.189 Y57.341 E.00186
G1 X60.152 Y61.304 E.04103
G1 X59.973 Y61.379 E.00142
G1 X55.935 Y57.341 E.04181
G1 X55.68 Y57.341 E.00186
G1 X59.8 Y61.461 E.04265
G1 X59.627 Y61.542 E.0014
G1 X55.426 Y57.341 E.04349
G1 X55.172 Y57.341 E.00186
G1 X59.313 Y61.481 E.04286
G1 X58.893 Y61.316 E.0033
G1 X54.918 Y57.341 E.04115
G1 X54.664 Y57.341 E.00186
G1 X58.517 Y61.194 E.03988
G1 X58.181 Y61.112 E.00253
G1 X54.41 Y57.341 E.03904
G1 X54.156 Y57.341 E.00186
G1 X57.892 Y61.077 E.03868
G1 X57.604 Y61.043 E.00213
G1 X53.902 Y57.341 E.03832
G1 X53.648 Y57.341 E.00186
G1 X57.34 Y61.033 E.03823
G1 X57.08 Y61.027 E.00191
G1 X53.394 Y57.341 E.03816
G1 X53.14 Y57.341 E.00186
G1 X56.83 Y61.031 E.03821
G1 X56.595 Y61.051 E.00173
G1 X52.886 Y57.341 E.0384
G1 X52.631 Y57.341 E.00186
G1 X56.397 Y61.107 E.03899
G1 X56.201 Y61.165 E.0015
G1 X52.377 Y57.341 E.03959
G1 X52.123 Y57.341 E.00186
G1 X56.005 Y61.223 E.04019
G1 X55.803 Y61.275 E.00153
G1 X51.869 Y57.341 E.04072
G1 X51.615 Y57.341 E.00186
G1 X55.598 Y61.323 E.04123
G1 X55.392 Y61.372 E.00155
G1 X51.361 Y57.341 E.04173
G1 X51.107 Y57.341 E.00186
G1 X55.181 Y61.416 E.04218
G1 X54.96 Y61.448 E.00164
G1 X50.853 Y57.341 E.04252
G1 X50.599 Y57.341 E.00186
G1 X54.665 Y61.407 E.04209
G1 X54.249 Y61.245 E.00327
G1 X50.345 Y57.341 E.04041
G1 X50.091 Y57.341 E.00186
G1 X53.875 Y61.125 E.03918
G1 X53.71 Y61.093 E.00123
G1 X53.588 Y61.092 E.0009
G1 X49.836 Y57.341 E.03884
G1 X49.582 Y57.341 E.00186
G1 X53.332 Y61.09 E.03882
G1 X53.076 Y61.089 E.00187
G1 X49.328 Y57.341 E.0388
G1 X49.074 Y57.341 E.00186
G1 X52.82 Y61.087 E.03878
G1 X52.564 Y61.085 E.00187
G1 X48.82 Y57.341 E.03876
G1 X48.566 Y57.341 E.00186
G1 X52.308 Y61.083 E.03874
G1 X52.052 Y61.081 E.00187
G1 X48.312 Y57.341 E.03872
G1 X48.058 Y57.341 E.00186
G1 X51.808 Y61.091 E.03882
G1 X51.589 Y61.126 E.00163
G1 X47.804 Y57.341 E.03918
G1 X47.55 Y57.341 E.00186
G1 X51.369 Y61.16 E.03954
G1 X51.198 Y61.187 E.00127
G1 X51.135 Y61.18 E.00047
G1 X47.296 Y57.341 E.03974
G1 X47.042 Y57.341 E.00186
G1 X50.853 Y61.152 E.03946
G1 X50.588 Y61.142 E.00194
G1 X46.787 Y57.341 E.03935
G1 X46.533 Y57.341 E.00186
G1 X50.334 Y61.142 E.03935
G1 X50.082 Y61.143 E.00185
G1 X46.331 Y57.393 E.03883
G1 X46.331 Y57.647 E.00186
G1 X49.829 Y61.144 E.03621
G1 X49.719 Y61.145 E.0008
G1 X49.601 Y61.171 E.00089
G1 X46.331 Y57.901 E.03385
G1 X46.331 Y58.155 E.00186
G1 X49.393 Y61.217 E.0317
M73 P4 R13
G1 X49.201 Y61.279 E.00148
G1 X46.331 Y58.409 E.02971
G1 X46.331 Y58.663 E.00186
G1 X49.012 Y61.344 E.02776
G1 X48.823 Y61.41 E.00146
G1 X46.331 Y58.917 E.0258
G1 X46.331 Y59.171 E.00186
G1 X48.635 Y61.475 E.02385
G1 X48.431 Y61.525 E.00153
G1 X46.331 Y59.425 E.02174
G1 X46.331 Y59.679 E.00186
G1 X48.203 Y61.551 E.01938
G1 X47.96 Y61.563 E.00178
G1 X46.331 Y59.933 E.01686
G1 X46.331 Y60.188 E.00186
G1 X47.713 Y61.57 E.01431
G1 X47.449 Y61.559 E.00194
G1 X46.331 Y60.442 E.01157
G1 X46.331 Y60.696 E.00186
G1 X47.184 Y61.549 E.00883
G1 X46.887 Y61.506 E.00219
G1 X46.331 Y60.95 E.00576
G1 X46.331 Y61.204 E.00186
G1 X46.683 Y61.555 E.00364
; stop printing object LogoBoard.STL id:0 copy 0
EXCLUDE_OBJECT_END NAME=LogoBoard.STL_id_0_copy_0
M106 S255
;LAYER_CHANGE
;Z:0.2
;HEIGHT:0.1
;BEFORE_LAYER_CHANGE
;0.2
G92 E0

;AFTER_LAYER_CHANGE
;0.2
M204 S5000
M140 S60 ; set bed temperature
; printing object LogoBoard.STL id:0 copy 0
EXCLUDE_OBJECT_START NAME=LogoBoard.STL_id_0_copy_0
M204 S6000
G1 X45.859 Y62.046 Z.2 F21000
M204 S3000
;TYPE:Outer wall
;WIDTH:0.12
G1 F7200
G1 X45.8 Y62.163 E.00053
G1 X45.8 Y56.81 E.02149
G1 X74.2 Y56.81 E.11402
G1 X74.2 Y63.19 E.02561
G1 X73.686 Y63.19 E.00206
G1 X73.641 Y63.112 E.00036
G1 X73.526 Y63.052 E.00052
G1 X73.096 Y62.992 E.00174
G1 X72.562 Y62.833 E.00224
G1 X72.342 Y62.793 E.0009
G1 X72.051 Y62.807 E.00117
G1 X71.642 Y62.902 E.00169
G1 X71.542 Y62.892 E.0004
G1 X70.974 Y62.609 E.00255
G1 X70.816 Y62.574 E.00065
G1 X70.038 Y62.528 E.00313
G1 X69.711 Y62.45 E.00135
G1 X69.16 Y62.255 E.00235
G1 X68.572 Y61.961 E.00264
G1 X68.239 Y61.866 E.00139
G1 X67.684 Y61.724 E.0023
G1 X67.258 Y61.637 E.00175
G1 X66.83 Y61.615 E.00172
G1 X66.216 Y61.661 E.00247
G1 X65.262 Y61.796 E.00387
G1 X64.322 Y61.771 E.00377
G1 X63.454 Y61.696 E.0035
G1 X63.258 Y61.701 E.00079
G1 X63.118 Y61.727 E.00057
G1 X62.721 Y61.875 E.0017
G1 X62.532 Y61.89 E.00076
G1 X61.681 Y61.72 E.00348
G1 X61.216 Y61.668 E.00188
G1 X60.865 Y61.679 E.00141
G1 X60.568 Y61.728 E.00121
G1 X60.294 Y61.816 E.00116
G1 X59.81 Y62.056 E.00217
G1 X59.65 Y62.09 E.00066
G1 X59.379 Y62.06 E.00109
G1 X59.086 Y61.966 E.00124
G1 X58.558 Y61.753 E.00229
G1 X58.125 Y61.64 E.0018
G1 X57.533 Y61.569 E.00239
G1 X56.945 Y61.555 E.00236
G1 X56.683 Y61.576 E.00105
G1 X56.075 Y61.756 E.00255
G1 X55.48 Y61.897 E.00245
G1 X55.105 Y61.972 E.00153
G1 X54.892 Y61.983 E.00086
G1 X54.672 Y61.959 E.00089
G1 X54.471 Y61.904 E.00084
G1 X53.867 Y61.665 E.00261
G1 X53.657 Y61.624 E.00086
G1 X51.919 Y61.611 E.00698
G1 X51.209 Y61.723 E.00289
