; generated by SuperSlicer 2.5.59 on 2023-07-04 at 23:57:54 UTC


;
;

;
;
; 

; external perimeters extrusion width = 0.15mm
; perimeters extrusion width = 0.17mm
; infill extrusion width = 0.24mm
; solid infill extrusion width = 0.21mm
; top infill extrusion width = 0.15mm
; first layer extrusion width = 0.19mm

; external perimeters extrusion width = 0.15mm
; perimeters extrusion width = 0.17mm
; infill extrusion width = 0.24mm
; solid infill extrusion width = 0.21mm
; top infill extrusion width = 0.15mm
; first layer extrusion width = 0.19mm

; external perimeters extrusion width = 0.15mm
; perimeters extrusion width = 0.17mm
; infill extrusion width = 0.24mm
; solid infill extrusion width = 0.21mm
; top infill extrusion width = 0.15mm
; first layer extrusion width = 0.19mm

; object:{"name":"LogoMountains","id":"LogoMountains id:0 copy 0","object_center":[60.000001,46.387294,0.000000],"boundingbox_center":[60.000001,46.387294,2.264752],"boundingbox_size":[28.520000,7.612698,4.529505]}
EXCLUDE_OBJECT_DEFINE NAME=LogoMountains_id_0_copy_0 CENTER=60.000001,46.387294 POLYGON=[[45.739996,43.220104],[45.921632,43.008684],[45.949216,42.982040],[45.976796,42.962692],[46.007356,42.947640],[46.041528,42.936940],[46.077536,42.930992],[49.801116,42.693564],[51.900844,42.635412],[57.133968,42.580948],[66.755480,42.640072],[67.193152,42.652180],[67.629696,42.729904],[74.260000,44.131780],[74.260000,44.536156],[66.658724,49.117056],[64.604868,49.893060],[61.044296,50.193640],[55.719908,50.193640],[45.739996,43.891656],[45.739996,43.220104]]
; object:{"name":"LogoMountains","id":"LogoMountains id:1 copy 0","object_center":[60.000001,60.000010,0.000000],"boundingbox_center":[60.000001,60.000010,2.264752],"boundingbox_size":[28.520000,7.612698,4.529505]}
EXCLUDE_OBJECT_DEFINE NAME=LogoMountains_id_1_copy_0 CENTER=60.000001,60.000010 POLYGON=[[45.739996,56.832820],[45.921632,56.621400],[45.949216,56.594756],[45.976796,56.575408],[46.007356,56.560356],[46.041528,56.549656],[46.077536,56.543708],[49.801116,56.306284],[51.900844,56.248128],[57.133968,56.193664],[66.755480,56.252788],[67.193152,56.264896],[67.629696,56.342620],[74.260000,57.744496],[74.260000,58.148872],[66.658724,62.729772],[64.604868,63.505776],[61.044296,63.806360],[55.719908,63.806360],[45.739996,57.504372],[45.739996,56.832820]]
; object:{"name":"LogoMountains","id":"LogoMountains id:2 copy 0","object_center":[60.000000,73.612726,0.000000],"boundingbox_center":[60.000000,73.612726,2.264752],"boundingbox_size":[28.520000,7.612698,4.529505]}
EXCLUDE_OBJECT_DEFINE NAME=LogoMountains_id_2_copy_0 CENTER=60.000000,73.612726 POLYGON=[[45.739996,70.445536],[45.921632,70.234112],[45.949216,70.207464],[45.976796,70.188120],[46.007356,70.173064],[46.041528,70.162368],[46.077536,70.156416],[49.801116,69.918992],[51.900844,69.860840],[57.133968,69.806376],[66.755480,69.865504],[67.193152,69.877608],[67.629696,69.955336],[74.260000,71.357208],[74.260000,71.761584],[66.658724,76.342480],[64.604868,77.118496],[61.044296,77.419072],[55.719908,77.419072],[45.739996,71.117080],[45.739996,70.445536]]
; plater:{"center":[60.000000,60.000010,0.000000],"boundingbox_center":[60.000000,60.000010,2.264752],"boundingbox_size":[28.520001,34.838130,4.529505]}

M73 P0 R30
M73 P0 R30
;TYPE:Custom
; custom gcode: start_gcode
START_PRINT T_BED=60 T_EXTRUDER=210
; custom gcode end: start_gcode
M107
G21 ; set units to millimeters
G90 ; use absolute coordinates
M82 ; use absolute distances for extrusion
G92 E0
; custom gcode: start_filament_gcode
; Filament gcode

    PRESSURE_ADVANCE_SELECT FILAMENT=PLA
; custom gcode end: start_filament_gcode
;_TOOLCHANGE 0
M109 S210 ; set temperature and wait for it to be reached
M190 S60 ; set bed temperature and wait for it to be reached
;LAYER_CHANGE
;Z:0.1
;HEIGHT:0.1
G1 Z0.1 F12000
M73 P0 R30
M73 P0 R30
G1 E-0.8 F2400
M204 S2000
G1 X43.938 Y40.548 F12000
G1 E0 F1800
;TYPE:Skirt
;WIDTH:0.195
G1 X43.257 Y41.309 E0.00737
G1 X43.1 Y41.554 E0.00947
G1 X42.58 Y43.32 E0.02275
G1 X42.58 Y71.017 E0.22258
G1 X42.991 Y72.602 E0.2344
G1 X44.09 Y73.768 E0.24596
G1 X53.961 Y80.045 E0.33035
G1 X55.712 Y80.554 E0.34351
G1 X61.213 Y80.546 E0.3832
G1 X62.312 Y80.486 E0.39114
G1 X64.89 Y80.257 E0.40982
G1 X65.77 Y80.053 E0.41634
G1 X67.834 Y79.261 E0.43229
G1 X68.344 Y79.013 E0.43638
G1 X75.867 Y74.497 E0.49968
G1 X77.055 Y73.256 E0.51208
G1 X77.449 Y71.702 E0.52365
G1 X77.449 Y44.191 E0.72214
G1 X77.225 Y43.004 E0.73085
G1 X76.292 Y41.701 E0.74241
G1 X74.851 Y41 E0.75398
G1 X68.18 Y39.618 E0.80313
G1 X67.273 Y39.493 E0.80973
G1 X66.778 Y39.48 E0.8133
G1 X57.153 Y39.421 E0.88275
G1 X51.875 Y39.475 E0.92084
G1 X49.602 Y39.54 E0.93724
G1 X45.88 Y39.779 E0.96415
G1 X45.047 Y39.942 E0.97027
G1 X43.938 Y40.548 E0.97939
G1 X44.049 Y40.681 F12000
G1 F1800
G1 X43.403 Y41.403 E0.98638
G1 X43.246 Y41.648 E0.98848
G1 X42.753 Y43.32 E1.00106
G1 X42.753 Y71.017 E1.20089
G1 X43.122 Y72.48 E1.21178
G1 X44.184 Y73.622 E1.22302
G1 X54.054 Y79.898 E1.30742
G1 X55.712 Y80.381 E1.31988
G1 X61.04 Y80.378 E1.35832
G1 X62.297 Y80.313 E1.3674
G1 X64.875 Y80.084 E1.38607
G1 X65.708 Y79.891 E1.39224
G1 X67.772 Y79.099 E1.40819
G1 X68.255 Y78.864 E1.41207
G1 X75.777 Y74.349 E1.47537
G1 X76.882 Y73.21 E1.48681
G1 X77.275 Y71.702 E1.49806
G1 X77.275 Y44.191 E1.69655
G1 X77.093 Y43.147 E1.70419
G1 X76.212 Y41.862 E1.71544
G1 X74.815 Y41.17 E1.72668
G1 X68.15 Y39.789 E1.7758
G1 X67.268 Y39.666 E1.78222
G1 X66.777 Y39.653 E1.78576
G1 X57.152 Y39.594 E1.85521
G1 X51.876 Y39.649 E1.89328
G1 X49.613 Y39.713 E1.90961
G1 X45.892 Y39.952 E1.93652
G1 X45.099 Y40.108 E1.94234
G1 X44.049 Y40.681 E1.95098
G92 E0
G1 E-0.8 F2400
; printing object LogoMountains id:0 copy 0
EXCLUDE_OBJECT_START NAME=LogoMountains_id_0_copy_0
G1 X64.511 Y48.247 F12000
G1 E0 F1800
;TYPE:Internal perimeter
;WIDTH:0.1875
G1 X64.618 Y48.245 E0.00074
G1 X64.842 Y47.104 E0.00876
G1 X66.685 Y48.668 E0.02545
G1 X69.96 Y46.496 E0.05258
G1 X72.731 Y44.735 E0.07524
G1 X73.3 Y44.419 E0.07973
G1 X73.28 Y44.319 E0.08044
G1 X73.071 Y44.306 E0.08188
G1 X72.4 Y44.131 E0.08667
G1 X72.279 Y44.116 E0.08751
G1 X72.077 Y44.136 E0.08891
G1 X71.772 Y44.213 E0.09108
G1 X71.451 Y44.208 E0.0933
G1 X71.223 Y44.118 E0.09499
G1 X70.828 Y43.92 E0.09804
G1 X70.045 Y43.872 E0.10346
G1 X69.703 Y43.806 E0.10586
G1 X69.04 Y43.591 E0.11067
G1 X68.442 Y43.308 E0.11524
G1 X67.554 Y43.082 E0.12157
G1 X67.156 Y43.011 E0.12435
G1 X66.765 Y43 E0.12705
G1 X66.108 Y43.054 E0.13161
G1 X65.508 Y43.15 E0.1358
G1 X65.144 Y43.171 E0.13832
G1 X63.979 Y43.131 E0.14636
G1 X63.463 Y43.076 E0.14995
G1 X63.31 Y43.078 E0.151
G1 X62.861 Y43.224 E0.15427
G1 X62.588 Y43.263 E0.15617
G1 X62.393 Y43.249 E0.15752
G1 X61.672 Y43.1 E0.1626
G1 X61.232 Y43.05 E0.16566
G1 X60.932 Y43.055 E0.16773
G1 X60.682 Y43.091 E0.16947
G1 X60.494 Y43.144 E0.17082
G1 X59.996 Y43.378 E0.17462
G1 X59.827 Y43.431 E0.17584
G1 X59.563 Y43.452 E0.17767
G1 X59.342 Y43.423 E0.1792
G1 X59.029 Y43.338 E0.18144
G1 X58.591 Y43.168 E0.18469
G1 X58.202 Y43.047 E0.1875
G1 X57.714 Y42.97 E0.19091
G1 X57.214 Y42.945 E0.19437
G1 X57.212 Y43.111 E0.19551
G1 X57.697 Y43.135 E0.19886
G1 X58.164 Y43.209 E0.20213
G1 X58.537 Y43.325 E0.20482
G1 X58.977 Y43.496 E0.20808
G1 X59.309 Y43.587 E0.21046
G1 X59.558 Y43.619 E0.21219
G1 X59.858 Y43.595 E0.21427
G1 X60.056 Y43.533 E0.2157
G1 X60.552 Y43.3 E0.21948
G1 X60.716 Y43.254 E0.22066
G1 X60.945 Y43.221 E0.22226
G1 X61.224 Y43.216 E0.22418
G1 X61.645 Y43.265 E0.22711
G1 X62.37 Y43.414 E0.23222
G1 X62.594 Y43.43 E0.23377
G1 X62.898 Y43.387 E0.23589
G1 X63.337 Y43.244 E0.23908
G1 X63.968 Y43.297 E0.24344
G1 X65.146 Y43.338 E0.25158
G1 X65.525 Y43.315 E0.25421
G1 X66.128 Y43.219 E0.25842
G1 X66.77 Y43.166 E0.26286
G1 X67.14 Y43.177 E0.26542
G1 X67.519 Y43.244 E0.26807
G1 X68.385 Y43.465 E0.27425
G1 X68.979 Y43.746 E0.27878
G1 X69.662 Y43.967 E0.28374
G1 X70.024 Y44.037 E0.28628
G1 X70.784 Y44.084 E0.29154
G1 X71.155 Y44.269 E0.2944
G1 X71.418 Y44.374 E0.29635
G1 X71.792 Y44.379 E0.29894
G1 X72.105 Y44.3 E0.30117
G1 X72.277 Y44.283 E0.30236
G1 X72.922 Y44.439 E0.30694
G1 X72.646 Y44.593 E0.30913
G1 X69.869 Y46.356 E0.33183
G1 X66.697 Y48.46 E0.35811
G1 X64.733 Y46.794 E0.37589
G1 X64.6 Y47.473 E0.38066
G1 X64.493 Y47.475 E0.3814
G1 X64.456 Y47.322 E0.38248
G1 X62.02 Y48.676 E0.40173
G1 X61.021 Y49.522 E0.41076
G1 X58.103 Y47.363 E0.43582
G1 X55.668 Y49.535 E0.45834
G1 X46.519 Y43.637 E0.53349
G1 X46.557 Y43.536 E0.53423
G1 X47.34 Y43.621 E0.53966
G1 X48.019 Y43.622 E0.54435
G1 X48.481 Y43.593 E0.54754
G1 X48.855 Y43.527 E0.55017
G1 X49.697 Y43.249 E0.55629
G1 X49.852 Y43.219 E0.55738
G1 X50.652 Y43.217 E0.5629
G1 X51.223 Y43.271 E0.56686
G1 X51.941 Y43.161 E0.57187
G1 X53.558 Y43.167 E0.58304
G1 X53.698 Y43.189 E0.58401
G1 X54.254 Y43.399 E0.58812
G1 X54.528 Y43.476 E0.59008
G1 X54.815 Y43.513 E0.59208
G1 X55.125 Y43.507 E0.59422
G1 X56.188 Y43.288 E0.60171
G1 X56.722 Y43.134 E0.60555
G1 X56.746 Y43.306 E0.60675
G1 X56.227 Y43.45 E0.61047
G1 X55.143 Y43.673 E0.6181
G1 X54.806 Y43.679 E0.62043
G1 X54.495 Y43.639 E0.62259
G1 X54.203 Y43.556 E0.62469
G1 X53.655 Y43.351 E0.62873
G1 X53.544 Y43.333 E0.6295
G1 X51.953 Y43.327 E0.64049
G1 X51.228 Y43.438 E0.64555
G1 X50.644 Y43.383 E0.6496
G1 X49.867 Y43.385 E0.65496
G1 X49.739 Y43.41 E0.65587
G1 X48.896 Y43.689 E0.66199
G1 X48.501 Y43.758 E0.66476
G1 X48.024 Y43.788 E0.66806
G1 X47.23 Y43.776 E0.67354
G1 X47.195 Y43.875 E0.67427
G1 X55.652 Y49.327 E0.74373
M73 P1 R30
G1 X58.093 Y47.15 E0.76631
G1 X61.014 Y49.311 E0.79139
G1 X61.925 Y48.539 E0.79963
G1 X64.503 Y47.106 E0.81999
G1 X64.625 Y46.484 E0.82437
G1 X66.71 Y48.253 E0.84324
G1 X69.779 Y46.217 E0.86866
G1 X72.478 Y44.502 E0.89074
G1 X72.265 Y44.451 E0.89225
G1 X72.134 Y44.464 E0.89316
G1 X71.811 Y44.546 E0.89546
G1 X71.385 Y44.539 E0.8984
G1 X71.087 Y44.421 E0.90061
G1 X70.74 Y44.247 E0.90329
G1 X70.003 Y44.202 E0.90839
G1 X69.621 Y44.128 E0.91108
G1 X68.918 Y43.901 E0.91618
G1 X68.328 Y43.622 E0.92068
G1 X67.483 Y43.407 E0.9267
G1 X67.123 Y43.342 E0.92923
G1 X66.774 Y43.333 E0.93163
G1 X66.148 Y43.384 E0.93597
G1 X65.543 Y43.48 E0.9402
G1 X65.148 Y43.504 E0.94293
G1 X63.958 Y43.462 E0.95115
G1 X63.357 Y43.412 E0.95531
G1 X62.936 Y43.549 E0.95837
G1 X62.6 Y43.596 E0.96071
G1 X62.348 Y43.579 E0.96246
G1 X61.619 Y43.429 E0.96759
G1 X61.215 Y43.383 E0.9704
G1 X60.958 Y43.386 E0.97217
G1 X60.61 Y43.456 E0.97463
G1 X60.116 Y43.688 E0.97839
G1 X59.89 Y43.759 E0.98003
G1 X59.554 Y43.785 E0.98235
G1 X59.277 Y43.75 E0.98428
G1 X58.925 Y43.654 E0.9868
G1 X58.482 Y43.482 E0.99008
G1 X58.127 Y43.371 E0.99265
G1 X57.68 Y43.301 E0.99577
G1 X56.909 Y43.284 E1.0011
G1 X56.886 Y43.115 E1.00228
G1 X57.047 Y43.11 E1.00338
G1 X57.048 Y42.944 E1.00453
G1 X56.784 Y42.952 E1.00635
G1 X56.614 Y42.986 E1.00755
G1 X56.147 Y43.127 E1.01092
G1 X55.106 Y43.341 E1.01825
G1 X54.824 Y43.346 E1.0202
G1 X54.561 Y43.313 E1.02203
G1 X54.306 Y43.241 E1.02386
G1 X53.741 Y43.028 E1.02803
G1 X53.572 Y43.001 E1.02921
G1 X51.928 Y42.995 E1.04056
G1 X51.219 Y43.104 E1.04551
G1 X50.659 Y43.051 E1.04939
G1 X49.836 Y43.053 E1.05508
G1 X49.655 Y43.088 E1.05635
G1 X48.814 Y43.366 E1.06246
G1 X48.461 Y43.428 E1.06494
G1 X48.014 Y43.456 E1.06803
G1 X47.348 Y43.455 E1.07262
G1 X46.765 Y43.4 E1.07667
G1 X46.183 Y43.31 E1.08073
G1 X46.139 Y43.496 E1.08206
;WIDTH:0.126948
G1 X45.934 Y43.682 E1.08335
;TYPE:External perimeter
;WIDTH:0.1875
G1 X45.934 Y43.414 E1.0852
G1 X45.988 Y43.414 E1.08558
G1 X46.042 Y43.183 E1.08721
G1 X46.096 Y43.128 E1.08774
G1 X46.785 Y43.236 E1.09256
G1 X47.356 Y43.289 E1.09651
G1 X48.009 Y43.29 E1.10102
G1 X48.441 Y43.263 E1.10401
G1 X48.774 Y43.204 E1.10634
G1 X49.613 Y42.927 E1.11245
G1 X49.82 Y42.887 E1.1139
G1 X50.667 Y42.885 E1.11974
G1 X51.214 Y42.937 E1.12354
G1 X51.916 Y42.829 E1.12844
G1 X53.206 Y42.827 E1.13735
G1 X53.587 Y42.835 E1.13998
G1 X53.784 Y42.867 E1.14135
G1 X54.358 Y43.083 E1.14559
G1 X54.595 Y43.149 E1.14728
G1 X54.833 Y43.18 E1.14894
G1 X55.088 Y43.176 E1.1507
G1 X56.106 Y42.966 E1.15788
G1 X56.573 Y42.825 E1.16125
G1 X56.765 Y42.787 E1.1626
G1 X57.132 Y42.775 E1.16514
G1 X57.433 Y42.79 E1.16721
G1 X57.731 Y42.804 E1.16927
G1 X58.24 Y42.885 E1.17283
G1 X58.646 Y43.011 E1.17577
G1 X59.081 Y43.18 E1.17899
G1 X59.375 Y43.26 E1.18109
G1 X59.567 Y43.285 E1.18242
G1 X59.795 Y43.267 E1.184
G1 X59.935 Y43.223 E1.18502
G1 X60.436 Y42.988 E1.18884
G1 X60.647 Y42.929 E1.19035
G1 X60.918 Y42.889 E1.19224
G1 X61.24 Y42.884 E1.19446
G1 X61.698 Y42.936 E1.19765
G1 X62.415 Y43.084 E1.2027
G1 X62.582 Y43.096 E1.20386
G1 X62.82 Y43.062 E1.20552
G1 X63.195 Y42.928 E1.20827
G1 X63.297 Y42.912 E1.20898
G1 X63.471 Y42.91 E1.21018
G1 X63.991 Y42.965 E1.21379
G1 X65.142 Y43.005 E1.22174
G1 X65.49 Y42.985 E1.22414
G1 X66.088 Y42.889 E1.22833
G1 X66.761 Y42.834 E1.23299
G1 X67.173 Y42.845 E1.23584
G1 X67.589 Y42.919 E1.23875
G1 X68.498 Y43.151 E1.24523
G1 X69.102 Y43.437 E1.24984
G1 X69.745 Y43.645 E1.2545
G1 X70.064 Y43.706 E1.25675
G1 X70.738 Y43.736 E1.26141
G1 X70.868 Y43.758 E1.26231
G1 X70.972 Y43.792 E1.26307
G1 X71.293 Y43.967 E1.26559
G1 X71.484 Y44.043 E1.26701
G1 X71.753 Y44.047 E1.26887
G1 X72.048 Y43.972 E1.27097
G1 X72.281 Y43.949 E1.27259
G1 X72.431 Y43.968 E1.27363
G1 X73.098 Y44.142 E1.27838
G1 X73.452 Y44.164 E1.28084
G1 X73.519 Y44.185 E1.28132
G1 X73.606 Y44.253 E1.28208
G1 X73.949 Y44.251 E1.28445
G1 X74.095 Y44.273 E1.28547
G1 X74.095 Y44.397 E1.28632
G1 X73.975 Y44.417 E1.28716
G1 X73.676 Y44.417 E1.28923
G1 X73.226 Y44.641 E1.2927
G1 X72.817 Y44.877 E1.29596
G1 X70.05 Y46.635 E1.31859
G1 X66.673 Y48.875 E1.34656
G1 X64.95 Y47.414 E1.36216
G1 X64.72 Y48.589 E1.37043
G1 X64.607 Y49.443 E1.37638
G1 X64.581 Y49.446 E1.37656
G1 X64.573 Y49.423 E1.37672
G1 X64.406 Y48.516 E1.38309
G1 X64.237 Y47.826 E1.388
G1 X62.279 Y48.924 E1.4035
G1 X62.151 Y49.357 E1.40662
G1 X62.069 Y49.721 E1.40919
G1 X62.026 Y49.805 E1.40985
G1 X61.917 Y49.198 E1.4141
G1 X61.035 Y49.946 E1.42209
G1 X58.122 Y47.791 E1.4471
G1 X55.701 Y49.951 E1.4695
G1 X46.071 Y43.743 E1.54859
;TYPE:Internal perimeter
G1 X46.19 Y43.622 E1.54976
G1 X55.685 Y49.743 E1.62775
G1 X58.112 Y47.577 E1.6502
G1 X61.028 Y49.734 E1.67524
G1 X62.076 Y48.846 E1.68473
G1 X62.128 Y48.849 E1.68508
G1 X62.139 Y48.812 E1.68535
G1 X64.347 Y47.574 E1.70282
G1 X64.511 Y48.247 E1.70761
G1 X64.566 Y48.322 F12000
;TYPE:Gap fill
;WIDTH:0.239688
G1 F1800
G1 X64.57 Y48.484 E1.70907
;WIDTH:0.187731
G1 X64.569 Y48.567 E1.70964
;WIDTH:0.147783
G1 X64.574 Y48.751 E1.71061
;WIDTH:0.082093
G1 X64.579 Y48.935 E1.71108
;WIDTH:0.039582
G1 X64.579 Y48.953 E1.71109
G1 X64.56 Y48.068 F12000
;WIDTH:0.040087
G1 F1800
G1 X64.559 Y48.014 E1.71113
;WIDTH:0.108647
G1 X64.555 Y47.834 E1.71179
;WIDTH:0.193958
G1 X64.551 Y47.653 E1.71308
;WIDTH:0.253291
G1 X64.549 Y47.55 E1.71408
G1 X62.122 Y48.925 F12000
;WIDTH:0.14764
G1 F1800
G1 X62.063 Y49.073 E1.71492
G1 X62.052 Y49.265 E1.71592
;WIDTH:0.076434
G1 X62.047 Y49.407 E1.71625
G92 E0
G1 E-0.8 F2400
G1 X71.378 Y44.59 F12000
G1 E0 F1800
;TYPE:Solid infill
;WIDTH:0.196559
G1 F2400
G1 X71.723 Y44.934 E0.00352
G1 X71.58 Y45.027 F12000
G1 F2400
G1 X70.951 Y44.398 E0.00996
G1 X70.601 Y44.283 F12000
G1 F2400
G1 X71.438 Y45.119 E0.01852
G1 X71.296 Y45.212 F12000
G1 F2400
G1 X70.339 Y44.255 E0.02832
G1 X70.076 Y44.227 F12000
G1 F2400
G1 X71.153 Y45.304 E0.03935
G1 X71.011 Y45.397 F12000
G1 F2400
G1 X69.813 Y44.199 E0.05161
G1 X69.523 Y44.144 F12000
G1 F2400
G1 X70.869 Y45.489 E0.06538
G1 X70.726 Y45.582 F12000
G1 F2400
G1 X69.137 Y43.992 E0.08165
G1 X68.751 Y43.841 F12000
G1 F2400
G1 X70.584 Y45.674 E0.10041
G1 X70.442 Y45.767 F12000
G1 F2400
G1 X68.364 Y43.689 E0.12168
G1 X68.048 Y43.608 F12000
G1 F2400
G1 X70.3 Y45.859 E0.14472
G1 X70.157 Y45.952 F12000
G1 F2400
G1 X67.742 Y43.537 E0.16943
G1 X67.437 Y43.466 F12000
G1 F2400
G1 X70.015 Y46.044 E0.19582
G1 X69.873 Y46.137 F12000
G1 F2400
G1 X67.131 Y43.395 E0.22387
G1 X66.911 Y43.41 F12000
G1 F2400
G1 X69.73 Y46.229 E0.25273
G1 X69.588 Y46.322 F12000
G1 F2400
G1 X66.694 Y43.427 E0.28236
G1 X66.476 Y43.445 F12000
G1 F2400
G1 X69.446 Y46.415 E0.31274
G1 X69.304 Y46.507 F12000
G1 F2400
