; HEADER_BLOCK_START
; generated by OrcaSlicer 1.6.4-beta3 on 2023-08-18 at 20:37:26
; total layer number: 15
; HEADER_BLOCK_END

; THUMBNAIL_BLOCK_START
; THUMBNAIL_BLOCK_END

; external perimeters extrusion width = 0.40mm
; perimeters extrusion width = 0.46mm
; infill extrusion width = 0.64mm
; solid infill extrusion width = 0.56mm
; top infill extrusion width = 0.40mm
; first layer extrusion width = 0.50mm

; external perimeters extrusion width = 0.40mm
; perimeters extrusion width = 0.46mm
; infill extrusion width = 0.64mm
; solid infill extrusion width = 0.56mm
; top infill extrusion width = 0.40mm
; first layer extrusion width = 0.50mm

; external perimeters extrusion width = 0.40mm
; perimeters extrusion width = 0.46mm
; infill extrusion width = 0.64mm
; solid infill extrusion width = 0.56mm
; top infill extrusion width = 0.40mm
; first layer extrusion width = 0.50mm

; external perimeters extrusion width = 0.40mm
; perimeters extrusion width = 0.46mm
; infill extrusion width = 0.64mm
; solid infill extrusion width = 0.56mm
; top infill extrusion width = 0.40mm
; first layer extrusion width = 0.50mm

; EXECUTABLE_BLOCK_START
EXCLUDE_OBJECT_DEFINE NAME=LogoBase-80p.STL_id_0_copy_0 CENTER=77.638,72.5091 POLYGON=[[62.5,62.5],[92.7759,62.5],[92.7759,82.4976],[62.5,82.5183],[62.5,62.5]]
EXCLUDE_OBJECT_DEFINE NAME=LogoBase-80p.STL_id_1_copy_0 CENTER=77.638,47.4902 POLYGON=[[62.5,37.481],[92.7759,37.481],[92.7759,57.4786],[62.5,57.4993],[62.5,37.481]]
EXCLUDE_OBJECT_DEFINE NAME=LogoBase-80p.STL_id_2_copy_0 CENTER=42.362,47.4902 POLYGON=[[27.2241,37.481],[57.5,37.481],[57.5,57.4786],[27.2241,57.4993],[27.2241,37.481]]
EXCLUDE_OBJECT_DEFINE NAME=LogoBase-80p.STL_id_3_copy_0 CENTER=42.362,72.5091 POLYGON=[[27.2241,62.5],[57.5,62.5],[57.5,82.4976],[27.2241,82.5183],[27.2241,62.5]]
M73 P0 R11
;TYPE:Custom
START_PRINT T_BED=60 T_EXTRUDER=220
G90
G21
M83 ; use relative distances for extrusion
; filament start gcode

    PRESSURE_ADVANCE_SELECT FILAMENT=PLA
M106 S0
;LAYER_CHANGE
;Z:0.2
;HEIGHT:0.2
;BEFORE_LAYER_CHANGE
;0.2
G92 E0

;AFTER_LAYER_CHANGE
;0.2
SET_VELOCITY_LIMIT ACCEL=1000 ACCEL_TO_DECEL=500
SET_VELOCITY_LIMIT SQUARE_CORNER_VELOCITY=9
G1 E-.8 F3000
G1 Z.2 F21000
G1 X25.776 Y34.952
G1 Z.2
G1 E.8 F1800
;TYPE:Skirt
;WIDTH:0.5
G1 F3000
G1 X27.224 Y34.567 E.0558
G1 X92.776 Y34.567 E2.44156
G1 X94.238 Y34.96 E.05638
G1 X95.305 Y36.033 E.05638
G1 X95.69 Y37.481 E.0558
G1 X95.69 Y82.498 E1.6767
G1 X95.297 Y83.959 E.05638
G1 X94.224 Y85.027 E.05638
G1 X92.778 Y85.412 E.05572
G1 X27.224 Y85.432 E2.44163
G1 X25.762 Y85.039 E.05638
G1 X24.695 Y83.966 E.05638
G1 X24.31 Y82.518 E.0558
G1 X24.31 Y37.481 E1.67747
G1 X24.703 Y36.019 E.05638
G1 X25.748 Y34.98 E.05489
G1 X26.075 Y35.359 F21000
G1 F3000
G1 X26.209 Y35.243 E.00661
G1 X27.224 Y35.024 E.03866
G1 X92.776 Y35.024 E2.44156
G1 X94.107 Y35.416 E.05169
M73 P1 R11
G1 X95.014 Y36.466 E.05169
G1 X95.233 Y37.481 E.03866
G1 X95.233 Y82.498 E1.6767
G1 X94.841 Y83.829 E.05169
G1 X93.791 Y84.735 E.05169
G1 X92.778 Y84.955 E.0386
G1 X27.224 Y84.975 E2.44162
G1 X25.893 Y84.584 E.05169
G1 X24.986 Y83.533 E.05169
G1 X24.767 Y82.518 E.03866
G1 X24.767 Y37.481 E1.67747
G1 X25.159 Y36.15 E.05169
G1 X26.045 Y35.385 E.04359
; printing object LogoBase-80p.STL id:3 copy 0
G1 E-.8
EXCLUDE_OBJECT_START NAME=LogoBase-80p.STL_id_3_copy_0
G1 Z.4 F21000
G1 X57.15 Y62.85 Z.4
G1 Z.2
G1 E.8 F1800
;TYPE:Outer wall
G1 F3000
G1 X57.15 Y82.148 E.71877
G1 X27.574 Y82.168 E1.10159
G1 X27.574 Y62.85 E.71952
G1 X57.11 Y62.85 E1.1001
G1 X56.65 Y63.35 F21000
;TYPE:Inner wall
G1 F3000
G1 X56.65 Y81.648 E.68154
G1 X28.074 Y81.668 E1.06434
M73 P2 R11
G1 X28.074 Y63.35 E.68226
G1 X56.61 Y63.35 E1.06285
G1 X56.193 Y63.807 F21000
G1 F3000
G1 X56.193 Y81.191 E.6475
G1 X28.531 Y81.21 E1.0303
G1 X28.531 Y63.807 E.6482
G1 X56.153 Y63.807 E1.02881
G1 X55.736 Y64.264 F21000
G1 F3000
G1 X55.736 Y80.735 E.61346
G1 X28.988 Y80.753 E.99625
G1 X28.988 Y64.264 E.61414
G1 X55.696 Y64.264 E.99476
G1 X55.279 Y64.721 F21000
G1 F3000
G1 X55.279 Y80.278 E.57942
G1 X29.445 Y80.296 E.9622
G1 X29.445 Y64.721 E.58008
G1 X55.239 Y64.721 E.96071
M73 P3 R11
G1 E-.8
G1 Z.4 F21000
G1 X55.142 Y65.788 Z.4
G1 Z.2
G1 E.8 F1800
;TYPE:Internal solid infill
;WIDTH:0.502546
G1 F3000
G1 X54.418 Y65.064 E.03833
G1 X53.768 Y65.064 E.02435
G1 X54.936 Y66.232 E.06187
G1 X54.936 Y66.882 E.02435
G1 X53.118 Y65.064 E.0963
G1 X52.468 Y65.064 E.02435
G1 X54.936 Y67.532 E.13073
G1 X54.936 Y68.182 E.02435
G1 X51.818 Y65.064 E.16515
G1 X51.168 Y65.064 E.02435
G1 X54.936 Y68.832 E.19958
G1 X54.936 Y69.482 E.02435
G1 X50.518 Y65.064 E.23401
G1 X49.868 Y65.064 E.02435
G1 X54.936 Y70.132 E.26844
G1 X54.936 Y70.782 E.02435
G1 X49.218 Y65.064 E.30287
G1 X48.568 Y65.064 E.02435
G1 X54.936 Y71.432 E.3373
G1 X54.936 Y72.082 E.02435
G1 X47.918 Y65.064 E.37173
G1 X47.268 Y65.064 E.02435
G1 X54.936 Y72.732 E.40616
G1 X54.936 Y73.382 E.02435
G1 X46.618 Y65.064 E.44059
G1 X45.968 Y65.064 E.02435
G1 X54.936 Y74.032 E.47502
G1 X54.936 Y74.682 E.02435
G1 X45.318 Y65.064 E.50945
G1 X44.668 Y65.064 E.02435
G1 X54.936 Y75.332 E.54388
G1 X54.936 Y75.982 E.02435
G1 X44.018 Y65.064 E.57831
G1 X43.368 Y65.064 E.02435
G1 X54.936 Y76.632 E.61274
G1 X54.936 Y77.282 E.02435
G1 X42.718 Y65.064 E.64717
G1 X42.068 Y65.064 E.02435
G1 X54.936 Y77.932 E.6816
G1 X54.936 Y78.582 E.02435
G1 X41.418 Y65.064 E.71603
G1 X40.768 Y65.064 E.02435
G1 X54.936 Y79.232 E.75045
G1 X54.936 Y79.882 E.02435
G1 X40.118 Y65.064 E.78488
G1 X39.468 Y65.064 E.02435
G1 X54.339 Y79.936 E.78771
M73 P4 R11
G1 X53.69 Y79.936 E.02433
G1 X38.818 Y65.064 E.78774
G1 X38.168 Y65.064 E.02435
G1 X53.04 Y79.937 E.78776
G1 X52.391 Y79.937 E.02433
G1 X37.518 Y65.064 E.78779
G1 X36.868 Y65.064 E.02435
G1 X51.741 Y79.937 E.78781
G1 X51.092 Y79.938 E.02433
G1 X36.218 Y65.064 E.78783
G1 X35.568 Y65.064 E.02435
G1 X50.442 Y79.938 E.78786
G1 X49.792 Y79.939 E.02433
G1 X34.918 Y65.064 E.78788
M73 P4 R10
G1 X34.268 Y65.064 E.02435
G1 X49.143 Y79.939 E.7879
G1 X48.493 Y79.94 E.02433
G1 X33.618 Y65.064 E.78793
G1 X32.968 Y65.064 E.02435
G1 X47.844 Y79.94 E.78795
G1 X47.194 Y79.941 E.02433
G1 X32.318 Y65.064 E.78797
G1 X31.668 Y65.064 E.02435
G1 X46.545 Y79.941 E.788
G1 X45.895 Y79.941 E.02433
G1 X31.018 Y65.064 E.78802
G1 X30.368 Y65.064 E.02435
G1 X45.246 Y79.942 E.78804
M73 P5 R10
G1 X44.596 Y79.942 E.02433
G1 X29.788 Y65.135 E.78433
G1 X29.788 Y65.785 E.02435
G1 X43.946 Y79.943 E.74993
G1 X43.297 Y79.943 E.02433
G1 X29.788 Y66.435 E.71552
G1 X29.788 Y67.085 E.02435
G1 X42.647 Y79.944 E.68112
G1 X41.998 Y79.944 E.02433
G1 X29.788 Y67.735 E.64671
G1 X29.788 Y68.385 E.02435
G1 X41.348 Y79.945 E.6123
G1 X40.699 Y79.945 E.02433
G1 X29.788 Y69.035 E.5779
G1 X29.788 Y69.685 E.02435
G1 X40.049 Y79.945 E.54349
G1 X39.399 Y79.946 E.02433
G1 X29.788 Y70.335 E.50909
G1 X29.788 Y70.985 E.02435
G1 X38.75 Y79.946 E.47468
G1 X38.1 Y79.947 E.02433
G1 X29.788 Y71.635 E.44027
G1 X29.788 Y72.285 E.02435
G1 X37.451 Y79.947 E.40587
G1 X36.801 Y79.948 E.02433
G1 X29.788 Y72.935 E.37146
G1 X29.788 Y73.585 E.02435
G1 X36.152 Y79.948 E.33706
G1 X35.502 Y79.949 E.02433
G1 X29.788 Y74.235 E.30265
G1 X29.788 Y74.885 E.02435
G1 X34.852 Y79.949 E.26825
G1 X34.203 Y79.949 E.02433
G1 X29.788 Y75.535 E.23384
G1 X29.788 Y76.185 E.02435
G1 X33.553 Y79.95 E.19943
G1 X32.904 Y79.95 E.02433
G1 X29.788 Y76.835 E.16503
G1 X29.788 Y77.485 E.02435
G1 X32.254 Y79.951 E.13062
G1 X31.605 Y79.951 E.02433
G1 X29.788 Y78.135 E.09622
G1 X29.788 Y78.785 E.02435
G1 X30.955 Y79.952 E.06181
G1 X30.306 Y79.952 E.02433
G1 X29.582 Y79.229 E.0383
; stop printing object LogoBase-80p.STL id:3 copy 0
; printing object LogoBase-80p.STL id:2 copy 0
G1 E-.8
EXCLUDE_OBJECT_END NAME=LogoBase-80p.STL_id_3_copy_0
EXCLUDE_OBJECT_START NAME=LogoBase-80p.STL_id_2_copy_0
G1 Z.4 F21000
G1 X57.15 Y37.831 Z.4
M73 P6 R10
G1 Z.2
G1 E.8 F1800
;TYPE:Outer wall
;WIDTH:0.5
G1 F3000
G1 X57.15 Y57.129 E.71877
G1 X27.574 Y57.149 E1.10159
G1 X27.574 Y37.831 E.71952
G1 X57.11 Y37.831 E1.1001
G1 X56.65 Y38.331 F21000
;TYPE:Inner wall
G1 F3000
G1 X56.65 Y56.629 E.68154
G1 X28.074 Y56.649 E1.06434
G1 X28.074 Y38.331 E.68226
G1 X56.61 Y38.331 E1.06285
G1 X56.193 Y38.788 F21000
G1 F3000
G1 X56.193 Y56.172 E.6475
G1 X28.531 Y56.191 E1.0303
G1 X28.531 Y38.788 E.6482
G1 X56.153 Y38.788 E1.02881
G1 X55.736 Y39.245 F21000
G1 F3000
G1 X55.736 Y55.716 E.61346
G1 X28.988 Y55.734 E.99625
M73 P7 R10
G1 X28.988 Y39.245 E.61414
G1 X55.696 Y39.245 E.99476
G1 X55.279 Y39.702 F21000
G1 F3000
G1 X55.279 Y55.259 E.57942
G1 X29.445 Y55.277 E.9622
G1 X29.445 Y39.702 E.58008
G1 X55.239 Y39.702 E.96071
G1 E-.8
G1 Z.4 F21000
G1 X55.142 Y40.769 Z.4
G1 Z.2
G1 E.8 F1800
;TYPE:Internal solid infill
;WIDTH:0.502546
G1 F3000
G1 X54.418 Y40.045 E.03833
G1 X53.768 Y40.045 E.02435
G1 X54.936 Y41.213 E.06187
G1 X54.936 Y41.863 E.02435
G1 X53.118 Y40.045 E.0963
G1 X52.468 Y40.045 E.02435
G1 X54.936 Y42.513 E.13073
G1 X54.936 Y43.163 E.02435
G1 X51.818 Y40.045 E.16515
G1 X51.168 Y40.045 E.02435
G1 X54.936 Y43.813 E.19958
G1 X54.936 Y44.463 E.02435
G1 X50.518 Y40.045 E.23401
G1 X49.868 Y40.045 E.02435
G1 X54.936 Y45.113 E.26844
G1 X54.936 Y45.763 E.02435
G1 X49.218 Y40.045 E.30287
G1 X48.568 Y40.045 E.02435
G1 X54.936 Y46.413 E.3373
G1 X54.936 Y47.063 E.02435
G1 X47.918 Y40.045 E.37173
G1 X47.268 Y40.045 E.02435
G1 X54.936 Y47.713 E.40616
G1 X54.936 Y48.363 E.02435
G1 X46.618 Y40.045 E.44059
G1 X45.968 Y40.045 E.02435
G1 X54.936 Y49.013 E.47502
G1 X54.936 Y49.663 E.02435
G1 X45.318 Y40.045 E.50945
G1 X44.668 Y40.045 E.02435
G1 X54.936 Y50.313 E.54388
M73 P8 R10
G1 X54.936 Y50.963 E.02435
G1 X44.018 Y40.045 E.57831
G1 X43.368 Y40.045 E.02435
G1 X54.936 Y51.613 E.61274
G1 X54.936 Y52.263 E.02435
G1 X42.718 Y40.045 E.64717
G1 X42.068 Y40.045 E.02435
G1 X54.936 Y52.913 E.6816
G1 X54.936 Y53.563 E.02435
G1 X41.418 Y40.045 E.71603
G1 X40.768 Y40.045 E.02435
G1 X54.936 Y54.213 E.75045
G1 X54.936 Y54.863 E.02435
G1 X40.118 Y40.045 E.78488
G1 X39.468 Y40.045 E.02435
G1 X54.339 Y54.917 E.78771
G1 X53.69 Y54.917 E.02433
G1 X38.818 Y40.045 E.78774
G1 X38.168 Y40.045 E.02435
G1 X53.04 Y54.918 E.78776
G1 X52.391 Y54.918 E.02433
G1 X37.518 Y40.045 E.78779
G1 X36.868 Y40.045 E.02435
G1 X51.741 Y54.918 E.78781
G1 X51.092 Y54.919 E.02433
G1 X36.218 Y40.045 E.78783
G1 X35.568 Y40.045 E.02435
G1 X50.442 Y54.919 E.78786
G1 X49.792 Y54.92 E.02433
G1 X34.918 Y40.045 E.78788
G1 X34.268 Y40.045 E.02435
M73 P9 R10
G1 X49.143 Y54.92 E.7879
G1 X48.493 Y54.921 E.02433
G1 X33.618 Y40.045 E.78793
G1 X32.968 Y40.045 E.02435
G1 X47.844 Y54.921 E.78795
G1 X47.194 Y54.922 E.02433
G1 X32.318 Y40.045 E.78797
G1 X31.668 Y40.045 E.02435
G1 X46.545 Y54.922 E.788
G1 X45.895 Y54.922 E.02433
G1 X31.018 Y40.045 E.78802
G1 X30.368 Y40.045 E.02435
G1 X45.246 Y54.923 E.78804
G1 X44.596 Y54.923 E.02433
G1 X29.788 Y40.116 E.78433
G1 X29.788 Y40.766 E.02435
G1 X43.946 Y54.924 E.74993
G1 X43.297 Y54.924 E.02433
G1 X29.788 Y41.416 E.71552
G1 X29.788 Y42.066 E.02435
G1 X42.647 Y54.925 E.68112
G1 X41.998 Y54.925 E.02433
G1 X29.788 Y42.716 E.64671
G1 X29.788 Y43.366 E.02435
G1 X41.348 Y54.926 E.6123
G1 X40.699 Y54.926 E.02433
G1 X29.788 Y44.016 E.5779
G1 X29.788 Y44.666 E.02435
G1 X40.049 Y54.926 E.54349
G1 X39.399 Y54.927 E.02433
G1 X29.788 Y45.316 E.50909
M73 P10 R10
G1 X29.788 Y45.966 E.02435
G1 X38.75 Y54.927 E.47468
G1 X38.1 Y54.928 E.02433
G1 X29.788 Y46.616 E.44027
G1 X29.788 Y47.266 E.02435
G1 X37.451 Y54.928 E.40587
G1 X36.801 Y54.929 E.02433
G1 X29.788 Y47.916 E.37146
G1 X29.788 Y48.566 E.02435
G1 X36.152 Y54.929 E.33706
G1 X35.502 Y54.93 E.02433
G1 X29.788 Y49.216 E.30265
G1 X29.788 Y49.866 E.02435
G1 X34.852 Y54.93 E.26825
G1 X34.203 Y54.93 E.02433
G1 X29.788 Y50.516 E.23384
G1 X29.788 Y51.166 E.02435
G1 X33.553 Y54.931 E.19943
G1 X32.904 Y54.931 E.02433
G1 X29.788 Y51.816 E.16503
G1 X29.788 Y52.466 E.02435
G1 X32.254 Y54.932 E.13062
G1 X31.605 Y54.932 E.02433
G1 X29.788 Y53.116 E.09622
G1 X29.788 Y53.766 E.02435
G1 X30.955 Y54.933 E.06181
G1 X30.306 Y54.933 E.02433
G1 X29.582 Y54.21 E.0383
; stop printing object LogoBase-80p.STL id:2 copy 0
; printing object LogoBase-80p.STL id:1 copy 0
G1 E-.8
EXCLUDE_OBJECT_END NAME=LogoBase-80p.STL_id_2_copy_0
EXCLUDE_OBJECT_START NAME=LogoBase-80p.STL_id_1_copy_0
G1 Z.4 F21000
G1 X92.426 Y37.831 Z.4
G1 Z.2
G1 E.8 F1800
;TYPE:Outer wall
;WIDTH:0.5
G1 F3000
G1 X92.426 Y57.129 E.71877
G1 X62.85 Y57.149 E1.10159
G1 X62.85 Y37.831 E.71952
G1 X92.386 Y37.831 E1.1001
G1 X91.926 Y38.331 F21000
;TYPE:Inner wall
G1 F3000
G1 X91.926 Y56.629 E.68154
G1 X63.35 Y56.649 E1.06434
G1 X63.35 Y38.331 E.68226
M73 P11 R10
G1 X91.886 Y38.331 E1.06285
G1 X91.469 Y38.788 F21000
G1 F3000
G1 X91.469 Y56.172 E.6475
G1 X63.807 Y56.191 E1.0303
G1 X63.807 Y38.788 E.6482
G1 X91.429 Y38.788 E1.02881
G1 X91.012 Y39.245 F21000
G1 F3000
G1 X91.012 Y55.716 E.61346
G1 X64.264 Y55.734 E.99625
G1 X64.264 Y39.245 E.61414
G1 X90.972 Y39.245 E.99476
G1 X90.555 Y39.702 F21000
G1 F3000
G1 X90.555 Y55.259 E.57942
G1 X64.721 Y55.277 E.9622
G1 X64.721 Y39.702 E.58008
G1 X90.515 Y39.702 E.96071
G1 E-.8
G1 Z.4 F21000
G1 X90.418 Y40.769 Z.4
G1 Z.2
G1 E.8 F1800
;TYPE:Internal solid infill
;WIDTH:0.502546
G1 F3000
G1 X89.694 Y40.045 E.03833
G1 X89.044 Y40.045 E.02435
G1 X90.212 Y41.213 E.06187
G1 X90.212 Y41.863 E.02435
G1 X88.394 Y40.045 E.0963
M73 P12 R10
G1 X87.744 Y40.045 E.02435
G1 X90.212 Y42.513 E.13073
G1 X90.212 Y43.163 E.02435
G1 X87.094 Y40.045 E.16515
G1 X86.444 Y40.045 E.02435
G1 X90.212 Y43.813 E.19958
G1 X90.212 Y44.463 E.02435
G1 X85.794 Y40.045 E.23401
G1 X85.144 Y40.045 E.02435
G1 X90.212 Y45.113 E.26844
G1 X90.212 Y45.763 E.02435
G1 X84.494 Y40.045 E.30287
G1 X83.844 Y40.045 E.02435
G1 X90.212 Y46.413 E.3373
G1 X90.212 Y47.063 E.02435
G1 X83.194 Y40.045 E.37173
G1 X82.544 Y40.045 E.02435
G1 X90.212 Y47.713 E.40616
G1 X90.212 Y48.363 E.02435
G1 X81.894 Y40.045 E.44059
G1 X81.244 Y40.045 E.02435
G1 X90.212 Y49.013 E.47502
G1 X90.212 Y49.663 E.02435
G1 X80.594 Y40.045 E.50945
G1 X79.944 Y40.045 E.02435
G1 X90.212 Y50.313 E.54388
G1 X90.212 Y50.963 E.02435
G1 X79.294 Y40.045 E.57831
G1 X78.644 Y40.045 E.02435
G1 X90.212 Y51.613 E.61274
G1 X90.212 Y52.263 E.02435
G1 X77.994 Y40.045 E.64717
G1 X77.344 Y40.045 E.02435
G1 X90.212 Y52.913 E.6816
G1 X90.212 Y53.563 E.02435
G1 X76.694 Y40.045 E.71603
G1 X76.044 Y40.045 E.02435
G1 X90.212 Y54.213 E.75045
G1 X90.212 Y54.863 E.02435
G1 X75.394 Y40.045 E.78488
G1 X74.744 Y40.045 E.02435
G1 X89.615 Y54.917 E.78771
G1 X88.966 Y54.917 E.02433
G1 X74.094 Y40.045 E.78774
M73 P13 R10
G1 X73.444 Y40.045 E.02435
G1 X88.316 Y54.918 E.78776
G1 X87.667 Y54.918 E.02433
G1 X72.794 Y40.045 E.78779
G1 X72.144 Y40.045 E.02435
G1 X87.017 Y54.918 E.78781
M73 P13 R9
G1 X86.367 Y54.919 E.02433
G1 X71.494 Y40.045 E.78783
G1 X70.844 Y40.045 E.02435
G1 X85.718 Y54.919 E.78786
G1 X85.068 Y54.92 E.02433
G1 X70.194 Y40.045 E.78788
G1 X69.544 Y40.045 E.02435
G1 X84.419 Y54.92 E.7879
G1 X83.769 Y54.921 E.02433
G1 X68.894 Y40.045 E.78793
G1 X68.244 Y40.045 E.02435
G1 X83.12 Y54.921 E.78795
G1 X82.47 Y54.922 E.02433
G1 X67.594 Y40.045 E.78797
G1 X66.944 Y40.045 E.02435
G1 X81.821 Y54.922 E.788
G1 X81.171 Y54.922 E.02433
G1 X66.294 Y40.045 E.78802
G1 X65.644 Y40.045 E.02435
G1 X80.521 Y54.923 E.78804
G1 X79.872 Y54.923 E.02433
G1 X65.064 Y40.116 E.78433
M73 P14 R9
G1 X65.064 Y40.766 E.02435
G1 X79.222 Y54.924 E.74993
G1 X78.573 Y54.924 E.02433
G1 X65.064 Y41.416 E.71552
G1 X65.064 Y42.066 E.02435
G1 X77.923 Y54.925 E.68112
G1 X77.274 Y54.925 E.02433
G1 X65.064 Y42.716 E.64671
G1 X65.064 Y43.366 E.02435
G1 X76.624 Y54.926 E.6123
G1 X75.974 Y54.926 E.02433
G1 X65.064 Y44.016 E.5779
G1 X65.064 Y44.666 E.02435
G1 X75.325 Y54.926 E.54349
G1 X74.675 Y54.927 E.02433
G1 X65.064 Y45.316 E.50909
G1 X65.064 Y45.966 E.02435
G1 X74.026 Y54.927 E.47468
G1 X73.376 Y54.928 E.02433
G1 X65.064 Y46.616 E.44027
G1 X65.064 Y47.266 E.02435
G1 X72.727 Y54.928 E.40587
G1 X72.077 Y54.929 E.02433
G1 X65.064 Y47.916 E.37146
G1 X65.064 Y48.566 E.02435
G1 X71.427 Y54.929 E.33706
G1 X70.778 Y54.93 E.02433
G1 X65.064 Y49.216 E.30265
G1 X65.064 Y49.866 E.02435
G1 X70.128 Y54.93 E.26825
