; HEADER_BLOCK_START
; generated by OrcaSlicer 1.6.3 on 2023-06-27 at 09:00:06
; total layer number: 23
; HEADER_BLOCK_END

; THUMBNAIL_BLOCK_START
; THUMBNAIL_BLOCK_END

; external perimeters extrusion width = 0.15mm
; perimeters extrusion width = 0.15mm
; infill extrusion width = 0.15mm
; solid infill extrusion width = 0.15mm
; top infill extrusion width = 0.15mm
; first layer extrusion width = 0.15mm

; EXECUTABLE_BLOCK_START
EXCLUDE_OBJECT_DEFINE NAME=LogoBase-80p.STL_id_0_copy_0 CENTER=60,59.9996 POLYGON=[[44.862,49.9905],[75.138,49.9905],[75.138,69.9881],[44.862,70.0088],[44.862,49.9905]]
M73 P0 R11
;TYPE:Custom
START_PRINT T_BED=60 T_EXTRUDER=220
G90
G21
M83 ; use relative distances for extrusion
; filament start gcode

    PRESSURE_ADVANCE_SELECT FILAMENT=PLA
M106 S0
;LAYER_CHANGE
;Z:0.15
;HEIGHT:0.15
;BEFORE_LAYER_CHANGE
;0.15
G92 E0

;AFTER_LAYER_CHANGE
;0.15
M204 S500
; printing object LogoBase-80p.STL id:0 copy 0
EXCLUDE_OBJECT_START NAME=LogoBase-80p.STL_id_0_copy_0
G1 E-.8 F3000
G1 Z.2 F21000
G1 X74.827 Y50.301
M73 P0 R10
G1 Z.15
G1 E.8 F1800
;TYPE:Inner wall
;WIDTH:0.149999
G1 F3000
G1 X74.827 Y59.993 E.06978
G1 X74.827 Y69.678 E.06973
G1 X45.173 Y69.698 E.21351
G1 X45.173 Y50.301 E.13966
G1 X74.805 Y50.301 E.21335
G1 X74.945 Y50.183 F21000
G1 F3000
G1 X74.945 Y59.993 E.07063
G1 X74.945 Y69.795 E.07058
G1 X45.055 Y69.816 E.21521
G1 X45.055 Y50.183 E.14135
G1 X74.923 Y50.183 E.21505
G1 X75.063 Y50.066 F21000
;TYPE:Outer wall
G1 F3000
G1 X75.063 Y59.993 E.07148
G1 X75.063 Y69.913 E.07143
G1 X44.937 Y69.934 E.21691
M73 P1 R10
G1 X44.937 Y50.066 E.14305
G1 X75.04 Y50.066 E.21674
G1 X75.053 Y50.094
G1 X74.792 Y50.575 F21000
;TYPE:Bottom surface
;WIDTH:0.150283
G1 F6300
G1 X74.606 Y50.389 E.0019
G1 X74.439 Y50.389 E.00121
G1 X74.739 Y50.689 E.00306
G1 X74.739 Y50.856 E.00121
G1 X74.272 Y50.389 E.00476
G1 X74.105 Y50.389 E.00121
G1 X74.739 Y51.023 E.00647
G1 X74.739 Y51.19 E.00121
G1 X73.938 Y50.389 E.00817
G1 X73.771 Y50.389 E.00121
G1 X74.739 Y51.357 E.00988
G1 X74.739 Y51.524 E.00121
G1 X73.604 Y50.389 E.01158
G1 X73.437 Y50.389 E.00121
G1 X74.739 Y51.691 E.01329
G1 X74.739 Y51.858 E.00121
G1 X73.27 Y50.389 E.01499
G1 X73.103 Y50.389 E.00121
G1 X74.739 Y52.025 E.0167
G1 X74.739 Y52.192 E.00121
G1 X72.936 Y50.389 E.0184
G1 X72.769 Y50.389 E.00121
G1 X74.739 Y52.359 E.02011
G1 X74.739 Y52.526 E.00121
G1 X72.602 Y50.389 E.02181
G1 X72.435 Y50.389 E.00121
G1 X74.739 Y52.693 E.02352
G1 X74.739 Y52.86 E.00121
G1 X72.268 Y50.389 E.02522
G1 X72.101 Y50.389 E.00121
G1 X74.739 Y53.027 E.02692
G1 X74.739 Y53.194 E.00121
G1 X71.934 Y50.389 E.02863
G1 X71.767 Y50.389 E.00121
G1 X74.739 Y53.361 E.03033
G1 X74.739 Y53.528 E.00121
G1 X71.6 Y50.389 E.03204
G1 X71.433 Y50.389 E.00121
G1 X74.739 Y53.695 E.03374
G1 X74.739 Y53.862 E.00121
G1 X71.266 Y50.389 E.03545
G1 X71.099 Y50.389 E.00121
G1 X74.739 Y54.029 E.03715
G1 X74.739 Y54.196 E.00121
G1 X70.932 Y50.389 E.03886
G1 X70.765 Y50.389 E.00121
G1 X74.739 Y54.363 E.04056
G1 X74.739 Y54.53 E.00121
G1 X70.598 Y50.389 E.04227
G1 X70.431 Y50.389 E.00121
G1 X74.739 Y54.697 E.04397
G1 X74.739 Y54.864 E.00121
G1 X70.264 Y50.389 E.04568
G1 X70.097 Y50.389 E.00121
G1 X74.739 Y55.031 E.04738
G1 X74.739 Y55.198 E.00121
G1 X69.93 Y50.389 E.04908
G1 X69.763 Y50.389 E.00121
G1 X74.739 Y55.365 E.05079
G1 X74.739 Y55.533 E.00121
G1 X69.596 Y50.389 E.05249
G1 X69.429 Y50.389 E.00121
G1 X74.739 Y55.7 E.0542
G1 X74.739 Y55.867 E.00121
G1 X69.262 Y50.389 E.0559
G1 X69.095 Y50.389 E.00121
G1 X74.739 Y56.034 E.05761
G1 X74.739 Y56.201 E.00121
G1 X68.928 Y50.389 E.05931
G1 X68.761 Y50.389 E.00121
G1 X74.739 Y56.368 E.06102
M73 P2 R10
G1 X74.739 Y56.535 E.00121
G1 X68.594 Y50.389 E.06272
G1 X68.427 Y50.389 E.00121
G1 X74.739 Y56.702 E.06443
G1 X74.739 Y56.869 E.00121
G1 X68.26 Y50.389 E.06613
G1 X68.093 Y50.389 E.00121
G1 X74.739 Y57.036 E.06784
G1 X74.739 Y57.203 E.00121
G1 X67.926 Y50.389 E.06954
G1 X67.759 Y50.389 E.00121
G1 X74.739 Y57.37 E.07124
G1 X74.739 Y57.537 E.00121
G1 X67.592 Y50.389 E.07295
G1 X67.425 Y50.389 E.00121
G1 X74.739 Y57.704 E.07465
G1 X74.739 Y57.871 E.00121
G1 X67.258 Y50.389 E.07636
G1 X67.091 Y50.389 E.00121
G1 X74.739 Y58.038 E.07806
G1 X74.739 Y58.205 E.00121
G1 X66.924 Y50.389 E.07977
G1 X66.757 Y50.389 E.00121
G1 X74.739 Y58.372 E.08147
G1 X74.739 Y58.539 E.00121
G1 X66.59 Y50.389 E.08318
G1 X66.423 Y50.389 E.00121
G1 X74.739 Y58.706 E.08488
G1 X74.739 Y58.873 E.00121
G1 X66.256 Y50.389 E.08659
G1 X66.089 Y50.389 E.00121
G1 X74.739 Y59.04 E.08829
G1 X74.739 Y59.207 E.00121
G1 X65.922 Y50.389 E.09
G1 X65.755 Y50.389 E.00121
G1 X74.739 Y59.374 E.0917
G1 X74.739 Y59.541 E.00121
G1 X65.588 Y50.389 E.09341
G1 X65.421 Y50.389 E.00121
G1 X74.739 Y59.708 E.09511
G1 X74.739 Y59.875 E.00121
G1 X65.254 Y50.389 E.09681
G1 X65.087 Y50.389 E.00121
G1 X74.739 Y60.042 E.09852
G1 X74.739 Y60.209 E.00121
G1 X64.92 Y50.389 E.10022
G1 X64.753 Y50.389 E.00121
G1 X74.739 Y60.376 E.10193
M73 P3 R10
G1 X74.739 Y60.543 E.00121
G1 X64.586 Y50.389 E.10363
G1 X64.419 Y50.389 E.00121
G1 X74.739 Y60.71 E.10534
G1 X74.739 Y60.877 E.00121
G1 X64.252 Y50.389 E.10704
G1 X64.085 Y50.389 E.00121
G1 X74.739 Y61.044 E.10875
G1 X74.739 Y61.211 E.00121
G1 X63.918 Y50.389 E.11045
G1 X63.751 Y50.389 E.00121
G1 X74.739 Y61.378 E.11216
G1 X74.739 Y61.545 E.00121
G1 X63.584 Y50.389 E.11386
G1 X63.417 Y50.389 E.00121
G1 X74.739 Y61.712 E.11557
G1 X74.739 Y61.879 E.00121
G1 X63.25 Y50.389 E.11727
G1 X63.083 Y50.389 E.00121
G1 X74.739 Y62.046 E.11897
G1 X74.739 Y62.213 E.00121
G1 X62.916 Y50.389 E.12068
G1 X62.749 Y50.389 E.00121
G1 X74.739 Y62.38 E.12238
G1 X74.739 Y62.547 E.00121
G1 X62.582 Y50.389 E.12409
G1 X62.415 Y50.389 E.00121
G1 X74.739 Y62.714 E.12579
G1 X74.739 Y62.881 E.00121
G1 X62.248 Y50.389 E.1275
G1 X62.081 Y50.389 E.00121
G1 X74.739 Y63.048 E.1292
G1 X74.739 Y63.215 E.00121
G1 X61.914 Y50.389 E.13091
G1 X61.747 Y50.389 E.00121
G1 X74.739 Y63.382 E.13261
G1 X74.739 Y63.549 E.00121
G1 X61.58 Y50.389 E.13432
G1 X61.413 Y50.389 E.00121
G1 X74.739 Y63.716 E.13602
M73 P4 R10
G1 X74.739 Y63.883 E.00121
G1 X61.246 Y50.389 E.13773
G1 X61.079 Y50.389 E.00121
G1 X74.739 Y64.05 E.13943
G1 X74.739 Y64.217 E.00121
G1 X60.912 Y50.389 E.14113
G1 X60.744 Y50.389 E.00121
G1 X74.739 Y64.384 E.14284
G1 X74.739 Y64.551 E.00121
G1 X60.577 Y50.389 E.14454
G1 X60.41 Y50.389 E.00121
G1 X74.739 Y64.718 E.14625
G1 X74.739 Y64.885 E.00121
G1 X60.243 Y50.389 E.14795
G1 X60.076 Y50.389 E.00121
G1 X74.739 Y65.052 E.14966
G1 X74.739 Y65.219 E.00121
G1 X59.909 Y50.389 E.15136
G1 X59.742 Y50.389 E.00121
G1 X74.739 Y65.386 E.15307
G1 X74.739 Y65.553 E.00121
G1 X59.575 Y50.389 E.15477
G1 X59.408 Y50.389 E.00121
G1 X74.739 Y65.72 E.15648
G1 X74.739 Y65.887 E.00121
G1 X59.241 Y50.389 E.15818
G1 X59.074 Y50.389 E.00121
G1 X74.739 Y66.054 E.15989
G1 X74.739 Y66.221 E.00121
G1 X58.907 Y50.389 E.16159
G1 X58.74 Y50.389 E.00121
G1 X74.739 Y66.388 E.16329
G1 X74.739 Y66.555 E.00121
G1 X58.573 Y50.389 E.165
M73 P5 R10
G1 X58.406 Y50.389 E.00121
G1 X74.739 Y66.722 E.1667
G1 X74.739 Y66.889 E.00121
G1 X58.239 Y50.389 E.16841
G1 X58.072 Y50.389 E.00121
G1 X74.739 Y67.056 E.17011
G1 X74.739 Y67.223 E.00121
G1 X57.905 Y50.389 E.17182
G1 X57.738 Y50.389 E.00121
G1 X74.739 Y67.39 E.17352
G1 X74.739 Y67.557 E.00121
G1 X57.571 Y50.389 E.17523
G1 X57.404 Y50.389 E.00121
G1 X74.739 Y67.724 E.17693
G1 X74.739 Y67.891 E.00121
G1 X57.237 Y50.389 E.17864
G1 X57.07 Y50.389 E.00121
G1 X74.739 Y68.058 E.18034
G1 X74.739 Y68.225 E.00121
G1 X56.903 Y50.389 E.18205
G1 X56.736 Y50.389 E.00121
G1 X74.739 Y68.392 E.18375
G1 X74.739 Y68.559 E.00121
G1 X56.569 Y50.389 E.18546
G1 X56.402 Y50.389 E.00121
G1 X74.739 Y68.726 E.18716
G1 X74.739 Y68.893 E.00121
G1 X56.235 Y50.389 E.18886
G1 X56.068 Y50.389 E.00121
G1 X74.739 Y69.06 E.19057
G1 X74.739 Y69.227 E.00121
G1 X55.901 Y50.389 E.19227
M73 P6 R10
G1 X55.734 Y50.389 E.00121
G1 X74.739 Y69.394 E.19398
G1 X74.739 Y69.561 E.00121
G1 X55.567 Y50.389 E.19568
G1 X55.4 Y50.389 E.00121
G1 X74.6 Y69.589 E.19597
G1 X74.433 Y69.59 E.0012
G1 X55.233 Y50.389 E.19597
G1 X55.066 Y50.389 E.00121
G1 X74.266 Y69.59 E.19597
G1 X74.1 Y69.59 E.0012
G1 X54.899 Y50.389 E.19597
G1 X54.732 Y50.389 E.00121
G1 X73.933 Y69.59 E.19598
G1 X73.766 Y69.59 E.0012
G1 X54.565 Y50.389 E.19598
G1 X54.398 Y50.389 E.00121
G1 X73.599 Y69.59 E.19598
G1 X73.432 Y69.59 E.0012
G1 X54.231 Y50.389 E.19598
G1 X54.064 Y50.389 E.00121
G1 X73.265 Y69.59 E.19598
G1 X73.098 Y69.59 E.0012
G1 X53.897 Y50.389 E.19598
G1 X53.73 Y50.389 E.00121
G1 X72.931 Y69.591 E.19598
G1 X72.764 Y69.591 E.0012
G1 X53.563 Y50.389 E.19598
G1 X53.396 Y50.389 E.00121
G1 X72.597 Y69.591 E.19598
M73 P7 R10
G1 X72.431 Y69.591 E.0012
G1 X53.229 Y50.389 E.19599
G1 X53.062 Y50.389 E.00121
G1 X72.264 Y69.591 E.19599
G1 X72.097 Y69.591 E.0012
G1 X52.895 Y50.389 E.19599
G1 X52.728 Y50.389 E.00121
G1 X71.93 Y69.591 E.19599
G1 X71.763 Y69.591 E.0012
G1 X52.561 Y50.389 E.19599
G1 X52.394 Y50.389 E.00121
G1 X71.596 Y69.592 E.19599
G1 X71.429 Y69.592 E.0012
G1 X52.227 Y50.389 E.19599
G1 X52.06 Y50.389 E.00121
G1 X71.262 Y69.592 E.19599
G1 X71.095 Y69.592 E.0012
G1 X51.893 Y50.389 E.196
G1 X51.726 Y50.389 E.00121
G1 X70.929 Y69.592 E.196
G1 X70.762 Y69.592 E.0012
G1 X51.559 Y50.389 E.196
G1 X51.392 Y50.389 E.00121
G1 X70.595 Y69.592 E.196
G1 X70.428 Y69.592 E.0012
G1 X51.225 Y50.389 E.196
G1 X51.058 Y50.389 E.00121
G1 X70.261 Y69.592 E.196
G1 X70.094 Y69.593 E.0012
G1 X50.891 Y50.389 E.196
M73 P8 R10
G1 X50.724 Y50.389 E.00121
G1 X69.927 Y69.593 E.196
G1 X69.76 Y69.593 E.0012
G1 X50.557 Y50.389 E.196
G1 X50.39 Y50.389 E.00121
G1 X69.593 Y69.593 E.19601
G1 X69.426 Y69.593 E.0012
G1 X50.223 Y50.389 E.19601
G1 X50.056 Y50.389 E.00121
G1 X69.26 Y69.593 E.19601
G1 X69.093 Y69.593 E.0012
G1 X49.889 Y50.389 E.19601
G1 X49.722 Y50.389 E.00121
G1 X68.926 Y69.593 E.19601
G1 X68.759 Y69.593 E.0012
G1 X49.555 Y50.389 E.19601
G1 X49.388 Y50.389 E.00121
G1 X68.592 Y69.594 E.19601
G1 X68.425 Y69.594 E.0012
G1 X49.221 Y50.389 E.19601
G1 X49.054 Y50.389 E.00121
G1 X68.258 Y69.594 E.19602
G1 X68.091 Y69.594 E.0012
G1 X48.887 Y50.389 E.19602
G1 X48.72 Y50.389 E.00121
G1 X67.924 Y69.594 E.19602
G1 X67.758 Y69.594 E.0012
G1 X48.553 Y50.389 E.19602
G1 X48.386 Y50.389 E.00121
G1 X67.591 Y69.594 E.19602
M73 P9 R10
G1 X67.424 Y69.594 E.0012
G1 X48.219 Y50.389 E.19602
G1 X48.052 Y50.389 E.00121
G1 X67.257 Y69.594 E.19602
M73 P9 R9
G1 X67.09 Y69.595 E.0012
G1 X47.885 Y50.389 E.19602
G1 X47.718 Y50.389 E.00121
G1 X66.923 Y69.595 E.19602
G1 X66.756 Y69.595 E.0012
G1 X47.551 Y50.389 E.19603
G1 X47.384 Y50.389 E.00121
G1 X66.589 Y69.595 E.19603
G1 X66.422 Y69.595 E.0012
G1 X47.217 Y50.389 E.19603
G1 X47.05 Y50.389 E.00121
G1 X66.255 Y69.595 E.19603
G1 X66.089 Y69.595 E.0012
G1 X46.883 Y50.389 E.19603
G1 X46.716 Y50.389 E.00121
G1 X65.922 Y69.595 E.19603
G1 X65.755 Y69.596 E.0012
G1 X46.549 Y50.389 E.19603
G1 X46.382 Y50.389 E.00121
G1 X65.588 Y69.596 E.19603
G1 X65.421 Y69.596 E.0012
G1 X46.215 Y50.389 E.19604
G1 X46.048 Y50.389 E.00121
G1 X65.254 Y69.596 E.19604
G1 X65.087 Y69.596 E.0012
G1 X45.881 Y50.389 E.19604
M73 P10 R9
G1 X45.714 Y50.389 E.00121
G1 X64.92 Y69.596 E.19604
G1 X64.753 Y69.596 E.0012
G1 X45.547 Y50.389 E.19604
G1 X45.38 Y50.389 E.00121
G1 X64.587 Y69.596 E.19604
G1 X64.42 Y69.596 E.0012
G1 X45.261 Y50.438 E.19555
G1 X45.261 Y50.605 E.00121
G1 X64.253 Y69.597 E.19385
G1 X64.086 Y69.597 E.0012
G1 X45.261 Y50.772 E.19214
G1 X45.261 Y50.939 E.00121
G1 X63.919 Y69.597 E.19044
G1 X63.752 Y69.597 E.0012
G1 X45.261 Y51.106 E.18873
G1 X45.261 Y51.273 E.00121
G1 X63.585 Y69.597 E.18703
G1 X63.418 Y69.597 E.0012
G1 X45.261 Y51.44 E.18533
G1 X45.261 Y51.607 E.00121
G1 X63.251 Y69.597 E.18362
G1 X63.084 Y69.597 E.0012
G1 X45.261 Y51.774 E.18192
G1 X45.261 Y51.941 E.00121
G1 X62.918 Y69.597 E.18022
G1 X62.751 Y69.598 E.0012
G1 X45.261 Y52.108 E.17851
G1 X45.261 Y52.275 E.00121
G1 X62.584 Y69.598 E.17681
M73 P11 R9
G1 X62.417 Y69.598 E.0012
G1 X45.261 Y52.442 E.17511
G1 X45.261 Y52.609 E.00121
G1 X62.25 Y69.598 E.1734
G1 X62.083 Y69.598 E.0012
G1 X45.261 Y52.776 E.1717
G1 X45.261 Y52.943 E.00121
G1 X61.916 Y69.598 E.17
G1 X61.749 Y69.598 E.0012
G1 X45.261 Y53.11 E.16829
G1 X45.261 Y53.277 E.00121
G1 X61.582 Y69.598 E.16659
G1 X61.416 Y69.598 E.0012
G1 X45.261 Y53.444 E.16489
G1 X45.261 Y53.611 E.00121
G1 X61.249 Y69.599 E.16318
G1 X61.082 Y69.599 E.0012
G1 X45.261 Y53.778 E.16148
G1 X45.261 Y53.945 E.00121
G1 X60.915 Y69.599 E.15978
G1 X60.748 Y69.599 E.0012
G1 X45.261 Y54.112 E.15807
G1 X45.261 Y54.279 E.00121
G1 X60.581 Y69.599 E.15637
G1 X60.414 Y69.599 E.0012
G1 X45.261 Y54.446 E.15467
G1 X45.261 Y54.613 E.00121
G1 X60.247 Y69.599 E.15296
G1 X60.08 Y69.599 E.0012
G1 X45.261 Y54.78 E.15126
G1 X45.261 Y54.947 E.00121
G1 X59.913 Y69.6 E.14956
G1 X59.747 Y69.6 E.0012
G1 X45.261 Y55.114 E.14785
M73 P12 R9
G1 X45.261 Y55.281 E.00121
G1 X59.58 Y69.6 E.14615
G1 X59.413 Y69.6 E.0012
G1 X45.261 Y55.448 E.14444
G1 X45.261 Y55.615 E.00121
G1 X59.246 Y69.6 E.14274
G1 X59.079 Y69.6 E.0012
G1 X45.261 Y55.782 E.14104
G1 X45.261 Y55.949 E.00121
G1 X58.912 Y69.6 E.13933
G1 X58.745 Y69.6 E.0012
G1 X45.261 Y56.116 E.13763
G1 X45.261 Y56.283 E.00121
G1 X58.578 Y69.6 E.13593
G1 X58.411 Y69.601 E.0012
G1 X45.261 Y56.45 E.13422
G1 X45.261 Y56.617 E.00121
G1 X58.245 Y69.601 E.13252
G1 X58.078 Y69.601 E.0012
G1 X45.261 Y56.784 E.13082
G1 X45.261 Y56.951 E.00121
G1 X57.911 Y69.601 E.12911
G1 X57.744 Y69.601 E.0012
G1 X45.261 Y57.118 E.12741
G1 X45.261 Y57.285 E.00121
G1 X57.577 Y69.601 E.12571
G1 X57.41 Y69.601 E.0012
G1 X45.261 Y57.452 E.124
G1 X45.261 Y57.619 E.00121
G1 X57.243 Y69.601 E.1223
G1 X57.076 Y69.601 E.0012
G1 X45.261 Y57.786 E.1206
G1 X45.261 Y57.953 E.00121
G1 X56.909 Y69.602 E.11889
G1 X56.743 Y69.602 E.0012
G1 X45.261 Y58.12 E.11719
M73 P13 R9
G1 X45.261 Y58.287 E.00121
G1 X56.576 Y69.602 E.11549
G1 X56.409 Y69.602 E.0012
G1 X45.261 Y58.454 E.11378
G1 X45.261 Y58.621 E.00121
G1 X56.242 Y69.602 E.11208
G1 X56.075 Y69.602 E.0012
G1 X45.261 Y58.788 E.11038
G1 X45.261 Y58.955 E.00121
G1 X55.908 Y69.602 E.10867
G1 X55.741 Y69.602 E.0012
G1 X45.261 Y59.122 E.10697
G1 X45.261 Y59.289 E.00121
G1 X55.574 Y69.602 E.10527
G1 X55.407 Y69.603 E.0012
G1 X45.261 Y59.456 E.10356
G1 X45.261 Y59.623 E.00121
G1 X55.24 Y69.603 E.10186
G1 X55.074 Y69.603 E.0012
G1 X45.261 Y59.79 E.10015
G1 X45.261 Y59.957 E.00121
G1 X54.907 Y69.603 E.09845
G1 X54.74 Y69.603 E.0012
G1 X45.261 Y60.124 E.09675
G1 X45.261 Y60.291 E.00121
G1 X54.573 Y69.603 E.09504
G1 X54.406 Y69.603 E.0012
G1 X45.261 Y60.458 E.09334
G1 X45.261 Y60.625 E.00121
G1 X54.239 Y69.603 E.09164
G1 X54.072 Y69.604 E.0012
G1 X45.261 Y60.792 E.08993
G1 X45.261 Y60.959 E.00121
G1 X53.905 Y69.604 E.08823
G1 X53.738 Y69.604 E.0012
G1 X45.261 Y61.126 E.08653
G1 X45.261 Y61.293 E.00121
G1 X53.572 Y69.604 E.08482
G1 X53.405 Y69.604 E.0012
G1 X45.261 Y61.46 E.08312
G1 X45.261 Y61.627 E.00121
G1 X53.238 Y69.604 E.08142
G1 X53.071 Y69.604 E.0012
G1 X45.261 Y61.794 E.07971
M73 P14 R9
G1 X45.261 Y61.961 E.00121
G1 X52.904 Y69.604 E.07801
G1 X52.737 Y69.604 E.0012
G1 X45.261 Y62.128 E.07631
G1 X45.261 Y62.295 E.00121
G1 X52.57 Y69.605 E.0746
G1 X52.403 Y69.605 E.0012
G1 X45.261 Y62.462 E.0729
G1 X45.261 Y62.629 E.00121
G1 X52.236 Y69.605 E.0712
G1 X52.069 Y69.605 E.0012
G1 X45.261 Y62.796 E.06949
G1 X45.261 Y62.963 E.00121
G1 X51.903 Y69.605 E.06779
G1 X51.736 Y69.605 E.0012
G1 X45.261 Y63.13 E.06609
G1 X45.261 Y63.297 E.00121
G1 X51.569 Y69.605 E.06438
G1 X51.402 Y69.605 E.0012
G1 X45.261 Y63.464 E.06268
G1 X45.261 Y63.631 E.00121
G1 X51.235 Y69.605 E.06098
G1 X51.068 Y69.606 E.0012
G1 X45.261 Y63.798 E.05927
G1 X45.261 Y63.966 E.00121
G1 X50.901 Y69.606 E.05757
G1 X50.734 Y69.606 E.0012
G1 X45.261 Y64.133 E.05586
G1 X45.261 Y64.3 E.00121
G1 X50.567 Y69.606 E.05416
G1 X50.401 Y69.606 E.0012
G1 X45.261 Y64.467 E.05246
G1 X45.261 Y64.634 E.00121
G1 X50.234 Y69.606 E.05075
G1 X50.067 Y69.606 E.0012
G1 X45.261 Y64.801 E.04905
G1 X45.261 Y64.968 E.00121
G1 X49.9 Y69.606 E.04735
G1 X49.733 Y69.606 E.0012
G1 X45.261 Y65.135 E.04564
G1 X45.261 Y65.302 E.00121
G1 X49.566 Y69.607 E.04394
