; HEADER_BLOCK_START
; generated by OrcaSlicer 1.6.3 on 2023-06-27 at 09:01:04
; total layer number: 23
; HEADER_BLOCK_END

; THUMBNAIL_BLOCK_START
; THUMBNAIL_BLOCK_END

; external perimeters extrusion width = 0.15mm
; perimeters extrusion width = 0.15mm
; infill extrusion width = 0.15mm
; solid infill extrusion width = 0.15mm
; top infill extrusion width = 0.15mm
; first layer extrusion width = 0.15mm

; external perimeters extrusion width = 0.15mm
; perimeters extrusion width = 0.15mm
; infill extrusion width = 0.15mm
; solid infill extrusion width = 0.15mm
; top infill extrusion width = 0.15mm
; first layer extrusion width = 0.15mm

; external perimeters extrusion width = 0.15mm
; perimeters extrusion width = 0.15mm
; infill extrusion width = 0.15mm
; solid infill extrusion width = 0.15mm
; top infill extrusion width = 0.15mm
; first layer extrusion width = 0.15mm

; EXECUTABLE_BLOCK_START
EXCLUDE_OBJECT_DEFINE NAME=LogoBase-80p.STL_id_0_copy_0 CENTER=77.638,72.5091 POLYGON=[[62.5,62.5],[92.7759,62.5],[92.7759,82.4976],[62.5,82.5183],[62.5,62.5]]
EXCLUDE_OBJECT_DEFINE NAME=LogoBase-80p.STL_id_1_copy_0 CENTER=77.638,47.4902 POLYGON=[[62.5,37.481],[92.7759,37.481],[92.7759,57.4786],[62.5,57.4993],[62.5,37.481]]
EXCLUDE_OBJECT_DEFINE NAME=LogoBase-80p.STL_id_2_copy_0 CENTER=42.362,59.9996 POLYGON=[[27.2241,49.9905],[57.5,49.9905],[57.5,69.9881],[27.2241,70.0088],[27.2241,49.9905]]
M73 P0 R29
;TYPE:Custom
START_PRINT T_BED=60 T_EXTRUDER=220
G90
G21
M83 ; use relative distances for extrusion
; filament start gcode

    PRESSURE_ADVANCE_SELECT FILAMENT=PLA
M106 S0
;LAYER_CHANGE
;Z:0.15
;HEIGHT:0.15
;BEFORE_LAYER_CHANGE
;0.15
G92 E0

;AFTER_LAYER_CHANGE
;0.15
M204 S1000
; printing object LogoBase-80p.STL id:2 copy 0
EXCLUDE_OBJECT_START NAME=LogoBase-80p.STL_id_2_copy_0
G1 E-.8 F3000
G1 Z.2 F21000
G1 X57.425 Y50.066
G1 Z.15
G1 E.8 F1800
;TYPE:Outer wall
;WIDTH:0.149999
G1 F3000
G1 X57.425 Y59.993 E.07148
G1 X57.425 Y69.913 E.07143
G1 X27.299 Y69.934 E.21691
G1 X27.299 Y50.066 E.14305
G1 X57.403 Y50.066 E.21674
G1 X57.415 Y50.094
G1 X57.307 Y50.183 F21000
;TYPE:Inner wall
G1 F3000
G1 X57.307 Y59.993 E.07063
G1 X57.307 Y69.795 E.07058
G1 X27.417 Y69.816 E.21521
G1 X27.417 Y50.183 E.14135
G1 X57.285 Y50.183 E.21505
G1 X57.189 Y50.301 F21000
G1 F3000
G1 X57.189 Y59.993 E.06978
G1 X57.189 Y69.678 E.06973
G1 X27.535 Y69.698 E.21351
G1 X27.535 Y50.301 E.13966
G1 X57.167 Y50.301 E.21335
G1 X57.154 Y50.575 F21000
;TYPE:Bottom surface
;WIDTH:0.150283
G1 F6300
G1 X56.968 Y50.389 E.0019
G1 X56.801 Y50.389 E.00121
G1 X57.101 Y50.689 E.00306
G1 X57.101 Y50.856 E.00121
G1 X56.634 Y50.389 E.00476
G1 X56.467 Y50.389 E.00121
G1 X57.101 Y51.023 E.00647
G1 X57.101 Y51.19 E.00121
G1 X56.3 Y50.389 E.00817
G1 X56.133 Y50.389 E.00121
G1 X57.101 Y51.357 E.00988
G1 X57.101 Y51.524 E.00121
G1 X55.966 Y50.389 E.01158
G1 X55.799 Y50.389 E.00121
G1 X57.101 Y51.691 E.01329
G1 X57.101 Y51.858 E.00121
G1 X55.632 Y50.389 E.01499
G1 X55.465 Y50.389 E.00121
G1 X57.101 Y52.025 E.0167
G1 X57.101 Y52.192 E.00121
G1 X55.298 Y50.389 E.0184
G1 X55.131 Y50.389 E.00121
G1 X57.101 Y52.359 E.02011
G1 X57.101 Y52.526 E.00121
G1 X54.964 Y50.389 E.02181
G1 X54.797 Y50.389 E.00121
G1 X57.101 Y52.693 E.02352
G1 X57.101 Y52.86 E.00121
G1 X54.63 Y50.389 E.02522
G1 X54.463 Y50.389 E.00121
G1 X57.101 Y53.027 E.02692
G1 X57.101 Y53.194 E.00121
G1 X54.296 Y50.389 E.02863
G1 X54.129 Y50.389 E.00121
G1 X57.101 Y53.361 E.03033
G1 X57.101 Y53.528 E.00121
G1 X53.962 Y50.389 E.03204
G1 X53.795 Y50.389 E.00121
G1 X57.101 Y53.695 E.03374
G1 X57.101 Y53.862 E.00121
G1 X53.628 Y50.389 E.03545
G1 X53.461 Y50.389 E.00121
G1 X57.101 Y54.029 E.03715
G1 X57.101 Y54.196 E.00121
G1 X53.294 Y50.389 E.03886
G1 X53.127 Y50.389 E.00121
G1 X57.101 Y54.363 E.04056
G1 X57.101 Y54.53 E.00121
G1 X52.96 Y50.389 E.04227
G1 X52.793 Y50.389 E.00121
G1 X57.101 Y54.697 E.04397
G1 X57.101 Y54.864 E.00121
G1 X52.626 Y50.389 E.04568
G1 X52.459 Y50.389 E.00121
G1 X57.101 Y55.031 E.04738
G1 X57.101 Y55.198 E.00121
G1 X52.292 Y50.389 E.04908
G1 X52.125 Y50.389 E.00121
G1 X57.101 Y55.365 E.05079
G1 X57.101 Y55.533 E.00121
G1 X51.958 Y50.389 E.05249
G1 X51.791 Y50.389 E.00121
G1 X57.101 Y55.7 E.0542
G1 X57.101 Y55.867 E.00121
G1 X51.624 Y50.389 E.0559
G1 X51.457 Y50.389 E.00121
G1 X57.101 Y56.034 E.05761
G1 X57.101 Y56.201 E.00121
G1 X51.29 Y50.389 E.05931
G1 X51.123 Y50.389 E.00121
G1 X57.101 Y56.368 E.06102
G1 X57.101 Y56.535 E.00121
G1 X50.956 Y50.389 E.06272
G1 X50.789 Y50.389 E.00121
G1 X57.101 Y56.702 E.06443
G1 X57.101 Y56.869 E.00121
G1 X50.622 Y50.389 E.06613
G1 X50.455 Y50.389 E.00121
G1 X57.101 Y57.036 E.06784
G1 X57.101 Y57.203 E.00121
G1 X50.288 Y50.389 E.06954
G1 X50.121 Y50.389 E.00121
G1 X57.101 Y57.37 E.07124
G1 X57.101 Y57.537 E.00121
G1 X49.954 Y50.389 E.07295
G1 X49.787 Y50.389 E.00121
G1 X57.101 Y57.704 E.07465
G1 X57.101 Y57.871 E.00121
G1 X49.62 Y50.389 E.07636
G1 X49.453 Y50.389 E.00121
G1 X57.101 Y58.038 E.07806
G1 X57.101 Y58.205 E.00121
G1 X49.286 Y50.389 E.07977
G1 X49.119 Y50.389 E.00121
G1 X57.101 Y58.372 E.08147
G1 X57.101 Y58.539 E.00121
G1 X48.952 Y50.389 E.08318
G1 X48.785 Y50.389 E.00121
G1 X57.101 Y58.706 E.08488
G1 X57.101 Y58.873 E.00121
G1 X48.618 Y50.389 E.08659
G1 X48.451 Y50.389 E.00121
G1 X57.101 Y59.04 E.08829
G1 X57.101 Y59.207 E.00121
G1 X48.284 Y50.389 E.09
G1 X48.117 Y50.389 E.00121
G1 X57.101 Y59.374 E.0917
G1 X57.101 Y59.541 E.00121
G1 X47.95 Y50.389 E.09341
G1 X47.783 Y50.389 E.00121
G1 X57.101 Y59.708 E.09511
G1 X57.101 Y59.875 E.00121
G1 X47.616 Y50.389 E.09681
G1 X47.449 Y50.389 E.00121
G1 X57.101 Y60.042 E.09852
G1 X57.101 Y60.209 E.00121
G1 X47.282 Y50.389 E.10022
G1 X47.115 Y50.389 E.00121
G1 X57.101 Y60.376 E.10193
G1 X57.101 Y60.543 E.00121
G1 X46.948 Y50.389 E.10363
G1 X46.781 Y50.389 E.00121
G1 X57.101 Y60.71 E.10534
G1 X57.101 Y60.877 E.00121
G1 X46.614 Y50.389 E.10704
G1 X46.447 Y50.389 E.00121
G1 X57.101 Y61.044 E.10875
G1 X57.101 Y61.211 E.00121
G1 X46.28 Y50.389 E.11045
G1 X46.113 Y50.389 E.00121
G1 X57.101 Y61.378 E.11216
G1 X57.101 Y61.545 E.00121
G1 X45.946 Y50.389 E.11386
M73 P1 R29
G1 X45.779 Y50.389 E.00121
G1 X57.101 Y61.712 E.11557
G1 X57.101 Y61.879 E.00121
G1 X45.612 Y50.389 E.11727
G1 X45.445 Y50.389 E.00121
G1 X57.101 Y62.046 E.11897
G1 X57.101 Y62.213 E.00121
G1 X45.278 Y50.389 E.12068
G1 X45.111 Y50.389 E.00121
G1 X57.101 Y62.38 E.12238
G1 X57.101 Y62.547 E.00121
G1 X44.944 Y50.389 E.12409
G1 X44.777 Y50.389 E.00121
G1 X57.101 Y62.714 E.12579
G1 X57.101 Y62.881 E.00121
G1 X44.61 Y50.389 E.1275
G1 X44.443 Y50.389 E.00121
G1 X57.101 Y63.048 E.1292
G1 X57.101 Y63.215 E.00121
G1 X44.276 Y50.389 E.13091
G1 X44.109 Y50.389 E.00121
G1 X57.101 Y63.382 E.13261
G1 X57.101 Y63.549 E.00121
G1 X43.942 Y50.389 E.13432
G1 X43.775 Y50.389 E.00121
G1 X57.101 Y63.716 E.13602
G1 X57.101 Y63.883 E.00121
G1 X43.608 Y50.389 E.13773
G1 X43.441 Y50.389 E.00121
G1 X57.101 Y64.05 E.13943
G1 X57.101 Y64.217 E.00121
G1 X43.274 Y50.389 E.14113
G1 X43.107 Y50.389 E.00121
G1 X57.101 Y64.384 E.14284
G1 X57.101 Y64.551 E.00121
G1 X42.94 Y50.389 E.14454
G1 X42.773 Y50.389 E.00121
G1 X57.101 Y64.718 E.14625
G1 X57.101 Y64.885 E.00121
G1 X42.606 Y50.389 E.14795
G1 X42.439 Y50.389 E.00121
G1 X57.101 Y65.052 E.14966
G1 X57.101 Y65.219 E.00121
G1 X42.271 Y50.389 E.15136
G1 X42.104 Y50.389 E.00121
G1 X57.101 Y65.386 E.15307
G1 X57.101 Y65.553 E.00121
G1 X41.937 Y50.389 E.15477
G1 X41.77 Y50.389 E.00121
G1 X57.101 Y65.72 E.15648
G1 X57.101 Y65.887 E.00121
G1 X41.603 Y50.389 E.15818
G1 X41.436 Y50.389 E.00121
G1 X57.101 Y66.054 E.15989
G1 X57.101 Y66.221 E.00121
G1 X41.269 Y50.389 E.16159
G1 X41.102 Y50.389 E.00121
G1 X57.101 Y66.388 E.16329
G1 X57.101 Y66.555 E.00121
G1 X40.935 Y50.389 E.165
G1 X40.768 Y50.389 E.00121
G1 X57.101 Y66.722 E.1667
G1 X57.101 Y66.889 E.00121
G1 X40.601 Y50.389 E.16841
G1 X40.434 Y50.389 E.00121
G1 X57.101 Y67.056 E.17011
G1 X57.101 Y67.223 E.00121
G1 X40.267 Y50.389 E.17182
G1 X40.1 Y50.389 E.00121
G1 X57.101 Y67.39 E.17352
G1 X57.101 Y67.557 E.00121
G1 X39.933 Y50.389 E.17523
G1 X39.766 Y50.389 E.00121
G1 X57.101 Y67.724 E.17693
G1 X57.101 Y67.891 E.00121
G1 X39.599 Y50.389 E.17864
G1 X39.432 Y50.389 E.00121
G1 X57.101 Y68.058 E.18034
G1 X57.101 Y68.225 E.00121
G1 X39.265 Y50.389 E.18205
G1 X39.098 Y50.389 E.00121
G1 X57.101 Y68.392 E.18375
G1 X57.101 Y68.559 E.00121
G1 X38.931 Y50.389 E.18546
G1 X38.764 Y50.389 E.00121
G1 X57.101 Y68.726 E.18716
G1 X57.101 Y68.893 E.00121
G1 X38.597 Y50.389 E.18886
G1 X38.43 Y50.389 E.00121
G1 X57.101 Y69.06 E.19057
G1 X57.101 Y69.227 E.00121
G1 X38.263 Y50.389 E.19227
G1 X38.096 Y50.389 E.00121
G1 X57.101 Y69.394 E.19398
M73 P1 R28
G1 X57.101 Y69.561 E.00121
G1 X37.929 Y50.389 E.19568
G1 X37.762 Y50.389 E.00121
G1 X56.962 Y69.589 E.19597
G1 X56.795 Y69.59 E.0012
G1 X37.595 Y50.389 E.19597
G1 X37.428 Y50.389 E.00121
G1 X56.628 Y69.59 E.19597
G1 X56.462 Y69.59 E.0012
G1 X37.261 Y50.389 E.19597
G1 X37.094 Y50.389 E.00121
G1 X56.295 Y69.59 E.19598
G1 X56.128 Y69.59 E.0012
G1 X36.927 Y50.389 E.19598
G1 X36.76 Y50.389 E.00121
G1 X55.961 Y69.59 E.19598
G1 X55.794 Y69.59 E.0012
G1 X36.593 Y50.389 E.19598
G1 X36.426 Y50.389 E.00121
G1 X55.627 Y69.59 E.19598
M73 P2 R28
G1 X55.46 Y69.59 E.0012
G1 X36.259 Y50.389 E.19598
G1 X36.092 Y50.389 E.00121
G1 X55.293 Y69.591 E.19598
G1 X55.126 Y69.591 E.0012
G1 X35.925 Y50.389 E.19598
G1 X35.758 Y50.389 E.00121
G1 X54.96 Y69.591 E.19598
G1 X54.793 Y69.591 E.0012
G1 X35.591 Y50.389 E.19599
G1 X35.424 Y50.389 E.00121
G1 X54.626 Y69.591 E.19599
G1 X54.459 Y69.591 E.0012
G1 X35.257 Y50.389 E.19599
G1 X35.09 Y50.389 E.00121
G1 X54.292 Y69.591 E.19599
G1 X54.125 Y69.591 E.0012
G1 X34.923 Y50.389 E.19599
G1 X34.756 Y50.389 E.00121
G1 X53.958 Y69.592 E.19599
G1 X53.791 Y69.592 E.0012
G1 X34.589 Y50.389 E.19599
G1 X34.422 Y50.389 E.00121
G1 X53.624 Y69.592 E.19599
G1 X53.457 Y69.592 E.0012
G1 X34.255 Y50.389 E.196
G1 X34.088 Y50.389 E.00121
G1 X53.291 Y69.592 E.196
G1 X53.124 Y69.592 E.0012
G1 X33.921 Y50.389 E.196
G1 X33.754 Y50.389 E.00121
G1 X52.957 Y69.592 E.196
G1 X52.79 Y69.592 E.0012
G1 X33.587 Y50.389 E.196
G1 X33.42 Y50.389 E.00121
G1 X52.623 Y69.592 E.196
G1 X52.456 Y69.593 E.0012
G1 X33.253 Y50.389 E.196
G1 X33.086 Y50.389 E.00121
G1 X52.289 Y69.593 E.196
G1 X52.122 Y69.593 E.0012
G1 X32.919 Y50.389 E.196
G1 X32.752 Y50.389 E.00121
G1 X51.955 Y69.593 E.19601
G1 X51.789 Y69.593 E.0012
G1 X32.585 Y50.389 E.19601
G1 X32.418 Y50.389 E.00121
G1 X51.622 Y69.593 E.19601
G1 X51.455 Y69.593 E.0012
G1 X32.251 Y50.389 E.19601
G1 X32.084 Y50.389 E.00121
G1 X51.288 Y69.593 E.19601
G1 X51.121 Y69.593 E.0012
G1 X31.917 Y50.389 E.19601
G1 X31.75 Y50.389 E.00121
G1 X50.954 Y69.594 E.19601
G1 X50.787 Y69.594 E.0012
G1 X31.583 Y50.389 E.19601
G1 X31.416 Y50.389 E.00121
G1 X50.62 Y69.594 E.19602
G1 X50.453 Y69.594 E.0012
G1 X31.249 Y50.389 E.19602
G1 X31.082 Y50.389 E.00121
G1 X50.286 Y69.594 E.19602
G1 X50.12 Y69.594 E.0012
G1 X30.915 Y50.389 E.19602
G1 X30.748 Y50.389 E.00121
G1 X49.953 Y69.594 E.19602
G1 X49.786 Y69.594 E.0012
G1 X30.581 Y50.389 E.19602
G1 X30.414 Y50.389 E.00121
G1 X49.619 Y69.594 E.19602
G1 X49.452 Y69.595 E.0012
G1 X30.247 Y50.389 E.19602
G1 X30.08 Y50.389 E.00121
G1 X49.285 Y69.595 E.19602
G1 X49.118 Y69.595 E.0012
G1 X29.913 Y50.389 E.19603
G1 X29.746 Y50.389 E.00121
G1 X48.951 Y69.595 E.19603
G1 X48.784 Y69.595 E.0012
G1 X29.579 Y50.389 E.19603
G1 X29.412 Y50.389 E.00121
G1 X48.618 Y69.595 E.19603
G1 X48.451 Y69.595 E.0012
G1 X29.245 Y50.389 E.19603
G1 X29.078 Y50.389 E.00121
G1 X48.284 Y69.595 E.19603
G1 X48.117 Y69.596 E.0012
G1 X28.911 Y50.389 E.19603
G1 X28.744 Y50.389 E.00121
G1 X47.95 Y69.596 E.19603
G1 X47.783 Y69.596 E.0012
G1 X28.577 Y50.389 E.19604
G1 X28.41 Y50.389 E.00121
G1 X47.616 Y69.596 E.19604
G1 X47.449 Y69.596 E.0012
G1 X28.243 Y50.389 E.19604
G1 X28.076 Y50.389 E.00121
G1 X47.282 Y69.596 E.19604
M73 P3 R28
G1 X47.115 Y69.596 E.0012
G1 X27.909 Y50.389 E.19604
G1 X27.742 Y50.389 E.00121
G1 X46.949 Y69.596 E.19604
G1 X46.782 Y69.596 E.0012
G1 X27.623 Y50.438 E.19555
G1 X27.623 Y50.605 E.00121
G1 X46.615 Y69.597 E.19385
G1 X46.448 Y69.597 E.0012
G1 X27.623 Y50.772 E.19214
G1 X27.623 Y50.939 E.00121
G1 X46.281 Y69.597 E.19044
G1 X46.114 Y69.597 E.0012
G1 X27.623 Y51.106 E.18873
G1 X27.623 Y51.273 E.00121
G1 X45.947 Y69.597 E.18703
G1 X45.78 Y69.597 E.0012
G1 X27.623 Y51.44 E.18533
G1 X27.623 Y51.607 E.00121
G1 X45.613 Y69.597 E.18362
G1 X45.447 Y69.597 E.0012
G1 X27.623 Y51.774 E.18192
G1 X27.623 Y51.941 E.00121
G1 X45.28 Y69.597 E.18022
G1 X45.113 Y69.598 E.0012
G1 X27.623 Y52.108 E.17851
G1 X27.623 Y52.275 E.00121
G1 X44.946 Y69.598 E.17681
G1 X44.779 Y69.598 E.0012
G1 X27.623 Y52.442 E.17511
G1 X27.623 Y52.609 E.00121
G1 X44.612 Y69.598 E.1734
G1 X44.445 Y69.598 E.0012
G1 X27.623 Y52.776 E.1717
G1 X27.623 Y52.943 E.00121
G1 X44.278 Y69.598 E.17
G1 X44.111 Y69.598 E.0012
G1 X27.623 Y53.11 E.16829
G1 X27.623 Y53.277 E.00121
G1 X43.944 Y69.598 E.16659
G1 X43.778 Y69.598 E.0012
G1 X27.623 Y53.444 E.16489
G1 X27.623 Y53.611 E.00121
G1 X43.611 Y69.599 E.16318
G1 X43.444 Y69.599 E.0012
G1 X27.623 Y53.778 E.16148
G1 X27.623 Y53.945 E.00121
G1 X43.277 Y69.599 E.15978
G1 X43.11 Y69.599 E.0012
G1 X27.623 Y54.112 E.15807
G1 X27.623 Y54.279 E.00121
G1 X42.943 Y69.599 E.15637
G1 X42.776 Y69.599 E.0012
G1 X27.623 Y54.446 E.15467
G1 X27.623 Y54.613 E.00121
G1 X42.609 Y69.599 E.15296
G1 X42.442 Y69.599 E.0012
G1 X27.623 Y54.78 E.15126
G1 X27.623 Y54.947 E.00121
G1 X42.276 Y69.6 E.14956
G1 X42.109 Y69.6 E.0012
G1 X27.623 Y55.114 E.14785
G1 X27.623 Y55.281 E.00121
G1 X41.942 Y69.6 E.14615
G1 X41.775 Y69.6 E.0012
G1 X27.623 Y55.448 E.14444
G1 X27.623 Y55.615 E.00121
G1 X41.608 Y69.6 E.14274
G1 X41.441 Y69.6 E.0012
G1 X27.623 Y55.782 E.14104
G1 X27.623 Y55.949 E.00121
G1 X41.274 Y69.6 E.13933
G1 X41.107 Y69.6 E.0012
G1 X27.623 Y56.116 E.13763
G1 X27.623 Y56.283 E.00121
G1 X40.94 Y69.6 E.13593
G1 X40.773 Y69.601 E.0012
G1 X27.623 Y56.45 E.13422
G1 X27.623 Y56.617 E.00121
G1 X40.607 Y69.601 E.13252
G1 X40.44 Y69.601 E.0012
G1 X27.623 Y56.784 E.13082
G1 X27.623 Y56.951 E.00121
G1 X40.273 Y69.601 E.12911
G1 X40.106 Y69.601 E.0012
G1 X27.623 Y57.118 E.12741
G1 X27.623 Y57.285 E.00121
G1 X39.939 Y69.601 E.12571
G1 X39.772 Y69.601 E.0012
G1 X27.623 Y57.452 E.124
G1 X27.623 Y57.619 E.00121
G1 X39.605 Y69.601 E.1223
G1 X39.438 Y69.601 E.0012
G1 X27.623 Y57.786 E.1206
G1 X27.623 Y57.953 E.00121
G1 X39.271 Y69.602 E.11889
G1 X39.105 Y69.602 E.0012
G1 X27.623 Y58.12 E.11719
G1 X27.623 Y58.287 E.00121
G1 X38.938 Y69.602 E.11549
G1 X38.771 Y69.602 E.0012
G1 X27.623 Y58.454 E.11378
G1 X27.623 Y58.621 E.00121
G1 X38.604 Y69.602 E.11208
G1 X38.437 Y69.602 E.0012
G1 X27.623 Y58.788 E.11038
G1 X27.623 Y58.955 E.00121
G1 X38.27 Y69.602 E.10867
G1 X38.103 Y69.602 E.0012
G1 X27.623 Y59.122 E.10697
G1 X27.623 Y59.289 E.00121
G1 X37.936 Y69.602 E.10527
G1 X37.769 Y69.603 E.0012
G1 X27.623 Y59.456 E.10356
G1 X27.623 Y59.623 E.00121
G1 X37.603 Y69.603 E.10186
G1 X37.436 Y69.603 E.0012
G1 X27.623 Y59.79 E.10015
G1 X27.623 Y59.957 E.00121
G1 X37.269 Y69.603 E.09845
M73 P4 R28
G1 X37.102 Y69.603 E.0012
G1 X27.623 Y60.124 E.09675
G1 X27.623 Y60.291 E.00121
G1 X36.935 Y69.603 E.09504
G1 X36.768 Y69.603 E.0012
G1 X27.623 Y60.458 E.09334
G1 X27.623 Y60.625 E.00121
G1 X36.601 Y69.603 E.09164
G1 X36.434 Y69.604 E.0012
G1 X27.623 Y60.792 E.08993
G1 X27.623 Y60.959 E.00121
G1 X36.267 Y69.604 E.08823
G1 X36.1 Y69.604 E.0012
G1 X27.623 Y61.126 E.08653
G1 X27.623 Y61.293 E.00121
G1 X35.934 Y69.604 E.08482
G1 X35.767 Y69.604 E.0012
G1 X27.623 Y61.46 E.08312
G1 X27.623 Y61.627 E.00121
G1 X35.6 Y69.604 E.08142
G1 X35.433 Y69.604 E.0012
G1 X27.623 Y61.794 E.07971
G1 X27.623 Y61.961 E.00121
G1 X35.266 Y69.604 E.07801
G1 X35.099 Y69.604 E.0012
G1 X27.623 Y62.128 E.07631
G1 X27.623 Y62.295 E.00121
G1 X34.932 Y69.605 E.0746
G1 X34.765 Y69.605 E.0012
G1 X27.623 Y62.462 E.0729
G1 X27.623 Y62.629 E.00121
G1 X34.598 Y69.605 E.0712
G1 X34.432 Y69.605 E.0012
G1 X27.623 Y62.796 E.06949
G1 X27.623 Y62.963 E.00121
G1 X34.265 Y69.605 E.06779
G1 X34.098 Y69.605 E.0012
G1 X27.623 Y63.13 E.06609
