; HEADER_BLOCK_START
; generated by OrcaSlicer 1.6.2 on 2023-05-14 at 19:46:37
; total layer number: 56
; HEADER_BLOCK_END

; THUMBNAIL_BLOCK_START
; THUMBNAIL_BLOCK_END

; external perimeters extrusion width = 0.15mm
; perimeters extrusion width = 0.15mm
; infill extrusion width = 0.15mm
; solid infill extrusion width = 0.15mm
; top infill extrusion width = 0.15mm
; first layer extrusion width = 0.15mm

; EXECUTABLE_BLOCK_START
EXCLUDE_OBJECT_DEFINE NAME=LogoVancouver.STL_id_0_copy_0 CENTER=60,59.9997 POLYGON=[[45.742,54.4031],[45.946,54.4031],[74.258,55.1171],[74.258,65.5772],[69.3498,65.5805],[64.7664,65.5835],[47.3166,65.5952],[45.742,65.5962],[45.742,54.4031]]
M73 P0 R12
M73 C10
;TYPE:Custom
START_PRINT T_BED=60 T_EXTRUDER=220
G90
G21
M83 ; use relative distances for extrusion
; filament start gcode

    PRESSURE_ADVANCE_SELECT FILAMENT=PLA
M106 S0
;LAYER_CHANGE
;Z:0.08
;HEIGHT:0.08
;BEFORE_LAYER_CHANGE
;0.08
G92 E0

;AFTER_LAYER_CHANGE
;0.08
M204 S500
G1 E-.8 F3000
G1 Z.2 F21000
G1 X43.868 Y53.13
G1 Z.08
G1 E.8 F1800
;TYPE:Skirt
;WIDTH:0.15
G1 F3000
G1 X44.906 Y52.297 E.00576
G1 X46.003 Y52.138 E.0048
G1 X74.315 Y52.852 E.12262
G1 X75.577 Y53.275 E.00576
G1 X76.384 Y54.334 E.00576
G1 X76.524 Y55.117 E.00344
G1 X76.524 Y65.577 E.04529
G1 X76.132 Y66.85 E.00576
G1 X75.094 Y67.683 E.00576
G1 X74.259 Y67.843 E.00368
G1 X45.744 Y67.862 E.12346
G1 X44.471 Y67.472 E.00576
G1 X43.637 Y66.434 E.00576
G1 X43.476 Y65.596 E.00369
G1 X43.476 Y54.403 E.04846
G1 X43.861 Y53.152 E.00567
G1 X43.993 Y53.194 F21000
G1 F3000
G1 X44 Y53.173 E.0001
G1 X45.029 Y52.393 E.00559
G1 X46 Y52.271 E.00424
G1 X74.312 Y52.985 E.12262
G1 X75.532 Y53.406 E.00559
G1 X76.285 Y54.455 E.00559
G1 X76.391 Y55.117 E.0029
G1 X76.391 Y65.577 E.04529
G1 X76 Y66.807 E.00559
G1 X74.971 Y67.587 E.00559
G1 X74.259 Y67.71 E.00313
G1 X45.743 Y67.729 E.12346
G1 X44.513 Y67.339 E.00559
G1 X43.733 Y66.311 E.00559
G1 X43.609 Y65.596 E.00314
G1 X43.609 Y54.403 E.04846
G1 X43.986 Y53.215 E.0054
; printing object LogoVancouver.STL id:0 copy 0
EXCLUDE_OBJECT_START NAME=LogoVancouver.STL_id_0_copy_0
G1 E-.8
G1 Z.28 F21000
G1 X64.925 Y61.186 Z.08
G1 E.8 F1800
;TYPE:Inner wall
G1 F3000
G1 X65.287 Y59.37 E.00801
G1 X66.631 Y60.635 E.00799
G1 X70.355 Y57.897 E.02001
G1 X73.812 Y55.458 E.01832
G1 X73.917 Y55.458 E.00046
G1 X73.917 Y65.237 E.04234
G1 X46.083 Y65.255 E.12051
G1 X46.083 Y54.919 E.04475
M73 P1 R12
G1 X55.756 Y61.829 E.05147
M73 P1 R11
G1 X58.155 Y59.457 E.01461
G1 X61.065 Y61.843 E.01629
G1 X61.657 Y61.258 E.0036
G1 X61.736 Y61.515 E.00116
G1 X62.302 Y61.524 E.00245
G1 X62.709 Y60.34 E.00542
G1 X63.896 Y59.612 E.00603
G1 X64.296 Y61.224 E.00719
G1 X64.92 Y61.21 E.0027
G1 X64.921 Y61.208 E.00001
G1 X64.798 Y61.08 F21000
G1 F3000
G1 X64.811 Y61.079 E.00005
G1 X65.203 Y59.11 E.0087
G1 X66.641 Y60.462 E.00855
G1 X70.278 Y57.789 E.01954
G1 X73.77 Y55.325 E.0185
G1 X74.05 Y55.325 E.00121
G1 X74.05 Y65.369 E.04349
G1 X45.95 Y65.388 E.12166
G1 X45.95 Y54.661 E.04644
G1 X55.742 Y61.656 E.0521
G1 X58.147 Y59.279 E.01464
G1 X61.057 Y61.664 E.01629
G1 X61.72 Y61.009 E.00403
G1 X61.835 Y61.384 E.0017
G1 X62.208 Y61.39 E.00162
G1 X62.599 Y60.252 E.00521
G1 X63.981 Y59.404 E.00702
G1 X64.399 Y61.089 E.00752
G1 X64.776 Y61.08 E.00163
G1 X64.701 Y60.949 F21000
;TYPE:Outer wall
G1 F3000
G1 X65.12 Y58.849 E.00927
G1 X66.652 Y60.29 E.00911
G1 X70.2 Y57.681 E.01907
G1 X73.727 Y55.192 E.01869
G1 X74.183 Y55.192 E.00197
G1 X74.183 Y65.502 E.04464
G1 X45.817 Y65.521 E.12281
G1 X45.817 Y54.478 E.04781
G1 X45.922 Y54.478 E.00045
G1 X55.728 Y61.483 E.05218
G1 X58.138 Y59.1 E.01467
G1 X61.049 Y61.486 E.01629
G1 X61.783 Y60.76 E.00447
G1 X61.934 Y61.253 E.00223
G1 X62.114 Y61.256 E.00078
G1 X62.489 Y60.164 E.005
G1 X64.066 Y59.196 E.00801
G1 X64.503 Y60.954 E.00784
G1 X64.679 Y60.95 E.00076
G1 X64.727 Y60.964
G1 E-.8
G1 Z.28 F21000
G1 X73.698 Y55.587 Z.08
G1 E.8 F1800
;TYPE:Bottom surface
;WIDTH:0.150414
G1 F6300
G1 X73.818 Y55.707 E.00074
G1 X73.818 Y55.896 E.00082
G1 X73.63 Y55.708 E.00115
G1 X73.519 Y55.786 E.00059
G1 X73.818 Y56.084 E.00183
G1 X73.818 Y56.273 E.00082
G1 X73.409 Y55.864 E.00251
G1 X73.299 Y55.942 E.00059
G1 X73.818 Y56.461 E.00319
G1 X73.818 Y56.649 E.00082
G1 X73.188 Y56.02 E.00387
G1 X73.078 Y56.098 E.00059
G1 X73.818 Y56.838 E.00455
G1 X73.818 Y57.026 E.00082
G1 X72.967 Y56.176 E.00522
G1 X72.857 Y56.254 E.00059
G1 X73.818 Y57.215 E.0059
M73 P2 R11
G1 X73.818 Y57.403 E.00082
G1 X72.746 Y56.332 E.00658
G1 X72.636 Y56.41 E.00059
G1 X73.818 Y57.592 E.00726
G1 X73.818 Y57.78 E.00082
G1 X72.525 Y56.488 E.00794
G1 X72.415 Y56.566 E.00059
G1 X73.818 Y57.969 E.00862
G1 X73.818 Y58.157 E.00082
G1 X72.304 Y56.644 E.0093
G1 X72.194 Y56.722 E.00059
G1 X73.818 Y58.345 E.00997
G1 X73.818 Y58.534 E.00082
G1 X72.083 Y56.799 E.01065
G1 X71.973 Y56.877 E.00059
G1 X73.818 Y58.722 E.01133
G1 X73.818 Y58.911 E.00082
G1 X71.862 Y56.955 E.01201
G1 X71.752 Y57.033 E.00059
G1 X73.818 Y59.099 E.01269
G1 X73.818 Y59.288 E.00082
G1 X71.641 Y57.111 E.01337
G1 X71.531 Y57.189 E.00059
G1 X73.818 Y59.476 E.01405
G1 X73.818 Y59.664 E.00082
G1 X71.42 Y57.267 E.01472
G1 X71.31 Y57.345 E.00059
G1 X73.818 Y59.853 E.0154
G1 X73.818 Y60.041 E.00082
G1 X71.2 Y57.423 E.01608
G1 X71.089 Y57.501 E.00059
G1 X73.818 Y60.23 E.01676
G1 X73.818 Y60.418 E.00082
G1 X70.979 Y57.579 E.01744
G1 X70.868 Y57.657 E.00059
G1 X73.818 Y60.607 E.01812
G1 X73.818 Y60.795 E.00082
G1 X70.758 Y57.735 E.0188
G1 X70.647 Y57.813 E.00059
G1 X73.818 Y60.984 E.01947
G1 X73.818 Y61.172 E.00082
G1 X70.537 Y57.891 E.02015
M73 C9
G1 X70.426 Y57.969 E.00059
G1 X73.818 Y61.36 E.02083
G1 X73.818 Y61.549 E.00082
G1 X70.317 Y58.049 E.0215
G1 X70.209 Y58.128 E.00059
G1 X73.818 Y61.737 E.02217
G1 X73.818 Y61.926 E.00082
G1 X70.1 Y58.208 E.02283
G1 X69.992 Y58.288 E.00059
G1 X73.818 Y62.114 E.0235
G1 X73.818 Y62.303 E.00082
G1 X69.883 Y58.368 E.02417
G1 X69.774 Y58.448 E.00059
G1 X73.818 Y62.491 E.02483
G1 X73.818 Y62.679 E.00082
G1 X69.666 Y58.528 E.0255
G1 X69.557 Y58.607 E.00059
G1 X73.818 Y62.868 E.02617
G1 X73.818 Y63.056 E.00082
G1 X69.449 Y58.687 E.02684
G1 X69.34 Y58.767 E.00059
G1 X73.818 Y63.245 E.0275
G1 X73.818 Y63.433 E.00082
G1 X69.231 Y58.847 E.02817
G1 X69.123 Y58.927 E.00059
G1 X73.818 Y63.622 E.02884
G1 X73.818 Y63.81 E.00082
G1 X69.014 Y59.007 E.0295
G1 X68.905 Y59.086 E.00059
G1 X73.818 Y63.999 E.03017
G1 X73.818 Y64.187 E.00082
G1 X68.797 Y59.166 E.03084
G1 X68.688 Y59.246 E.00059
G1 X73.818 Y64.375 E.03151
G1 X73.818 Y64.564 E.00082
G1 X68.58 Y59.326 E.03217
G1 X68.471 Y59.406 E.00059
G1 X73.818 Y64.752 E.03284
G1 X73.818 Y64.941 E.00082
G1 X68.362 Y59.486 E.03351
G1 X68.254 Y59.565 E.00059
G1 X73.818 Y65.137 E.0342
G1 X73.637 Y65.137 E.00078
G1 X68.145 Y59.645 E.03373
M73 P3 R11
G1 X68.037 Y59.725 E.00059
G1 X73.449 Y65.137 E.03324
G1 X73.261 Y65.138 E.00082
G1 X67.928 Y59.805 E.03275
G1 X67.819 Y59.885 E.00059
G1 X73.072 Y65.138 E.03226
G1 X72.884 Y65.138 E.00082
G1 X67.711 Y59.965 E.03178
G1 X67.602 Y60.044 E.00059
G1 X72.696 Y65.138 E.03129
G1 X72.507 Y65.138 E.00082
G1 X67.494 Y60.124 E.0308
G1 X67.385 Y60.204 E.00059
G1 X72.319 Y65.138 E.03031
G1 X72.131 Y65.138 E.00082
G1 X67.276 Y60.284 E.02982
G1 X67.168 Y60.364 E.00059
G1 X71.943 Y65.138 E.02933
G1 X71.754 Y65.139 E.00082
G1 X67.059 Y60.444 E.02884
G1 X66.951 Y60.523 E.00059
G1 X71.566 Y65.139 E.02835
G1 X71.378 Y65.139 E.00082
G1 X66.842 Y60.603 E.02786
G1 X66.733 Y60.683 E.00059
G1 X71.189 Y65.139 E.02737
G1 X71.001 Y65.139 E.00082
G1 X66.625 Y60.763 E.02688
G1 X65.349 Y59.566 E.0076
G1 X65.331 Y59.657 E.0004
G1 X70.813 Y65.139 E.03367
G1 X70.624 Y65.139 E.00082
G1 X65.3 Y59.815 E.03271
G1 X65.268 Y59.972 E.0007
G1 X70.436 Y65.139 E.03174
G1 X70.248 Y65.14 E.00082
G1 X65.237 Y60.129 E.03078
G1 X65.206 Y60.286 E.0007
G1 X70.059 Y65.14 E.02981
G1 X69.871 Y65.14 E.00082
G1 X65.174 Y60.443 E.02885
G1 X65.143 Y60.6 E.0007
G1 X69.683 Y65.14 E.02788
G1 X69.494 Y65.14 E.00082
G1 X65.112 Y60.757 E.02692
G1 X65.08 Y60.915 E.0007
G1 X69.306 Y65.14 E.02595
G1 X69.118 Y65.14 E.00082
G1 X65.049 Y61.072 E.02499
G1 X65.018 Y61.229 E.0007
G1 X68.93 Y65.14 E.02403
G1 X68.741 Y65.141 E.00082
G1 X64.91 Y61.31 E.02353
G1 X64.726 Y61.314 E.0008
G1 X68.553 Y65.141 E.02351
G1 X68.365 Y65.141 E.00082
G1 X64.484 Y61.26 E.02384
G1 E-.8 F3000
G1 Z.28 F21000
G1 X63.942 Y59.965 Z.08
G1 E.8 F1800
G1 F6300
G1 X63.779 Y59.801 E.00101
G1 X63.662 Y59.873 E.0006
G1 X63.923 Y60.133 E.0016
G1 X63.985 Y60.384 E.00112
G1 X63.545 Y59.944 E.0027
G1 X63.428 Y60.016 E.0006
G1 X64.047 Y60.635 E.0038
G1 X64.109 Y60.885 E.00112
G1 X63.311 Y60.088 E.0049
G1 X63.195 Y60.159 E.0006
G1 X64.171 Y61.136 E.006
G1 X64.219 Y61.326 E.00085
G1 X64.358 Y61.322 E.0006
G1 X68.176 Y65.141 E.02345
G1 X67.988 Y65.141 E.00082
G1 X63.078 Y60.231 E.03016
G1 X62.961 Y60.303 E.0006
G1 X67.8 Y65.141 E.02972
G1 X67.611 Y65.141 E.00082
G1 X62.844 Y60.374 E.02928
M73 P4 R11
G1 X62.792 Y60.406 E.00027
G1 X62.765 Y60.483 E.00035
G1 X67.423 Y65.141 E.02861
G1 X67.235 Y65.142 E.00082
G1 X62.717 Y60.624 E.02775
G1 X62.669 Y60.764 E.00064
G1 X67.046 Y65.142 E.02689
G1 X66.858 Y65.142 E.00082
G1 X62.621 Y60.904 E.02603
G1 X62.572 Y61.045 E.00064
G1 X66.67 Y65.142 E.02517
G1 X66.481 Y65.142 E.00082
G1 X62.524 Y61.185 E.02431
G1 X62.476 Y61.325 E.00064
G1 X66.293 Y65.142 E.02345
G1 X66.105 Y65.142 E.00082
G1 X62.428 Y61.465 E.02258
G1 X62.38 Y61.606 E.00064
G1 X65.917 Y65.142 E.02172
G1 X65.728 Y65.143 E.00082
G1 X62.208 Y61.622 E.02162
G1 X62.016 Y61.619 E.00083
G1 X65.54 Y65.143 E.02164
G1 X65.352 Y65.143 E.00082
G1 X61.825 Y61.616 E.02166
G1 X61.662 Y61.613 E.00071
G1 X61.61 Y61.444 E.00077
G1 X61.537 Y61.517 E.00045
G1 X65.163 Y65.143 E.02227
G1 X64.975 Y65.143 E.00082
G1 X61.442 Y61.61 E.0217
G1 X61.348 Y61.704 E.00058
G1 X64.787 Y65.143 E.02112
G1 X64.598 Y65.143 E.00082
G1 X61.253 Y61.798 E.02055
G1 X61.158 Y61.891 E.00058
G1 X64.41 Y65.143 E.01997
G1 X64.222 Y65.144 E.00082
G1 X60.978 Y61.9 E.01992
G1 X59.934 Y61.044 E.00587
G1 X64.033 Y65.144 E.02518
G1 X63.845 Y65.144 E.00082
G1 X58.889 Y60.188 E.03044
G1 X58.161 Y59.591 E.00408
G1 X58.133 Y59.62 E.00018
G1 X63.657 Y65.144 E.03393
G1 X63.468 Y65.144 E.00082
G1 X58.038 Y59.713 E.03336
G1 X57.943 Y59.807 E.00058
G1 X63.28 Y65.144 E.03278
G1 X63.092 Y65.144 E.00082
G1 X57.848 Y59.901 E.03221
G1 X57.753 Y59.994 E.00058
G1 X62.904 Y65.144 E.03163
G1 X62.715 Y65.145 E.00082
G1 X57.659 Y60.088 E.03106
G1 X57.564 Y60.182 E.00058
G1 X62.527 Y65.145 E.03048
G1 X62.339 Y65.145 E.00082
G1 X57.469 Y60.275 E.02991
G1 X57.374 Y60.369 E.00058
G1 X62.15 Y65.145 E.02933
G1 X61.962 Y65.145 E.00082
G1 X57.28 Y60.463 E.02876
G1 X57.185 Y60.556 E.00058
G1 X61.774 Y65.145 E.02818
G1 X61.585 Y65.145 E.00082
G1 X57.09 Y60.65 E.02761
G1 X56.995 Y60.744 E.00058
G1 X61.397 Y65.145 E.02704
G1 X61.209 Y65.146 E.00082
G1 X56.901 Y60.837 E.02646
G1 X56.806 Y60.931 E.00058
G1 X61.02 Y65.146 E.02589
G1 X60.832 Y65.146 E.00082
G1 X56.711 Y61.025 E.02531
G1 X56.616 Y61.119 E.00058
G1 X60.644 Y65.146 E.02474
M73 P5 R11
G1 X60.455 Y65.146 E.00082
G1 X56.522 Y61.212 E.02416
G1 X56.427 Y61.306 E.00058
G1 X60.267 Y65.146 E.02359
G1 X60.079 Y65.146 E.00082
G1 X56.332 Y61.4 E.02301
G1 X56.237 Y61.493 E.00058
G1 X59.891 Y65.147 E.02244
G1 X59.702 Y65.147 E.00082
G1 X56.142 Y61.587 E.02186
G1 X56.048 Y61.681 E.00058
G1 X59.514 Y65.147 E.02129
G1 X59.326 Y65.147 E.00082
G1 X55.953 Y61.774 E.02072
G1 X55.858 Y61.868 E.00058
G1 X59.137 Y65.147 E.02014
G1 X58.949 Y65.147 E.00082
G1 X55.746 Y61.944 E.01967
G1 X55.086 Y61.473 E.00352
G1 X58.761 Y65.147 E.02257
G1 X58.572 Y65.147 E.00082
G1 X54.427 Y61.002 E.02546
G1 X53.767 Y60.531 E.00352
G1 X58.384 Y65.148 E.02836
G1 X58.196 Y65.148 E.00082
G1 X53.108 Y60.06 E.03125
G1 X52.448 Y59.589 E.00352
G1 X58.007 Y65.148 E.03414
G1 X57.819 Y65.148 E.00082
G1 X51.789 Y59.118 E.03704
G1 X51.129 Y58.646 E.00352
G1 X57.631 Y65.148 E.03993
G1 X57.442 Y65.148 E.00082
G1 X50.47 Y58.175 E.04283
G1 X49.81 Y57.704 E.00352
G1 X57.254 Y65.148 E.04572
G1 X57.066 Y65.148 E.00082
G1 X49.151 Y57.233 E.04862
G1 X48.491 Y56.762 E.00352
G1 X56.878 Y65.149 E.05151
G1 X56.689 Y65.149 E.00082
G1 X47.832 Y56.291 E.0544
G1 X47.172 Y55.82 E.00352
G1 X56.501 Y65.149 E.0573
G1 X56.313 Y65.149 E.00082
G1 X46.513 Y55.349 E.06019
G1 X46.182 Y55.113 E.00176
G1 X46.182 Y55.207 E.00041
G1 X56.124 Y65.149 E.06106
G1 X55.936 Y65.149 E.00082
G1 X46.182 Y55.395 E.05991
G1 X46.182 Y55.584 E.00082
G1 X55.748 Y65.149 E.05875
G1 X55.559 Y65.149 E.00082
G1 X46.182 Y55.772 E.0576
G1 X46.182 Y55.961 E.00082
G1 X55.371 Y65.15 E.05644
G1 X55.183 Y65.15 E.00082
G1 X46.182 Y56.149 E.05528
G1 X46.182 Y56.338 E.00082
G1 X54.994 Y65.15 E.05413
M73 P6 R11
G1 X54.806 Y65.15 E.00082
G1 X46.182 Y56.526 E.05297
G1 X46.182 Y56.715 E.00082
G1 X54.618 Y65.15 E.05181
G1 X54.429 Y65.15 E.00082
G1 X46.182 Y56.903 E.05066
G1 X46.182 Y57.091 E.00082
G1 X54.241 Y65.15 E.0495
G1 X54.053 Y65.15 E.00082
G1 X46.182 Y57.28 E.04834
G1 X46.182 Y57.468 E.00082
G1 X53.865 Y65.151 E.04719
G1 X53.676 Y65.151 E.00082
G1 X46.182 Y57.657 E.04603
G1 X46.182 Y57.845 E.00082
G1 X53.488 Y65.151 E.04487
G1 X53.3 Y65.151 E.00082
G1 X46.182 Y58.034 E.04372
G1 X46.182 Y58.222 E.00082
G1 X53.111 Y65.151 E.04256
G1 X52.923 Y65.151 E.00082
G1 X46.182 Y58.41 E.0414
G1 X46.182 Y58.599 E.00082
G1 X52.735 Y65.151 E.04025
G1 X52.546 Y65.151 E.00082
G1 X46.182 Y58.787 E.03909
G1 X46.182 Y58.976 E.00082
G1 X52.358 Y65.152 E.03793
G1 X52.17 Y65.152 E.00082
G1 X46.182 Y59.164 E.03678
G1 X46.182 Y59.353 E.00082
G1 X51.981 Y65.152 E.03562
G1 X51.793 Y65.152 E.00082
G1 X46.182 Y59.541 E.03446
G1 X46.182 Y59.73 E.00082
G1 X51.605 Y65.152 E.03331
G1 X51.416 Y65.152 E.00082
G1 X46.182 Y59.918 E.03215
G1 X46.182 Y60.106 E.00082
G1 X51.228 Y65.152 E.03099
G1 X51.04 Y65.152 E.00082
G1 X46.182 Y60.295 E.02984
G1 X46.182 Y60.483 E.00082
G1 X50.852 Y65.153 E.02868
G1 X50.663 Y65.153 E.00082
G1 X46.182 Y60.672 E.02752
G1 X46.182 Y60.86 E.00082
G1 X50.475 Y65.153 E.02637
G1 X50.287 Y65.153 E.00082
G1 X46.182 Y61.049 E.02521
G1 X46.182 Y61.237 E.00082
G1 X50.098 Y65.153 E.02405
G1 X49.91 Y65.153 E.00082
G1 X46.182 Y61.426 E.0229
G1 X46.182 Y61.614 E.00082
G1 X49.722 Y65.153 E.02174
G1 X49.533 Y65.153 E.00082
G1 X46.182 Y61.802 E.02058
G1 X46.182 Y61.991 E.00082
G1 X49.345 Y65.154 E.01943
G1 X49.157 Y65.154 E.00082
G1 X46.182 Y62.179 E.01827
G1 X46.182 Y62.368 E.00082
G1 X48.968 Y65.154 E.01711
M73 P7 R11
G1 X48.78 Y65.154 E.00082
G1 X46.182 Y62.556 E.01596
G1 X46.182 Y62.745 E.00082
G1 X48.592 Y65.154 E.0148
G1 X48.403 Y65.154 E.00082
G1 X46.182 Y62.933 E.01364
G1 X46.182 Y63.121 E.00082
G1 X48.215 Y65.154 E.01249
G1 X48.027 Y65.154 E.00082
G1 X46.182 Y63.31 E.01133
G1 X46.182 Y63.498 E.00082
G1 X47.839 Y65.155 E.01017
G1 X47.65 Y65.155 E.00082
G1 X46.182 Y63.687 E.00902
G1 X46.182 Y63.875 E.00082
G1 X47.462 Y65.155 E.00786
G1 X47.274 Y65.155 E.00082
G1 X46.182 Y64.064 E.0067
G1 X46.182 Y64.252 E.00082
G1 X47.085 Y65.155 E.00555
G1 X46.897 Y65.155 E.00082
G1 X46.182 Y64.441 E.00439
G1 X46.182 Y64.629 E.00082
G1 X46.709 Y65.155 E.00323
G1 X46.52 Y65.155 E.00082
G1 X46.182 Y64.817 E.00208
G1 X46.182 Y65.006 E.00082
G1 X46.392 Y65.215 E.00129
; stop printing object LogoVancouver.STL id:0 copy 0
EXCLUDE_OBJECT_END NAME=LogoVancouver.STL_id_0_copy_0
M106 S255
;LAYER_CHANGE
;Z:0.16
;HEIGHT:0.08
;BEFORE_LAYER_CHANGE
;0.16
G92 E0

;AFTER_LAYER_CHANGE
;0.16
M204 S5000
M140 S60 ; set bed temperature
; printing object LogoVancouver.STL id:0 copy 0
EXCLUDE_OBJECT_START NAME=LogoVancouver.STL_id_0_copy_0
M204 S6000
G1 E-.8 F3000
G1 Z.28 F21000
G1 X64.925 Y61.186
G1 Z.16
G1 E.8 F1800
M204 S5000
;TYPE:Inner wall
;WIDTH:0.15
G1 F12000
G1 X65.287 Y59.37 E.00801
G1 X66.631 Y60.635 E.00799
G1 X70.355 Y57.897 E.02001
G1 X73.812 Y55.458 E.01832
G1 X73.917 Y55.458 E.00046
G1 X73.917 Y65.237 E.04234
G1 X46.083 Y65.255 E.12051
G1 X46.083 Y54.919 E.04475
G1 X55.756 Y61.829 E.05147
G1 X58.155 Y59.457 E.01461
G1 X61.065 Y61.843 E.01629
G1 X61.657 Y61.258 E.0036
G1 X61.736 Y61.515 E.00116
G1 X62.302 Y61.524 E.00245
G1 X62.709 Y60.34 E.00542
G1 X63.896 Y59.612 E.00603
G1 X64.296 Y61.224 E.00719
