; HEADER_BLOCK_START
; generated by OrcaSlicer 1.6.3 on 2023-07-04 at 15:55:09
; total layer number: 49
; HEADER_BLOCK_END

; THUMBNAIL_BLOCK_START
; THUMBNAIL_BLOCK_END

; external perimeters extrusion width = 0.17mm
; perimeters extrusion width = 0.17mm
; infill extrusion width = 0.17mm
; solid infill extrusion width = 0.17mm
; top infill extrusion width = 0.15mm
; first layer extrusion width = 0.20mm

; external perimeters extrusion width = 0.17mm
; perimeters extrusion width = 0.17mm
; infill extrusion width = 0.17mm
; solid infill extrusion width = 0.17mm
; top infill extrusion width = 0.15mm
; first layer extrusion width = 0.20mm

; external perimeters extrusion width = 0.17mm
; perimeters extrusion width = 0.17mm
; infill extrusion width = 0.17mm
; solid infill extrusion width = 0.17mm
; top infill extrusion width = 0.15mm
; first layer extrusion width = 0.20mm

; external perimeters extrusion width = 0.17mm
; perimeters extrusion width = 0.17mm
; infill extrusion width = 0.17mm
; solid infill extrusion width = 0.17mm
; top infill extrusion width = 0.15mm
; first layer extrusion width = 0.20mm

; EXECUTABLE_BLOCK_START
EXCLUDE_OBJECT_DEFINE NAME=LogoMountains.STL_id_0_copy_0 CENTER=60,77.25 POLYGON=[[45.742,74.5458],[45.9237,74.3652],[45.9512,74.3425],[45.9788,74.326],[46.0094,74.3131],[46.0435,74.304],[46.0795,74.2989],[49.8026,74.0962],[51.902,74.0465],[57.1344,74],[66.7545,74.0505],[67.1921,74.0608],[67.6286,74.1272],[74.258,75.3242],[74.258,75.6695],[66.6578,79.5808],[64.6042,80.2434],[61.0441,80.5],[55.7205,80.5],[45.742,75.1192],[45.742,74.5458]]
EXCLUDE_OBJECT_DEFINE NAME=LogoMountains.STL_id_1_copy_0 CENTER=60,65.75 POLYGON=[[45.742,63.0457],[45.9237,62.8652],[45.9512,62.8425],[45.9788,62.826],[46.0094,62.8131],[46.0435,62.804],[46.0795,62.7989],[49.8026,62.5962],[51.902,62.5465],[57.1344,62.5],[66.7545,62.5505],[67.1921,62.5608],[67.6286,62.6272],[74.258,63.8242],[74.258,64.1694],[66.6578,68.0808],[64.6042,68.7434],[61.0441,69],[55.7205,69],[45.742,63.6191],[45.742,63.0457]]
EXCLUDE_OBJECT_DEFINE NAME=LogoMountains.STL_id_2_copy_0 CENTER=60,54.25 POLYGON=[[45.742,51.5457],[45.9237,51.3652],[45.9512,51.3425],[45.9788,51.3259],[46.0094,51.3131],[46.0435,51.304],[46.0795,51.2989],[49.8026,51.0962],[51.902,51.0465],[57.1344,51],[66.7545,51.0505],[67.1921,51.0608],[67.6286,51.1272],[74.258,52.3242],[74.258,52.6694],[66.6578,56.5808],[64.6042,57.2434],[61.0441,57.5],[55.7205,57.5],[45.742,52.1191],[45.742,51.5457]]
EXCLUDE_OBJECT_DEFINE NAME=LogoMountains.STL_id_3_copy_0 CENTER=60,42.75 POLYGON=[[45.742,40.0457],[45.9237,39.8652],[45.9512,39.8425],[45.9788,39.8259],[46.0094,39.8131],[46.0435,39.804],[46.0795,39.7989],[49.8026,39.5961],[51.902,39.5465],[57.1344,39.5],[66.7545,39.5505],[67.1921,39.5608],[67.6286,39.6272],[74.258,40.8241],[74.258,41.1694],[66.6578,45.0808],[64.6042,45.7433],[61.0441,46],[55.7205,46],[45.742,40.6191],[45.742,40.0457]]
M73 P0 R36
M73 C26
;TYPE:Custom
START_PRINT T_BED=60 T_EXTRUDER=220
G90
G21
M83 ; use relative distances for extrusion
; filament start gcode

    PRESSURE_ADVANCE_SELECT FILAMENT=PLA
M106 S0
;LAYER_CHANGE
;Z:0.1
;HEIGHT:0.1
;BEFORE_LAYER_CHANGE
;0.1
G92 E0

;AFTER_LAYER_CHANGE
;0.1
M204 S500
G1 E-.8 F3000
G1 Z.2 F21000
G1 X44.08 Y38.374
G1 Z.1
G1 E.8 F1800
;TYPE:Skirt
;WIDTH:0.2
G1 F3000
G1 X44.451 Y38.024 E.00371
G1 X45.065 Y37.653 E.00521
G1 X45.951 Y37.445 E.00662
G1 X51.881 Y37.19 E.04317
G1 X66.767 Y37.193 E.10828
G1 X67.983 Y37.297 E.00888
G1 X74.677 Y38.505 E.04948
G1 X75.887 Y39.121 E.00988
G1 X76.615 Y40.824 E.01347
G1 X76.615 Y75.669 E.25348
G1 X76.224 Y76.97 E.00988
G1 X75.337 Y77.765 E.00866
G1 X67.736 Y81.677 E.06218
G1 X65.328 Y82.487 E.01848
G1 X64.774 Y82.594 E.00411
G1 X61.044 Y82.857 E.0272
G1 X55.721 Y82.857 E.03873
G1 X54.602 Y82.575 E.00839
G1 X44.623 Y77.194 E.08247
G1 X43.664 Y76.232 E.00988
G1 X43.385 Y75.119 E.00834
G1 X43.385 Y40.046 E.25514
G1 X44.072 Y38.395 E.01301
G1 X44.206 Y38.501 F21000
G1 F3000
G1 X44.565 Y38.162 E.00359
G1 X45.134 Y37.818 E.00484
G1 X45.961 Y37.624 E.00618
G1 X51.883 Y37.368 E.04312
G1 X66.766 Y37.372 E.10827
G1 X67.956 Y37.473 E.00869
G1 X74.645 Y38.68 E.04944
G1 X75.801 Y39.286 E.00949
G1 X76.436 Y40.824 E.01211
G1 X76.436 Y75.669 E.25348
G1 X76.046 Y76.914 E.00949
G1 X75.255 Y77.607 E.00764
G1 X67.655 Y81.518 E.06218
G1 X65.273 Y82.317 E.01827
G1 X64.761 Y82.416 E.0038
G1 X61.044 Y82.679 E.0271
G1 X55.721 Y82.679 E.03873
G1 X54.687 Y82.418 E.00776
G1 X44.708 Y77.037 E.08247
G1 X43.798 Y76.102 E.00949
G1 X43.564 Y75.119 E.00735
G1 X43.564 Y40.046 E.25514
G1 X44.198 Y38.521 E.01201
; printing object LogoMountains.STL id:0 copy 0
EXCLUDE_OBJECT_START NAME=LogoMountains.STL_id_0_copy_0
G1 E-.8
G1 Z.3 F21000
G1 X65.012 Y78.265 Z.1
G1 E.8 F1800
;TYPE:Outer wall
G1 F3000
G1 X64.594 Y79.885 E.01217
G1 X64.174 Y78.583 E.00994
G1 X62.35 Y79.446 E.01468
G1 X62.028 Y80.168 E.00575
G1 X61.862 Y79.751 E.00327
G1 X61.039 Y80.378 E.00753
G1 X58.128 Y78.54 E.02504
G1 X55.712 Y80.381 E.0221
G1 X45.972 Y75.019 E.08088
G1 X45.842 Y75.019 E.00094
G1 X45.842 Y74.646 E.00272
G1 X45.913 Y74.646 E.00051
G1 X45.956 Y74.49 E.00118
G1 X46.022 Y74.418 E.00071
G1 X46.086 Y74.401 E.00048
G1 X46.802 Y74.494 E.00525
G1 X47.363 Y74.539 E.0041
G1 X48.007 Y74.54 E.00469
G1 X48.43 Y74.517 E.00308
G1 X48.749 Y74.469 E.00235
G1 X49.588 Y74.232 E.00634
G1 X49.811 Y74.196 E.00164
G1 X50.673 Y74.194 E.00627
G1 X51.212 Y74.238 E.00393
G1 X51.909 Y74.147 E.00511
G1 X53.208 Y74.145 E.00945
G1 X53.598 Y74.152 E.00283
G1 X53.812 Y74.181 E.00158
G1 X54.392 Y74.368 E.00443
G1 X54.617 Y74.422 E.00168
G1 X54.84 Y74.446 E.00163
G1 X55.077 Y74.443 E.00172
G1 X56.08 Y74.266 E.00741
G1 X56.548 Y74.145 E.00351
G1 X56.754 Y74.111 E.00152
G1 X57.134 Y74.1 E.00277
G1 X57.735 Y74.125 E.00438
G1 X58.265 Y74.196 E.00389
G1 X58.681 Y74.307 E.00314
G1 X59.115 Y74.45 E.00332
G1 X59.396 Y74.516 E.0021
G1 X59.569 Y74.535 E.00127
G1 X59.774 Y74.521 E.00149
G1 X59.896 Y74.488 E.00092
G1 X60.398 Y74.288 E.00393
G1 X60.624 Y74.233 E.00169
G1 X60.909 Y74.198 E.00209
G1 X61.245 Y74.193 E.00244
G1 X61.715 Y74.239 E.00343
G1 X62.43 Y74.365 E.00528
G1 X62.578 Y74.374 E.00108
G1 X62.794 Y74.348 E.00159
G1 X63.168 Y74.233 E.00285
G1 X63.288 Y74.217 E.00088
G1 X63.476 Y74.216 E.00137
G1 X63.998 Y74.263 E.00381
G1 X65.14 Y74.297 E.00831
G1 X65.477 Y74.28 E.00246
G1 X66.074 Y74.199 E.00439
G1 X66.757 Y74.151 E.00498
G1 X67.183 Y74.161 E.0031
G1 X67.61 Y74.226 E.00314
G1 X68.533 Y74.426 E.00687
G1 X69.14 Y74.671 E.00476
G1 X69.77 Y74.846 E.00476
G1 X70.075 Y74.896 E.00225
G1 X70.748 Y74.921 E.0049
G1 X70.892 Y74.942 E.00106
G1 X71.014 Y74.976 E.00092
G1 X71.499 Y75.183 E.00384
G1 X71.738 Y75.186 E.00174
G1 X72.028 Y75.123 E.00215
G1 X72.281 Y75.102 E.00185
G1 X72.45 Y75.12 E.00123
G1 X73.112 Y75.273 E.00495
G1 X73.46 Y75.307 E.00254
G1 X73.529 Y75.331 E.00053
G1 X73.611 Y75.424 E.0009
G1 X74.158 Y75.424 E.00398
G1 X74.158 Y75.569 E.00106
G1 X73.678 Y75.569 E.00349
G1 X70.106 Y77.513 E.02958
G1 X66.664 Y79.462 E.02877
G1 X65.031 Y78.278 E.01468
G1 X64.983 Y78.261
G1 X64.905 Y77.967 F21000
;TYPE:Inner wall
G1 F3000
G1 X64.611 Y79.104 E.00855
G1 X64.531 Y79.107 E.00059
G1 X64.282 Y78.335 E.0059
G1 X62.214 Y79.313 E.01664
G1 X62.037 Y79.709 E.00316
G1 X61.941 Y79.467 E.0019
G1 X61.029 Y80.161 E.00834
G1 X58.119 Y78.323 E.02504
G1 X55.696 Y80.169 E.02216
G1 X46.041 Y74.853 E.08017
G1 X46.115 Y74.584 E.00203
G1 X46.783 Y74.672 E.0049
G1 X47.356 Y74.717 E.00418
G1 X48.012 Y74.719 E.00477
G1 X48.448 Y74.695 E.00318
G1 X48.787 Y74.644 E.00249
G1 X49.626 Y74.407 E.00635
G1 X49.825 Y74.375 E.00147
G1 X50.666 Y74.372 E.00612
G1 X51.216 Y74.417 E.00402
G1 X51.92 Y74.325 E.00516
G1 X53.584 Y74.33 E.0121
G1 X53.772 Y74.356 E.00139
G1 X54.344 Y74.54 E.00437
G1 X54.586 Y74.598 E.00181
G1 X54.831 Y74.625 E.00179
G1 X55.094 Y74.621 E.00191
G1 X56.118 Y74.441 E.00756
G1 X56.771 Y74.289 E.00488
G1 X57.132 Y74.279 E.00263
G1 X57.719 Y74.303 E.00427
G1 X58.23 Y74.372 E.00375
G1 X58.63 Y74.478 E.00301
G1 X59.067 Y74.622 E.00334
G1 X59.366 Y74.692 E.00224
G1 X59.566 Y74.714 E.00146
G1 X59.804 Y74.698 E.00173
G1 X59.953 Y74.658 E.00113
G1 X60.453 Y74.458 E.00392
G1 X60.656 Y74.409 E.00152
G1 X60.922 Y74.376 E.00194
G1 X61.238 Y74.372 E.0023
G1 X61.691 Y74.416 E.00331
G1 X62.409 Y74.543 E.00531
G1 X62.583 Y74.553 E.00127
G1 X62.831 Y74.523 E.00182
G1 X63.206 Y74.408 E.00285
G1 X63.3 Y74.396 E.00069
G1 X63.468 Y74.394 E.00122
G1 X63.987 Y74.441 E.00379
G1 X65.142 Y74.475 E.0084
G1 X65.494 Y74.458 E.00256
G1 X66.093 Y74.376 E.0044
G1 X66.761 Y74.329 E.00487
G1 X67.168 Y74.339 E.00296
G1 X67.578 Y74.401 E.00302
G1 X68.48 Y74.597 E.00672
G1 X69.082 Y74.841 E.00472
G1 X69.732 Y75.02 E.0049
G1 X70.057 Y75.074 E.0024
G1 X70.855 Y75.117 E.00581
G1 X71.462 Y75.361 E.00476
G1 X71.756 Y75.365 E.00214
G1 X72.054 Y75.3 E.00221
G1 X72.279 Y75.282 E.00164
G1 X72.42 Y75.297 E.00103
G1 X73.083 Y75.449 E.00495
G1 X73.323 Y75.473 E.00176
G1 X73.339 Y75.551 E.00058
G1 X70.019 Y77.356 E.02749
G1 X66.676 Y79.25 E.02795
G1 X64.923 Y77.98 E.01575
G1 X64.798 Y77.668 F21000
G1 F3000
G1 X64.592 Y78.464 E.00597
G1 X64.512 Y78.466 E.00059
G1 X64.39 Y78.087 E.0029
G1 X62.028 Y79.203 E.019
G1 X62.02 Y79.182 E.00016
G1 X61.02 Y79.944 E.00915
G1 X58.109 Y78.106 E.02504
G1 X55.68 Y79.956 E.02221
G1 X46.501 Y74.903 E.07622
G1 X46.529 Y74.819 E.00065
G1 X47.348 Y74.896 E.00599
G1 X48.017 Y74.897 E.00486
G1 X48.466 Y74.873 E.00328
G1 X48.824 Y74.819 E.00263
G1 X49.665 Y74.582 E.00635
G1 X49.84 Y74.553 E.00129
G1 X50.659 Y74.551 E.00596
G1 X51.221 Y74.596 E.0041
G1 X51.932 Y74.504 E.00522
G1 X53.57 Y74.508 E.01191
G1 X53.732 Y74.531 E.00119
G1 X54.296 Y74.712 E.0043
G1 X54.555 Y74.774 E.00194
G1 X54.823 Y74.803 E.00196
G1 X55.111 Y74.799 E.00209
G1 X56.156 Y74.616 E.00772
G1 X56.789 Y74.467 E.00473
G1 X57.131 Y74.457 E.00249
G1 X57.704 Y74.481 E.00417
G1 X58.195 Y74.547 E.00361
G1 X58.579 Y74.649 E.00289
G1 X59.018 Y74.794 E.00336
G1 X59.336 Y74.869 E.00237
G1 X59.562 Y74.894 E.00165
G1 X59.833 Y74.875 E.00198
G1 X60.01 Y74.828 E.00133
G1 X60.507 Y74.629 E.0039
G1 X60.934 Y74.554 E.00315
G1 X61.23 Y74.551 E.00215
G1 X61.666 Y74.593 E.00319
G1 X62.388 Y74.72 E.00533
G1 X62.589 Y74.732 E.00146
G1 X62.868 Y74.699 E.00205
G1 X63.312 Y74.574 E.00335
G1 X63.976 Y74.619 E.00484
G1 X65.143 Y74.654 E.00849
G1 X65.51 Y74.636 E.00267
G1 X66.111 Y74.554 E.00441
G1 X66.765 Y74.508 E.00477
G1 X67.152 Y74.517 E.00282
G1 X67.546 Y74.577 E.00289
G1 X68.428 Y74.769 E.00657
G1 X69.025 Y75.01 E.00469
G1 X69.694 Y75.195 E.00505
G1 X70.04 Y75.252 E.00255
G1 X70.818 Y75.292 E.00567
G1 X71.424 Y75.539 E.00476
G1 X71.774 Y75.543 E.00255
G1 X72.08 Y75.477 E.00228
G1 X72.277 Y75.461 E.00143
G1 X72.894 Y75.589 E.00459
G1 X69.932 Y77.2 E.02453
G1 X66.688 Y79.038 E.02712
G1 X64.816 Y77.682 E.01682
G1 E-.8
G1 Z.3 F21000
G1 X72.513 Y75.736 Z.1
G1 E.8 F1800
;TYPE:Bottom surface
;WIDTH:0.201177
G1 F6300
G1 X72.4 Y75.623 E.00117
G1 X72.269 Y75.596 E.00098
G1 X72.13 Y75.607 E.00102
G1 X72.289 Y75.766 E.00164
G1 X72.124 Y75.856 E.00137
G1 X71.918 Y75.649 E.00214
G1 X71.788 Y75.678 E.00097
G1 X71.691 Y75.676 E.00071
G1 X71.96 Y75.945 E.00279
G1 X71.795 Y76.035 E.00137
G1 X71.433 Y75.673 E.00375
G1 X71.029 Y75.523 E.00316
G1 X71.63 Y76.124 E.00623
G1 X71.466 Y76.214 E.00137
G1 X70.671 Y75.419 E.00823
G1 X70.403 Y75.405 E.00197
G1 X71.301 Y76.303 E.0093
G1 X71.137 Y76.393 E.00137
G1 X70.135 Y75.391 E.01038
G1 X69.845 Y75.356 E.00214
G1 X70.972 Y76.482 E.01167
G1 X70.807 Y76.572 E.00137
G1 X69.522 Y75.286 E.01331
G1 X69.17 Y75.189 E.00267
G1 X70.643 Y76.662 E.01525
G1 X70.478 Y76.751 E.00137
G1 X68.784 Y75.057 E.01754
G1 X68.365 Y74.892 E.0033
G1 X70.313 Y76.841 E.02018
G1 X70.149 Y76.93 E.00137
G1 X68.04 Y74.821 E.02184
G1 X67.715 Y74.751 E.00243
G1 X69.984 Y77.02 E.0235
G1 X69.82 Y77.11 E.00137
G1 X67.401 Y74.69 E.02506
G1 X67.106 Y74.65 E.00218
G1 X69.658 Y77.202 E.02643
G1 X69.496 Y77.294 E.00137
G1 X66.846 Y74.644 E.02744
G1 X66.602 Y74.654 E.00179
G1 X69.334 Y77.386 E.02829
G1 X69.171 Y77.478 E.00137
G1 X66.364 Y74.67 E.02907
G1 X66.127 Y74.687 E.00174
G1 X69.009 Y77.57 E.02985
G1 X68.847 Y77.661 E.00137
G1 X65.903 Y74.717 E.03049
G1 X65.679 Y74.748 E.00165
G1 X68.685 Y77.753 E.03112
G1 X68.522 Y77.845 E.00137
G1 X65.45 Y74.773 E.03182
G1 X65.208 Y74.785 E.00177
G1 X68.36 Y77.937 E.03264
G1 X68.198 Y78.029 E.00137
G1 X64.951 Y74.782 E.03362
G1 X64.689 Y74.775 E.00192
G1 X68.036 Y78.121 E.03465
G1 X67.873 Y78.213 E.00137
G1 X64.427 Y74.767 E.03569
G1 X64.165 Y74.759 E.00192
G1 X67.711 Y78.305 E.03672
G1 X67.549 Y78.397 E.00137
G1 X63.901 Y74.748 E.03778
G1 X63.628 Y74.73 E.002
G1 X67.387 Y78.489 E.03892
G1 X67.224 Y78.581 E.00137
G1 X63.355 Y74.711 E.04007
G1 X63.149 Y74.759 E.00155
G1 X67.062 Y78.673 E.04053
G1 X66.9 Y78.764 E.00137
G1 X62.95 Y74.815 E.0409
G1 X62.731 Y74.85 E.00162
G1 X66.738 Y78.856 E.04149
G1 X66.697 Y78.879 E.00034
G1 X66.005 Y78.378 E.00625
G1 X62.488 Y74.86 E.03643
G1 X62.195 Y74.822 E.00216
G1 X65.082 Y77.709 E.02989
G1 X64.717 Y77.445 E.0033
G1 X64.686 Y77.567 E.00092
G1 X61.887 Y74.768 E.02898
G1 X61.584 Y74.72 E.00224
G1 X64.633 Y77.769 E.03158
G1 X64.581 Y77.971 E.00153
G1 X61.303 Y74.692 E.03395
G1 X61.043 Y74.687 E.0019
G1 X64.325 Y77.969 E.03399
G1 X64.153 Y78.051 E.0014
G1 X60.813 Y74.711 E.03458
G1 X60.597 Y74.749 E.00161
G1 X63.98 Y78.132 E.03503
G1 X63.808 Y78.214 E.0014
G1 X60.407 Y74.813 E.03522
G1 X60.225 Y74.886 E.00143
G1 X63.635 Y78.295 E.03531
G1 X63.463 Y78.377 E.0014
G1 X60.043 Y74.957 E.03541
G1 X59.84 Y75.009 E.00153
G1 X63.29 Y78.459 E.03572
G1 X63.117 Y78.54 E.0014
G1 X59.602 Y75.025 E.0364
M73 P1 R36
G1 X59.325 Y75.002 E.00203
G1 X62.945 Y78.622 E.03748
G1 X62.772 Y78.703 E.0014
G1 X58.996 Y74.927 E.03911
G1 X58.618 Y74.803 E.00291
G1 X62.6 Y78.785 E.04124
G1 X62.427 Y78.866 E.0014
G1 X58.265 Y74.704 E.0431
G1 X57.957 Y74.65 E.00229
G1 X62.255 Y78.948 E.0445
G1 X62.1 Y79.021 E.00125
G1 X62.079 Y78.969 E.00041
G1 X62.046 Y78.994 E.0003
G1 X57.666 Y74.614 E.04536
G1 X57.401 Y74.603 E.00194
G1 X61.902 Y79.104 E.04661
G1 X61.758 Y79.214 E.00133
G1 X57.136 Y74.592 E.04786
G1 X56.888 Y74.598 E.00181
G1 X61.613 Y79.324 E.04893
G1 X61.469 Y79.433 E.00133
G1 X56.668 Y74.633 E.04971
G1 X56.462 Y74.681 E.00155
G1 X61.325 Y79.543 E.05035
G1 X61.181 Y79.653 E.00133
G1 X56.257 Y74.729 E.05099
G1 X56.044 Y74.771 E.00159
G1 X61.036 Y79.763 E.05169
G1 X61.013 Y79.781 E.00022
G1 X60.436 Y79.417 E.005
G1 X55.828 Y74.809 E.04771
G1 X55.612 Y74.847 E.00161
G1 X59.746 Y78.981 E.04281
G1 X59.056 Y78.545 E.00598
G1 X55.396 Y74.885 E.0379
G1 X55.18 Y74.923 E.00161
G1 X58.365 Y78.109 E.03299
G1 X58.102 Y77.943 E.00228
G1 X58.013 Y78.011 E.00082
G1 X54.938 Y74.936 E.03184
G1 X54.67 Y74.921 E.00197
G1 X57.869 Y78.121 E.03313
G1 X57.725 Y78.23 E.00133
G1 X54.358 Y74.864 E.03486
G1 X53.996 Y74.756 E.00277
G1 X57.58 Y78.34 E.03712
G1 X57.436 Y78.45 E.00133
G1 X53.639 Y74.653 E.03932
G1 X53.373 Y74.642 E.00195
G1 X57.292 Y78.56 E.04058
G1 X57.147 Y78.67 E.00133
G1 X53.118 Y74.641 E.04172
G1 X52.863 Y74.64 E.00187
G1 X57.003 Y78.78 E.04287
G1 X56.859 Y78.89 E.00133
G1 X52.608 Y74.639 E.04401
G1 X52.354 Y74.639 E.00187
G1 X56.715 Y79 E.04516
G1 X56.57 Y79.11 E.00133
G1 X52.099 Y74.638 E.04631
G1 X51.855 Y74.649 E.00178
G1 X56.426 Y79.22 E.04733
G1 X56.282 Y79.329 E.00133
G1 X51.63 Y74.678 E.04817
G1 X51.406 Y74.707 E.00166
G1 X56.138 Y79.439 E.049
G1 X55.993 Y79.549 E.00133
G1 X51.171 Y74.727 E.04994
G1 X50.894 Y74.704 E.00203
M73 C25
G1 X55.849 Y79.659 E.05131
G1 X55.705 Y79.769 E.00133
G1 X50.621 Y74.685 E.05265
G1 X50.367 Y74.686 E.00186
G1 X55.246 Y79.564 E.05052
G1 X54.68 Y79.253 E.00473
G1 X50.114 Y74.686 E.04729
G1 X49.86 Y74.687 E.00186
G1 X54.115 Y78.942 E.04406
G1 X53.55 Y78.63 E.00473
G1 X49.646 Y74.726 E.04043
G1 X49.447 Y74.782 E.00151
G1 X52.984 Y78.319 E.03662
G1 X52.419 Y78.008 E.00473
G1 X49.249 Y74.838 E.03282
G1 X49.051 Y74.894 E.00151
G1 X51.853 Y77.696 E.02902
G1 X51.288 Y77.385 E.00473
G1 X48.853 Y74.95 E.02522
G1 X48.632 Y74.983 E.00164
G1 X50.722 Y77.074 E.02165
G1 X50.157 Y76.763 E.00473
G1 X48.404 Y75.01 E.01815
