; HEADER_BLOCK_START
; generated by OrcaSlicer 1.6.3 on 2023-06-27 at 10:38:02
; total layer number: 28
; HEADER_BLOCK_END

; THUMBNAIL_BLOCK_START
; THUMBNAIL_BLOCK_END

; external perimeters extrusion width = 0.15mm
; perimeters extrusion width = 0.15mm
; infill extrusion width = 0.15mm
; solid infill extrusion width = 0.15mm
; top infill extrusion width = 0.15mm
; first layer extrusion width = 0.20mm

; external perimeters extrusion width = 0.15mm
; perimeters extrusion width = 0.15mm
; infill extrusion width = 0.15mm
; solid infill extrusion width = 0.15mm
; top infill extrusion width = 0.15mm
; first layer extrusion width = 0.20mm

; external perimeters extrusion width = 0.15mm
; perimeters extrusion width = 0.15mm
; infill extrusion width = 0.15mm
; solid infill extrusion width = 0.15mm
; top infill extrusion width = 0.15mm
; first layer extrusion width = 0.20mm

; EXECUTABLE_BLOCK_START
EXCLUDE_OBJECT_DEFINE NAME=LogoBase-80p.STL_id_0_copy_0 CENTER=60.0137,89.4129 POLYGON=[[44.8757,79.6479],[75.1516,79.6479],[75.1516,99.1577],[44.8757,99.1779],[44.8757,79.6479]]
EXCLUDE_OBJECT_DEFINE NAME=LogoBase-80p.STL_id_1_copy_0 CENTER=60.0137,59.9996 POLYGON=[[44.8757,50.2346],[75.1516,50.2346],[75.1516,69.7444],[44.8757,69.7647],[44.8757,50.2346]]
EXCLUDE_OBJECT_DEFINE NAME=LogoBase-80p.STL_id_2_copy_0 CENTER=59.9863,30.5864 POLYGON=[[44.8484,20.8214],[75.1243,20.8214],[75.1243,40.3312],[44.8484,40.3515],[44.8484,20.8214]]
M73 P0 R36
;TYPE:Custom
START_PRINT T_BED=60 T_EXTRUDER=220
G90
G21
M83 ; use relative distances for extrusion
; filament start gcode

    PRESSURE_ADVANCE_SELECT FILAMENT=PLA
M106 S0
;LAYER_CHANGE
;Z:0.1
;HEIGHT:0.1
;BEFORE_LAYER_CHANGE
;0.1
G92 E0

;AFTER_LAYER_CHANGE
;0.1
M204 S500
G1 E-.8 F3000
G1 Z.2 F21000
G1 X42.883 Y19.521
G1 Z.1
G1 E.8 F1800
;TYPE:Skirt
;WIDTH:0.2
G1 F3000
G1 X43.927 Y18.652 E.00988
G1 X44.848 Y18.464 E.00684
G1 X75.124 Y18.464 E.22024
G1 X76.425 Y18.856 E.00988
G1 X77.294 Y19.9 E.00988
G1 X77.481 Y20.819 E.00682
G1 X77.509 Y99.158 E.56986
G1 X77.117 Y100.459 E.00988
G1 X76.073 Y101.327 E.00988
G1 X75.153 Y101.515 E.00683
G1 X44.877 Y101.535 E.22024
G1 X43.576 Y101.144 E.00988
G1 X42.707 Y100.1 E.00988
G1 X42.519 Y99.179 E.00684
G1 X42.491 Y20.821 E.57
G1 X42.876 Y19.542 E.00972
G1 X43.054 Y19.598 F21000
G1 F3000
G1 X43.061 Y19.576 E.00016
G1 X44.093 Y18.778 E.00949
G1 X44.848 Y18.643 E.00558
G1 X75.124 Y18.643 E.22024
G1 X76.369 Y19.034 E.00949
G1 X77.168 Y20.066 E.00949
G1 X77.303 Y20.819 E.00557
G1 X77.33 Y99.158 E.56986
G1 X76.939 Y100.403 E.00949
G1 X75.907 Y101.201 E.00949
G1 X75.153 Y101.336 E.00557
G1 X44.877 Y101.356 E.22024
G1 X43.632 Y100.966 E.00949
G1 X42.833 Y99.935 E.00949
G1 X42.697 Y99.179 E.00559
G1 X42.67 Y20.821 E.57
G1 X43.047 Y19.619 E.00917
; printing object LogoBase-80p.STL id:0 copy 0
EXCLUDE_OBJECT_START NAME=LogoBase-80p.STL_id_0_copy_0
G1 E-.8
G1 Z.3 F21000
G1 X44.976 Y79.748 Z.1
G1 E.8 F1800
;TYPE:Outer wall
G1 F3000
G1 X75.052 Y79.748 E.21878
G1 X75.052 Y99.058 E.14047
G1 X44.976 Y99.078 E.21878
G1 X44.976 Y79.77 E.14045
G1 X45.005 Y79.754
G1 X45.154 Y79.926 F21000
;TYPE:Inner wall
G1 F3000
G1 X74.873 Y79.926 E.21619
G1 X74.873 Y98.879 E.13787
G1 X45.154 Y98.899 E.21619
G1 X45.154 Y79.949 E.13785
G1 X45.333 Y80.105 F21000
G1 F3000
G1 X74.695 Y80.105 E.21359
G1 X74.695 Y98.701 E.13527
G1 X45.333 Y98.721 E.21359
G1 X45.333 Y80.127 E.13525
G1 E-.8
G1 Z.3 F21000
G1 X74.641 Y80.52 Z.1
G1 E.8 F1800
;TYPE:Bottom surface
;WIDTH:0.200289
G1 F6300
G1 X74.36 Y80.239 E.0029
G1 X74.107 Y80.239 E.00184
G1 X74.561 Y80.693 E.00468
G1 X74.561 Y80.946 E.00184
G1 X73.854 Y80.239 E.00728
G1 X73.601 Y80.239 E.00184
G1 X74.561 Y81.198 E.00989
G1 X74.561 Y81.451 E.00184
G1 X73.348 Y80.239 E.01249
G1 X73.095 Y80.239 E.00184
G1 X74.561 Y81.704 E.0151
G1 X74.561 Y81.957 E.00184
G1 X72.842 Y80.239 E.01771
G1 X72.589 Y80.239 E.00184
G1 X74.561 Y82.21 E.02031
G1 X74.561 Y82.463 E.00184
G1 X72.337 Y80.239 E.02292
G1 X72.084 Y80.239 E.00184
G1 X74.561 Y82.716 E.02552
G1 X74.561 Y82.969 E.00184
G1 X71.831 Y80.239 E.02813
G1 X71.578 Y80.239 E.00184
G1 X74.561 Y83.222 E.03074
G1 X74.561 Y83.475 E.00184
G1 X71.325 Y80.239 E.03334
G1 X71.072 Y80.239 E.00184
G1 X74.561 Y83.727 E.03595
G1 X74.561 Y83.98 E.00184
G1 X70.819 Y80.239 E.03855
G1 X70.566 Y80.239 E.00184
G1 X74.561 Y84.233 E.04116
G1 X74.561 Y84.486 E.00184
G1 X70.313 Y80.239 E.04377
G1 X70.06 Y80.239 E.00184
G1 X74.561 Y84.739 E.04637
G1 X74.561 Y84.992 E.00184
G1 X69.808 Y80.239 E.04898
G1 X69.555 Y80.239 E.00184
G1 X74.561 Y85.245 E.05158
G1 X74.561 Y85.498 E.00184
G1 X69.302 Y80.239 E.05419
M73 P1 R36
G1 X69.049 Y80.239 E.00184
G1 X74.561 Y85.751 E.05679
G1 X74.561 Y86.004 E.00184
G1 X68.796 Y80.239 E.0594
G1 X68.543 Y80.239 E.00184
G1 X74.561 Y86.256 E.06201
G1 X74.561 Y86.509 E.00184
G1 X68.29 Y80.239 E.06461
G1 X68.037 Y80.239 E.00184
G1 X74.561 Y86.762 E.06722
G1 X74.561 Y87.015 E.00184
G1 X67.784 Y80.239 E.06982
G1 X67.531 Y80.239 E.00184
G1 X74.561 Y87.268 E.07243
G1 X74.561 Y87.521 E.00184
G1 X67.279 Y80.239 E.07504
G1 X67.026 Y80.239 E.00184
G1 X74.561 Y87.774 E.07764
G1 X74.561 Y88.027 E.00184
G1 X66.773 Y80.239 E.08025
G1 X66.52 Y80.239 E.00184
G1 X74.561 Y88.28 E.08285
G1 X74.561 Y88.533 E.00184
G1 X66.267 Y80.239 E.08546
G1 X66.014 Y80.239 E.00184
G1 X74.561 Y88.785 E.08807
G1 X74.561 Y89.038 E.00184
G1 X65.761 Y80.239 E.09067
G1 X65.508 Y80.239 E.00184
G1 X74.561 Y89.291 E.09328
G1 X74.561 Y89.544 E.00184
G1 X65.255 Y80.239 E.09588
G1 X65.002 Y80.239 E.00184
G1 X74.561 Y89.797 E.09849
G1 X74.561 Y90.05 E.00184
G1 X64.75 Y80.239 E.1011
G1 X64.497 Y80.239 E.00184
G1 X74.561 Y90.303 E.1037
G1 X74.561 Y90.556 E.00184
G1 X64.244 Y80.239 E.10631
G1 X63.991 Y80.239 E.00184
G1 X74.561 Y90.809 E.10891
G1 X74.561 Y91.062 E.00184
G1 X63.738 Y80.239 E.11152
G1 X63.485 Y80.239 E.00184
G1 X74.561 Y91.315 E.11413
G1 X74.561 Y91.567 E.00184
G1 X63.232 Y80.239 E.11673
G1 X62.979 Y80.239 E.00184
G1 X74.561 Y91.82 E.11934
G1 X74.561 Y92.073 E.00184
G1 X62.726 Y80.239 E.12194
G1 X62.473 Y80.239 E.00184
G1 X74.561 Y92.326 E.12455
G1 X74.561 Y92.579 E.00184
G1 X62.22 Y80.239 E.12716
G1 X61.968 Y80.239 E.00184
G1 X74.561 Y92.832 E.12976
G1 X74.561 Y93.085 E.00184
G1 X61.715 Y80.239 E.13237
G1 X61.462 Y80.239 E.00184
G1 X74.561 Y93.338 E.13497
G1 X74.561 Y93.591 E.00184
G1 X61.209 Y80.239 E.13758
G1 X60.956 Y80.239 E.00184
G1 X74.561 Y93.844 E.14019
G1 X74.561 Y94.096 E.00184
G1 X60.703 Y80.239 E.14279
G1 X60.45 Y80.239 E.00184
G1 X74.561 Y94.349 E.1454
G1 X74.561 Y94.602 E.00184
G1 X60.197 Y80.239 E.148
G1 X59.944 Y80.239 E.00184
G1 X74.561 Y94.855 E.15061
G1 X74.561 Y95.108 E.00184
G1 X59.691 Y80.239 E.15322
G1 X59.439 Y80.239 E.00184
G1 X74.561 Y95.361 E.15582
G1 X74.561 Y95.614 E.00184
G1 X59.186 Y80.239 E.15843
G1 X58.933 Y80.239 E.00184
G1 X74.561 Y95.867 E.16103
G1 X74.561 Y96.12 E.00184
G1 X58.68 Y80.239 E.16364
G1 X58.427 Y80.239 E.00184
G1 X74.561 Y96.373 E.16624
G1 X74.561 Y96.625 E.00184
G1 X58.174 Y80.239 E.16885
G1 X57.921 Y80.239 E.00184
G1 X74.561 Y96.878 E.17146
G1 X74.561 Y97.131 E.00184
G1 X57.668 Y80.239 E.17406
G1 X57.415 Y80.239 E.00184
G1 X74.561 Y97.384 E.17667
G1 X74.561 Y97.637 E.00184
G1 X57.162 Y80.239 E.17927
G1 X56.91 Y80.239 E.00184
G1 X74.561 Y97.89 E.18188
G1 X74.561 Y98.143 E.00184
G1 X56.657 Y80.239 E.18449
G1 X56.404 Y80.239 E.00184
G1 X74.561 Y98.396 E.18709
G1 X74.561 Y98.567 E.00125
G1 X74.479 Y98.567 E.00059
G1 X56.151 Y80.239 E.18886
G1 X55.898 Y80.239 E.00184
G1 X74.226 Y98.567 E.18886
G1 X73.974 Y98.567 E.00184
G1 X55.645 Y80.239 E.18886
G1 X55.392 Y80.239 E.00184
G1 X73.721 Y98.568 E.18886
G1 X73.468 Y98.568 E.00184
G1 X55.139 Y80.239 E.18887
G1 X54.886 Y80.239 E.00184
G1 X73.215 Y98.568 E.18887
G1 X72.963 Y98.568 E.00184
G1 X54.633 Y80.239 E.18887
G1 X54.381 Y80.239 E.00184
G1 X72.71 Y98.568 E.18887
G1 X72.457 Y98.569 E.00184
G1 X54.128 Y80.239 E.18887
G1 X53.875 Y80.239 E.00184
G1 X72.205 Y98.569 E.18887
G1 X71.952 Y98.569 E.00184
G1 X53.622 Y80.239 E.18888
M73 P2 R36
G1 X53.369 Y80.239 E.00184
G1 X71.699 Y98.569 E.18888
G1 X71.446 Y98.569 E.00184
G1 X53.116 Y80.239 E.18888
G1 X52.863 Y80.239 E.00184
G1 X71.194 Y98.569 E.18888
G1 X70.941 Y98.57 E.00184
G1 X52.61 Y80.239 E.18888
G1 X52.357 Y80.239 E.00184
G1 X70.688 Y98.57 E.18888
G1 X70.435 Y98.57 E.00184
G1 X52.104 Y80.239 E.18889
G1 X51.851 Y80.239 E.00184
G1 X70.183 Y98.57 E.18889
G1 X69.93 Y98.57 E.00184
G1 X51.599 Y80.239 E.18889
G1 X51.346 Y80.239 E.00184
G1 X69.677 Y98.57 E.18889
G1 X69.424 Y98.571 E.00184
G1 X51.093 Y80.239 E.18889
M73 P2 R35
G1 X50.84 Y80.239 E.00184
G1 X69.172 Y98.571 E.18889
G1 X68.919 Y98.571 E.00184
G1 X50.587 Y80.239 E.1889
G1 X50.334 Y80.239 E.00184
G1 X68.666 Y98.571 E.1889
G1 X68.414 Y98.571 E.00184
G1 X50.081 Y80.239 E.1889
G1 X49.828 Y80.239 E.00184
G1 X68.161 Y98.571 E.1889
G1 X67.908 Y98.572 E.00184
G1 X49.575 Y80.239 E.1889
G1 X49.322 Y80.239 E.00184
G1 X67.655 Y98.572 E.18891
G1 X67.403 Y98.572 E.00184
G1 X49.07 Y80.239 E.18891
G1 X48.817 Y80.239 E.00184
G1 X67.15 Y98.572 E.18891
G1 X66.897 Y98.572 E.00184
G1 X48.564 Y80.239 E.18891
G1 X48.311 Y80.239 E.00184
G1 X66.644 Y98.572 E.18891
G1 X66.392 Y98.573 E.00184
G1 X48.058 Y80.239 E.18891
G1 X47.805 Y80.239 E.00184
G1 X66.139 Y98.573 E.18892
G1 X65.886 Y98.573 E.00184
G1 X47.552 Y80.239 E.18892
G1 X47.299 Y80.239 E.00184
G1 X65.633 Y98.573 E.18892
G1 X65.381 Y98.573 E.00184
G1 X47.046 Y80.239 E.18892
G1 X46.793 Y80.239 E.00184
G1 X65.128 Y98.573 E.18892
G1 X64.875 Y98.574 E.00184
G1 X46.541 Y80.239 E.18892
G1 X46.288 Y80.239 E.00184
G1 X64.623 Y98.574 E.18893
G1 X64.37 Y98.574 E.00184
G1 X46.035 Y80.239 E.18893
G1 X45.782 Y80.239 E.00184
G1 X64.117 Y98.574 E.18893
G1 X63.864 Y98.574 E.00184
G1 X45.529 Y80.239 E.18893
G1 X45.467 Y80.239 E.00045
G1 X45.467 Y80.43 E.00139
G1 X63.612 Y98.574 E.18697
G1 X63.359 Y98.575 E.00184
G1 X45.467 Y80.682 E.18436
G1 X45.467 Y80.935 E.00184
G1 X63.106 Y98.575 E.18176
G1 X62.853 Y98.575 E.00184
G1 X45.467 Y81.188 E.17916
G1 X45.467 Y81.441 E.00184
G1 X62.601 Y98.575 E.17655
G1 X62.348 Y98.575 E.00184
G1 X45.467 Y81.694 E.17395
G1 X45.467 Y81.947 E.00184
G1 X62.095 Y98.575 E.17134
G1 X61.842 Y98.576 E.00184
G1 X45.467 Y82.2 E.16874
G1 X45.467 Y82.453 E.00184
G1 X61.59 Y98.576 E.16613
G1 X61.337 Y98.576 E.00184
G1 X45.467 Y82.706 E.16353
G1 X45.467 Y82.959 E.00184
G1 X61.084 Y98.576 E.16093
G1 X60.832 Y98.576 E.00184
G1 X45.467 Y83.211 E.15832
G1 X45.467 Y83.464 E.00184
G1 X60.579 Y98.576 E.15572
G1 X60.326 Y98.577 E.00184
G1 X45.467 Y83.717 E.15311
G1 X45.467 Y83.97 E.00184
G1 X60.073 Y98.577 E.15051
G1 X59.821 Y98.577 E.00184
G1 X45.467 Y84.223 E.1479
G1 X45.467 Y84.476 E.00184
G1 X59.568 Y98.577 E.1453
G1 X59.315 Y98.577 E.00184
G1 X45.467 Y84.729 E.1427
G1 X45.467 Y84.982 E.00184
G1 X59.062 Y98.577 E.14009
G1 X58.81 Y98.578 E.00184
G1 X45.467 Y85.235 E.13749
G1 X45.467 Y85.488 E.00184
G1 X58.557 Y98.578 E.13488
M73 P3 R35
G1 X58.304 Y98.578 E.00184
G1 X45.467 Y85.74 E.13228
G1 X45.467 Y85.993 E.00184
G1 X58.051 Y98.578 E.12968
G1 X57.799 Y98.578 E.00184
G1 X45.467 Y86.246 E.12707
G1 X45.467 Y86.499 E.00184
G1 X57.546 Y98.578 E.12447
G1 X57.293 Y98.579 E.00184
G1 X45.467 Y86.752 E.12186
G1 X45.467 Y87.005 E.00184
G1 X57.041 Y98.579 E.11926
G1 X56.788 Y98.579 E.00184
G1 X45.467 Y87.258 E.11665
G1 X45.467 Y87.511 E.00184
G1 X56.535 Y98.579 E.11405
G1 X56.282 Y98.579 E.00184
G1 X45.467 Y87.764 E.11145
G1 X45.467 Y88.017 E.00184
G1 X56.03 Y98.579 E.10884
G1 X55.777 Y98.58 E.00184
G1 X45.467 Y88.269 E.10624
G1 X45.467 Y88.522 E.00184
G1 X55.524 Y98.58 E.10363
G1 X55.271 Y98.58 E.00184
G1 X45.467 Y88.775 E.10103
G1 X45.467 Y89.028 E.00184
G1 X55.019 Y98.58 E.09842
G1 X54.766 Y98.58 E.00184
G1 X45.467 Y89.281 E.09582
G1 X45.467 Y89.534 E.00184
G1 X54.513 Y98.58 E.09322
G1 X54.26 Y98.581 E.00184
G1 X45.467 Y89.787 E.09061
G1 X45.467 Y90.04 E.00184
G1 X54.008 Y98.581 E.08801
G1 X53.755 Y98.581 E.00184
G1 X45.467 Y90.293 E.0854
G1 X45.467 Y90.546 E.00184
G1 X53.502 Y98.581 E.0828
G1 X53.25 Y98.581 E.00184
G1 X45.467 Y90.799 E.0802
G1 X45.467 Y91.051 E.00184
G1 X52.997 Y98.581 E.07759
G1 X52.744 Y98.582 E.00184
G1 X45.467 Y91.304 E.07499
G1 X45.467 Y91.557 E.00184
G1 X52.491 Y98.582 E.07238
G1 X52.239 Y98.582 E.00184
G1 X45.467 Y91.81 E.06978
G1 X45.467 Y92.063 E.00184
G1 X51.986 Y98.582 E.06717
G1 X51.733 Y98.582 E.00184
G1 X45.467 Y92.316 E.06457
G1 X45.467 Y92.569 E.00184
G1 X51.48 Y98.583 E.06197
G1 X51.228 Y98.583 E.00184
G1 X45.467 Y92.822 E.05936
G1 X45.467 Y93.075 E.00184
G1 X50.975 Y98.583 E.05676
G1 X50.722 Y98.583 E.00184
G1 X45.467 Y93.328 E.05415
G1 X45.467 Y93.58 E.00184
G1 X50.469 Y98.583 E.05155
G1 X50.217 Y98.583 E.00184
G1 X45.467 Y93.833 E.04894
G1 X45.467 Y94.086 E.00184
G1 X49.964 Y98.584 E.04634
G1 X49.711 Y98.584 E.00184
G1 X45.467 Y94.339 E.04374
G1 X45.467 Y94.592 E.00184
G1 X49.459 Y98.584 E.04113
G1 X49.206 Y98.584 E.00184
G1 X45.467 Y94.845 E.03853
G1 X45.467 Y95.098 E.00184
G1 X48.953 Y98.584 E.03592
G1 X48.7 Y98.584 E.00184
G1 X45.467 Y95.351 E.03332
G1 X45.467 Y95.604 E.00184
G1 X48.448 Y98.585 E.03072
G1 X48.195 Y98.585 E.00184
G1 X45.467 Y95.857 E.02811
G1 X45.467 Y96.109 E.00184
G1 X47.942 Y98.585 E.02551
G1 X47.689 Y98.585 E.00184
G1 X45.467 Y96.362 E.0229
G1 X45.467 Y96.615 E.00184
G1 X47.437 Y98.585 E.0203
G1 X47.184 Y98.585 E.00184
G1 X45.467 Y96.868 E.01769
G1 X45.467 Y97.121 E.00184
G1 X46.931 Y98.586 E.01509
G1 X46.678 Y98.586 E.00184
G1 X45.467 Y97.374 E.01249
G1 X45.467 Y97.627 E.00184
G1 X46.426 Y98.586 E.00988
G1 X46.173 Y98.586 E.00184
G1 X45.467 Y97.88 E.00728
G1 X45.467 Y98.133 E.00184
G1 X45.92 Y98.586 E.00467
G1 X45.668 Y98.586 E.00184
G1 X45.386 Y98.305 E.0029
; stop printing object LogoBase-80p.STL id:0 copy 0
EXCLUDE_OBJECT_END NAME=LogoBase-80p.STL_id_0_copy_0
; printing object LogoBase-80p.STL id:1 copy 0
EXCLUDE_OBJECT_START NAME=LogoBase-80p.STL_id_1_copy_0
G1 E-.8 F3000
G1 Z.3 F21000
G1 X44.976 Y50.335 Z.1
G1 E.8 F1800
;TYPE:Outer wall
;WIDTH:0.2
G1 F3000
G1 X75.052 Y50.335 E.21878
G1 X75.052 Y69.645 E.14047
G1 X44.976 Y69.665 E.21878
G1 X44.976 Y50.357 E.14045
G1 X45.005 Y50.34
G1 X45.154 Y50.513 F21000
;TYPE:Inner wall
G1 F3000
G1 X74.873 Y50.513 E.21619
G1 X74.873 Y69.466 E.13787
G1 X45.154 Y69.486 E.21619
G1 X45.154 Y50.536 E.13785
G1 X45.333 Y50.692 F21000
G1 F3000
G1 X74.695 Y50.692 E.21359
G1 X74.695 Y69.288 E.13527
G1 X45.333 Y69.307 E.21359
G1 X45.333 Y50.714 E.13525
G1 E-.8
G1 Z.3 F21000
G1 X74.641 Y51.107 Z.1
G1 E.8 F1800
;TYPE:Bottom surface
;WIDTH:0.200289
G1 F6300
G1 X74.36 Y50.826 E.0029
G1 X74.107 Y50.826 E.00184
G1 X74.561 Y51.279 E.00468
G1 X74.561 Y51.532 E.00184
G1 X73.854 Y50.826 E.00728
G1 X73.601 Y50.826 E.00184
G1 X74.561 Y51.785 E.00989
G1 X74.561 Y52.038 E.00184
G1 X73.348 Y50.826 E.01249
G1 X73.095 Y50.826 E.00184
G1 X74.561 Y52.291 E.0151
G1 X74.561 Y52.544 E.00184
G1 X72.842 Y50.826 E.01771
G1 X72.589 Y50.826 E.00184
G1 X74.561 Y52.797 E.02031
G1 X74.561 Y53.05 E.00184
G1 X72.337 Y50.826 E.02292
G1 X72.084 Y50.826 E.00184
G1 X74.561 Y53.303 E.02552
G1 X74.561 Y53.556 E.00184
G1 X71.831 Y50.826 E.02813
G1 X71.578 Y50.826 E.00184
G1 X74.561 Y53.808 E.03074
G1 X74.561 Y54.061 E.00184
G1 X71.325 Y50.826 E.03334
G1 X71.072 Y50.826 E.00184
G1 X74.561 Y54.314 E.03595
M73 P4 R35
G1 X74.561 Y54.567 E.00184
G1 X70.819 Y50.826 E.03855
G1 X70.566 Y50.826 E.00184
G1 X74.561 Y54.82 E.04116
G1 X74.561 Y55.073 E.00184
G1 X70.313 Y50.826 E.04377
G1 X70.06 Y50.826 E.00184
G1 X74.561 Y55.326 E.04637
G1 X74.561 Y55.579 E.00184
G1 X69.808 Y50.826 E.04898
G1 X69.555 Y50.826 E.00184
G1 X74.561 Y55.832 E.05158
G1 X74.561 Y56.085 E.00184
G1 X69.302 Y50.826 E.05419
G1 X69.049 Y50.826 E.00184
G1 X74.561 Y56.337 E.05679
G1 X74.561 Y56.59 E.00184
G1 X68.796 Y50.826 E.0594
G1 X68.543 Y50.826 E.00184
G1 X74.561 Y56.843 E.06201
G1 X74.561 Y57.096 E.00184
G1 X68.29 Y50.826 E.06461
G1 X68.037 Y50.826 E.00184
G1 X74.561 Y57.349 E.06722
G1 X74.561 Y57.602 E.00184
G1 X67.784 Y50.826 E.06982
G1 X67.531 Y50.826 E.00184
G1 X74.561 Y57.855 E.07243
G1 X74.561 Y58.108 E.00184
G1 X67.279 Y50.826 E.07504
G1 X67.026 Y50.826 E.00184
