; HEADER_BLOCK_START
; generated by OrcaSlicer 1.6.2 on 2023-05-14 at 20:52:21
; total layer number: 61
; HEADER_BLOCK_END

; THUMBNAIL_BLOCK_START
; THUMBNAIL_BLOCK_END

; external perimeters extrusion width = 0.15mm
; perimeters extrusion width = 0.15mm
; infill extrusion width = 0.15mm
; solid infill extrusion width = 0.15mm
; top infill extrusion width = 0.15mm
; first layer extrusion width = 0.15mm

; EXECUTABLE_BLOCK_START
EXCLUDE_OBJECT_DEFINE NAME=LogoBoard.STL_id_0_copy_0 CENTER=60,60 POLYGON=[[45.742,56.5769],[74.258,56.5769],[74.258,63.4231],[73.6492,63.4231],[45.742,62.4101],[45.742,56.5769]]
M73 P0 R15
M73 C8
;TYPE:Custom
START_PRINT T_BED=60 T_EXTRUDER=220
G90
G21
M83 ; use relative distances for extrusion
; filament start gcode

    PRESSURE_ADVANCE_SELECT FILAMENT=PLA
M106 S0
;LAYER_CHANGE
;Z:0.08
;HEIGHT:0.08
;BEFORE_LAYER_CHANGE
;0.08
G92 E0

;AFTER_LAYER_CHANGE
;0.08
M204 S500
G1 E-.8 F3000
G1 Z.2 F21000
G1 X44.174 Y55.058
G1 Z.08
G1 E.8 F1800
;TYPE:Skirt
;WIDTH:0.15
G1 F3000
G1 X44.906 Y54.471 E.00406
G1 X45.742 Y54.311 E.00369
G1 X74.258 Y54.311 E.12346
G1 X75.531 Y54.702 E.00576
G1 X76.364 Y55.741 E.00576
G1 X76.524 Y56.577 E.00369
G1 X76.524 Y63.423 E.02964
G1 X76.132 Y64.696 E.00576
G1 X75.094 Y65.529 E.00576
G1 X74.258 Y65.689 E.00369
G1 X73.567 Y65.687 E.00299
G1 X45.66 Y64.674 E.12091
G1 X44.402 Y64.237 E.00576
G1 X43.607 Y63.169 E.00576
G1 X43.476 Y62.41 E.00334
G1 X43.476 Y56.577 E.02526
G1 X43.868 Y55.304 E.00576
G1 X44.157 Y55.072 E.00161
G1 X44.232 Y55.171 F21000
G1 F3000
G1 X45.029 Y54.567 E.00433
G1 X45.742 Y54.444 E.00313
G1 X74.258 Y54.444 E.12346
M73 P0 R14
G1 X75.488 Y54.835 E.00559
G1 X76.268 Y55.864 E.00559
G1 X76.391 Y56.577 E.00313
G1 X76.391 Y63.423 E.02964
G1 X76 Y64.653 E.00559
G1 X74.971 Y65.433 E.00559
G1 X74.258 Y65.556 E.00313
G1 X73.572 Y65.554 E.00297
G1 X45.665 Y64.542 E.12091
G1 X44.449 Y64.107 E.00559
G1 X43.609 Y62.41 E.0082
G1 X43.609 Y56.577 E.02526
G1 X44 Y55.347 E.00559
G1 X44.214 Y55.185 E.00116
; printing object LogoBoard.STL id:0 copy 0
EXCLUDE_OBJECT_START NAME=LogoBoard.STL_id_0_copy_0
G1 E-.8
G1 Z.28 F21000
G1 X46.083 Y61.739 Z.08
G1 E.8 F1800
;TYPE:Inner wall
G1 F3000
G1 X46.083 Y56.918 E.02087
G1 X73.917 Y56.918 E.12051
G1 X73.917 Y63.082 E.02669
G1 X73.862 Y63.082 E.00024
G1 X73.615 Y62.947 E.00122
G1 X73.157 Y62.88 E.002
G1 X72.63 Y62.715 E.00239
G1 X72.36 Y62.663 E.00119
G1 X72.009 Y62.68 E.00152
G1 X71.617 Y62.776 E.00175
G1 X71.232 Y62.555 E.00192
G1 X71.056 Y62.483 E.00082
G1 X70.856 Y62.436 E.00089
G1 X70.08 Y62.388 E.00337
G1 X69.794 Y62.316 E.00128
G1 X69.274 Y62.121 E.0024
G1 X68.678 Y61.807 E.00292
G1 X68.315 Y61.699 E.00164
G1 X67.75 Y61.546 E.00254
G1 X67.294 Y61.449 E.00202
G1 X66.826 Y61.422 E.00203
G1 X66.183 Y61.474 E.00279
G1 X65.244 Y61.614 E.00411
G1 X64.338 Y61.588 E.00392
G1 X63.463 Y61.509 E.00381
G1 X63.227 Y61.515 E.00102
G1 X63.039 Y61.551 E.00083
G1 X62.655 Y61.702 E.00179
G1 X62.549 Y61.711 E.00046
G1 X61.726 Y61.537 E.00364
G1 X61.228 Y61.479 E.00217
G1 X60.836 Y61.491 E.0017
G1 X60.498 Y61.551 E.00149
G1 X60.182 Y61.657 E.00144
G1 X59.712 Y61.903 E.00229
G1 X59.635 Y61.92 E.00034
G1 X59.442 Y61.898 E.00084
G1 X59.187 Y61.812 E.00116
G1 X58.652 Y61.584 E.00252
G1 X58.181 Y61.455 E.00212
G1 X57.555 Y61.376 E.00273
G1 X56.937 Y61.36 E.00268
G1 X56.629 Y61.386 E.00134
G1 X55.999 Y61.583 E.00286
G1 X55.417 Y61.728 E.0026
G1 X55.069 Y61.802 E.00154
G1 X54.901 Y61.811 E.00073
G1 X54.729 Y61.791 E.00075
G1 X54.566 Y61.744 E.00073
G1 X53.952 Y61.487 E.00288
G1 X53.688 Y61.433 E.00117
G1 X51.898 Y61.419 E.00775
G1 X51.204 Y61.535 E.00305
G1 X50.911 Y61.498 E.00128
G1 X50.56 Y61.483 E.00152
G1 X49.746 Y61.488 E.00352
G1 X49.427 Y61.561 E.00142
G1 X48.595 Y61.865 E.00384
G1 X48.321 Y61.91 E.0012
G1 X47.762 Y61.938 E.00242
G1 X47.131 Y61.911 E.00273
G1 X46.105 Y61.742 E.0045
G1 X45.95 Y61.911 F21000
G1 F3000
G1 X45.95 Y56.785 E.0222
G1 X74.05 Y56.785 E.12166
G1 X74.05 Y63.215 E.02784
G1 X73.773 Y63.215 E.0012
G1 X73.749 Y63.172 E.00021
G1 X73.572 Y63.075 E.00087
G1 X73.127 Y63.01 E.00195
G1 X72.597 Y62.844 E.00241
G1 X72.35 Y62.796 E.00109
G1 X72.028 Y62.812 E.0014
G1 X71.63 Y62.91 E.00177
G1 X71.578 Y62.904 E.00023
G1 X71.475 Y62.86 E.00048
G1 X71.171 Y62.674 E.00154
G1 X71.016 Y62.61 E.00073
G1 X70.837 Y62.568 E.0008
G1 X70.06 Y62.52 E.00337
G1 X69.754 Y62.443 E.00136
G1 X69.22 Y62.243 E.00247
G1 X68.628 Y61.931 E.0029
G1 X68.279 Y61.827 E.00158
G1 X67.719 Y61.675 E.00251
G1 X67.277 Y61.581 E.00196
G1 X66.828 Y61.556 E.00195
G1 X66.198 Y61.606 E.00273
G1 X65.252 Y61.747 E.00414
G1 X64.331 Y61.721 E.00399
M73 P1 R14
G1 X63.459 Y61.642 E.00379
G1 X63.241 Y61.648 E.00094
G1 X63.076 Y61.679 E.00073
G1 X62.686 Y61.832 E.00181
G1 X62.54 Y61.845 E.00063
G1 X61.705 Y61.668 E.0037
G1 X61.222 Y61.612 E.0021
G1 X60.85 Y61.624 E.00161
G1 X60.531 Y61.68 E.0014
G1 X60.234 Y61.78 E.00136
G1 X59.758 Y62.029 E.00233
G1 X59.642 Y62.055 E.00052
G1 X59.413 Y62.028 E.001
G1 X59.14 Y61.936 E.00125
G1 X58.608 Y61.71 E.0025
G1 X58.155 Y61.585 E.00204
G1 X57.545 Y61.508 E.00266
G1 X56.94 Y61.493 E.00262
G1 X56.654 Y61.517 E.00124
G1 X56.035 Y61.71 E.00281
G1 X55.447 Y61.857 E.00262
G1 X55.086 Y61.934 E.0016
G1 X54.897 Y61.944 E.00082
G1 X54.703 Y61.921 E.00085
G1 X54.522 Y61.869 E.00082
G1 X53.912 Y61.615 E.00286
G1 X53.674 Y61.566 E.00105
G1 X51.909 Y61.552 E.00764
G1 X51.207 Y61.669 E.00308
G1 X50.9 Y61.631 E.00134
G1 X50.557 Y61.616 E.00149
G1 X49.762 Y61.62 E.00344
G1 X49.465 Y61.689 E.00132
G1 X48.629 Y61.994 E.00385
G1 X48.335 Y62.042 E.00129
G1 X47.762 Y62.071 E.00248
G1 X47.117 Y62.043 E.00279
G1 X46.095 Y61.875 E.00449
G1 X45.972 Y61.906 E.00055
G1 X45.959 Y62.046 F21000
;TYPE:Outer wall
G1 F3000
G1 X45.817 Y62.177 E.00084
G1 X45.817 Y56.652 E.02392
G1 X74.183 Y56.652 E.12281
G1 X74.183 Y63.348 E.02899
G1 X73.694 Y63.348 E.00212
G1 X73.651 Y63.27 E.00038
G1 X73.53 Y63.203 E.0006
G1 X73.098 Y63.14 E.00189
G1 X72.565 Y62.973 E.00242
G1 X72.341 Y62.93 E.00099
G1 X72.047 Y62.944 E.00127
G1 X71.639 Y63.045 E.00182
G1 X71.543 Y63.034 E.00042
G1 X71.413 Y62.978 E.00061
G1 X71.111 Y62.793 E.00154
G1 X70.975 Y62.737 E.00064
G1 X70.817 Y62.7 E.0007
G1 X70.039 Y62.651 E.00338
G1 X69.715 Y62.57 E.00145
G1 X69.165 Y62.364 E.00254
G1 X68.577 Y62.055 E.00288
G1 X68.243 Y61.954 E.00151
G1 X67.688 Y61.804 E.00249
G1 X67.259 Y61.713 E.0019
G1 X66.829 Y61.689 E.00186
G1 X66.213 Y61.738 E.00268
G1 X65.26 Y61.88 E.00417
G1 X64.323 Y61.854 E.00406
G1 X63.454 Y61.775 E.00377
G1 X63.256 Y61.78 E.00086
G1 X63.113 Y61.807 E.00063
G1 X62.716 Y61.963 E.00184
G1 X62.532 Y61.979 E.0008
G1 X61.683 Y61.8 E.00376
G1 X61.216 Y61.745 E.00203
G1 X60.863 Y61.756 E.00153
G1 X60.564 Y61.809 E.00132
G1 X60.287 Y61.902 E.00127
G1 X59.804 Y62.155 E.00236
G1 X59.649 Y62.189 E.00069
G1 X59.383 Y62.158 E.00116
G1 X59.093 Y62.06 E.00133
G1 X58.564 Y61.836 E.00249
G1 X58.129 Y61.716 E.00196
G1 X57.535 Y61.641 E.00259
G1 X56.944 Y61.626 E.00256
G1 X56.68 Y61.648 E.00115
G1 X56.07 Y61.838 E.00276
G1 X55.477 Y61.987 E.00265
G1 X55.104 Y62.066 E.00165
G1 X54.893 Y62.077 E.00091
G1 X54.677 Y62.052 E.00094
G1 X54.478 Y61.995 E.0009
G1 X53.873 Y61.742 E.00284
G1 X53.66 Y61.699 E.00094
G1 X51.919 Y61.685 E.00754
G1 X51.21 Y61.803 E.00311
G1 X50.889 Y61.763 E.0014
G1 X50.555 Y61.749 E.00145
G1 X49.777 Y61.753 E.00337
G1 X49.503 Y61.816 E.00122
G1 X48.663 Y62.123 E.00387
G1 X48.349 Y62.175 E.00138
G1 X47.763 Y62.204 E.00254
G1 X47.104 Y62.175 E.00286
G1 X46.1 Y62.011 E.0044
G1 X45.981 Y62.04 E.00053
G1 X45.935 Y62.029
G1 E-.8
G1 Z.28 F21000
G1 X73.609 Y56.957 Z.08
G1 E.8 F1800
;TYPE:Bottom surface
;WIDTH:0.150119
G1 F6300
G1 X73.818 Y57.166 E.00128
G1 X73.818 Y57.355 E.00081
G1 X73.48 Y57.017 E.00207
G1 X73.292 Y57.017 E.00081
G1 X73.818 Y57.543 E.00322
G1 X73.818 Y57.731 E.00081
G1 X73.104 Y57.017 E.00437
G1 X72.916 Y57.017 E.00081
G1 X73.818 Y57.919 E.00552
G1 X73.818 Y58.107 E.00081
G1 X72.728 Y57.017 E.00668
G1 X72.54 Y57.017 E.00081
G1 X73.818 Y58.295 E.00783
G1 X73.818 Y58.483 E.00081
G1 X72.352 Y57.017 E.00898
G1 X72.164 Y57.017 E.00081
G1 X73.818 Y58.671 E.01013
G1 X73.818 Y58.859 E.00081
G1 X71.976 Y57.017 E.01129
G1 X71.788 Y57.017 E.00081
G1 X73.818 Y59.047 E.01244
G1 X73.818 Y59.235 E.00081
G1 X71.6 Y57.017 E.01359
G1 X71.412 Y57.017 E.00081
G1 X73.818 Y59.423 E.01474
G1 X73.818 Y59.611 E.00081
G1 X71.224 Y57.017 E.01589
G1 X71.036 Y57.017 E.00081
G1 X73.818 Y59.799 E.01705
G1 X73.818 Y59.987 E.00081
G1 X70.848 Y57.017 E.0182
G1 X70.66 Y57.017 E.00081
G1 X73.818 Y60.175 E.01935
G1 X73.818 Y60.363 E.00081
G1 X70.472 Y57.017 E.0205
G1 X70.284 Y57.017 E.00081
G1 X73.818 Y60.551 E.02166
G1 X73.818 Y60.739 E.00081
G1 X70.096 Y57.017 E.02281
G1 X69.908 Y57.017 E.00081
G1 X73.818 Y60.927 E.02396
G1 X73.818 Y61.115 E.00081
G1 X69.72 Y57.017 E.02511
G1 X69.532 Y57.017 E.00081
G1 X73.818 Y61.303 E.02627
G1 X73.818 Y61.491 E.00081
G1 X69.344 Y57.017 E.02742
M73 C7
G1 X69.156 Y57.017 E.00081
G1 X73.818 Y61.679 E.02857
G1 X73.818 Y61.867 E.00081
G1 X68.968 Y57.017 E.02972
G1 X68.78 Y57.017 E.00081
G1 X73.818 Y62.055 E.03087
G1 X73.818 Y62.243 E.00081
G1 X68.592 Y57.017 E.03203
G1 X68.404 Y57.017 E.00081
G1 X73.818 Y62.431 E.03318
G1 X73.818 Y62.619 E.00081
G1 X68.216 Y57.017 E.03433
G1 X68.028 Y57.017 E.00081
G1 X73.818 Y62.807 E.03548
G1 X73.818 Y62.945 E.0006
G1 X73.706 Y62.884 E.00055
G1 X67.84 Y57.017 E.03595
G1 X67.652 Y57.017 E.00081
G1 X73.458 Y62.824 E.03559
G1 X73.238 Y62.792 E.00096
G1 X67.464 Y57.017 E.03539
M73 P2 R14
G1 X67.276 Y57.017 E.00081
G1 X72.978 Y62.72 E.03495
G1 X72.704 Y62.634 E.00125
G1 X67.088 Y57.017 E.03442
G1 X66.9 Y57.017 E.00081
G1 X72.464 Y62.581 E.0341
G1 X72.367 Y62.563 E.00043
G1 X72.262 Y62.568 E.00045
G1 X66.712 Y57.017 E.03402
G1 X66.524 Y57.017 E.00081
G1 X72.083 Y62.577 E.03407
G1 X71.918 Y62.6 E.00072
G1 X66.336 Y57.017 E.03421
G1 X66.148 Y57.017 E.00081
G1 X71.767 Y62.637 E.03444
G1 X71.632 Y62.67 E.0006
G1 X71.586 Y62.644 E.00023
G1 X65.96 Y57.017 E.03448
G1 X65.772 Y57.017 E.00081
G1 X71.181 Y62.426 E.03315
G1 X70.913 Y62.347 E.00121
G1 X65.584 Y57.017 E.03266
G1 X65.395 Y57.017 E.00081
G1 X70.705 Y62.327 E.03254
G1 X70.504 Y62.314 E.00087
G1 X65.207 Y57.017 E.03246
G1 X65.019 Y57.017 E.00081
G1 X70.304 Y62.302 E.03239
G1 X70.104 Y62.289 E.00087
G1 X64.831 Y57.017 E.03231
G1 X64.643 Y57.017 E.00081
G1 X69.854 Y62.228 E.03193
G1 X69.56 Y62.122 E.00136
G1 X64.455 Y57.017 E.03128
G1 X64.267 Y57.017 E.00081
G1 X69.242 Y61.992 E.03049
G1 X68.845 Y61.783 E.00195
G1 X64.079 Y57.017 E.0292
G1 X63.891 Y57.017 E.00081
G1 X68.535 Y61.661 E.02846
G1 X68.269 Y61.583 E.0012
G1 X63.703 Y57.017 E.02798
G1 X63.515 Y57.017 E.00081
G1 X68.012 Y61.514 E.02756
G1 X67.755 Y61.445 E.00115
G1 X63.327 Y57.017 E.02714
G1 X63.139 Y57.017 E.00081
G1 X67.516 Y61.394 E.02682
G1 X67.282 Y61.348 E.00103
G1 X62.951 Y57.017 E.02654
G1 X62.763 Y57.017 E.00081
G1 X67.083 Y61.337 E.02647
G1 X66.884 Y61.326 E.00086
G1 X62.575 Y57.017 E.02641
G1 X62.387 Y57.017 E.00081
G1 X66.702 Y61.332 E.02645
G1 X66.528 Y61.346 E.00076
G1 X62.199 Y57.017 E.02653
G1 X62.011 Y57.017 E.00081
G1 X66.354 Y61.36 E.02662
G1 X66.18 Y61.374 E.00076
G1 X61.823 Y57.017 E.0267
G1 X61.635 Y57.017 E.00081
G1 X66.016 Y61.398 E.02685
G1 X65.852 Y61.422 E.00072
G1 X61.447 Y57.017 E.027
G1 X61.259 Y57.017 E.00081
G1 X65.688 Y61.447 E.02715
G1 X65.525 Y61.471 E.00072
G1 X61.071 Y57.017 E.0273
G1 X60.883 Y57.017 E.00081
G1 X65.361 Y61.495 E.02744
G1 X65.19 Y61.512 E.00074
G1 X60.695 Y57.017 E.02755
G1 X60.507 Y57.017 E.00081
G1 X64.997 Y61.507 E.02752
G1 X64.803 Y61.502 E.00084
G1 X60.319 Y57.017 E.02748
G1 X60.131 Y57.017 E.00081
G1 X64.61 Y61.496 E.02745
G1 X64.417 Y61.491 E.00084
G1 X59.943 Y57.017 E.02742
G1 X59.755 Y57.017 E.00081
G1 X64.215 Y61.477 E.02733
G1 X64.008 Y61.458 E.0009
G1 X59.567 Y57.017 E.02722
G1 X59.379 Y57.017 E.00081
G1 X63.801 Y61.44 E.0271
G1 X63.594 Y61.421 E.0009
G1 X59.191 Y57.017 E.02699
M73 P3 R14
G1 X59.003 Y57.017 E.00081
G1 X63.397 Y61.411 E.02693
G1 X63.214 Y61.416 E.00079
G1 X58.815 Y57.017 E.02696
G1 X58.627 Y57.017 E.00081
G1 X63.056 Y61.446 E.02714
G1 X62.914 Y61.493 E.00065
G1 X58.439 Y57.017 E.02743
G1 X58.251 Y57.017 E.00081
G1 X62.779 Y61.546 E.02775
G1 X62.644 Y61.599 E.00063
G1 X58.063 Y57.017 E.02808
G1 X57.875 Y57.017 E.00081
G1 X62.445 Y61.587 E.02801
G1 X62.206 Y61.537 E.00106
G1 X57.687 Y57.017 E.0277
G1 X57.499 Y57.017 E.00081
G1 X61.968 Y61.486 E.02739
G1 X61.731 Y61.437 E.00105
G1 X57.311 Y57.017 E.02709
G1 X57.123 Y57.017 E.00081
G1 X61.518 Y61.413 E.02694
G1 X61.305 Y61.388 E.00093
G1 X56.935 Y57.017 E.02679
G1 X56.747 Y57.017 E.00081
G1 X61.112 Y61.383 E.02676
G1 X60.93 Y61.389 E.00079
G1 X56.558 Y57.017 E.02679
G1 X56.37 Y57.017 E.00081
G1 X60.757 Y61.404 E.02688
G1 X60.597 Y61.432 E.0007
G1 X56.182 Y57.017 E.02706
G1 X55.994 Y57.017 E.00081
G1 X60.442 Y61.465 E.02726
G1 X60.301 Y61.512 E.00064
G1 X55.806 Y57.017 E.02755
G1 X55.618 Y57.017 E.00081
G1 X60.161 Y61.559 E.02784
G1 X60.035 Y61.622 E.00061
G1 X55.43 Y57.017 E.02822
G1 X55.242 Y57.017 E.00081
G1 X59.911 Y61.686 E.02862
G1 X59.788 Y61.751 E.0006
G1 X55.054 Y57.017 E.02901
G1 X54.866 Y57.017 E.00081
G1 X59.661 Y61.812 E.02939
G1 X59.46 Y61.799 E.00088
G1 X54.678 Y57.017 E.0293
G1 X54.49 Y57.017 E.00081
G1 X59.169 Y61.696 E.02867
G1 X58.842 Y61.557 E.00154
G1 X54.302 Y57.017 E.02782
G1 X54.114 Y57.017 E.00081
G1 X58.55 Y61.453 E.02718
G1 X58.29 Y61.382 E.00117
G1 X53.926 Y57.017 E.02675
G1 X53.738 Y57.017 E.00081
G1 X58.06 Y61.339 E.02649
G1 X57.845 Y61.312 E.00094
G1 X53.55 Y57.017 E.02632
G1 X53.362 Y57.017 E.00081
G1 X57.63 Y61.285 E.02615
G1 X57.43 Y61.273 E.00087
G1 X53.174 Y57.017 E.02608
G1 X52.986 Y57.017 E.00081
G1 X57.237 Y61.268 E.02605
G1 X57.044 Y61.263 E.00084
G1 X52.798 Y57.017 E.02602
G1 X52.61 Y57.017 E.00081
G1 X56.859 Y61.267 E.02604
G1 X56.686 Y61.281 E.00075
G1 X52.422 Y57.017 E.02613
G1 X52.234 Y57.017 E.00081
G1 X56.53 Y61.313 E.02633
G1 X56.386 Y61.357 E.00065
G1 X52.046 Y57.017 E.0266
G1 X51.858 Y57.017 E.00081
G1 X56.243 Y61.402 E.02687
G1 X56.099 Y61.447 E.00065
G1 X51.67 Y57.017 E.02715
G1 X51.482 Y57.017 E.00081
G1 X55.955 Y61.491 E.02742
G1 X55.805 Y61.528 E.00067
G1 X51.294 Y57.017 E.02765
G1 X51.106 Y57.017 E.00081
G1 X55.654 Y61.566 E.02788
G1 X55.504 Y61.603 E.00067
G1 X50.918 Y57.017 E.02811
G1 X50.73 Y57.017 E.00081
G1 X55.352 Y61.64 E.02833
M73 P4 R14
G1 X55.197 Y61.673 E.00069
G1 X50.542 Y57.017 E.02853
G1 X50.354 Y57.017 E.00081
G1 X55.04 Y61.703 E.02872
G1 X54.853 Y61.705 E.00081
G1 X50.166 Y57.017 E.02873
G1 X49.978 Y57.017 E.00081
G1 X54.615 Y61.654 E.02842
G1 X54.295 Y61.523 E.0015
G1 X49.79 Y57.017 E.02761
G1 X49.602 Y57.017 E.00081
G1 X53.975 Y61.39 E.0268
G1 X53.738 Y61.342 E.00105
G1 X49.414 Y57.017 E.0265
G1 X49.226 Y57.017 E.00081
G1 X53.541 Y61.332 E.02645
G1 X53.351 Y61.331 E.00082
G1 X49.038 Y57.017 E.02644
G1 X48.85 Y57.017 E.00081
G1 X53.162 Y61.329 E.02643
G1 X52.972 Y61.328 E.00082
G1 X48.662 Y57.017 E.02642
G1 X48.474 Y57.017 E.00081
G1 X52.783 Y61.326 E.02641
G1 X52.593 Y61.325 E.00082
G1 X48.286 Y57.017 E.0264
G1 X48.098 Y57.017 E.00081
G1 X52.404 Y61.324 E.02639
G1 X52.214 Y61.322 E.00082
G1 X47.91 Y57.017 E.02638
G1 X47.721 Y57.017 E.00081
G1 X52.025 Y61.321 E.02637
G1 X51.844 Y61.327 E.00079
G1 X47.533 Y57.017 E.02641
G1 X47.345 Y57.017 E.00081
G1 X51.682 Y61.354 E.02658
G1 X51.521 Y61.381 E.00071
G1 X47.157 Y57.017 E.02674
G1 X46.969 Y57.017 E.00081
G1 X51.36 Y61.408 E.02691
G1 X51.198 Y61.434 E.00071
G1 X46.781 Y57.017 E.02707
G1 X46.593 Y57.017 E.00081
G1 X50.983 Y61.407 E.0269
G1 X50.781 Y61.393 E.00088
G1 X46.405 Y57.017 E.02682
G1 X46.217 Y57.017 E.00081
G1 X50.585 Y61.385 E.02677
G1 X50.397 Y61.385 E.00082
G1 X46.182 Y57.17 E.02583
G1 X46.182 Y57.358 E.00081
G1 X50.21 Y61.386 E.02468
G1 X50.023 Y61.387 E.00081
G1 X46.182 Y57.546 E.02354
G1 X46.182 Y57.734 E.00081
G1 X49.836 Y61.387 E.02239
G1 X49.664 Y61.404 E.00075
G1 X46.182 Y57.922 E.02134
G1 X46.182 Y58.11 E.00081
G1 X49.512 Y61.44 E.0204
G1 X49.363 Y61.479 E.00067
G1 X46.182 Y58.298 E.01949
G1 X46.182 Y58.486 E.00081
G1 X49.225 Y61.529 E.01865
G1 X49.087 Y61.579 E.00064
