; HEADER_BLOCK_START
; generated by OrcaSlicer 1.6.2 on 2023-05-14 at 19:36:54
; total layer number: 70
; HEADER_BLOCK_END

; THUMBNAIL_BLOCK_START
; THUMBNAIL_BLOCK_END

; external perimeters extrusion width = 0.15mm
; perimeters extrusion width = 0.15mm
; infill extrusion width = 0.15mm
; solid infill extrusion width = 0.15mm
; top infill extrusion width = 0.15mm
; first layer extrusion width = 0.15mm

; EXECUTABLE_BLOCK_START
EXCLUDE_OBJECT_DEFINE NAME=LogoVancouver.STL_id_0_copy_0 CENTER=60,59.9997 POLYGON=[[42.1776,53.0039],[42.4325,53.0039],[77.8224,53.8965],[77.8224,66.9716],[71.6873,66.9757],[65.958,66.9795],[44.1458,66.9941],[42.1776,66.9954],[42.1776,53.0039]]
M73 P0 R18
M73 C12
;TYPE:Custom
START_PRINT T_BED=60 T_EXTRUDER=220
G90
G21
M83 ; use relative distances for extrusion
; filament start gcode

    PRESSURE_ADVANCE_SELECT FILAMENT=PLA
M106 S0
;LAYER_CHANGE
;Z:0.08
;HEIGHT:0.08
;BEFORE_LAYER_CHANGE
;0.08
G92 E0

;AFTER_LAYER_CHANGE
;0.08
M204 S500
G1 E-.8 F3000
G1 Z.2 F21000
G1 X41.034 Y51.145
M73 P0 R17
G1 Z.08
G1 E.8 F1800
;TYPE:Skirt
;WIDTH:0.15
G1 F3000
G1 X41.342 Y50.898 E.0017
G1 X42.49 Y50.739 E.00502
G1 X77.88 Y51.632 E.15327
G1 X79.142 Y52.055 E.00576
G1 X79.949 Y53.114 E.00576
G1 X80.088 Y53.896 E.00344
G1 X80.088 Y66.972 E.05661
G1 X79.697 Y68.244 E.00576
G1 X78.658 Y69.077 E.00576
G1 X77.824 Y69.237 E.00368
G1 X42.179 Y69.261 E.15433
G1 X40.906 Y68.871 E.00576
G1 X40.072 Y67.833 E.00576
G1 X39.912 Y66.995 E.00369
G1 X39.912 Y53.004 E.06058
G1 X40.303 Y51.731 E.00576
G1 X41.017 Y51.159 E.00396
G1 X41.101 Y51.269 F21000
G1 F3000
G1 X41.464 Y50.994 E.00197
G1 X42.486 Y50.872 E.00446
G1 X77.876 Y51.764 E.15327
G1 X79.096 Y52.186 E.00559
G1 X79.85 Y53.234 E.00559
G1 X79.955 Y53.896 E.0029
G1 X79.955 Y66.972 E.05661
G1 X79.565 Y68.202 E.00559
G1 X78.536 Y68.982 E.00559
G1 X77.824 Y69.104 E.00313
G1 X42.179 Y69.128 E.15433
G1 X40.948 Y68.738 E.00559
G1 X40.168 Y67.71 E.00559
G1 X40.045 Y66.995 E.00314
G1 X40.045 Y53.004 E.06058
G1 X40.435 Y51.774 E.00559
G1 X41.083 Y51.283 E.00352
; printing object LogoVancouver.STL id:0 copy 0
EXCLUDE_OBJECT_START NAME=LogoVancouver.STL_id_0_copy_0
G1 E-.8
G1 Z.28 F21000
G1 X62.638 Y61.819 Z.08
G1 E.8 F1800
;TYPE:Inner wall
;WIDTH:0.149999
G1 F3000
G1 X62.775 Y61.773 E.00063
G1 X62.886 Y61.618 E.00082
G1 X63.316 Y60.369 E.00572
G1 X64.924 Y59.382 E.00817
G1 X65.284 Y60.832 E.00647
G1 X65.424 Y61.326 E.00222
G1 X65.567 Y61.451 E.00082
G1 X65.855 Y61.474 E.00125
G1 X66.024 Y61.39 E.00082
G1 X66.123 Y61.212 E.00088
G1 X66.555 Y59.046 E.00956
G1 X68.094 Y60.493 E.00915
G1 X68.299 Y60.583 E.00097
G1 X68.518 Y60.519 E.00099
G1 X72.894 Y57.302 E.02351
G1 X77.238 Y54.237 E.02302
G1 X77.482 Y54.237 E.00106
G1 X77.482 Y54.422 E.0008
G1 X77.482 Y66.631 E.05286
G1 X42.518 Y66.654 E.15138
G1 X42.518 Y53.484 E.05702
G1 X54.459 Y62.013 E.06353
G1 X54.539 Y62.055 E.00039
G1 X54.709 Y62.069 E.00074
G1 X54.885 Y61.979 E.00086
G1 X57.689 Y59.207 E.01707
G1 X61.169 Y62.045 E.01944
G1 X61.352 Y62.072 E.0008
G1 X61.539 Y61.979 E.00091
G1 X62.112 Y61.413 E.00349
G1 X62.171 Y61.607 E.00088
G1 X62.362 Y61.816 E.00123
G1 X62.567 Y61.843 E.00089
G1 X62.617 Y61.826 E.00023
G1 X62.609 Y61.698 F21000
G1 F3000
G1 X62.637 Y61.699 E.00012
G1 X62.761 Y61.575 E.00076
G1 X63.205 Y60.281 E.00593
G1 X65.009 Y59.174 E.00916
G1 X65.536 Y61.255 E.0093
G1 X65.665 Y61.344 E.00068
G1 X65.897 Y61.32 E.00101
G1 X65.993 Y61.186 E.00071
G1 X66.471 Y58.785 E.0106
G1 X68.185 Y60.397 E.01019
G1 X68.292 Y60.448 E.00051
G1 X68.44 Y60.412 E.00066
G1 X72.817 Y57.195 E.02352
G1 X77.195 Y54.104 E.0232
G1 X77.615 Y54.104 E.00181
G1 X77.615 Y54.422 E.00138
G1 X77.615 Y66.764 E.05343
G1 X42.385 Y66.787 E.15253
M73 P1 R17
G1 X42.385 Y53.226 E.05872
G1 X54.536 Y61.905 E.06465
G1 X54.64 Y61.941 E.00048
G1 X54.792 Y61.884 E.0007
G1 X57.68 Y59.029 E.01759
G1 X61.179 Y61.897 E.01959
G1 X61.306 Y61.942 E.00058
G1 X61.446 Y61.884 E.00066
G1 X62.174 Y61.164 E.00444
G1 X62.298 Y61.568 E.00183
G1 X62.413 Y61.694 E.00074
G1 X62.587 Y61.698 E.00075
G1 X62.571 Y61.577 F21000
;TYPE:Outer wall
G1 F3000
G1 X62.635 Y61.532 E.00034
G1 X63.095 Y60.192 E.00613
G1 X65.095 Y58.966 E.01016
G1 X65.649 Y61.184 E.0099
G1 X65.799 Y61.213 E.00066
G1 X65.863 Y61.16 E.00036
G1 X66.388 Y58.524 E.01164
G1 X68.276 Y60.3 E.01122
G1 X68.361 Y60.305 E.00037
G1 X72.739 Y57.087 E.02353
G1 X77.153 Y53.971 E.02339
G1 X77.747 Y53.971 E.00257
G1 X77.747 Y54.422 E.00195
G1 X77.747 Y66.897 E.05401
G1 X42.253 Y66.92 E.15368
G1 X42.253 Y53.079 E.05993
G1 X42.408 Y53.079 E.00067
G1 X54.613 Y61.796 E.06494
G1 X54.698 Y61.79 E.00037
G1 X57.672 Y58.85 E.0181
G1 X61.264 Y61.794 E.02011
G1 X61.352 Y61.79 E.00038
G1 X62.237 Y60.916 E.00539
G1 X62.463 Y61.571 E.003
G1 X62.549 Y61.576 E.00037
G1 X62.58 Y61.59
G1 E-.8
G1 Z.28 F21000
G1 X77.205 Y54.309 Z.08
G1 E.8 F1800
;TYPE:Bottom surface
;WIDTH:0.150273
G1 F6300
G1 X77.382 Y54.486 E.00109
G1 X77.382 Y54.675 E.00082
G1 X77.137 Y54.43 E.0015
G1 X77.027 Y54.508 E.00059
G1 X77.382 Y54.863 E.00218
G1 X77.382 Y55.051 E.00082
G1 X76.917 Y54.586 E.00286
G1 X76.806 Y54.663 E.00059
G1 X77.382 Y55.239 E.00353
G1 X77.382 Y55.428 E.00082
G1 X76.696 Y54.741 E.00421
G1 X76.586 Y54.819 E.00059
G1 X77.382 Y55.616 E.00489
G1 X77.382 Y55.804 E.00082
G1 X76.475 Y54.897 E.00556
G1 X76.365 Y54.975 E.00059
G1 X77.382 Y55.992 E.00624
G1 X77.382 Y56.18 E.00082
G1 X76.255 Y55.053 E.00692
G1 X76.144 Y55.131 E.00059
G1 X77.382 Y56.369 E.0076
G1 X77.382 Y56.557 E.00082
G1 X76.034 Y55.209 E.00827
G1 X75.923 Y55.286 E.00059
G1 X77.382 Y56.745 E.00895
G1 X77.382 Y56.933 E.00082
G1 X75.813 Y55.364 E.00963
G1 X75.703 Y55.442 E.00059
G1 X77.382 Y57.122 E.0103
G1 X77.382 Y57.31 E.00082
G1 X75.592 Y55.52 E.01098
G1 X75.482 Y55.598 E.00059
G1 X77.382 Y57.498 E.01166
G1 X77.382 Y57.686 E.00082
G1 X75.372 Y55.676 E.01234
G1 X75.261 Y55.754 E.00059
G1 X77.382 Y57.875 E.01301
G1 X77.382 Y58.063 E.00082
G1 X75.151 Y55.832 E.01369
G1 X75.041 Y55.91 E.00059
G1 X77.382 Y58.251 E.01437
G1 X77.382 Y58.439 E.00082
G1 X74.93 Y55.987 E.01504
G1 X74.82 Y56.065 E.00059
G1 X77.382 Y58.628 E.01572
G1 X77.382 Y58.816 E.00082
G1 X74.71 Y56.143 E.0164
G1 X74.599 Y56.221 E.00059
G1 X77.382 Y59.004 E.01708
G1 X77.382 Y59.192 E.00082
G1 X74.489 Y56.299 E.01775
G1 X74.378 Y56.377 E.00059
G1 X77.382 Y59.381 E.01843
G1 X77.382 Y59.569 E.00082
G1 X74.268 Y56.455 E.01911
G1 X74.158 Y56.533 E.00059
G1 X77.382 Y59.757 E.01978
G1 X77.382 Y59.945 E.00082
G1 X74.047 Y56.61 E.02046
G1 X73.937 Y56.688 E.00059
G1 X77.382 Y60.134 E.02114
G1 X77.382 Y60.322 E.00082
G1 X73.827 Y56.766 E.02182
G1 X73.716 Y56.844 E.00059
G1 X77.382 Y60.51 E.02249
G1 X77.382 Y60.698 E.00082
G1 X73.606 Y56.922 E.02317
G1 X73.496 Y57 E.00059
G1 X77.382 Y60.886 E.02385
G1 X77.382 Y61.075 E.00082
G1 X73.385 Y57.078 E.02452
G1 X73.275 Y57.156 E.00059
G1 X77.382 Y61.263 E.0252
G1 X77.382 Y61.451 E.00082
G1 X73.165 Y57.234 E.02588
G1 X73.054 Y57.311 E.00059
G1 X77.382 Y61.639 E.02655
G1 X77.382 Y61.828 E.00082
G1 X72.944 Y57.389 E.02723
G1 X72.835 Y57.469 E.00058
G1 X77.382 Y62.016 E.0279
M73 P2 R17
G1 X77.382 Y62.204 E.00082
G1 X72.727 Y57.549 E.02856
G1 X72.618 Y57.628 E.00058
G1 X77.382 Y62.392 E.02923
G1 X77.382 Y62.581 E.00082
G1 X72.509 Y57.708 E.0299
G1 X72.401 Y57.787 E.00058
G1 X77.382 Y62.769 E.03056
G1 X77.382 Y62.957 E.00082
G1 X72.292 Y57.867 E.03123
G1 X72.183 Y57.946 E.00058
G1 X77.382 Y63.145 E.0319
G1 X77.382 Y63.334 E.00082
G1 X72.075 Y58.026 E.03257
G1 X71.966 Y58.106 E.00058
G1 X77.382 Y63.522 E.03323
G1 X77.382 Y63.71 E.00082
G1 X71.857 Y58.185 E.0339
G1 X71.749 Y58.265 E.00058
G1 X77.382 Y63.898 E.03457
G1 X77.382 Y64.087 E.00082
G1 X71.64 Y58.344 E.03523
G1 X71.531 Y58.424 E.00058
G1 X77.382 Y64.275 E.0359
G1 X77.382 Y64.463 E.00082
G1 X71.423 Y58.503 E.03657
G1 X71.314 Y58.583 E.00058
G1 X77.382 Y64.651 E.03723
G1 X77.382 Y64.839 E.00082
G1 X71.205 Y58.663 E.0379
G1 X71.097 Y58.742 E.00058
G1 X77.382 Y65.028 E.03857
G1 X77.382 Y65.216 E.00082
G1 X70.988 Y58.822 E.03923
G1 X70.879 Y58.901 E.00058
G1 X77.382 Y65.404 E.0399
G1 X77.382 Y65.592 E.00082
G1 X70.771 Y58.981 E.04057
G1 X70.662 Y59.06 E.00058
G1 X77.382 Y65.781 E.04123
G1 X77.382 Y65.969 E.00082
G1 X70.553 Y59.14 E.0419
G1 X70.445 Y59.22 E.00058
G1 X77.382 Y66.157 E.04257
G1 X77.382 Y66.345 E.00082
G1 X70.336 Y59.299 E.04323
G1 X70.227 Y59.379 E.00058
G1 X77.38 Y66.532 E.04389
G1 X77.192 Y66.532 E.00082
G1 X70.119 Y59.458 E.0434
G1 X70.01 Y59.538 E.00058
G1 X77.004 Y66.532 E.04291
G1 X76.816 Y66.532 E.00082
G1 X69.901 Y59.617 E.04242
G1 X69.793 Y59.697 E.00058
G1 X76.628 Y66.532 E.04194
G1 X76.44 Y66.532 E.00082
G1 X69.684 Y59.777 E.04145
G1 X69.575 Y59.856 E.00058
G1 X76.251 Y66.532 E.04096
G1 X76.063 Y66.532 E.00082
G1 X69.467 Y59.936 E.04048
G1 X69.358 Y60.015 E.00058
G1 X75.875 Y66.533 E.03999
G1 X75.687 Y66.533 E.00082
G1 X69.249 Y60.095 E.0395
G1 X69.141 Y60.174 E.00058
G1 X75.499 Y66.533 E.03901
G1 X75.311 Y66.533 E.00082
G1 X69.032 Y60.254 E.03853
G1 X68.923 Y60.334 E.00058
G1 X75.123 Y66.533 E.03804
G1 X74.935 Y66.533 E.00082
G1 X68.815 Y60.413 E.03755
G1 X68.706 Y60.493 E.00058
G1 X74.747 Y66.533 E.03706
G1 X74.558 Y66.533 E.00082
G1 X68.597 Y60.572 E.03658
G1 X68.487 Y60.65 E.00059
G1 X74.37 Y66.534 E.0361
G1 X74.182 Y66.534 E.00082
G1 X68.326 Y60.678 E.03593
G1 X68.258 Y60.679 E.0003
G1 X68.14 Y60.644 E.00053
G1 X68.014 Y60.554 E.00067
G1 X73.994 Y66.534 E.03669
G1 X73.806 Y66.534 E.00082
G1 X66.6 Y59.328 E.04421
G1 X66.569 Y59.485 E.00069
G1 X73.618 Y66.534 E.04325
G1 X73.43 Y66.534 E.00082
G1 X66.537 Y59.642 E.04229
M73 P3 R17
G1 X66.506 Y59.799 E.00069
G1 X73.242 Y66.534 E.04133
G1 X73.054 Y66.534 E.00082
G1 X66.475 Y59.956 E.04036
G1 X66.444 Y60.113 E.00069
G1 X72.865 Y66.535 E.0394
G1 X72.677 Y66.535 E.00082
G1 X66.412 Y60.27 E.03844
G1 X66.381 Y60.427 E.00069
G1 X72.489 Y66.535 E.03748
G1 X72.301 Y66.535 E.00082
G1 X66.35 Y60.584 E.03651
G1 X66.319 Y60.741 E.00069
G1 X72.113 Y66.535 E.03555
G1 X71.925 Y66.535 E.00082
G1 X66.287 Y60.898 E.03459
G1 X66.256 Y61.055 E.00069
G1 X71.737 Y66.535 E.03363
G1 X71.549 Y66.535 E.00082
G1 X66.225 Y61.212 E.03267
G1 X66.176 Y61.351 E.00064
G1 X71.36 Y66.536 E.03181
G1 X71.172 Y66.536 E.00082
G1 X66.095 Y61.459 E.03115
G1 X65.982 Y61.533 E.00059
G1 X70.984 Y66.536 E.0307
G1 X70.796 Y66.536 E.00082
G1 X65.778 Y61.517 E.03079
G1 E-.8 F3000
G1 Z.28 F21000
G1 X64.982 Y59.781 Z.08
G1 E.8 F1800
G1 F6300
G1 X64.785 Y59.584 E.00121
G1 X64.669 Y59.656 E.00059
G1 X64.963 Y59.949 E.0018
G1 X65.025 Y60.2 E.00112
G1 X64.552 Y59.727 E.0029
G1 X64.435 Y59.799 E.00059
G1 X65.087 Y60.45 E.004
G1 X65.149 Y60.701 E.00112
G1 X64.319 Y59.87 E.00509
G1 X64.202 Y59.942 E.00059
G1 X65.293 Y61.033 E.00669
G1 E-.8 F3000
G1 Z.28 F21000
G1 X64.042 Y59.97 Z.08
G1 E.8 F1800
G1 F6300
G1 X65.273 Y61.202 E.00756
G1 X65.339 Y61.379 E.00082
G1 X65.447 Y61.495 E.00069
G1 X65.527 Y61.543 E.00041
G1 X65.639 Y61.567 E.0005
G1 X70.608 Y66.536 E.03049
G1 X70.42 Y66.536 E.00082
G1 X63.969 Y60.085 E.03958
G1 X63.852 Y60.157 E.00059
G1 X70.232 Y66.536 E.03914
G1 X70.044 Y66.536 E.00082
G1 X63.735 Y60.228 E.03871
G1 X63.619 Y60.3 E.00059
G1 X69.856 Y66.537 E.03827
G1 X69.667 Y66.537 E.00082
G1 X63.502 Y60.371 E.03783
G1 X63.393 Y60.45 E.00058
G1 X69.479 Y66.537 E.03734
G1 X69.291 Y66.537 E.00082
G1 X63.345 Y60.59 E.03649
G1 X63.297 Y60.731 E.00064
G1 X69.103 Y66.537 E.03563
G1 X68.915 Y66.537 E.00082
G1 X63.249 Y60.871 E.03477
G1 X63.2 Y61.011 E.00064
G1 X68.727 Y66.537 E.03391
G1 X68.539 Y66.537 E.00082
G1 X63.152 Y61.151 E.03305
G1 X63.104 Y61.291 E.00064
G1 X68.351 Y66.538 E.03219
G1 X68.163 Y66.538 E.00082
G1 X63.056 Y61.431 E.03133
G1 X63.008 Y61.571 E.00064
G1 X67.974 Y66.538 E.03047
G1 X67.786 Y66.538 E.00082
G1 X62.952 Y61.703 E.02966
G1 X62.875 Y61.815 E.00059
G1 X67.598 Y66.538 E.02898
G1 X67.41 Y66.538 E.00082
G1 X62.759 Y61.887 E.02854
G1 X62.62 Y61.936 E.00064
G1 X67.222 Y66.538 E.02824
G1 X67.034 Y66.538 E.00082
G1 X62.433 Y61.938 E.02823
G1 X62.319 Y61.907 E.00051
G1 X62.078 Y61.643 E.00155
G1 X62.064 Y61.598 E.0002
G1 X61.983 Y61.676 E.00049
G1 X66.846 Y66.539 E.02983
G1 X66.658 Y66.539 E.00082
G1 X61.887 Y61.768 E.02927
G1 X61.791 Y61.86 E.00058
G1 X66.47 Y66.539 E.02871
G1 X66.281 Y66.539 E.00082
G1 X61.695 Y61.952 E.02814
G1 X61.598 Y62.044 E.00058
G1 X66.093 Y66.539 E.02758
G1 X65.905 Y66.539 E.00082
G1 X61.494 Y62.128 E.02707
G1 X61.346 Y62.168 E.00066
G1 X65.717 Y66.539 E.02682
G1 X65.529 Y66.539 E.00082
G1 X61.123 Y62.133 E.02704
G1 X61.034 Y62.078 E.00045
G1 X60.177 Y61.376 E.00481
G1 X65.341 Y66.54 E.03168
M73 P4 R17
G1 X65.153 Y66.54 E.00082
G1 X59.133 Y60.52 E.03693
G1 X58.09 Y59.665 E.00585
G1 X64.965 Y66.54 E.04218
G1 X64.777 Y66.54 E.00082
G1 X57.636 Y59.399 E.04381
G1 X57.541 Y59.493 E.00058
G1 X64.588 Y66.54 E.04324
G1 X64.4 Y66.54 E.00082
G1 X57.447 Y59.587 E.04267
G1 X57.352 Y59.68 E.00058
G1 X64.212 Y66.54 E.04209
G1 X64.024 Y66.541 E.00082
G1 X57.257 Y59.774 E.04152
G1 X57.163 Y59.867 E.00058
G1 X63.836 Y66.541 E.04095
G1 X63.648 Y66.541 E.00082
G1 X57.068 Y59.961 E.04037
G1 X56.973 Y60.054 E.00058
G1 X63.46 Y66.541 E.0398
G1 X63.272 Y66.541 E.00082
G1 X56.879 Y60.148 E.03923
G1 X56.784 Y60.242 E.00058
G1 X63.084 Y66.541 E.03865
G1 X62.895 Y66.541 E.00082
G1 X56.689 Y60.335 E.03808
G1 X56.595 Y60.429 E.00058
G1 X62.707 Y66.541 E.03751
G1 X62.519 Y66.542 E.00082
G1 X56.5 Y60.522 E.03693
G1 X56.405 Y60.616 E.00058
G1 X62.331 Y66.542 E.03636
G1 X62.143 Y66.542 E.00082
G1 X56.311 Y60.709 E.03578
G1 X56.216 Y60.803 E.00058
G1 X61.955 Y66.542 E.03521
G1 X61.767 Y66.542 E.00082
G1 X56.121 Y60.897 E.03464
G1 X56.027 Y60.99 E.00058
G1 X61.579 Y66.542 E.03406
G1 X61.39 Y66.542 E.00082
G1 X55.932 Y61.084 E.03349
G1 X55.837 Y61.177 E.00058
G1 X61.202 Y66.542 E.03292
G1 X61.014 Y66.543 E.00082
G1 X55.743 Y61.271 E.03234
G1 X55.648 Y61.364 E.00058
G1 X60.826 Y66.543 E.03177
G1 X60.638 Y66.543 E.00082
G1 X55.553 Y61.458 E.0312
G1 X55.459 Y61.552 E.00058
G1 X60.45 Y66.543 E.03062
G1 X60.262 Y66.543 E.00082
G1 X55.364 Y61.645 E.03005
G1 X55.269 Y61.739 E.00058
G1 X60.074 Y66.543 E.02948
G1 X59.886 Y66.543 E.00082
G1 X55.175 Y61.832 E.0289
G1 X55.08 Y61.926 E.00058
G1 X59.697 Y66.543 E.02833
G1 X59.509 Y66.544 E.00082
G1 X54.985 Y62.019 E.02776
G1 X54.882 Y62.105 E.00058
G1 X59.321 Y66.544 E.02724
G1 X59.133 Y66.544 E.00082
G1 X54.752 Y62.163 E.02688
G1 X54.564 Y62.163 E.00081
G1 X58.945 Y66.544 E.02688
G1 X58.757 Y66.544 E.00082
G1 X54.071 Y61.858 E.02875
G1 X53.413 Y61.388 E.00351
G1 X58.569 Y66.544 E.03164
G1 X58.381 Y66.544 E.00082
G1 X52.754 Y60.917 E.03453
G1 X52.095 Y60.447 E.00351
G1 X58.193 Y66.544 E.03741
G1 X58.004 Y66.545 E.00082
G1 X51.436 Y59.976 E.0403
G1 X50.777 Y59.505 E.00351
G1 X57.816 Y66.545 E.04319
G1 X57.628 Y66.545 E.00082
G1 X50.118 Y59.035 E.04608
G1 X49.46 Y58.564 E.00351
G1 X57.44 Y66.545 E.04897
G1 X57.252 Y66.545 E.00082
G1 X48.801 Y58.094 E.05185
G1 X48.142 Y57.623 E.00351
G1 X57.064 Y66.545 E.05474
G1 X56.876 Y66.545 E.00082
G1 X47.483 Y57.153 E.05763
G1 X46.824 Y56.682 E.00351
G1 X56.688 Y66.545 E.06052
M73 P5 R17
G1 X56.5 Y66.546 E.00082
G1 X46.165 Y56.211 E.06341
G1 X45.507 Y55.741 E.00351
G1 X56.311 Y66.546 E.0663
G1 X56.123 Y66.546 E.00082
G1 X44.848 Y55.27 E.06918
G1 X44.189 Y54.8 E.00351
G1 X55.935 Y66.546 E.07207
G1 X55.747 Y66.546 E.00082
G1 X43.53 Y54.329 E.07496
G1 X42.871 Y53.858 E.00351
G1 X55.559 Y66.546 E.07785
M73 C11
G1 X55.371 Y66.546 E.00082
G1 X42.618 Y53.793 E.07825
G1 X42.618 Y53.981 E.00082
G1 X55.183 Y66.546 E.07709
G1 X54.995 Y66.547 E.00082
G1 X42.618 Y54.17 E.07594
G1 X42.618 Y54.358 E.00082
G1 X54.807 Y66.547 E.07479
G1 X54.618 Y66.547 E.00082
G1 X42.618 Y54.546 E.07363
G1 X42.618 Y54.734 E.00082
G1 X54.43 Y66.547 E.07248
G1 X54.242 Y66.547 E.00082
G1 X42.618 Y54.923 E.07132
G1 X42.618 Y55.111 E.00082
G1 X54.054 Y66.547 E.07017
G1 X53.866 Y66.547 E.00082
G1 X42.618 Y55.299 E.06901
G1 X42.618 Y55.487 E.00082
G1 X53.678 Y66.547 E.06786
G1 X53.49 Y66.548 E.00082
G1 X42.618 Y55.676 E.06671
G1 X42.618 Y55.864 E.00082
G1 X53.302 Y66.548 E.06555
G1 X53.114 Y66.548 E.00082
G1 X42.618 Y56.052 E.0644
M73 P5 R16
G1 X42.618 Y56.24 E.00082
