; HEADER_BLOCK_START
; generated by OrcaSlicer 1.6.6 on 2023-09-08 at 22:09:04
; total layer number: 61
; HEADER_BLOCK_END

; THUMBNAIL_BLOCK_START
; THUMBNAIL_BLOCK_END

; external perimeters extrusion width = 0.20mm
; perimeters extrusion width = 0.23mm
; infill extrusion width = 0.32mm
; solid infill extrusion width = 0.28mm
; top infill extrusion width = 0.20mm
; first layer extrusion width = 0.25mm

; external perimeters extrusion width = 0.15mm
; perimeters extrusion width = 0.23mm
; infill extrusion width = 0.32mm
; solid infill extrusion width = 0.28mm
; top infill extrusion width = 0.15mm
; first layer extrusion width = 0.25mm

; EXECUTABLE_BLOCK_START
EXCLUDE_OBJECT_DEFINE NAME=LogoBoard.STL_id_0_copy_0 CENTER=60,60 POLYGON=[[45.742,56.5769],[74.258,56.5769],[74.258,63.4231],[73.6492,63.4231],[45.742,62.4101],[45.742,56.5769]]
M73 P0 R12
M73 C6
;TYPE:Custom
START_PRINT T_BED=60 T_EXTRUDER=220
G90
G21
M83 ; use relative distances for extrusion
; filament start gcode

     PRESSURE_ADVANCE_SELECT Nozzle=0.2 FILAMENT=PLA
M106 S0
;LAYER_CHANGE
;Z:0.08
;HEIGHT:0.08
;BEFORE_LAYER_CHANGE
;0.08
G92 E0

;AFTER_LAYER_CHANGE
;0.08
SET_VELOCITY_LIMIT ACCEL=500 ACCEL_TO_DECEL=250
SET_VELOCITY_LIMIT SQUARE_CORNER_VELOCITY=9
G1 E-.8 F3000
G1 Z.2 F21000
G1 X44.719 Y54.333
G1 Z.2
G1 Z.08
G1 E.8 F1800
;TYPE:Skirt
;WIDTH:0.25
G1 F3000
G1 X45.742 Y54.111 E.00794
G1 X74.258 Y54.111 E.21641
M73 P0 R11
G1 X75.592 Y54.503 E.01055
G1 X76.502 Y55.554 E.01055
G1 X76.724 Y56.577 E.00794
G1 X76.724 Y63.423 E.05196
G1 X76.332 Y64.757 E.01055
G1 X75.281 Y65.667 E.01055
G1 X74.258 Y65.889 E.00794
G1 X73.56 Y65.887 E.0053
G1 X45.653 Y64.874 E.21193
G1 X44.334 Y64.434 E.01055
G1 X43.463 Y63.351 E.01055
G1 X43.276 Y62.41 E.00728
G1 X43.276 Y56.577 E.04427
G1 X43.668 Y55.243 E.01055
G1 X44.704 Y54.346 E.0104
G1 X44.866 Y54.55 F21000
G1 F3000
G1 X44.936 Y54.495 E.00068
G1 X45.742 Y54.344 E.00622
G1 X74.258 Y54.344 E.21641
G1 X75.52 Y54.735 E.01003
G1 X76.34 Y55.771 E.01003
G1 X76.491 Y56.577 E.00622
G1 X76.491 Y63.423 E.05196
G1 X76.1 Y64.685 E.01003
G1 X75.064 Y65.505 E.01003
G1 X74.258 Y65.656 E.00622
G1 X73.568 Y65.654 E.00523
G1 X45.661 Y64.642 E.21193
G1 X44.414 Y64.205 E.01003
G1 X43.632 Y63.14 E.01003
G1 X43.509 Y62.41 E.00561
G1 X43.509 Y56.577 E.04427
G1 X43.9 Y55.315 E.01003
G1 X44.85 Y54.563 E.00919
; printing object LogoBoard.STL id:0 copy 0
G1 E-.8
EXCLUDE_OBJECT_START NAME=LogoBoard.STL_id_0_copy_0
G1 Z.28 F21000
G1 X45.867 Y62.054 Z.28
G1 Z.08
G1 E.8 F1800
;TYPE:Outer wall
G1 F3000
G1 X45.867 Y56.702 E.04062
G1 X74.133 Y56.702 E.21451
G1 X74.133 Y63.298 E.05006
G1 X73.734 Y63.298 E.00303
G2 X73.459 Y63.138 I-.354 J.292 E.00246
G3 X73.113 Y63.092 I.047 J-1.704 E.00266
G2 X72.35 Y62.881 I-1.297 J3.19 E.00602
G2 X71.709 Y62.986 I-.089 J1.459 E.00497
G3 X71.44 Y62.935 I-.077 J-.332 E.00214
G2 X70.825 Y62.65 I-.89 J1.113 E.00519
G1 X70.047 Y62.602 E.00591
G3 X68.828 Y62.122 I1.05 J-4.457 E.00998
G2 X68.256 Y61.906 I-.932 J1.606 E.00466
G2 X67.266 Y61.663 I-2.763 J9.108 E.00775
G1 X66.829 Y61.639 E.00332
G2 X65.258 Y61.83 I1.529 J19.115 E.01201
G3 X63.457 Y61.725 I-.051 J-14.626 E.0137
G2 X62.814 Y61.876 I-.058 J1.2 E.00508
G3 X62.403 Y61.912 I-.268 J-.688 E.00318
G2 X61.219 Y61.695 I-1.816 J6.58 E.00915
G2 X59.923 Y62.043 I-.113 J2.169 E.01035
G3 X59.398 Y62.11 I-.332 J-.507 E.00416
G3 X58.581 Y61.788 I1.678 J-5.457 E.00667
G1 X58.138 Y61.667 E.00348
G2 X56.673 Y61.599 I-1.015 J6.067 E.01116
M73 P1 R11
G3 X55.465 Y61.938 I-8.178 J-26.806 E.00952
G3 X54.166 Y61.803 I-.504 J-1.47 E.01023
G2 X53.667 Y61.649 I-.701 J1.384 E.00399
G2 X51.917 Y61.635 I-1.352 J60.371 E.01328
G2 X51.214 Y61.753 I3.423 J22.471 E.00541
G2 X49.769 Y61.704 I-1.002 J8.106 E.01099
G2 X49.051 Y61.935 I.482 J2.731 E.00574
G3 X48.344 Y62.125 I-.909 J-1.97 E.00558
G3 X46.187 Y61.966 I-.608 J-6.46 E.01649
G2 X45.883 Y62.042 I-.065 J.39 E.00245
G1 X46.1 Y61.729 F21000
;TYPE:Inner wall
G1 F3000
G1 X46.1 Y56.935 E.03638
G1 X73.9 Y56.935 E.21098
G1 X73.9 Y63.098 E.04677
G2 X73.239 Y62.881 I-.644 J.848 E.00538
G1 X73.171 Y62.867 E.00053
G2 X72.375 Y62.648 I-1.342 J3.33 E.00628
G2 X71.662 Y62.757 I-.112 J1.653 E.00552
G3 X71.553 Y62.731 I-.028 J-.127 E.00088
G2 X70.859 Y62.419 I-1 J1.292 E.00583
G1 X70.083 Y62.371 E.0059
G3 X68.935 Y61.915 I1.01 J-4.219 E.0094
G2 X68.32 Y61.682 I-1.006 J1.728 E.00502
G2 X67.297 Y61.431 I-2.85 J9.41 E.008
G1 X66.826 Y61.405 E.00358
G2 X65.245 Y61.596 I1.482 J18.878 E.01209
G3 X63.468 Y61.492 I-.046 J-14.34 E.01352
G2 X62.731 Y61.658 I-.067 J1.416 E.0058
G3 X62.449 Y61.683 I-.179 J-.417 E.00219
G2 X61.228 Y61.462 I-1.869 J6.836 E.00943
G2 X59.817 Y61.835 I-.123 J2.391 E.01126
G3 X59.455 Y61.884 I-.226 J-.31 E.00289
G3 X58.658 Y61.568 I1.649 J-5.329 E.00652
G1 X58.184 Y61.438 E.00373
G2 X56.634 Y61.369 I-1.058 J6.305 E.01181
G3 X55.413 Y61.711 I-9.173 J-30.342 E.00962
G3 X54.256 Y61.588 I-.446 J-1.305 E.00912
G2 X53.694 Y61.417 I-.782 J1.557 E.00448
G2 X51.902 Y61.402 I-1.389 J60.271 E.0136
G2 X51.22 Y61.519 I1.026 J8 E.00525
G2 X49.738 Y61.472 I-1.013 J8.432 E.01127
G2 X48.972 Y61.716 I.505 J2.915 E.00613
G3 X48.319 Y61.893 I-.844 J-1.817 E.00516
G3 X46.531 Y61.794 I-.539 J-6.478 E.01364
G2 X46.12 Y61.729 I-.446 J1.484 E.00317
G1 X46.333 Y61.52 F21000
G1 F3000
G1 X46.333 Y57.168 E.03303
G1 X73.667 Y57.168 E.20745
G1 X73.667 Y62.706 E.04203
G2 X73.23 Y62.641 I-1.319 J7.364 E.00335
G2 X72.401 Y62.416 I-1.387 J3.471 E.00654
G2 X71.651 Y62.519 I-.137 J1.791 E.00578
G2 X70.893 Y62.188 I-1.089 J1.459 E.00633
G1 X70.119 Y62.14 E.00589
G3 X69.043 Y61.709 I.972 J-3.986 E.00883
G2 X68.384 Y61.458 I-1.079 J1.85 E.00537
G2 X67.328 Y61.2 I-2.936 J9.711 E.00826
G1 X66.823 Y61.172 E.00383
G2 X65.233 Y61.363 I1.436 J18.653 E.01216
G3 X63.478 Y61.258 I-.041 J-14.059 E.01335
G2 X62.648 Y61.44 I-.075 J1.637 E.00652
G3 X62.278 Y61.395 I-.125 J-.521 E.00289
G2 X60.81 Y61.242 I-1.233 J4.698 E.01124
G2 X59.711 Y61.628 I.315 J2.657 E.00891
G3 X59.513 Y61.658 I-.12 J-.124 E.00163
G3 X58.734 Y61.348 I1.62 J-5.2 E.00636
G1 X58.23 Y61.209 E.00397
G2 X56.594 Y61.138 I-1.102 J6.55 E.01246
G3 X55.361 Y61.484 I-10.315 J-34.408 E.00972
G3 X54.654 Y61.509 I-.394 J-1.14 E.00544
G2 X53.721 Y61.185 I-1.653 J3.251 E.00752
G2 X51.887 Y61.169 I-1.426 J60.266 E.01393
G2 X51.224 Y61.285 I.216 J3.188 E.00512
G2 X49.707 Y61.24 I-1.02 J8.767 E.01153
G2 X48.892 Y61.497 I.528 J3.098 E.00651
G3 X48.294 Y61.661 I-.778 J-1.663 E.00473
G3 X46.352 Y61.524 I-.558 J-5.931 E.01484
G1 E-.8
G1 Z.28 F21000
G1 X73.597 Y57.711 Z.28
G1 Z.08
G1 E.8 F1800
;TYPE:Bottom surface
;WIDTH:0.251354
G1 F6300
G1 X73.229 Y57.342 E.00398
G1 X72.897 Y57.342 E.00253
G1 X73.493 Y57.937 E.00643
G1 X73.493 Y58.269 E.00253
G1 X72.566 Y57.342 E.01
M73 C5
G1 X72.235 Y57.342 E.00253
G1 X73.493 Y58.6 E.01358
G1 X73.493 Y58.931 E.00253
G1 X71.904 Y57.342 E.01715
G1 X71.573 Y57.342 E.00253
G1 X73.493 Y59.262 E.02073
G1 X73.493 Y59.593 E.00253
G1 X71.242 Y57.342 E.0243
G1 X70.91 Y57.342 E.00253
G1 X73.493 Y59.925 E.02788
G1 X73.493 Y60.256 E.00253
G1 X70.579 Y57.342 E.03145
G1 X70.248 Y57.342 E.00253
G1 X73.493 Y60.587 E.03503
G1 X73.493 Y60.918 E.00253
G1 X69.917 Y57.342 E.0386
G1 X69.586 Y57.342 E.00253
G1 X73.493 Y61.249 E.04218
G1 X73.493 Y61.581 E.00253
G1 X69.254 Y57.342 E.04575
G1 X68.923 Y57.342 E.00253
G1 X73.493 Y61.912 E.04933
G1 X73.493 Y62.243 E.00253
G1 X68.592 Y57.342 E.0529
M73 P2 R11
G1 X68.261 Y57.342 E.00253
G1 X73.41 Y62.492 E.05559
G3 X72.961 Y62.374 I.148 J-1.48 E.00356
G1 X67.93 Y57.342 E.05432
G1 X67.598 Y57.342 E.00253
G1 X72.517 Y62.261 E.0531
G2 X72.159 Y62.234 I-.261 J1.099 E.00275
G1 X67.267 Y57.342 E.05281
G1 X66.936 Y57.342 E.00253
G1 X71.871 Y62.277 E.05327
G1 X71.678 Y62.33 E.00153
G1 X71.459 Y62.196 E.00195
G1 X66.605 Y57.342 E.0524
G1 X66.274 Y57.342 E.00253
G1 X70.954 Y62.023 E.05053
G1 X70.594 Y61.994 E.00275
G1 X65.942 Y57.342 E.05022
G1 X65.611 Y57.342 E.00253
G1 X70.241 Y61.972 E.04998
G3 X69.804 Y61.866 I.157 J-1.599 E.00345
G1 X65.28 Y57.342 E.04883
G1 X64.949 Y57.342 E.00253
G1 X69.22 Y61.613 E.04611
G1 X68.831 Y61.41 E.00335
G1 X68.623 Y61.348 E.00165
G1 X64.618 Y57.342 E.04324
G1 X64.287 Y57.342 E.00253
G1 X68.162 Y61.218 E.04183
G2 X67.718 Y61.105 I-1.271 J4.078 E.0035
G1 X63.955 Y57.342 E.04062
G1 X63.624 Y57.342 E.00253
G1 X67.306 Y61.024 E.03974
G1 X66.955 Y61.004 E.00268
G1 X63.293 Y57.342 E.03953
G1 X62.962 Y57.342 E.00253
G1 X66.632 Y61.012 E.03962
G1 X66.325 Y61.036 E.00235
G1 X62.631 Y57.342 E.03988
G1 X62.299 Y57.342 E.00253
G1 X66.025 Y61.068 E.04022
G1 X65.737 Y61.111 E.00222
G1 X61.968 Y57.342 E.04068
G1 X61.637 Y57.342 E.00253
G1 X65.449 Y61.154 E.04115
G3 X65.15 Y61.186 I-.239 J-.822 E.00231
G1 X61.306 Y57.342 E.0415
G1 X60.975 Y57.342 E.00253
G1 X64.809 Y61.177 E.04139
G1 X64.469 Y61.167 E.0026
G1 X60.643 Y57.342 E.04129
G1 X60.312 Y57.342 E.00253
G1 X64.112 Y61.142 E.04101
G1 X63.747 Y61.108 E.0028
G1 X59.981 Y57.342 E.04065
G1 X59.65 Y57.342 E.00253
G1 X63.394 Y61.086 E.04041
G2 X63.086 Y61.11 I-.081 J.957 E.00236
G1 X59.319 Y57.342 E.04067
G1 X58.988 Y57.342 E.00253
G1 X62.823 Y61.178 E.0414
G1 X62.583 Y61.269 E.00196
G1 X58.656 Y57.342 E.04239
G1 X58.325 Y57.342 E.00253
G1 X62.186 Y61.203 E.04167
G2 X61.766 Y61.114 I-.659 J2.086 E.00328
G1 X57.994 Y57.342 E.04072
G1 X57.663 Y57.342 E.00253
G1 X61.391 Y61.071 E.04025
G2 X61.049 Y61.06 I-.207 J1.149 E.00262
G1 X57.332 Y57.342 E.04013
G1 X57 Y57.342 E.00253
G1 X60.736 Y61.078 E.04033
M73 P3 R11
G1 X60.454 Y61.127 E.00218
G1 X56.669 Y57.342 E.04086
G1 X56.338 Y57.342 E.00253
G1 X60.199 Y61.203 E.04168
G2 X59.959 Y61.294 I.159 J.784 E.00197
G1 X56.007 Y57.342 E.04266
G1 X55.676 Y57.342 E.00253
G1 X59.742 Y61.409 E.0439
G1 X59.593 Y61.488 E.00129
G1 X59.448 Y61.446 E.00115
G1 X55.344 Y57.342 E.0443
G1 X55.013 Y57.342 E.00253
G1 X58.899 Y61.228 E.04195
G2 X58.42 Y61.08 I-.792 J1.715 E.00384
G1 X54.682 Y57.342 E.04035
G1 X54.351 Y57.342 E.00253
G1 X58.014 Y61.006 E.03955
G1 X57.635 Y60.958 E.00292
G1 X54.02 Y57.342 E.03903
G1 X53.689 Y57.342 E.00253
G1 X57.291 Y60.944 E.03888
G1 X56.951 Y60.936 E.0026
G1 X53.357 Y57.342 E.03879
G1 X53.026 Y57.342 E.00253
G1 X56.643 Y60.959 E.03904
G2 X56.369 Y61.016 I.031 J.828 E.00214
G1 X52.695 Y57.342 E.03966
G1 X52.364 Y57.342 E.00253
G1 X56.115 Y61.094 E.0405
G3 X55.868 Y61.178 I-.616 J-1.406 E.002
G1 X52.033 Y57.342 E.0414
G1 X51.701 Y57.342 E.00253
G1 X55.603 Y61.244 E.04212
G1 X55.338 Y61.31 E.00208
G1 X51.37 Y57.342 E.04283
G1 X51.039 Y57.342 E.00253
G1 X55.065 Y61.368 E.04346
G3 X54.707 Y61.342 I-.134 J-.613 E.00278
G1 X50.708 Y57.342 E.04317
G1 X50.377 Y57.342 E.00253
G1 X54.142 Y61.108 E.04065
G1 X54.07 Y61.078 E.0006
G1 X53.713 Y61.01 E.00278
G1 X50.045 Y57.342 E.03959
G1 X49.714 Y57.342 E.00253
G1 X53.371 Y60.999 E.03947
G2 X53.035 Y60.994 I-.24 J5.167 E.00256
G1 X49.383 Y57.342 E.03942
G1 X49.052 Y57.342 E.00253
G1 X52.704 Y60.994 E.03942
G1 X52.373 Y60.994 E.00253
G1 X48.721 Y57.342 E.03943
G1 X48.389 Y57.342 E.00253
G1 X52.042 Y60.995 E.03943
G2 X51.73 Y61.014 I-.083 J1.166 E.00239
G1 X48.058 Y57.342 E.03964
G1 X47.727 Y57.342 E.00253
G1 X51.438 Y61.054 E.04006
G3 X51.154 Y61.101 I-.338 J-1.163 E.0022
G1 X47.396 Y57.342 E.04057
G1 X47.065 Y57.342 E.00253
G1 X50.791 Y61.068 E.04022
G2 X50.451 Y61.06 I-.253 J3.412 E.00259
G1 X46.734 Y57.342 E.04013
G1 X46.507 Y57.342 E.00173
G1 X46.507 Y57.447 E.0008
G1 X50.122 Y61.062 E.03903
G1 X49.794 Y61.065 E.00251
G1 X46.507 Y57.778 E.03548
G1 X46.507 Y58.11 E.00253
G1 X49.505 Y61.107 E.03236
G2 X49.243 Y61.176 I.144 J1.087 E.00208
G1 X46.507 Y58.441 E.02953
G1 X46.507 Y58.772 E.00253
G1 X49 Y61.265 E.02691
G1 X48.758 Y61.354 E.00197
G1 X46.507 Y59.103 E.02429
G1 X46.507 Y59.434 E.00253
G1 X48.515 Y61.442 E.02168
M73 P4 R11
G3 X48.231 Y61.489 I-.479 J-2.012 E.0022
G1 X46.507 Y59.766 E.01861
G1 X46.507 Y60.097 E.00253
G1 X47.916 Y61.505 E.0152
G3 X47.584 Y61.505 I-.166 J-1.803 E.00253
G1 X46.507 Y60.428 E.01163
G1 X46.507 Y60.759 E.00253
G1 X47.239 Y61.49 E.00789
G3 X46.848 Y61.431 I.034 J-1.546 E.00302
G1 X46.403 Y60.985 E.00481
; stop printing object LogoBoard.STL id:0 copy 0
M106 S255
;LAYER_CHANGE
;Z:0.16
;HEIGHT:0.08
;BEFORE_LAYER_CHANGE
;0.16
G92 E0

EXCLUDE_OBJECT_END NAME=LogoBoard.STL_id_0_copy_0
;AFTER_LAYER_CHANGE
;0.16
SET_VELOCITY_LIMIT ACCEL=5000 ACCEL_TO_DECEL=2500
M140 S60 ; set bed temperature
; printing object LogoBoard.STL id:0 copy 0
SET_VELOCITY_LIMIT ACCEL=6000 ACCEL_TO_DECEL=3000
SET_VELOCITY_LIMIT SQUARE_CORNER_VELOCITY=12
G1 E-.8 F3000
EXCLUDE_OBJECT_START NAME=LogoBoard.STL_id_0_copy_0
G1 Z.28 F21000
G1 X45.842 Y62.118 Z.28
G1 Z.16
G1 E.8 F1800
SET_VELOCITY_LIMIT ACCEL=3000 ACCEL_TO_DECEL=1500
SET_VELOCITY_LIMIT SQUARE_CORNER_VELOCITY=7
;TYPE:Outer wall
;WIDTH:0.2
G1 F5041
G1 X45.842 Y56.677 E.03243
G1 X74.158 Y56.677 E.16875
G1 X74.158 Y63.323 E.03961
G1 X73.72 Y63.323 E.00261
G2 X73.455 Y63.163 I-.296 J.19 E.00191
G3 X73.106 Y63.117 I.048 J-1.716 E.0021
G2 X72.347 Y62.906 I-1.292 J3.175 E.00471
G2 X71.714 Y63.011 I-.087 J1.438 E.00386
G3 X71.427 Y62.957 I-.082 J-.357 E.00179
G2 X70.821 Y62.675 I-.878 J1.094 E.00402
G1 X70.043 Y62.627 E.00464
G3 X68.816 Y62.144 I1.055 J-4.483 E.00788
G2 X68.249 Y61.93 I-.924 J1.593 E.00363
G2 X67.262 Y61.688 I-2.754 J9.075 E.00606
G1 X66.829 Y61.664 E.00259
G2 X65.259 Y61.855 I1.534 J19.14 E.00942
G3 X63.456 Y61.75 I-.051 J-14.658 E.01077
G2 X62.823 Y61.899 I-.057 J1.177 E.00393
G3 X62.398 Y61.936 I-.277 J-.718 E.00258
G2 X61.218 Y61.72 I-1.81 J6.553 E.00716
G2 X59.934 Y62.065 I-.112 J2.145 E.00805
G3 X59.392 Y62.135 I-.344 J-.529 E.00337
G3 X58.572 Y61.812 I1.681 J-5.471 E.00525
G1 X58.134 Y61.691 E.00271
G2 X56.678 Y61.624 I-1.01 J6.042 E.00871
G3 X55.471 Y61.962 I-8.08 J-26.456 E.00747
G3 X54.157 Y61.826 I-.51 J-1.491 E.00812
G2 X53.664 Y61.674 I-.692 J1.365 E.00309
G2 X51.918 Y61.66 I-1.348 J60.226 E.0104
G2 X51.214 Y61.778 I4.074 J26.402 E.00426
G2 X49.773 Y61.728 I-1.001 J8.071 E.0086
G2 X49.06 Y61.958 I.48 J2.712 E.00448
G3 X48.347 Y62.15 I-.917 J-1.986 E.00442
G3 X46.184 Y61.991 I-.61 J-6.482 E.01298
G2 X45.856 Y62.104 I-.05 J.39 E.00215
SET_VELOCITY_LIMIT ACCEL=6000 ACCEL_TO_DECEL=3000
SET_VELOCITY_LIMIT SQUARE_CORNER_VELOCITY=12
G1 X46.04 Y61.786 F21000
SET_VELOCITY_LIMIT ACCEL=5000 ACCEL_TO_DECEL=2500
SET_VELOCITY_LIMIT SQUARE_CORNER_VELOCITY=7
;TYPE:Inner wall
;WIDTH:0.23
G1 F5041
G1 X46.04 Y56.875 E.03407
G1 X73.96 Y56.875 E.19369
G1 X73.96 Y63.125 E.04336
G1 X73.817 Y63.125 E.00099
G2 X73.486 Y62.967 I-.399 J.41 E.00259
G3 X73.156 Y62.925 I.038 J-1.622 E.00231
G2 X72.368 Y62.708 I-1.33 J3.294 E.00568
G2 X71.674 Y62.816 I-.106 J1.602 E.00491
G1 X71.602 Y62.819 E.0005
G2 X71.043 Y62.524 I-3.712 J6.35 E.00439
G1 X70.85 Y62.478 E.00138
G1 X70.074 Y62.43 E.0054
G3 X68.908 Y61.969 I1.02 J-4.281 E.00873
G2 X68.304 Y61.74 I-.987 J1.697 E.0045
G2 X67.289 Y61.491 I-2.827 J9.331 E.00725
G1 X66.827 Y61.465 E.00321
G2 X65.249 Y61.657 I1.494 J18.936 E.01103
G3 X63.465 Y61.552 I-.047 J-14.412 E.0124
G2 X62.753 Y61.714 I-.064 J1.36 E.00513
G3 X62.437 Y61.742 I-.202 J-.485 E.00223
G2 X61.226 Y61.522 I-1.855 J6.768 E.00855
G2 X59.844 Y61.889 I-.12 J2.333 E.01008
G3 X59.44 Y61.942 I-.253 J-.36 E.00294
G3 X58.638 Y61.625 I1.657 J-5.362 E.00599
G1 X58.172 Y61.497 E.00335
G2 X56.644 Y61.428 I-1.047 J6.243 E.01064
G3 X55.427 Y61.77 I-8.905 J-29.389 E.00877
G3 X54.233 Y61.643 I-.46 J-1.355 E.00859
G2 X53.687 Y61.477 I-.761 J1.512 E.00398
G2 X51.906 Y61.462 I-1.379 J60.127 E.01236
G2 X51.219 Y61.58 I1.352 J9.967 E.00484
G2 X49.746 Y61.532 I-1.01 J8.347 E.01023
G2 X48.992 Y61.772 I.499 J2.867 E.00551
G3 X48.326 Y61.953 I-.861 J-1.856 E.00481
G3 X46.52 Y61.853 I-.545 J-6.542 E.01258
G2 X46.06 Y61.786 I-.477 J1.657 E.00324
SET_VELOCITY_LIMIT ACCEL=6000 ACCEL_TO_DECEL=3000
SET_VELOCITY_LIMIT SQUARE_CORNER_VELOCITY=12
G1 X46.253 Y61.586 F21000
SET_VELOCITY_LIMIT ACCEL=5000 ACCEL_TO_DECEL=2500
SET_VELOCITY_LIMIT SQUARE_CORNER_VELOCITY=7
G1 F5041
G1 X46.253 Y57.088 E.03121
G1 X73.747 Y57.088 E.19074
G1 X73.747 Y62.821 E.03978
G2 X73.263 Y62.73 I-.495 J1.294 E.00344
G1 X73.21 Y62.719 E.00038
G2 X72.392 Y62.496 I-1.371 J3.422 E.0059
