; HEADER_BLOCK_START
; generated by OrcaSlicer 1.6.6 on 2023-09-06 at 22:24:38
; total layer number: 10
; HEADER_BLOCK_END

; THUMBNAIL_BLOCK_START
; THUMBNAIL_BLOCK_END

; external perimeters extrusion width = 0.15mm
; perimeters extrusion width = 0.17mm
; infill extrusion width = 0.24mm
; solid infill extrusion width = 0.21mm
; top infill extrusion width = 0.15mm
; first layer extrusion width = 0.19mm

; EXECUTABLE_BLOCK_START
EXCLUDE_OBJECT_DEFINE NAME=luffyred.stl_id_0_copy_0 CENTER=60,60 POLYGON=[[44.9823,58.4144],[44.9824,58.3954],[44.9863,58.3768],[44.99,58.3682],[44.9949,58.3602],[45.001,58.353],[45.0081,58.3468],[45.0245,58.3372],[45.0428,58.3308],[45.0617,58.3268],[45.1034,58.3233],[75.0177,58.3594],[74.715,60.0477],[74.1278,61.6766],[59.9907,61.6767],[45.8601,61.6767],[45.295,60.1037],[44.985,58.4339],[44.9823,58.4144]]
M73 P0 R1
;TYPE:Custom
START_PRINT T_BED=110 T_EXTRUDER=260
G90
G21
M83 ; use relative distances for extrusion
; Filament gcode

    PRESSURE_ADVANCE_SELECT FILAMENT=ABS
M106 S0
;LAYER_CHANGE
;Z:0.1
;HEIGHT:0.1
;BEFORE_LAYER_CHANGE
;0.1
G92 E0

;AFTER_LAYER_CHANGE
;0.1
SET_VELOCITY_LIMIT ACCEL=500 ACCEL_TO_DECEL=250
SET_VELOCITY_LIMIT SQUARE_CORNER_VELOCITY=9
G1 E-.5 F3000
G1 Z.2 F21000
G1 X43.725 Y56.401
M73 P1 R1
G1 Z.2
G1 Z.1
G1 E.5 F1800
;TYPE:Skirt
;WIDTH:0.1875
G1 F3000
G1 X44.395 Y56.092 E.00472
G1 X44.906 Y56 E.00332
G1 X75.021 Y56.027 E.1925
M73 P2 R1
G1 X76.313 Y56.42 E.00864
G1 X77.171 Y57.464 E.00864
G1 X77.313 Y58.771 E.0084
G1 X76.909 Y60.839 E.01347
G1 X76.322 Y62.467 E.01107
G1 X75.515 Y63.551 E.00864
G1 X74.128 Y64.009 E.00934
G1 X45.86 Y64.009 E.1807
M73 P3 R1
G1 X44.567 Y63.617 E.00864
G1 X43.665 Y62.465 E.00935
G1 X43.002 Y60.528 E.01309
G1 X42.65 Y58.403 E.01377
G1 X42.743 Y57.742 E.00426
G1 X43.117 Y56.979 E.00543
G1 X43.714 Y56.411 E.00527
G1 X43.817 Y56.539 F21000
G1 F3000
G1 X44.44 Y56.252 E.00438
G1 X44.92 Y56.165 E.00312
G1 X75.02 Y56.193 E.19241
M73 P4 R1
G1 X76.261 Y56.586 E.00832
G1 X77.053 Y57.618 E.00832
G1 X77.15 Y58.742 E.00721
G1 X76.753 Y60.782 E.01329
G1 X76.166 Y62.411 E.01107
G1 X75.377 Y63.446 E.00832
G1 X74.128 Y63.843 E.00838
G1 X45.86 Y63.843 E.1807
M73 P5 R1
G1 X44.619 Y63.452 E.00832
G1 X43.822 Y62.409 E.00839
G1 X43.165 Y60.498 E.01292
G1 X42.816 Y58.404 E.01357
G1 X42.903 Y57.787 E.00398
G1 X43.251 Y57.077 E.00505
G1 X43.807 Y56.549 E.0049
; printing object luffyred.stl id:0 copy 0
M73 P6 R1
G1 E-.5
EXCLUDE_OBJECT_START NAME=luffyred.stl_id_0_copy_0
G1 Z.3 F21000
G1 X45.094 Y58.42 Z.3
G1 Z.1
G1 E.5 F1800
;TYPE:Outer wall
;WIDTH:0.187499
G1 F3000
G1 X74.906 Y58.453 E.19056
M73 P7 R1
G1 X74.643 Y59.92 E.00952
G1 X74.624 Y60.023 E.00067
G1 X74.062 Y61.583 E.0106
G1 X45.926 Y61.583 E.17985
M73 P8 R1
G1 X45.386 Y60.079 E.01021
G1 X45.085 Y58.438 E.01067
G1 X45.087 Y58.434 E.00003
G1 X45.281 Y58.587 F21000
;TYPE:Inner wall
G1 F3000
G1 X74.707 Y58.619 E.1881
M73 P9 R1
G1 X74.479 Y59.89 E.00826
G1 X74.463 Y59.98 E.00058
G1 X73.945 Y61.417 E.00976
G1 X46.043 Y61.417 E.17836
M73 P10 R1
G1 X45.547 Y60.036 E.00938
G1 X45.284 Y58.601 E.00932
G1 X45.48 Y58.753 F21000
G1 F3000
G1 X74.509 Y58.785 E.18556
M73 P11 R1
G1 X74.316 Y59.861 E.00699
G1 X74.302 Y59.937 E.00049
G1 X73.829 Y61.251 E.00893
G1 X46.16 Y61.251 E.17687
M73 P12 R1
G1 X45.708 Y59.993 E.00855
G1 X45.483 Y58.768 E.00796
G1 E-.5
G1 Z.3 F21000
G1 X74.113 Y58.834 Z.3
G1 Z.1
G1 E.5 F1800
;TYPE:Bottom surface
;WIDTH:0.188194
G1 F6300
G1 X74.334 Y59.055 E.002
G1 X74.298 Y59.255 E.0013
M73 P13 R1
G1 X73.952 Y58.909 E.00314
G1 X73.716 Y58.908 E.00152
G1 X74.262 Y59.455 E.00496
G1 X74.226 Y59.654 E.0013
G1 X73.48 Y58.908 E.00678
G1 X73.244 Y58.908 E.00152
G1 X74.191 Y59.854 E.00859
G3 X74.135 Y60.034 I-.557 J-.074 E.00122
G1 X73.008 Y58.908 E.01023
G1 X72.772 Y58.907 E.00152
G1 X74.072 Y60.208 E.01181
G1 X74.01 Y60.381 E.00118
G1 X72.536 Y58.907 E.01338
G1 X72.3 Y58.907 E.00152
G1 X73.947 Y60.554 E.01496
G1 X73.885 Y60.728 E.00118
G1 X72.064 Y58.907 E.01653
M73 P14 R1
G1 X71.828 Y58.906 E.00152
G1 X73.822 Y60.901 E.01811
G1 X73.76 Y61.074 E.00118
G1 X71.592 Y58.906 E.01968
G1 X71.356 Y58.906 E.00152
G1 X73.576 Y61.126 E.02016
G1 X73.34 Y61.126 E.00151
G1 X71.119 Y58.906 E.02016
G1 X70.883 Y58.905 E.00152
G1 X73.104 Y61.126 E.02016
G1 X72.869 Y61.126 E.00151
G1 X70.647 Y58.905 E.02016
M73 P15 R1
G1 X70.411 Y58.905 E.00152
G1 X72.633 Y61.126 E.02017
G1 X72.397 Y61.126 E.00151
G1 X70.175 Y58.904 E.02017
G1 X69.939 Y58.904 E.00152
G1 X72.161 Y61.126 E.02017
G1 X71.925 Y61.126 E.00151
G1 X69.703 Y58.904 E.02017
G1 X69.467 Y58.904 E.00152
G1 X71.69 Y61.126 E.02018
M73 P16 R1
G1 X71.454 Y61.126 E.00151
G1 X69.231 Y58.903 E.02018
G1 X68.995 Y58.903 E.00152
G1 X71.218 Y61.126 E.02018
G1 X70.982 Y61.126 E.00151
G1 X68.759 Y58.903 E.02018
G1 X68.523 Y58.903 E.00152
G1 X70.747 Y61.126 E.02019
G1 X70.511 Y61.126 E.00151
G1 X68.287 Y58.902 E.02019
G1 X68.051 Y58.902 E.00152
G1 X70.275 Y61.126 E.02019
M73 P17 R1
G1 X70.039 Y61.126 E.00151
G1 X67.815 Y58.902 E.02019
G1 X67.579 Y58.902 E.00152
G1 X69.803 Y61.126 E.0202
G1 X69.568 Y61.126 E.00151
G1 X67.343 Y58.901 E.0202
G1 X67.107 Y58.901 E.00152
G1 X69.332 Y61.126 E.0202
G1 X69.096 Y61.126 E.00151
G1 X66.87 Y58.901 E.0202
M73 P18 R1
G1 X66.634 Y58.901 E.00152
G1 X68.86 Y61.126 E.0202
G1 X68.624 Y61.126 E.00151
G1 X66.398 Y58.9 E.02021
G1 X66.162 Y58.9 E.00152
G1 X68.389 Y61.126 E.02021
G1 X68.153 Y61.126 E.00151
G1 X65.926 Y58.9 E.02021
G1 X65.69 Y58.9 E.00152
G1 X67.917 Y61.126 E.02021
G1 X67.681 Y61.126 E.00151
G1 X65.454 Y58.899 E.02022
M73 P19 R1
G1 X65.218 Y58.899 E.00152
G1 X67.445 Y61.126 E.02022
G1 X67.21 Y61.126 E.00151
G1 X64.982 Y58.899 E.02022
G1 X64.746 Y58.899 E.00152
G1 X66.974 Y61.126 E.02022
G1 X66.738 Y61.126 E.00151
G1 X64.51 Y58.898 E.02023
G1 X64.274 Y58.898 E.00152
G1 X66.502 Y61.126 E.02023
G1 X66.266 Y61.126 E.00151
M73 P20 R1
G1 X64.038 Y58.898 E.02023
G1 X63.802 Y58.898 E.00152
G1 X66.031 Y61.126 E.02023
G1 X65.795 Y61.126 E.00151
G1 X63.566 Y58.897 E.02024
G1 X63.33 Y58.897 E.00152
G1 X65.559 Y61.126 E.02024
G1 X65.323 Y61.126 E.00151
G1 X63.094 Y58.897 E.02024
G1 X62.858 Y58.896 E.00152
G1 X65.087 Y61.126 E.02024
M73 P21 R1
G1 X64.852 Y61.126 E.00151
G1 X62.621 Y58.896 E.02024
G1 X62.385 Y58.896 E.00152
G1 X64.616 Y61.126 E.02025
G1 X64.38 Y61.126 E.00151
G1 X62.149 Y58.896 E.02025
G1 X61.913 Y58.895 E.00152
G1 X64.144 Y61.126 E.02025
G1 X63.908 Y61.126 E.00151
G1 X61.677 Y58.895 E.02025
G1 X61.441 Y58.895 E.00152
G1 X63.673 Y61.126 E.02026
M73 P22 R1
G1 X63.437 Y61.126 E.00151
G1 X61.205 Y58.895 E.02026
G1 X60.969 Y58.894 E.00152
G1 X63.201 Y61.126 E.02026
G1 X62.965 Y61.126 E.00151
G1 X60.733 Y58.894 E.02026
G1 X60.497 Y58.894 E.00152
G1 X62.729 Y61.126 E.02027
G1 X62.494 Y61.126 E.00151
G1 X60.261 Y58.894 E.02027
M73 P23 R1
G1 X60.025 Y58.893 E.00152
G1 X62.258 Y61.126 E.02027
G1 X62.022 Y61.126 E.00151
G1 X59.789 Y58.893 E.02027
G1 X59.553 Y58.893 E.00152
G1 X61.786 Y61.126 E.02027
G1 X61.55 Y61.126 E.00151
G1 X59.317 Y58.893 E.02028
G1 X59.081 Y58.892 E.00152
M73 P23 R0
G1 X61.315 Y61.126 E.02028
G1 X61.079 Y61.126 E.00151
G1 X58.845 Y58.892 E.02028
M73 P24 R0
G1 X58.609 Y58.892 E.00152
G1 X60.843 Y61.126 E.02028
G1 X60.607 Y61.126 E.00151
G1 X58.373 Y58.892 E.02029
G1 X58.136 Y58.891 E.00152
G1 X60.371 Y61.126 E.02029
G1 X60.136 Y61.126 E.00151
G1 X57.9 Y58.891 E.02029
G1 X57.664 Y58.891 E.00152
G1 X59.9 Y61.126 E.02029
G1 X59.664 Y61.126 E.00151
M73 P25 R0
G1 X57.428 Y58.891 E.0203
G1 X57.192 Y58.89 E.00152
G1 X59.428 Y61.126 E.0203
G1 X59.192 Y61.126 E.00151
G1 X56.956 Y58.89 E.0203
G1 X56.72 Y58.89 E.00152
G1 X58.957 Y61.126 E.0203
G1 X58.721 Y61.126 E.00151
G1 X56.484 Y58.89 E.02031
G1 X56.248 Y58.889 E.00152
G1 X58.485 Y61.126 E.02031
M73 P26 R0
G1 X58.249 Y61.126 E.00151
G1 X56.012 Y58.889 E.02031
G1 X55.776 Y58.889 E.00152
G1 X58.013 Y61.126 E.02031
G1 X57.778 Y61.126 E.00151
G1 X55.54 Y58.888 E.02031
G1 X55.304 Y58.888 E.00152
G1 X57.542 Y61.126 E.02032
G1 X57.306 Y61.126 E.00151
G1 X55.068 Y58.888 E.02032
G1 X54.832 Y58.888 E.00152
G1 X57.07 Y61.126 E.02032
M73 P27 R0
G1 X56.834 Y61.126 E.00151
G1 X54.596 Y58.887 E.02032
G1 X54.36 Y58.887 E.00152
G1 X56.599 Y61.126 E.02033
G1 X56.363 Y61.126 E.00151
G1 X54.124 Y58.887 E.02033
G1 X53.887 Y58.887 E.00152
G1 X56.127 Y61.126 E.02033
G1 X55.891 Y61.126 E.00151
G1 X53.651 Y58.886 E.02033
M73 P28 R0
G1 X53.415 Y58.886 E.00152
G1 X55.656 Y61.126 E.02034
G1 X55.42 Y61.126 E.00151
G1 X53.179 Y58.886 E.02034
G1 X52.943 Y58.886 E.00152
G1 X55.184 Y61.126 E.02034
G1 X54.948 Y61.126 E.00151
G1 X52.707 Y58.885 E.02034
G1 X52.471 Y58.885 E.00152
G1 X54.712 Y61.126 E.02035
G1 X54.477 Y61.126 E.00151
G1 X52.235 Y58.885 E.02035
M73 P29 R0
G1 X51.999 Y58.885 E.00152
G1 X54.241 Y61.126 E.02035
G1 X54.005 Y61.126 E.00151
G1 X51.763 Y58.884 E.02035
G1 X51.527 Y58.884 E.00152
G1 X53.769 Y61.126 E.02035
G1 X53.533 Y61.126 E.00151
G1 X51.291 Y58.884 E.02036
G1 X51.055 Y58.884 E.00152
G1 X53.298 Y61.126 E.02036
M73 P30 R0
G1 X53.062 Y61.126 E.00151
G1 X50.819 Y58.883 E.02036
G1 X50.583 Y58.883 E.00152
G1 X52.826 Y61.126 E.02036
G1 X52.59 Y61.126 E.00151
G1 X50.347 Y58.883 E.02037
G1 X50.111 Y58.883 E.00152
G1 X52.354 Y61.126 E.02037
G1 X52.119 Y61.126 E.00151
G1 X49.875 Y58.882 E.02037
G1 X49.638 Y58.882 E.00152
G1 X51.883 Y61.126 E.02037
M73 P31 R0
G1 X51.647 Y61.126 E.00151
G1 X49.402 Y58.882 E.02038
G1 X49.166 Y58.882 E.00152
G1 X51.411 Y61.126 E.02038
G1 X51.175 Y61.126 E.00151
G1 X48.93 Y58.881 E.02038
G1 X48.694 Y58.881 E.00152
G1 X50.94 Y61.126 E.02038
G1 X50.704 Y61.126 E.00151
G1 X48.458 Y58.881 E.02039
G1 X48.222 Y58.881 E.00152
M73 P32 R0
G1 X50.468 Y61.126 E.02039
G1 X50.232 Y61.126 E.00151
G1 X47.986 Y58.88 E.02039
G1 X47.75 Y58.88 E.00152
G1 X49.996 Y61.126 E.02039
G1 X49.761 Y61.126 E.00151
G1 X47.514 Y58.88 E.02039
G1 X47.278 Y58.879 E.00152
G1 X49.525 Y61.126 E.0204
G1 X49.289 Y61.126 E.00151
G1 X47.042 Y58.879 E.0204
M73 P33 R0
G1 X46.806 Y58.879 E.00152
G1 X49.053 Y61.126 E.0204
G1 X48.817 Y61.126 E.00151
G1 X46.57 Y58.879 E.0204
G1 X46.334 Y58.878 E.00152
G1 X48.582 Y61.126 E.02041
G1 X48.346 Y61.126 E.00151
G1 X46.098 Y58.878 E.02041
G1 X45.862 Y58.878 E.00152
G1 X48.11 Y61.126 E.02041
G1 X47.874 Y61.126 E.00151
M73 P34 R0
G1 X45.631 Y58.883 E.02037
G1 X45.684 Y59.172 E.00188
G1 X47.638 Y61.126 E.01774
G1 X47.403 Y61.126 E.00151
G1 X45.737 Y59.46 E.01512
G1 X45.789 Y59.749 E.00188
G1 X47.167 Y61.126 E.0125
G1 X46.931 Y61.126 E.00151
G1 X45.864 Y60.059 E.00969
G1 X45.996 Y60.427 E.00251
G1 X46.695 Y61.126 E.00635
G1 X46.459 Y61.126 E.00151
G1 X46.004 Y60.671 E.00413
; stop printing object luffyred.stl id:0 copy 0
;LAYER_CHANGE
;Z:0.2
;HEIGHT:0.1
;BEFORE_LAYER_CHANGE
;0.2
G92 E0

EXCLUDE_OBJECT_END NAME=luffyred.stl_id_0_copy_0
;AFTER_LAYER_CHANGE
;0.2
SET_VELOCITY_LIMIT ACCEL=5000 ACCEL_TO_DECEL=2500
M140 S110 ; set bed temperature
; printing object luffyred.stl id:0 copy 0
SET_VELOCITY_LIMIT ACCEL=6000 ACCEL_TO_DECEL=3000
SET_VELOCITY_LIMIT SQUARE_CORNER_VELOCITY=12
G1 E-.5 F3000
EXCLUDE_OBJECT_START NAME=luffyred.stl_id_0_copy_0
G1 Z.3 F21000
G1 X45.087 Y58.402 Z.3
M73 P35 R0
G1 Z.2
G1 E.5 F1800
SET_VELOCITY_LIMIT ACCEL=3000 ACCEL_TO_DECEL=1500
SET_VELOCITY_LIMIT SQUARE_CORNER_VELOCITY=7
;TYPE:Outer wall
;WIDTH:0.149999
G1 F7200
G1 X74.928 Y58.434 E.14767
G1 X74.661 Y59.923 E.00748
G1 X74.642 Y60.028 E.00053
G1 X74.075 Y61.602 E.00828
G1 X45.913 Y61.602 E.13936
G1 X45.368 Y60.084 E.00798
G1 X45.067 Y58.441 E.00827
G1 X45.08 Y58.415 E.00015
SET_VELOCITY_LIMIT ACCEL=6000 ACCEL_TO_DECEL=3000
SET_VELOCITY_LIMIT SQUARE_CORNER_VELOCITY=12
G1 X45.227 Y58.542 F21000
SET_VELOCITY_LIMIT ACCEL=5000 ACCEL_TO_DECEL=2500
SET_VELOCITY_LIMIT SQUARE_CORNER_VELOCITY=7
;TYPE:Inner wall
;WIDTH:0.172499
M73 P36 R0
G1 F12000
G1 X74.761 Y58.574 E.17173
G1 X74.524 Y59.898 E.00782
G1 X74.507 Y59.992 E.00055
G1 X73.977 Y61.462 E.00909
G1 X46.011 Y61.462 E.16262
G1 X45.503 Y60.048 E.00874
G1 X45.23 Y58.556 E.00882
SET_VELOCITY_LIMIT ACCEL=6000 ACCEL_TO_DECEL=3000
SET_VELOCITY_LIMIT SQUARE_CORNER_VELOCITY=12
G1 X45.408 Y58.693 F21000
SET_VELOCITY_LIMIT ACCEL=5000 ACCEL_TO_DECEL=2500
SET_VELOCITY_LIMIT SQUARE_CORNER_VELOCITY=7
G1 F12000
G1 X74.581 Y58.725 E.16963
G1 X74.375 Y59.872 E.00677
G1 X74.36 Y59.953 E.00048
G1 X73.871 Y61.311 E.00839
G1 X46.117 Y61.311 E.16138
M73 P37 R0
G1 X45.649 Y60.008 E.00805
G1 X45.411 Y58.708 E.00769
SET_VELOCITY_LIMIT ACCEL=6000 ACCEL_TO_DECEL=3000
SET_VELOCITY_LIMIT SQUARE_CORNER_VELOCITY=12
G1 X47.037 Y60.003 F21000
SET_VELOCITY_LIMIT ACCEL=5000 ACCEL_TO_DECEL=2500
;TYPE:Internal solid infill
;WIDTH:0.224142
G1 F12000
G1 X72.947 Y60.017 E.20217
SET_VELOCITY_LIMIT ACCEL=6000 ACCEL_TO_DECEL=3000
G1 X73.089 Y60.198 F21000
SET_VELOCITY_LIMIT ACCEL=5000 ACCEL_TO_DECEL=2500
;WIDTH:0.209999
G1 F12000
G1 X73.22 Y59.836 E.0028
G1 X46.759 Y59.807 E.19207
G1 X46.9 Y60.198 E.00302
G1 X73.074 Y60.198 E.18999
SET_VELOCITY_LIMIT ACCEL=6000 ACCEL_TO_DECEL=3000
G1 X73.222 Y60.387 F21000
SET_VELOCITY_LIMIT ACCEL=5000 ACCEL_TO_DECEL=2500
G1 F12000
G1 X73.476 Y59.648 E.00568
G1 X46.517 Y59.618 E.19568
M73 P38 R0
G2 X46.767 Y60.387 I8.5 J-2.338 E.00587
G1 X73.207 Y60.387 E.19191
SET_VELOCITY_LIMIT ACCEL=6000 ACCEL_TO_DECEL=3000
G1 X73.354 Y60.575 F21000
SET_VELOCITY_LIMIT ACCEL=5000 ACCEL_TO_DECEL=2500
G1 F12000
G1 X73.647 Y59.762 E.00628
G1 X73.702 Y59.459 E.00223
G1 X46.291 Y59.429 E.19896
G1 X46.37 Y59.84 E.00304
G1 X46.635 Y60.575 E.00567
G1 X73.339 Y60.575 E.19384
SET_VELOCITY_LIMIT ACCEL=6000 ACCEL_TO_DECEL=3000
G1 X73.487 Y60.764 F21000
SET_VELOCITY_LIMIT ACCEL=5000 ACCEL_TO_DECEL=2500
G1 F12000
G1 X73.83 Y59.811 E.00735
G1 X73.927 Y59.271 E.00398
G1 X46.065 Y59.24 E.20224
M73 P39 R0
G1 X46.179 Y59.866 E.00461
G1 X46.502 Y60.764 E.00693
G1 X73.472 Y60.764 E.19576
SET_VELOCITY_LIMIT ACCEL=6000 ACCEL_TO_DECEL=3000
G1 X73.619 Y60.952 F21000
SET_VELOCITY_LIMIT ACCEL=5000 ACCEL_TO_DECEL=2500
G1 F12000
G1 X74.013 Y59.86 E.00843
G1 X74.152 Y59.083 E.00573
G1 X45.838 Y59.052 E.20552
G1 X45.997 Y59.915 E.00637
G1 X46.369 Y60.953 E.008
G1 X73.604 Y60.952 E.19768
SET_VELOCITY_LIMIT ACCEL=6000 ACCEL_TO_DECEL=3000
M73 P40 R0
G1 X73.752 Y61.141 F21000
SET_VELOCITY_LIMIT ACCEL=5000 ACCEL_TO_DECEL=2500
G1 F12000
G1 X74.196 Y59.909 E.00951
G1 X74.378 Y58.894 E.00748
G1 X45.612 Y58.863 E.20879
G1 X45.814 Y59.964 E.00812
G1 X46.237 Y61.141 E.00908
G1 X73.737 Y61.141 E.19961
; stop printing object luffyred.stl id:0 copy 0
;LAYER_CHANGE
;Z:0.3
;HEIGHT:0.1
;BEFORE_LAYER_CHANGE
;0.3
G92 E0

EXCLUDE_OBJECT_END NAME=luffyred.stl_id_0_copy_0
;AFTER_LAYER_CHANGE
;0.3
; printing object luffyred.stl id:0 copy 0
SET_VELOCITY_LIMIT ACCEL=6000 ACCEL_TO_DECEL=3000
G1 E-.5 F3000
EXCLUDE_OBJECT_START NAME=luffyred.stl_id_0_copy_0
G1 Z.4 F21000
G1 X45.087 Y58.402 Z.4
G1 Z.3
G1 E.5 F1800
SET_VELOCITY_LIMIT ACCEL=3000 ACCEL_TO_DECEL=1500
SET_VELOCITY_LIMIT SQUARE_CORNER_VELOCITY=7
;TYPE:Outer wall
;WIDTH:0.149999
G1 F7200
G1 X74.928 Y58.434 E.14767
M73 P41 R0
G1 X74.661 Y59.923 E.00748
G1 X74.642 Y60.028 E.00053
G1 X74.075 Y61.602 E.00828
G1 X45.913 Y61.602 E.13936
G1 X45.368 Y60.084 E.00798
G1 X45.067 Y58.441 E.00827
G1 X45.08 Y58.415 E.00014
SET_VELOCITY_LIMIT ACCEL=6000 ACCEL_TO_DECEL=3000
SET_VELOCITY_LIMIT SQUARE_CORNER_VELOCITY=12
G1 X45.227 Y58.542 F21000
SET_VELOCITY_LIMIT ACCEL=5000 ACCEL_TO_DECEL=2500
SET_VELOCITY_LIMIT SQUARE_CORNER_VELOCITY=7
;TYPE:Inner wall
;WIDTH:0.172499
G1 F12000
G1 X74.761 Y58.574 E.17173
M73 P42 R0
G1 X74.524 Y59.898 E.00782
G1 X74.507 Y59.992 E.00055
G1 X73.977 Y61.462 E.00909
G1 X46.011 Y61.462 E.16262
G1 X45.503 Y60.048 E.00874
G1 X45.23 Y58.556 E.00882
SET_VELOCITY_LIMIT ACCEL=6000 ACCEL_TO_DECEL=3000
SET_VELOCITY_LIMIT SQUARE_CORNER_VELOCITY=12
G1 X45.408 Y58.693 F21000
SET_VELOCITY_LIMIT ACCEL=5000 ACCEL_TO_DECEL=2500
SET_VELOCITY_LIMIT SQUARE_CORNER_VELOCITY=7
G1 F12000
G1 X74.581 Y58.725 E.16963
G1 X74.375 Y59.872 E.00677
G1 X74.36 Y59.953 E.00048
G1 X73.871 Y61.311 E.00839
G1 X46.117 Y61.311 E.16138
G1 X45.649 Y60.008 E.00805
G1 X45.411 Y58.708 E.00769
SET_VELOCITY_LIMIT ACCEL=6000 ACCEL_TO_DECEL=3000
SET_VELOCITY_LIMIT SQUARE_CORNER_VELOCITY=12
