; HEADER_BLOCK_START
; generated by OrcaSlicer 1.6.6 on 2023-09-06 at 22:15:03
; total layer number: 10
; HEADER_BLOCK_END

; THUMBNAIL_BLOCK_START
; THUMBNAIL_BLOCK_END

; external perimeters extrusion width = 0.15mm
; perimeters extrusion width = 0.17mm
; infill extrusion width = 0.24mm
; solid infill extrusion width = 0.21mm
; top infill extrusion width = 0.15mm
; first layer extrusion width = 0.19mm

; EXECUTABLE_BLOCK_START
EXCLUDE_OBJECT_DEFINE NAME=luffyred.stl_id_0_copy_0 CENTER=60,60 POLYGON=[[44.8275,58.3813],[44.8276,58.362],[44.8315,58.343],[44.8352,58.3342],[44.8402,58.3261],[44.8464,58.3187],[44.8536,58.3124],[44.8702,58.3026],[44.8886,58.296],[44.9077,58.292],[44.9498,58.2884],[75.1725,58.3252],[74.8667,60.0487],[74.2735,61.7116],[59.9906,61.7116],[45.7143,61.7116],[45.1434,60.1058],[44.8302,58.4013],[44.8275,58.3813]]
M73 P0 R1
;TYPE:Custom
START_PRINT T_BED=110 T_EXTRUDER=260
G90
G21
M83 ; use relative distances for extrusion
; Filament gcode

    PRESSURE_ADVANCE_SELECT FILAMENT=ABS
M106 S0
;LAYER_CHANGE
;Z:0.1
;HEIGHT:0.1
;BEFORE_LAYER_CHANGE
;0.1
G92 E0

;AFTER_LAYER_CHANGE
;0.1
SET_VELOCITY_LIMIT ACCEL=500 ACCEL_TO_DECEL=250
SET_VELOCITY_LIMIT SQUARE_CORNER_VELOCITY=9
G1 E-.5 F3000
G1 Z.2 F21000
G1 X43.561 Y56.373
M73 P1 R1
G1 Z.2
G1 Z.1
G1 E.5 F1800
;TYPE:Skirt
;WIDTH:0.1875
G1 F3000
G1 X44.235 Y56.059 E.00475
G1 X44.751 Y55.965 E.00335
G1 X75.175 Y55.993 E.19448
G1 X76.468 Y56.386 E.00864
M73 P2 R1
G1 X77.326 Y57.43 E.00864
G1 X77.469 Y58.733 E.00838
G1 X77.063 Y60.832 E.01367
G1 X76.47 Y62.495 E.01129
G1 X75.667 Y63.582 E.00864
G1 X74.273 Y64.044 E.00938
G1 X45.714 Y64.044 E.18256
M73 P3 R1
G1 X44.421 Y63.652 E.00864
G1 X43.517 Y62.493 E.0094
G1 X42.849 Y60.526 E.01328
G1 X42.495 Y58.37 E.01397
G1 X42.587 Y57.714 E.00423
G1 X42.955 Y56.954 E.0054
G1 X43.55 Y56.383 E.00527
G1 X43.654 Y56.51 F21000
G1 F3000
G1 X44.28 Y56.218 E.00441
G1 X44.765 Y56.13 E.00315
G1 X75.175 Y56.159 E.19439
M73 P4 R1
G1 X76.416 Y56.551 E.00832
G1 X77.208 Y57.584 E.00832
G1 X77.305 Y58.704 E.00719
G1 X76.907 Y60.776 E.01349
G1 X76.314 Y62.439 E.01129
G1 X75.529 Y63.477 E.00832
G1 X74.273 Y63.878 E.00842
G1 X45.714 Y63.878 E.18256
M73 P5 R1
G1 X44.473 Y63.487 E.00832
G1 X43.673 Y62.437 E.00844
G1 X43.013 Y60.496 E.01311
G1 X42.661 Y58.371 E.01377
G1 X42.747 Y57.758 E.00395
G1 X43.09 Y57.051 E.00502
G1 X43.644 Y56.52 E.0049
; printing object luffyred.stl id:0 copy 0
G1 E-.5
EXCLUDE_OBJECT_START NAME=luffyred.stl_id_0_copy_0
G1 Z.3 F21000
G1 X44.94 Y58.386 Z.3
M73 P6 R1
G1 Z.1
G1 E.5 F1800
;TYPE:Outer wall
;WIDTH:0.187499
G1 F3000
G1 X75.061 Y58.419 E.19254
G1 X74.794 Y59.919 E.00974
M73 P7 R1
G1 X74.776 Y60.025 E.00068
G1 X74.207 Y61.618 E.01081
G1 X45.78 Y61.618 E.18171
G1 X45.234 Y60.082 E.01042
G1 X44.93 Y58.405 E.01089
M73 P8 R1
G1 X44.933 Y58.399 E.00004
G1 X45.126 Y58.552 F21000
;TYPE:Inner wall
G1 F3000
G1 X74.863 Y58.585 E.19009
G1 X74.631 Y59.89 E.00848
G1 X74.615 Y59.982 E.0006
G1 X74.09 Y61.452 E.00998
M73 P9 R1
G1 X45.898 Y61.452 E.18022
G1 X45.395 Y60.039 E.00959
G1 X45.128 Y58.567 E.00956
G1 X45.324 Y58.718 F21000
G1 F3000
G1 X74.665 Y58.751 E.18755
M73 P10 R1
G1 X74.468 Y59.861 E.00721
G1 X74.454 Y59.939 E.00051
G1 X73.973 Y61.286 E.00914
G1 X46.015 Y61.286 E.17872
M73 P11 R1
G1 X45.556 Y59.996 E.00875
G1 X45.327 Y58.733 E.0082
G1 E-.5
G1 Z.3 F21000
G1 X74.27 Y58.8 Z.3
M73 P12 R1
G1 Z.1
G1 E.5 F1800
;TYPE:Bottom surface
;WIDTH:0.187647
G1 F6300
G1 X74.49 Y59.02 E.00199
G1 X74.455 Y59.219 E.0013
G1 X74.11 Y58.874 E.00312
G1 X73.875 Y58.874 E.00151
G1 X74.42 Y59.419 E.00493
G1 X74.384 Y59.619 E.0013
G1 X73.639 Y58.874 E.00674
G1 X73.404 Y58.874 E.00151
G1 X74.349 Y59.818 E.00855
G3 X74.299 Y60.003 I-.573 J-.056 E.00123
G1 X73.169 Y58.873 E.01022
M73 P13 R1
G1 X72.934 Y58.873 E.00151
G1 X74.237 Y60.176 E.01179
G1 X74.175 Y60.35 E.00118
G1 X72.698 Y58.873 E.01336
G1 X72.463 Y58.873 E.00151
G1 X74.113 Y60.523 E.01493
G1 X74.051 Y60.696 E.00118
G1 X72.228 Y58.872 E.0165
G1 X71.992 Y58.872 E.00151
G1 X73.99 Y60.869 E.01807
G1 X73.928 Y61.043 E.00118
G1 X71.757 Y58.872 E.01964
G1 X71.522 Y58.872 E.00151
M73 P14 R1
G1 X73.811 Y61.161 E.02072
G1 X73.576 Y61.161 E.0015
G1 X71.287 Y58.871 E.02072
G1 X71.051 Y58.871 E.00151
G1 X73.341 Y61.161 E.02072
G1 X73.106 Y61.161 E.0015
G1 X70.816 Y58.871 E.02072
G1 X70.581 Y58.871 E.00151
G1 X72.871 Y61.161 E.02073
G1 X72.636 Y61.161 E.0015
G1 X70.345 Y58.87 E.02073
M73 P15 R1
G1 X70.11 Y58.87 E.00151
G1 X72.401 Y61.161 E.02073
G1 X72.166 Y61.161 E.0015
G1 X69.875 Y58.87 E.02073
G1 X69.64 Y58.869 E.00151
G1 X71.931 Y61.161 E.02074
G1 X71.696 Y61.161 E.0015
G1 X69.404 Y58.869 E.02074
G1 X69.169 Y58.869 E.00151
G1 X71.461 Y61.161 E.02074
G1 X71.226 Y61.161 E.0015
G1 X68.934 Y58.869 E.02074
M73 P16 R1
G1 X68.698 Y58.868 E.00151
G1 X70.991 Y61.161 E.02075
G1 X70.756 Y61.161 E.0015
G1 X68.463 Y58.868 E.02075
G1 X68.228 Y58.868 E.00151
G1 X70.521 Y61.161 E.02075
G1 X70.286 Y61.161 E.0015
G1 X67.993 Y58.868 E.02075
G1 X67.757 Y58.867 E.00151
G1 X70.051 Y61.161 E.02075
G1 X69.816 Y61.161 E.0015
G1 X67.522 Y58.867 E.02076
M73 P17 R1
G1 X67.287 Y58.867 E.00151
G1 X69.581 Y61.161 E.02076
G1 X69.346 Y61.161 E.0015
G1 X67.051 Y58.867 E.02076
G1 X66.816 Y58.866 E.00151
G1 X69.111 Y61.161 E.02076
G1 X68.876 Y61.161 E.0015
G1 X66.581 Y58.866 E.02077
G1 X66.346 Y58.866 E.00151
G1 X68.641 Y61.161 E.02077
M73 P18 R1
G1 X68.406 Y61.161 E.0015
G1 X66.11 Y58.866 E.02077
G1 X65.875 Y58.865 E.00151
G1 X68.171 Y61.161 E.02077
G1 X67.936 Y61.161 E.0015
G1 X65.64 Y58.865 E.02078
G1 X65.404 Y58.865 E.00151
G1 X67.701 Y61.161 E.02078
G1 X67.466 Y61.161 E.0015
G1 X65.169 Y58.865 E.02078
G1 X64.934 Y58.864 E.00151
G1 X67.231 Y61.161 E.02078
M73 P19 R1
G1 X66.996 Y61.161 E.0015
G1 X64.699 Y58.864 E.02079
G1 X64.463 Y58.864 E.00151
G1 X66.761 Y61.161 E.02079
G1 X66.526 Y61.161 E.0015
G1 X64.228 Y58.864 E.02079
G1 X63.993 Y58.863 E.00151
G1 X66.291 Y61.161 E.02079
G1 X66.056 Y61.161 E.0015
G1 X63.757 Y58.863 E.02079
G1 X63.522 Y58.863 E.00151
G1 X65.821 Y61.161 E.0208
M73 P20 R1
G1 X65.586 Y61.161 E.0015
G1 X63.287 Y58.862 E.0208
G1 X63.052 Y58.862 E.00151
G1 X65.351 Y61.161 E.0208
G1 X65.116 Y61.161 E.0015
G1 X62.816 Y58.862 E.0208
G1 X62.581 Y58.862 E.00151
G1 X64.881 Y61.161 E.02081
G1 X64.646 Y61.161 E.0015
G1 X62.346 Y58.861 E.02081
G1 X62.11 Y58.861 E.00151
M73 P21 R1
G1 X64.411 Y61.161 E.02081
G1 X64.176 Y61.161 E.0015
G1 X61.875 Y58.861 E.02081
G1 X61.64 Y58.861 E.00151
G1 X63.94 Y61.161 E.02082
G1 X63.705 Y61.161 E.0015
G1 X61.405 Y58.86 E.02082
G1 X61.169 Y58.86 E.00151
G1 X63.47 Y61.161 E.02082
G1 X63.235 Y61.161 E.0015
G1 X60.934 Y58.86 E.02082
M73 P22 R1
G1 X60.699 Y58.86 E.00151
G1 X63 Y61.161 E.02083
G1 X62.765 Y61.161 E.0015
G1 X60.463 Y58.859 E.02083
G1 X60.228 Y58.859 E.00151
G1 X62.53 Y61.161 E.02083
G1 X62.295 Y61.161 E.0015
G1 X59.993 Y58.859 E.02083
G1 X59.758 Y58.859 E.00151
G1 X62.06 Y61.161 E.02083
G1 X61.825 Y61.161 E.0015
G1 X59.522 Y58.858 E.02084
M73 P23 R1
G1 X59.287 Y58.858 E.00151
G1 X61.59 Y61.161 E.02084
G1 X61.355 Y61.161 E.0015
G1 X59.052 Y58.858 E.02084
G1 X58.816 Y58.858 E.00151
G1 X61.12 Y61.161 E.02084
G1 X60.885 Y61.161 E.0015
G1 X58.581 Y58.857 E.02085
G1 X58.346 Y58.857 E.00151
G1 X60.65 Y61.161 E.02085
G1 X60.415 Y61.161 E.0015
G1 X58.111 Y58.857 E.02085
M73 P24 R1
G1 X57.875 Y58.856 E.00151
G1 X60.18 Y61.161 E.02085
G1 X59.945 Y61.161 E.0015
G1 X57.64 Y58.856 E.02086
G1 X57.405 Y58.856 E.00151
G1 X59.71 Y61.161 E.02086
G1 X59.475 Y61.161 E.0015
G1 X57.17 Y58.856 E.02086
G1 X56.934 Y58.855 E.00151
G1 X59.24 Y61.161 E.02086
M73 P25 R1
G1 X59.005 Y61.161 E.0015
G1 X56.699 Y58.855 E.02087
G1 X56.464 Y58.855 E.00151
G1 X58.77 Y61.161 E.02087
G1 X58.535 Y61.161 E.0015
G1 X56.228 Y58.855 E.02087
G1 X55.993 Y58.854 E.00151
G1 X58.3 Y61.161 E.02087
G1 X58.065 Y61.161 E.0015
G1 X55.758 Y58.854 E.02087
G1 X55.523 Y58.854 E.00151
G1 X57.83 Y61.161 E.02088
M73 P26 R1
G1 X57.595 Y61.161 E.0015
G1 X55.287 Y58.854 E.02088
G1 X55.052 Y58.853 E.00151
G1 X57.36 Y61.161 E.02088
G1 X57.125 Y61.161 E.0015
G1 X54.817 Y58.853 E.02088
G1 X54.581 Y58.853 E.00151
G1 X56.89 Y61.161 E.02089
M73 P26 R0
G1 X56.655 Y61.161 E.0015
G1 X54.346 Y58.853 E.02089
G1 X54.111 Y58.852 E.00151
G1 X56.42 Y61.161 E.02089
M73 P27 R0
G1 X56.185 Y61.161 E.0015
G1 X53.876 Y58.852 E.02089
G1 X53.64 Y58.852 E.00151
G1 X55.95 Y61.161 E.0209
G1 X55.715 Y61.161 E.0015
G1 X53.405 Y58.852 E.0209
G1 X53.17 Y58.851 E.00151
G1 X55.48 Y61.161 E.0209
G1 X55.245 Y61.161 E.0015
G1 X52.934 Y58.851 E.0209
G1 X52.699 Y58.851 E.00151
M73 P28 R0
G1 X55.01 Y61.161 E.02091
G1 X54.775 Y61.161 E.0015
G1 X52.464 Y58.851 E.02091
G1 X52.229 Y58.85 E.00151
G1 X54.54 Y61.161 E.02091
G1 X54.305 Y61.161 E.0015
G1 X51.993 Y58.85 E.02091
G1 X51.758 Y58.85 E.00151
G1 X54.07 Y61.161 E.02091
G1 X53.834 Y61.161 E.0015
G1 X51.523 Y58.849 E.02092
M73 P29 R0
G1 X51.287 Y58.849 E.00151
G1 X53.599 Y61.161 E.02092
G1 X53.364 Y61.161 E.0015
G1 X51.052 Y58.849 E.02092
G1 X50.817 Y58.849 E.00151
G1 X53.129 Y61.161 E.02092
G1 X52.894 Y61.161 E.0015
G1 X50.582 Y58.848 E.02093
G1 X50.346 Y58.848 E.00151
G1 X52.659 Y61.161 E.02093
G1 X52.424 Y61.161 E.0015
G1 X50.111 Y58.848 E.02093
M73 P30 R0
G1 X49.876 Y58.848 E.00151
G1 X52.189 Y61.161 E.02093
G1 X51.954 Y61.161 E.0015
G1 X49.64 Y58.847 E.02094
G1 X49.405 Y58.847 E.00151
G1 X51.719 Y61.161 E.02094
G1 X51.484 Y61.161 E.0015
G1 X49.17 Y58.847 E.02094
G1 X48.935 Y58.847 E.00151
G1 X51.249 Y61.161 E.02094
G1 X51.014 Y61.161 E.0015
M73 P31 R0
G1 X48.699 Y58.846 E.02095
G1 X48.464 Y58.846 E.00151
G1 X50.779 Y61.161 E.02095
G1 X50.544 Y61.161 E.0015
G1 X48.229 Y58.846 E.02095
G1 X47.993 Y58.846 E.00151
G1 X50.309 Y61.161 E.02095
G1 X50.074 Y61.161 E.0015
G1 X47.758 Y58.845 E.02095
G1 X47.523 Y58.845 E.00151
G1 X49.839 Y61.161 E.02096
M73 P32 R0
G1 X49.604 Y61.161 E.0015
G1 X47.288 Y58.845 E.02096
G1 X47.052 Y58.845 E.00151
G1 X49.369 Y61.161 E.02096
G1 X49.134 Y61.161 E.0015
G1 X46.817 Y58.844 E.02096
G1 X46.582 Y58.844 E.00151
G1 X48.899 Y61.161 E.02097
G1 X48.664 Y61.161 E.0015
G1 X46.346 Y58.844 E.02097
G1 X46.111 Y58.844 E.00151
G1 X48.429 Y61.161 E.02097
M73 P33 R0
G1 X48.194 Y61.161 E.0015
G1 X45.876 Y58.843 E.02097
G1 X45.641 Y58.843 E.00151
G1 X47.959 Y61.161 E.02098
G1 X47.724 Y61.161 E.0015
G1 X45.489 Y58.926 E.02022
G1 X45.541 Y59.213 E.00187
G1 X47.489 Y61.161 E.01763
G1 X47.254 Y61.161 E.0015
G1 X45.593 Y59.5 E.01503
G1 X45.645 Y59.787 E.00187
G1 X47.019 Y61.161 E.01243
M73 P34 R0
G1 X46.784 Y61.161 E.0015
G1 X45.727 Y60.104 E.00956
G1 X45.857 Y60.469 E.00248
G1 X46.549 Y61.161 E.00626
G1 X46.314 Y61.161 E.0015
G1 X45.863 Y60.711 E.00408
; stop printing object luffyred.stl id:0 copy 0
;LAYER_CHANGE
;Z:0.2
;HEIGHT:0.1
;BEFORE_LAYER_CHANGE
;0.2
G92 E0

EXCLUDE_OBJECT_END NAME=luffyred.stl_id_0_copy_0
;AFTER_LAYER_CHANGE
;0.2
SET_VELOCITY_LIMIT ACCEL=5000 ACCEL_TO_DECEL=2500
M140 S110 ; set bed temperature
; printing object luffyred.stl id:0 copy 0
SET_VELOCITY_LIMIT ACCEL=6000 ACCEL_TO_DECEL=3000
SET_VELOCITY_LIMIT SQUARE_CORNER_VELOCITY=12
G1 E-.5 F3000
EXCLUDE_OBJECT_START NAME=luffyred.stl_id_0_copy_0
G1 Z.3 F21000
G1 X44.933 Y58.367 Z.3
G1 Z.2
G1 E.5 F1800
SET_VELOCITY_LIMIT ACCEL=3000 ACCEL_TO_DECEL=1500
SET_VELOCITY_LIMIT SQUARE_CORNER_VELOCITY=7
;TYPE:Outer wall
;WIDTH:0.149999
G1 F7200
G1 X75.083 Y58.4 E.1492
G1 X74.813 Y59.922 E.00765
G1 X74.794 Y60.029 E.00054
G1 X74.221 Y61.637 E.00844
G1 X45.767 Y61.637 E.1408
M73 P35 R0
G1 X45.216 Y60.086 E.00814
G1 X44.912 Y58.408 E.00844
G1 X44.926 Y58.38 E.00016
SET_VELOCITY_LIMIT ACCEL=6000 ACCEL_TO_DECEL=3000
SET_VELOCITY_LIMIT SQUARE_CORNER_VELOCITY=12
G1 X45.072 Y58.507 F21000
SET_VELOCITY_LIMIT ACCEL=5000 ACCEL_TO_DECEL=2500
SET_VELOCITY_LIMIT SQUARE_CORNER_VELOCITY=7
;TYPE:Inner wall
;WIDTH:0.172499
G1 F12000
G1 X74.916 Y58.54 E.17354
G1 X74.675 Y59.898 E.00802
G1 X74.658 Y59.993 E.00056
G1 X74.122 Y61.497 E.00928
G1 X45.866 Y61.497 E.1643
G1 X45.352 Y60.05 E.00893
G1 X45.074 Y58.522 E.00903
SET_VELOCITY_LIMIT ACCEL=6000 ACCEL_TO_DECEL=3000
SET_VELOCITY_LIMIT SQUARE_CORNER_VELOCITY=12
G1 X45.253 Y58.658 F21000
SET_VELOCITY_LIMIT ACCEL=5000 ACCEL_TO_DECEL=2500
SET_VELOCITY_LIMIT SQUARE_CORNER_VELOCITY=7
M73 P36 R0
G1 F12000
G1 X74.736 Y58.691 E.17144
G1 X74.527 Y59.872 E.00697
G1 X74.512 Y59.955 E.00049
G1 X74.016 Y61.346 E.00859
G1 X45.972 Y61.346 E.16306
G1 X45.498 Y60.011 E.00824
G1 X45.255 Y58.673 E.00791
SET_VELOCITY_LIMIT ACCEL=6000 ACCEL_TO_DECEL=3000
SET_VELOCITY_LIMIT SQUARE_CORNER_VELOCITY=12
G1 X73.079 Y59.956 F21000
SET_VELOCITY_LIMIT ACCEL=5000 ACCEL_TO_DECEL=2500
;TYPE:Internal solid infill
;WIDTH:0.150439
G1 F12000
G1 X46.824 Y59.935 E.13037
G1 X46.872 Y60.071 E.00072
G1 X73.079 Y60.078 E.13013
M73 P37 R0
G2 X73.165 Y59.956 I-.043 J-.122 E.00079
G1 X73.094 Y59.956 E.00035
SET_VELOCITY_LIMIT ACCEL=6000 ACCEL_TO_DECEL=3000
G1 X73.231 Y60.233 F21000
SET_VELOCITY_LIMIT ACCEL=5000 ACCEL_TO_DECEL=2500
;WIDTH:0.209999
G1 F12000
G1 X73.385 Y59.802 E.00333
G1 X46.594 Y59.772 E.19447
G1 X46.758 Y60.233 E.00355
G1 X73.216 Y60.233 E.19205
SET_VELOCITY_LIMIT ACCEL=6000 ACCEL_TO_DECEL=3000
G1 X73.364 Y60.422 F21000
SET_VELOCITY_LIMIT ACCEL=5000 ACCEL_TO_DECEL=2500
G1 F12000
G1 X73.616 Y59.717 E.00543
G1 X73.634 Y59.613 E.00076
G1 X46.359 Y59.583 E.19797
G2 X46.625 Y60.422 I8.004 J-2.07 E.00639
G1 X73.349 Y60.422 E.19398
SET_VELOCITY_LIMIT ACCEL=6000 ACCEL_TO_DECEL=3000
M73 P38 R0
G1 X73.497 Y60.61 F21000
SET_VELOCITY_LIMIT ACCEL=5000 ACCEL_TO_DECEL=2500
G1 F12000
G1 X73.799 Y59.765 E.00651
G1 X73.859 Y59.425 E.00251
G1 X46.134 Y59.394 E.20124
G1 X46.22 Y59.847 E.00335
G1 X46.492 Y60.61 E.00588
G1 X73.482 Y60.61 E.19591
SET_VELOCITY_LIMIT ACCEL=6000 ACCEL_TO_DECEL=3000
G1 X73.63 Y60.799 F21000
SET_VELOCITY_LIMIT ACCEL=5000 ACCEL_TO_DECEL=2500
G1 F12000
G1 X73.981 Y59.814 E.00759
G1 X74.084 Y59.237 E.00426
G1 X45.908 Y59.206 E.20452
G1 X46.028 Y59.87 E.0049
G1 X46.358 Y60.799 E.00716
G1 X73.615 Y60.799 E.19784
SET_VELOCITY_LIMIT ACCEL=6000 ACCEL_TO_DECEL=3000
M73 P39 R0
G1 X73.763 Y60.987 F21000
SET_VELOCITY_LIMIT ACCEL=5000 ACCEL_TO_DECEL=2500
G1 F12000
G1 X74.164 Y59.862 E.00867
G1 X74.309 Y59.048 E.006
G1 X45.682 Y59.017 E.20779
G1 X45.845 Y59.919 E.00665
G1 X46.225 Y60.987 E.00823
G1 X73.748 Y60.987 E.19977
SET_VELOCITY_LIMIT ACCEL=6000 ACCEL_TO_DECEL=3000
G1 X73.896 Y61.176 F21000
SET_VELOCITY_LIMIT ACCEL=5000 ACCEL_TO_DECEL=2500
G1 F12000
G1 X74.347 Y59.911 E.00975
G1 X74.534 Y58.86 E.00775
G1 X45.456 Y58.828 E.21106
G1 X45.663 Y59.967 E.0084
G1 X46.092 Y61.176 E.00931
M73 P40 R0
G1 X73.881 Y61.176 E.2017
; stop printing object luffyred.stl id:0 copy 0
;LAYER_CHANGE
;Z:0.3
;HEIGHT:0.1
;BEFORE_LAYER_CHANGE
;0.3
G92 E0

EXCLUDE_OBJECT_END NAME=luffyred.stl_id_0_copy_0
;AFTER_LAYER_CHANGE
;0.3
; printing object luffyred.stl id:0 copy 0
SET_VELOCITY_LIMIT ACCEL=6000 ACCEL_TO_DECEL=3000
G1 E-.5 F3000
EXCLUDE_OBJECT_START NAME=luffyred.stl_id_0_copy_0
G1 Z.4 F21000
G1 X44.933 Y58.367 Z.4
G1 Z.3
G1 E.5 F1800
SET_VELOCITY_LIMIT ACCEL=3000 ACCEL_TO_DECEL=1500
SET_VELOCITY_LIMIT SQUARE_CORNER_VELOCITY=7
;TYPE:Outer wall
;WIDTH:0.149999
G1 F7200
G1 X75.083 Y58.4 E.1492
G1 X74.813 Y59.922 E.00765
G1 X74.794 Y60.029 E.00054
G1 X74.221 Y61.637 E.00844
G1 X45.767 Y61.637 E.1408
M73 P41 R0
G1 X45.216 Y60.086 E.00814
G1 X44.912 Y58.408 E.00844
G1 X44.926 Y58.38 E.00016
SET_VELOCITY_LIMIT ACCEL=6000 ACCEL_TO_DECEL=3000
SET_VELOCITY_LIMIT SQUARE_CORNER_VELOCITY=12
G1 X45.072 Y58.507 F21000
SET_VELOCITY_LIMIT ACCEL=5000 ACCEL_TO_DECEL=2500
SET_VELOCITY_LIMIT SQUARE_CORNER_VELOCITY=7
;TYPE:Inner wall
;WIDTH:0.172499
G1 F12000
G1 X74.916 Y58.54 E.17354
G1 X74.675 Y59.898 E.00802
G1 X74.658 Y59.993 E.00056
G1 X74.122 Y61.497 E.00928
G1 X45.866 Y61.497 E.1643
G1 X45.352 Y60.05 E.00893
G1 X45.074 Y58.522 E.00903
SET_VELOCITY_LIMIT ACCEL=6000 ACCEL_TO_DECEL=3000
SET_VELOCITY_LIMIT SQUARE_CORNER_VELOCITY=12
G1 X45.253 Y58.658 F21000
SET_VELOCITY_LIMIT ACCEL=5000 ACCEL_TO_DECEL=2500
SET_VELOCITY_LIMIT SQUARE_CORNER_VELOCITY=7
G1 F12000
G1 X74.736 Y58.691 E.17144
M73 P42 R0
G1 X74.527 Y59.872 E.00697
G1 X74.512 Y59.955 E.00049
