; HEADER_BLOCK_START
; generated by OrcaSlicer 1.6.6 on 2023-09-06 at 21:45:49
; total layer number: 2
; HEADER_BLOCK_END

; THUMBNAIL_BLOCK_START
; THUMBNAIL_BLOCK_END

; external perimeters extrusion width = 0.15mm
; perimeters extrusion width = 0.17mm
; infill extrusion width = 0.24mm
; solid infill extrusion width = 0.21mm
; top infill extrusion width = 0.15mm
; first layer extrusion width = 0.19mm

; EXECUTABLE_BLOCK_START
EXCLUDE_OBJECT_DEFINE NAME=luffyorange.stl_id_0_copy_0 CENTER=60,60 POLYGON=[[36.1216,52.611],[36.1468,52.4518],[36.2026,52.3016],[36.2894,52.1667],[36.4076,52.0533],[37.6957,52.0029],[70.0454,51.9625],[83.3936,52.0222],[83.4897,52.0405],[83.5771,52.0808],[83.6547,52.1394],[83.7213,52.2126],[83.7758,52.2969],[83.817,52.3886],[83.8438,52.4841],[83.8751,52.6194],[83.8784,52.7534],[83.8569,52.8845],[83.814,53.0112],[83.6765,53.2452],[83.4918,53.4431],[68.8797,65.2331],[67.2068,66.2868],[65.4069,67.1061],[63.5127,67.678],[61.9274,67.9644],[60.3147,68.0375],[58.9726,68.034],[56.9285,67.8827],[54.9344,67.4027],[52.47,66.4017],[50.2382,64.9556],[36.4359,53.3634],[36.3911,53.3175],[36.3173,53.2139],[36.2248,53.0807],[36.161,52.9316],[36.1265,52.773],[36.1216,52.611]]
M73 P0 R1
;TYPE:Custom
START_PRINT T_BED=110 T_EXTRUDER=260
G90
G21
M83 ; use relative distances for extrusion
; Filament gcode

    PRESSURE_ADVANCE_SELECT FILAMENT=ABS
M106 S0
;LAYER_CHANGE
;Z:0.1
;HEIGHT:0.1
;BEFORE_LAYER_CHANGE
;0.1
G92 E0

;AFTER_LAYER_CHANGE
;0.1
SET_VELOCITY_LIMIT ACCEL=500 ACCEL_TO_DECEL=250
SET_VELOCITY_LIMIT SQUARE_CORNER_VELOCITY=9
G1 E-.5 F3000
G1 Z.2 F21000
G1 X34.793 Y50.37
G1 Z.2
G1 Z.1
G1 E.5 F1800
;TYPE:Skirt
;WIDTH:0.1875
G1 F3000
G1 X36.317 Y49.723 E.01058
G1 X70.056 Y49.63 E.21567
M73 P1 R1
G1 X83.404 Y49.69 E.08533
G1 X83.927 Y49.75 E.00336
G1 X84.466 Y49.923 E.00362
G1 X84.982 Y50.22 E.00381
G1 X85.38 Y50.57 E.00339
G1 X85.734 Y51.031 E.00371
G1 X85.944 Y51.432 E.00289
G1 X86.147 Y52.094 E.00443
G1 X86.21 Y52.696 E.00387
M73 P2 R1
G1 X86.158 Y53.261 E.00363
G1 X86.023 Y53.76 E.0033
G1 X85.687 Y54.427 E.00477
G1 X84.956 Y55.258 E.00708
G1 X70.123 Y67.206 E.12176
G1 X68.173 Y68.409 E.01464
G1 X66.373 Y69.229 E.01264
G1 X64.187 Y69.911 E.01464
G1 X62.033 Y70.294 E.01398
G1 X58.966 Y70.366 E.01961
G1 X56.383 Y70.15 E.01657
G1 X54.057 Y69.563 E.01533
G1 X51.202 Y68.359 E.01981
G1 X48.738 Y66.741 E.01884
G1 X34.936 Y55.149 E.11522
M73 P3 R1
G1 X34.482 Y54.658 E.00428
G1 X34.081 Y53.998 E.00494
G1 X33.882 Y53.428 E.00386
G1 X33.795 Y52.843 E.00378
G1 X33.818 Y52.246 E.00382
G1 X33.961 Y51.64 E.00398
G1 X34.328 Y50.905 E.00525
G1 X34.783 Y50.382 E.00443
G1 X34.908 Y50.491 F21000
G1 F3000
G1 X34.908 Y50.49 E0
G1 X36.323 Y49.889 E.00983
G1 X70.055 Y49.796 E.21563
M73 P4 R1
G1 X83.403 Y49.856 E.08533
G1 X83.896 Y49.913 E.00317
G1 X84.396 Y50.073 E.00336
G1 X84.882 Y50.352 E.00358
G1 X85.257 Y50.682 E.00319
G1 X85.595 Y51.121 E.00354
G1 X85.986 Y52.132 E.00693
G1 X86.044 Y52.7 E.00366
G1 X85.995 Y53.234 E.00343
G1 X85.865 Y53.707 E.00313
G1 X85.544 Y54.342 E.00455
G1 X84.852 Y55.129 E.0067
G1 X70.034 Y67.066 E.12163
M73 P5 R1
G1 X68.104 Y68.258 E.0145
G1 X66.304 Y69.078 E.01264
G1 X64.139 Y69.752 E.0145
G1 X62.025 Y70.128 E.01372
G1 X58.967 Y70.2 E.01956
G1 X56.422 Y69.989 E.01633
G1 X54.119 Y69.41 E.01517
G1 X51.292 Y68.219 E.01961
G1 X48.845 Y66.614 E.01871
G1 X35.043 Y55.022 E.11522
G1 X34.618 Y54.562 E.004
G1 X34.233 Y53.932 E.00472
G1 X34.045 Y53.392 E.00366
G1 X33.961 Y52.838 E.00358
M73 P6 R1
G1 X33.982 Y52.272 E.00362
G1 X34.116 Y51.697 E.00377
G1 X34.468 Y50.995 E.00502
G1 X34.898 Y50.502 E.00418
; printing object luffyorange.stl id:0 copy 0
G1 E-.5
EXCLUDE_OBJECT_START NAME=luffyorange.stl_id_0_copy_0
G1 Z.3 F21000
G1 X66.719 Y59.697 Z.3
G1 Z.1
G1 E.5 F1800
;TYPE:Outer wall
;WIDTH:0.14896
G1 F3000
G1 X66.966 Y59.714 E.00121
G1 E-.5
G1 Z.3 F21000
G1 X52.346 Y59.739 Z.3
M73 P7 R1
G1 Z.1
G1 E.5 F1800
;WIDTH:0.187499
G1 F3000
G1 X66.421 Y59.74 E.08997
G1 X66.236 Y59.963 E.00185
G1 X66.027 Y60.427 E.00325
G1 X65.494 Y61.877 E.00988
G1 X65.485 Y62.111 E.0015
G1 X65.607 Y62.395 E.00198
G1 X65.842 Y62.6 E.00199
G1 X66.074 Y62.67 E.00155
G1 X66.411 Y62.635 E.00217
G1 X66.65 Y62.502 E.00175
G2 X67.506 Y60.496 I-5.109 J-3.365 E.01402
G1 X67.512 Y60.264 E.00149
G1 X67.32 Y59.922 E.00251
G1 X66.991 Y59.719 E.00247
G1 X67.342 Y59.74 E.00224
G1 X69.843 Y59.74 E.01599
M73 P8 R1
G1 X69.773 Y59.822 E.00069
G1 X69.096 Y61.347 E.01067
G1 X67.98 Y62.84 E.01191
G1 X67.91 Y63.095 E.00169
G1 X67.959 Y63.353 E.00168
G1 X68.163 Y63.627 E.00218
G1 X68.468 Y63.784 E.00219
G1 X68.793 Y63.774 E.00208
G1 X69.185 Y63.556 E.00286
G1 X69.555 Y63.168 E.00342
G1 X70.405 Y61.951 E.00949
G1 X70.756 Y61.272 E.00489
G1 X71 Y60.572 E.00474
G1 X71.066 Y60.194 E.00245
G1 X71.025 Y59.923 E.00175
G1 X70.928 Y59.745 E.0013
G1 X73.485 Y59.762 E.01634
G1 X72.631 Y61.107 E.01018
G1 X72.13 Y61.894 E.00597
G1 X70.328 Y63.89 E.01719
G1 X68.824 Y65.157 E.01257
G1 X67.162 Y66.204 E.01256
G1 X65.374 Y67.018 E.01256
G1 X63.491 Y67.587 E.01257
G1 X61.917 Y67.871 E.01022
G3 X58.976 Y67.94 I-2.193 J-30.654 E.01881
G1 X56.943 Y67.79 E.01303
M73 P9 R1
G1 X54.963 Y67.313 E.01302
G1 X52.513 Y66.318 E.0169
G1 X50.295 Y64.881 E.0169
G1 X49.009 Y63.741 E.01099
G1 X47.839 Y62.478 E.01101
G1 X46.814 Y61.098 E.01099
G1 X46.04 Y59.739 E.01
G2 X51.742 Y59.731 I2.495 J-276.974 E.03645
G1 X51.487 Y59.932 E.00208
G1 X51.33 Y60.257 E.0023
G1 X51.322 Y60.437 E.00115
G1 X51.829 Y61.499 E.00752
G2 X52.76 Y62.853 I10.84 J-6.456 E.01051
G1 X53.092 Y63.157 E.00288
G1 X53.409 Y63.256 E.00212
G1 X53.7 Y63.209 E.00188
G1 X53.941 Y63.047 E.00186
G1 X54.094 Y62.8 E.00186
G1 X54.113 Y62.468 E.00213
G2 X53.611 Y61.597 I-2.928 J1.108 E.00645
G1 X52.635 Y59.968 E.01214
G1 X52.472 Y59.796 E.00151
G1 X52.36 Y59.745 E.00079
G1 E-.5
G1 Z.3 F21000
G1 X54.449 Y61.812 Z.3
M73 P10 R1
G1 X54.702 Y62.228
G1 X54.81 Y62.377
G1 X54.958 Y62.486
G1 X55.132 Y62.572
G1 X55.296 Y62.614
G1 X55.335 Y62.463
G1 Z.1
G1 E.5 F1800
G1 F3000
G1 X55.029 Y62.345 E.00209
G1 X54.751 Y62.085 E.00244
G3 X54.147 Y60.899 I1.945 J-1.736 E.0086
G1 X54.18 Y60.565 E.00214
G1 X54.339 Y60.293 E.00201
G1 X54.621 Y60.137 E.00206
G1 X54.842 Y60.104 E.00143
G1 X54.992 Y60.137 E.00098
G1 X55.218 Y60.292 E.00176
G1 X55.96 Y61.338 E.0082
G1 X56.059 Y61.579 E.00166
G1 X56.071 Y61.938 E.0023
G1 X55.986 Y62.133 E.00136
G1 X55.637 Y62.406 E.00283
G1 X55.349 Y62.46 E.00187
G1 E-.5
G1 Z.3 F21000
G1 X55.31 Y62.617 Z.3
G1 X55.132 Y62.572
G1 X54.958 Y62.486
G1 X54.81 Y62.377
G1 X54.702 Y62.228
G1 X54.373 Y61.698
G1 X54.202 Y61.418
G1 X54.114 Y61.239
G1 X54.054 Y61.108
G1 X53.995 Y60.926
G1 X53.989 Y60.736
G1 X54.034 Y60.544
G1 X54.174 Y60.382
G1 X54.736 Y59.927
G1 Z.1
G1 E.5 F1800
;TYPE:Inner wall
;WIDTH:0.242918
G1 F3000
G1 X54.993 Y59.933 E.00219
M73 P11 R1
G1 E-.5
G1 Z.3 F21000
G1 X51.779 Y59.723 Z.3
G1 Z.1
G1 E.5 F1800
;TYPE:Outer wall
;WIDTH:0.15588
G1 F3000
G1 X52.109 Y59.696 E.00172
G1 E-.5
G1 Z.3 F21000
G1 X49.25 Y60.214 Z.3
G1 X49.157 Y60.231
G1 X48.979 Y60.286
G1 X48.799 Y60.378
G1 X48.631 Y60.509
G1 X48.582 Y60.616
G1 X48.551 Y60.723
G1 X48.534 Y60.836
G1 X48.535 Y60.952
G1 X48.549 Y61.039
G1 X48.704 Y61.014
G1 Z.1
G1 E.5 F1800
;WIDTH:0.187499
G1 F3000
G1 X48.71 Y60.736 E.00178
G1 X48.88 Y60.423 E.00227
G1 X49.174 Y60.222 E.00228
G1 X49.443 Y60.182 E.00174
G1 X49.662 Y60.239 E.00144
G1 X49.91 Y60.43 E.002
G2 X52.224 Y63.283 I87.156 J-68.334 E.02348
G1 X52.357 Y63.582 E.00209
G1 X52.376 Y63.752 E.00109
G1 X52.312 Y63.991 E.00158
G1 X52.157 Y64.179 E.00156
G1 X51.906 Y64.332 E.00188
G1 X51.606 Y64.374 E.00194
G1 X51.432 Y64.311 E.00118
G1 X51.033 Y64.031 E.00311
M73 P12 R1
G3 X49.957 Y62.85 I8.08 J-8.443 E.01022
G1 X49.587 Y62.421 E.00362
G3 X48.744 Y61.138 I895.626 J-589.149 E.00981
G1 X48.708 Y61.028 E.00074
G1 X48.55 Y61.055 F21000
;TYPE:Inner wall
G1 F3000
G1 X48.538 Y61.015 E.00027
G1 X48.562 Y60.66 E.00228
G1 X48.783 Y60.288 E.00277
G1 X49.147 Y60.061 E.00274
;WIDTH:0.181757
G1 X49.477 Y60.032 E.00204
;WIDTH:0.187499
G1 X49.764 Y60.108 E.0019
G1 X50.011 Y60.299 E.002
G2 X52.351 Y63.176 I138.767 J-110.451 E.02371
G1 X52.511 Y63.485 E.00222
G1 X52.538 Y63.791 E.00196
G1 X52.442 Y64.094 E.00203
G1 X52.247 Y64.319 E.0019
G1 X51.935 Y64.495 E.00229
G1 X51.552 Y64.531 E.00246
G1 X51.337 Y64.447 E.00148
G1 X50.917 Y64.15 E.00329
G1 X50.468 Y63.697 E.00407
G3 X49.461 Y62.529 I970.795 J-838.785 E.00986
G3 X48.606 Y61.23 I309.797 J-204.803 E.00995
G1 X48.555 Y61.07 E.00107
G1 E-.5
G1 Z.3 F21000
G1 X48.555 Y61.07 Z.3
G1 X48.535 Y60.952
G1 X48.534 Y60.836
G1 X48.551 Y60.723
G1 X48.582 Y60.616
G1 X48.631 Y60.509
G1 X48.799 Y60.378
G1 X48.979 Y60.286
G1 X49.157 Y60.231
G1 X49.25 Y60.214
G1 X51.895 Y59.76
G1 X52.001 Y59.743
G1 X52.108 Y59.746
G1 X52.214 Y59.768
G1 X52.791 Y59.905
M73 P13 R1
G1 Z.1
G1 E.5 F1800
G1 F3000
G2 X54.539 Y59.883 I.588 J-22.698 E.01118
;WIDTH:0.187018
G1 X54.638 Y59.905 E.00064
;WIDTH:0.230834
G1 X54.736 Y59.927 E.00081
G1 X54.595 Y59.975 E.0012
;WIDTH:0.205387
G1 X54.454 Y60.022 E.00105
;WIDTH:0.187499
G1 X54.248 Y60.154 E.00157
G1 X54.034 Y60.486 E.00252
G1 X53.982 Y60.886 E.00258
G1 X54.1 Y61.348 E.00305
G1 X54.305 Y61.763 E.00296
G1 X54.618 Y62.184 E.00335
G1 X54.921 Y62.472 E.00268
G1 X55.296 Y62.625 E.00259
G1 X55.675 Y62.567 E.00245
G1 X56.063 Y62.295 E.00303
G1 X56.223 Y62.005 E.00212
G1 X56.225 Y61.569 E.00278
G1 X56.096 Y61.242 E.00225
G1 X55.354 Y60.196 E.0082
;WIDTH:0.215209
G1 X55.173 Y60.065 E.00167
;WIDTH:0.242918
G1 X54.993 Y59.933 E.0019
G1 X55.174 Y59.919 E.00155
;WIDTH:0.215209
G1 X55.356 Y59.905 E.00136
;WIDTH:0.187499
G1 X66.079 Y59.906 E.06855
G1 X65.871 Y60.369 E.00325
G1 X65.338 Y61.819 E.00988
G1 X65.319 Y62.108 E.00185
G1 X65.456 Y62.465 E.00244
G1 X65.737 Y62.728 E.00246
G1 X66.031 Y62.83 E.00199
M73 P14 R1
G1 X66.431 Y62.8 E.00257
G1 X66.734 Y62.645 E.00218
G2 X67.49 Y61.142 I-4.331 J-3.118 E.0108
G1 X67.665 Y60.543 E.00399
G1 X67.678 Y60.266 E.00177
G1 X67.505 Y59.906 E.00256
G1 X69.554 Y59.906 E.0131
G1 X68.952 Y61.263 E.00949
G2 X67.83 Y62.767 I459.865 J344.288 E.01199
G1 X67.743 Y63.144 E.00248
G1 X67.829 Y63.467 E.00214
G1 X68.12 Y63.8 E.00283
G1 X68.466 Y63.955 E.00242
G1 X68.912 Y63.907 E.00287
G1 X69.305 Y63.671 E.00293
G1 X69.691 Y63.263 E.00359
G1 X70.541 Y62.047 E.00949
G1 X70.913 Y61.327 E.00518
G1 X71.157 Y60.626 E.00474
G1 X71.23 Y60.222 E.00262
G1 X71.192 Y59.913 E.00199
G1 X73.184 Y59.926 E.01273
G1 X72.491 Y61.018 E.00827
G1 X71.998 Y61.794 E.00588
G1 X70.212 Y63.771 E.01703
G1 X68.726 Y65.023 E.01242
G1 X67.083 Y66.058 E.01241
M73 P15 R1
G1 X65.315 Y66.862 E.01242
G1 X63.452 Y67.425 E.01244
G1 X61.898 Y67.706 E.01009
G3 X58.982 Y67.774 I-2.173 J-30.394 E.01865
G1 X56.969 Y67.625 E.01291
G1 X55.014 Y67.155 E.01285
G1 X52.591 Y66.17 E.01672
G1 X50.396 Y64.748 E.01672
G1 X49.125 Y63.622 E.01085
G1 X47.966 Y62.371 E.0109
G1 X46.953 Y61.007 E.01086
G1 X46.326 Y59.905 E.00811
G3 X49.683 Y59.905 I1.633 J774.523 E.02146
G1 X51.308 Y59.905 E.01039
G1 X51.158 Y60.27 E.00252
G1 X51.172 Y60.509 E.00153
G1 X51.674 Y61.561 E.00745
G1 X52.341 Y62.585 E.00782
G1 X52.674 Y63.012 E.00346
G1 X53.041 Y63.319 E.00306
G1 X53.442 Y63.425 E.00265
G1 X53.827 Y63.331 E.00253
G1 X54.108 Y63.105 E.0023
G1 X54.272 Y62.773 E.00237
G1 X54.263 Y62.397 E.00241
G2 X53.751 Y61.507 I-3.029 J1.153 E.00659
M73 P16 R1
G1 X52.799 Y59.918 E.01184
G1 E-.5
G1 Z.3 F21000
G1 X54.189 Y61.871 Z.3
G1 Z.1
G1 E.5 F1800
G1 F3000
G1 X54.484 Y62.283 E.00324
G1 X54.814 Y62.598 E.00291
G1 X55.22 Y62.775 E.00283
G1 X55.459 Y62.789 E.00153
G1 X55.872 Y62.653 E.00278
G1 X56.258 Y62.325 E.00324
G1 X56.401 Y61.992 E.00232
G1 X56.391 Y61.56 E.00276
G1 X56.231 Y61.146 E.00284
G1 X55.459 Y60.071 E.00846
G1 X65.822 Y60.072 E.06624
G1 X65.715 Y60.312 E.00168
G1 X65.182 Y61.762 E.00988
G2 X65.164 Y62.207 I1.043 J.265 E.00286
G1 X65.33 Y62.58 E.00261
M73 P17 R1
G1 X65.631 Y62.856 E.00261
G1 X65.787 Y62.937 E.00112
G1 X66.132 Y63.003 E.00224
G1 X66.584 Y62.925 E.00293
G1 X66.932 Y62.69 E.00268
G2 X67.365 Y61.925 I-16.561 J-9.885 E.00562
G2 X67.824 Y60.59 I-7.778 J-3.421 E.00904
G1 X67.844 Y60.269 E.00206
G1 X67.791 Y60.072 E.0013
G1 X69.299 Y60.072 E.00964
G1 X68.808 Y61.178 E.00774
G2 X67.655 Y62.751 I23.936 J18.752 E.01246
G1 X67.578 Y63.164 E.00269
G1 X67.662 Y63.505 E.00225
G1 X67.902 Y63.831 E.00259
G1 X68.048 Y63.95 E.0012
G1 X68.441 Y64.119 E.00273
G1 X68.815 Y64.105 E.00239
G1 X68.995 Y64.051 E.0012
G1 X69.424 Y63.785 E.00323
G1 X69.827 Y63.358 E.00375
G1 X70.706 Y62.094 E.00984
G1 X71.104 Y61.283 E.00577
G1 X71.331 Y60.615 E.00452
G1 X71.389 Y60.08 E.00343
G1 X72.883 Y60.09 E.00955
G1 X72.35 Y60.929 E.00635
G1 X71.865 Y61.693 E.00579
G1 X70.096 Y63.651 E.01687
G1 X68.628 Y64.888 E.01228
G1 X67.004 Y65.911 E.01227
G1 X65.256 Y66.707 E.01227
M73 P18 R1
G1 X63.413 Y67.263 E.01231
G1 X61.88 Y67.54 E.00996
G3 X58.989 Y67.608 I-2.154 J-30.134 E.01849
G1 X56.994 Y67.461 E.01278
G1 X55.065 Y66.996 E.01269
G1 X52.668 Y66.022 E.01654
G1 X50.497 Y64.616 E.01654
G1 X49.241 Y63.503 E.01072
G1 X48.094 Y62.265 E.01079
G1 X47.093 Y60.916 E.01074
G1 X46.612 Y60.071 E.00622
G1 X48.801 Y60.071 E.01399
G1 X48.559 Y60.302 E.00214
G1 X48.37 Y60.748 E.0031
G1 X48.372 Y61.017 E.00172
G1 X48.467 Y61.321 E.00203
G2 X49.335 Y62.638 I192.999 J-126.308 E.01009
G2 X50.35 Y63.814 I593.859 J-511.715 E.00993
G1 X50.855 Y64.313 E.00454
G1 X51.345 Y64.635 E.00375
G1 X51.704 Y64.704 E.00234
G1 X51.964 Y64.659 E.00168
G1 X52.336 Y64.458 E.00271
G1 X52.59 Y64.173 E.00244
G1 X52.7 Y63.829 E.00231
G1 X52.686 Y63.534 E.00189
;WIDTH:0.22539
G1 X52.571 Y63.181 E.00292
G1 X52.886 Y63.418 E.0031
;WIDTH:0.187499
G1 X53.352 Y63.583 E.00316
G1 X53.763 Y63.535 E.00264
M73 P19 R1
G1 X54.162 Y63.296 E.00297
G1 X54.409 Y62.91 E.00293
G1 X54.453 Y62.528 E.00246
G1 X54.413 Y62.326 E.00132
G1 X54.195 Y61.884 E.00315
G1 X53.989 Y61.55 F21000
;WIDTH:0.199486
G1 F3000
G1 X53.89 Y61.417 E.00113
;WIDTH:0.187499
G1 X53.084 Y60.071 E.01003
G1 X54.105 Y60.071 E.00653
G1 X53.888 Y60.407 E.00255
G1 X53.839 Y60.573 E.00111
G1 X53.832 Y61.021 E.00286
;WIDTH:0.199486
G1 X53.985 Y61.535 E.00368
G1 X53.989 Y61.55 F21000
G1 F3000
G1 X54.189 Y61.871 E.00259
G1 E-.5
G1 Z.3 F21000
G1 X54.285 Y62.646 Z.3
G1 X54.252 Y62.829
G1 X54.177 Y62.997
G1 X54.069 Y63.142
G1 X53.934 Y63.26
G1 X53.778 Y63.347
G1 X53.607 Y63.401
G1 X53.422 Y63.416
G1 X53.216 Y63.381
G1 X52.571 Y63.181
G1 Z.1
G1 E.5 F1800
;WIDTH:0.22539
G1 F3000
G1 X52.197 Y62.698 E.0048
;WIDTH:0.237072
G1 X52.103 Y62.571 E.00131
G1 E-.5
G1 Z.3 F21000
G1 X51.05 Y60.071 Z.3
M73 P20 R1
G1 Z.1
G1 E.5 F1800
;WIDTH:0.187499
G1 F3000
G1 X50.992 Y60.256 E.00124
G1 X51.022 Y60.58 E.00208
;WIDTH:0.190764
G1 X51.552 Y61.68 E.00795
;WIDTH:0.184999
G1 X52.063 Y62.418 E.00565
;WIDTH:0.187156
G1 X52.083 Y62.494 E.0005
;WIDTH:0.237072
G1 X52.103 Y62.571 E.00066
G1 X52.036 Y62.528 E.00066
;WIDTH:0.187156
G1 X51.97 Y62.486 E.0005
;WIDTH:0.164002
G1 X51.675 Y62.104 E.00265
;WIDTH:0.190764
G2 X50.642 Y60.821 I-22.511 J17.066 E.01074
;WIDTH:0.187499
G1 X50.19 Y60.245 E.00468
G1 X49.988 Y60.071 E.0017
G1 X51.035 Y60.071 E.00669
G1 X50.956 Y60.499 F21000
;TYPE:Bottom surface
;WIDTH:0.216486
G1 F6300
G1 X50.652 Y60.196 E.00322
G1 X50.376 Y60.196 E.00207
G1 X50.995 Y60.814 E.00657
G1 X51.234 Y61.32 E.0042
G1 X50.665 Y60.761 E.00599
G1 E-.5 F3000
G1 Z.3 F21000
G1 X51.62 Y59.923 Z.3
G1 X51.703 Y59.854
G1 X51.795 Y59.799
G1 X51.895 Y59.76
G1 X52.001 Y59.743
G1 X52.108 Y59.746
G1 X52.214 Y59.768
G1 X53.848 Y60.384
G1 Z.1
G1 E.5 F1800
;WIDTH:0.220707
G1 F6300
G1 X53.659 Y60.196 E.00205
M73 P21 R1
G1 X53.378 Y60.196 E.00216
G1 X53.72 Y60.538 E.00372
G2 X53.697 Y60.797 I.91 J.211 E.002
G1 X53.397 Y60.497 E.00325
G1 E-.5 F3000
G1 Z.3 F21000
G1 X54.574 Y60.189 Z.3
G1 X54.703 Y60.17
G1 X54.829 Y60.165
G1 X66.401 Y59.909
G1 X66.495 Y59.832
G1 X66.603 Y59.776
G1 X66.727 Y59.747
G1 X66.842 Y59.753
G1 X69.477 Y60.367
G1 X69.193 Y60.745
G1 X67.839 Y62.769
G1 X67.788 Y62.888
G1 X67.76 Y63.002
G1 X67.751 Y63.116
G1 X67.76 Y63.227
G1 X67.785 Y63.333
G1 X67.825 Y63.44
G1 X67.931 Y63.613
G1 X68.078 Y63.762
G1 X68.255 Y63.876
G1 X68.45 Y63.943
G1 X68.567 Y63.958
