; HEADER_BLOCK_START
; generated by OrcaSlicer 1.6.6 on 2023-09-06 at 21:50:14
; total layer number: 10
; HEADER_BLOCK_END

; THUMBNAIL_BLOCK_START
; THUMBNAIL_BLOCK_END

; external perimeters extrusion width = 0.15mm
; perimeters extrusion width = 0.17mm
; infill extrusion width = 0.24mm
; solid infill extrusion width = 0.21mm
; top infill extrusion width = 0.15mm
; first layer extrusion width = 0.19mm

; EXECUTABLE_BLOCK_START
EXCLUDE_OBJECT_DEFINE NAME=luffyred.stl_id_0_copy_0 CENTER=60,60 POLYGON=[[44.5178,58.3483],[44.5179,58.3285],[44.5219,58.3092],[44.5257,58.3002],[44.5308,58.2919],[44.5371,58.2844],[44.5445,58.2779],[44.5614,58.268],[44.5802,58.2613],[44.5997,58.2571],[44.6427,58.2534],[75.4822,58.2911],[75.1701,60.0497],[74.5648,61.7465],[59.9904,61.7466],[45.4227,61.7466],[44.8402,60.108],[44.5206,58.3687],[44.5178,58.3483]]
M73 P0 R1
;TYPE:Custom
START_PRINT T_BED=110 T_EXTRUDER=260
G90
G21
M83 ; use relative distances for extrusion
; Filament gcode

    PRESSURE_ADVANCE_SELECT FILAMENT=ABS
M106 S0
;LAYER_CHANGE
;Z:0.1
;HEIGHT:0.1
;BEFORE_LAYER_CHANGE
;0.1
G92 E0

;AFTER_LAYER_CHANGE
;0.1
SET_VELOCITY_LIMIT ACCEL=500 ACCEL_TO_DECEL=250
SET_VELOCITY_LIMIT SQUARE_CORNER_VELOCITY=9
G1 E-.5 F3000
G1 Z.2 F21000
G1 X43.252 Y56.338
G1 Z.2
G1 Z.1
M73 P1 R1
G1 E.5 F1800
;TYPE:Skirt
;WIDTH:0.1875
G1 F3000
G1 X43.926 Y56.024 E.00475
G1 X44.443 Y55.93 E.00336
G1 X75.485 Y55.959 E.19843
G1 X76.778 Y56.352 E.00864
G1 X77.636 Y57.396 E.00864
M73 P2 R1
G1 X77.778 Y58.698 E.00838
G1 X77.367 Y60.833 E.0139
G1 X76.761 Y62.53 E.01152
G1 X75.958 Y63.617 E.00864
G1 X74.565 Y64.079 E.00938
G1 X45.423 Y64.079 E.18628
M73 P3 R1
G1 X44.13 Y63.687 E.00864
G1 X43.225 Y62.528 E.0094
G1 X42.546 Y60.528 E.0135
G1 X42.186 Y58.337 E.01419
G1 X42.278 Y57.68 E.00424
G1 X42.646 Y56.92 E.0054
G1 X43.242 Y56.348 E.00527
G1 X43.346 Y56.475 F21000
G1 F3000
G1 X43.971 Y56.184 E.00441
G1 X44.458 Y56.095 E.00316
G1 X75.485 Y56.125 E.19833
M73 P4 R1
G1 X76.725 Y56.517 E.00832
G1 X77.517 Y57.55 E.00832
G1 X77.615 Y58.669 E.00719
G1 X77.21 Y60.777 E.01372
G1 X76.605 Y62.474 E.01152
G1 X75.82 Y63.512 E.00832
G1 X74.565 Y63.913 E.00842
G1 X45.423 Y63.913 E.18628
M73 P5 R1
G1 X44.182 Y63.522 E.00832
G1 X43.382 Y62.472 E.00844
G1 X42.71 Y60.498 E.01333
G1 X42.352 Y58.338 E.014
G1 X42.438 Y57.724 E.00396
G1 X42.781 Y57.017 E.00503
G1 X43.335 Y56.486 E.00491
; printing object luffyred.stl id:0 copy 0
G1 E-.5
EXCLUDE_OBJECT_START NAME=luffyred.stl_id_0_copy_0
G1 Z.3 F21000
G1 X44.632 Y58.351 Z.3
G1 Z.1
M73 P6 R1
G1 E.5 F1800
;TYPE:Outer wall
;WIDTH:0.187499
G1 F3000
G1 X75.37 Y58.385 E.19649
G1 X75.098 Y59.918 E.00995
G1 X75.079 Y60.026 E.0007
G1 X74.499 Y61.653 E.01104
M73 P7 R1
G1 X45.489 Y61.653 E.18544
G1 X44.931 Y60.084 E.01064
G1 X44.621 Y58.373 E.01112
G1 X44.625 Y58.364 E.00006
G1 X44.816 Y58.517 F21000
;TYPE:Inner wall
M73 P8 R1
G1 F3000
G1 X75.172 Y58.551 E.19405
G1 X74.935 Y59.889 E.00869
G1 X74.918 Y59.983 E.00061
G1 X74.382 Y61.487 E.01021
G1 X45.606 Y61.487 E.18394
M73 P9 R1
G1 X45.092 Y60.041 E.00981
G1 X44.818 Y58.532 E.0098
G1 X45.015 Y58.683 F21000
G1 F3000
G1 X74.974 Y58.716 E.19151
M73 P10 R1
G1 X74.771 Y59.86 E.00742
G1 X74.757 Y59.94 E.00052
G1 X74.265 Y61.321 E.00937
G1 X45.723 Y61.321 E.18244
M73 P11 R1
G1 X45.253 Y59.998 E.00897
G1 X45.017 Y58.698 E.00844
G1 E-.5
G1 Z.3 F21000
G1 X74.578 Y58.766 Z.3
M73 P12 R1
G1 Z.1
G1 E.5 F1800
;TYPE:Bottom surface
;WIDTH:0.188704
G1 F6300
G1 X74.8 Y58.988 E.00202
G1 X74.764 Y59.188 E.00131
G1 X74.416 Y58.84 E.00317
G1 X74.179 Y58.84 E.00152
G1 X74.728 Y59.389 E.005
G1 X74.693 Y59.59 E.00131
G1 X73.942 Y58.84 E.00683
G1 X73.705 Y58.839 E.00152
G1 X74.657 Y59.791 E.00866
G3 X74.61 Y59.981 I-.586 J-.044 E.00126
G1 X73.469 Y58.839 E.0104
G1 X73.232 Y58.839 E.00152
G1 X74.548 Y60.155 E.01199
M73 P13 R1
G1 X74.486 Y60.329 E.00119
G1 X72.995 Y58.839 E.01358
G1 X72.758 Y58.838 E.00152
G1 X74.424 Y60.504 E.01516
G1 X74.362 Y60.678 E.00119
G1 X72.522 Y58.838 E.01675
G1 X72.285 Y58.838 E.00152
G1 X74.299 Y60.852 E.01834
G1 X74.237 Y61.027 E.00119
G1 X72.048 Y58.838 E.01993
G1 X71.811 Y58.837 E.00152
G1 X74.17 Y61.196 E.02148
M73 P14 R1
G1 X73.934 Y61.196 E.00152
G1 X71.574 Y58.837 E.02148
G1 X71.338 Y58.837 E.00152
G1 X73.697 Y61.196 E.02148
G1 X73.46 Y61.196 E.00152
G1 X71.101 Y58.837 E.02149
G1 X70.864 Y58.836 E.00152
G1 X73.224 Y61.196 E.02149
G1 X72.987 Y61.196 E.00152
G1 X70.627 Y58.836 E.02149
G1 X70.391 Y58.836 E.00152
G1 X72.751 Y61.196 E.02149
M73 P15 R1
G1 X72.514 Y61.196 E.00152
G1 X70.154 Y58.836 E.02149
G1 X69.917 Y58.835 E.00152
G1 X72.278 Y61.196 E.0215
G1 X72.041 Y61.196 E.00152
G1 X69.68 Y58.835 E.0215
G1 X69.443 Y58.835 E.00152
G1 X71.805 Y61.196 E.0215
G1 X71.568 Y61.196 E.00152
G1 X69.207 Y58.834 E.0215
G1 X68.97 Y58.834 E.00152
G1 X71.332 Y61.196 E.02151
M73 P16 R1
G1 X71.095 Y61.196 E.00152
G1 X68.733 Y58.834 E.02151
G1 X68.496 Y58.834 E.00152
G1 X70.859 Y61.196 E.02151
G1 X70.622 Y61.196 E.00152
G1 X68.26 Y58.833 E.02151
G1 X68.023 Y58.833 E.00152
G1 X70.386 Y61.196 E.02152
G1 X70.149 Y61.196 E.00152
G1 X67.786 Y58.833 E.02152
G1 X67.549 Y58.833 E.00152
G1 X69.913 Y61.196 E.02152
M73 P17 R1
G1 X69.676 Y61.196 E.00152
G1 X67.312 Y58.832 E.02152
G1 X67.076 Y58.832 E.00152
G1 X69.44 Y61.196 E.02153
G1 X69.203 Y61.196 E.00152
G1 X66.839 Y58.832 E.02153
G1 X66.602 Y58.832 E.00152
G1 X68.967 Y61.196 E.02153
G1 X68.73 Y61.196 E.00152
G1 X66.365 Y58.831 E.02153
M73 P18 R1
G1 X66.129 Y58.831 E.00152
G1 X68.494 Y61.196 E.02154
G1 X68.257 Y61.196 E.00152
G1 X65.892 Y58.831 E.02154
G1 X65.655 Y58.831 E.00152
G1 X68.021 Y61.196 E.02154
G1 X67.784 Y61.196 E.00152
G1 X65.418 Y58.83 E.02154
G1 X65.181 Y58.83 E.00152
G1 X67.548 Y61.196 E.02155
G1 X67.311 Y61.196 E.00152
G1 X64.945 Y58.83 E.02155
M73 P19 R1
G1 X64.708 Y58.83 E.00152
G1 X67.074 Y61.196 E.02155
G1 X66.838 Y61.196 E.00152
G1 X64.471 Y58.829 E.02155
G1 X64.234 Y58.829 E.00152
G1 X66.601 Y61.196 E.02155
G1 X66.365 Y61.196 E.00152
G1 X63.998 Y58.829 E.02156
G1 X63.761 Y58.828 E.00152
G1 X66.128 Y61.196 E.02156
G1 X65.892 Y61.196 E.00152
G1 X63.524 Y58.828 E.02156
M73 P20 R1
G1 X63.287 Y58.828 E.00152
G1 X65.655 Y61.196 E.02156
G1 X65.419 Y61.196 E.00152
G1 X63.05 Y58.828 E.02157
G1 X62.814 Y58.827 E.00152
G1 X65.182 Y61.196 E.02157
G1 X64.946 Y61.196 E.00152
G1 X62.577 Y58.827 E.02157
G1 X62.34 Y58.827 E.00152
G1 X64.709 Y61.196 E.02157
G1 X64.473 Y61.196 E.00152
G1 X62.103 Y58.827 E.02158
M73 P21 R1
G1 X61.866 Y58.826 E.00152
G1 X64.236 Y61.196 E.02158
G1 X64 Y61.196 E.00152
G1 X61.63 Y58.826 E.02158
G1 X61.393 Y58.826 E.00152
G1 X63.763 Y61.196 E.02158
G1 X63.527 Y61.196 E.00152
G1 X61.156 Y58.826 E.02159
G1 X60.919 Y58.825 E.00152
G1 X63.29 Y61.196 E.02159
M73 P22 R1
G1 X63.054 Y61.196 E.00152
G1 X60.683 Y58.825 E.02159
G1 X60.446 Y58.825 E.00152
G1 X62.817 Y61.196 E.02159
G1 X62.581 Y61.196 E.00152
G1 X60.209 Y58.825 E.0216
G1 X59.972 Y58.824 E.00152
G1 X62.344 Y61.196 E.0216
G1 X62.108 Y61.196 E.00152
G1 X59.735 Y58.824 E.0216
G1 X59.499 Y58.824 E.00152
G1 X61.871 Y61.196 E.0216
M73 P23 R1
G1 X61.635 Y61.196 E.00152
G1 X59.262 Y58.824 E.0216
G1 X59.025 Y58.823 E.00152
G1 X61.398 Y61.196 E.02161
G1 X61.162 Y61.196 E.00152
G1 X58.788 Y58.823 E.02161
G1 X58.552 Y58.823 E.00152
G1 X60.925 Y61.196 E.02161
G1 X60.688 Y61.196 E.00152
G1 X58.315 Y58.822 E.02161
G1 X58.078 Y58.822 E.00152
G1 X60.452 Y61.196 E.02162
M73 P24 R1
G1 X60.215 Y61.196 E.00152
G1 X57.841 Y58.822 E.02162
G1 X57.604 Y58.822 E.00152
G1 X59.979 Y61.196 E.02162
G1 X59.742 Y61.196 E.00152
G1 X57.368 Y58.821 E.02162
G1 X57.131 Y58.821 E.00152
G1 X59.506 Y61.196 E.02163
G1 X59.269 Y61.196 E.00152
G1 X56.894 Y58.821 E.02163
G1 X56.657 Y58.821 E.00152
G1 X59.033 Y61.196 E.02163
M73 P25 R1
G1 X58.796 Y61.196 E.00152
G1 X56.421 Y58.82 E.02163
G1 X56.184 Y58.82 E.00152
G1 X58.56 Y61.196 E.02164
G1 X58.323 Y61.196 E.00152
G1 X55.947 Y58.82 E.02164
G1 X55.71 Y58.82 E.00152
G1 X58.087 Y61.196 E.02164
G1 X57.85 Y61.196 E.00152
G1 X55.473 Y58.819 E.02164
M73 P26 R1
G1 X55.237 Y58.819 E.00152
G1 X57.614 Y61.196 E.02165
G1 X57.377 Y61.196 E.00152
G1 X55 Y58.819 E.02165
G1 X54.763 Y58.819 E.00152
G1 X57.141 Y61.196 E.02165
G1 X56.904 Y61.196 E.00152
G1 X54.526 Y58.818 E.02165
G1 X54.29 Y58.818 E.00152
G1 X56.668 Y61.196 E.02165
G1 X56.431 Y61.196 E.00152
G1 X54.053 Y58.818 E.02166
M73 P27 R1
G1 X53.816 Y58.817 E.00152
G1 X56.195 Y61.196 E.02166
G1 X55.958 Y61.196 E.00152
G1 X53.579 Y58.817 E.02166
G1 X53.342 Y58.817 E.00152
G1 X55.722 Y61.196 E.02166
G1 X55.485 Y61.196 E.00152
G1 X53.106 Y58.817 E.02167
G1 X52.869 Y58.816 E.00152
G1 X55.249 Y61.196 E.02167
G1 X55.012 Y61.196 E.00152
G1 X52.632 Y58.816 E.02167
M73 P28 R1
G1 X52.395 Y58.816 E.00152
G1 X54.776 Y61.196 E.02167
G1 X54.539 Y61.196 E.00152
G1 X52.159 Y58.816 E.02168
M73 P28 R0
G1 X51.922 Y58.815 E.00152
G1 X54.303 Y61.196 E.02168
G1 X54.066 Y61.196 E.00152
G1 X51.685 Y58.815 E.02168
G1 X51.448 Y58.815 E.00152
G1 X53.829 Y61.196 E.02168
G1 X53.593 Y61.196 E.00152
M73 P29 R0
G1 X51.211 Y58.815 E.02169
G1 X50.975 Y58.814 E.00152
G1 X53.356 Y61.196 E.02169
G1 X53.12 Y61.196 E.00152
G1 X50.738 Y58.814 E.02169
G1 X50.501 Y58.814 E.00152
G1 X52.883 Y61.196 E.02169
G1 X52.647 Y61.196 E.00152
G1 X50.264 Y58.814 E.0217
G1 X50.027 Y58.813 E.00152
G1 X52.41 Y61.196 E.0217
M73 P30 R0
G1 X52.174 Y61.196 E.00152
G1 X49.791 Y58.813 E.0217
G1 X49.554 Y58.813 E.00152
G1 X51.937 Y61.196 E.0217
G1 X51.701 Y61.196 E.00152
G1 X49.317 Y58.813 E.0217
G1 X49.08 Y58.812 E.00152
G1 X51.464 Y61.196 E.02171
G1 X51.228 Y61.196 E.00152
G1 X48.844 Y58.812 E.02171
G1 X48.607 Y58.812 E.00152
G1 X50.991 Y61.196 E.02171
M73 P31 R0
G1 X50.755 Y61.196 E.00152
G1 X48.37 Y58.811 E.02171
G1 X48.133 Y58.811 E.00152
G1 X50.518 Y61.196 E.02172
G1 X50.282 Y61.196 E.00152
G1 X47.896 Y58.811 E.02172
G1 X47.66 Y58.811 E.00152
G1 X50.045 Y61.196 E.02172
G1 X49.809 Y61.196 E.00152
G1 X47.423 Y58.81 E.02172
G1 X47.186 Y58.81 E.00152
G1 X49.572 Y61.196 E.02173
M73 P32 R0
G1 X49.336 Y61.196 E.00152
G1 X46.949 Y58.81 E.02173
G1 X46.713 Y58.81 E.00152
G1 X49.099 Y61.196 E.02173
G1 X48.863 Y61.196 E.00152
G1 X46.476 Y58.809 E.02173
G1 X46.239 Y58.809 E.00152
G1 X48.626 Y61.196 E.02174
G1 X48.39 Y61.196 E.00152
G1 X46.002 Y58.809 E.02174
M73 P33 R0
G1 X45.765 Y58.809 E.00152
G1 X48.153 Y61.196 E.02174
G1 X47.917 Y61.196 E.00152
G1 X45.529 Y58.808 E.02174
G1 X45.292 Y58.808 E.00152
G1 X47.68 Y61.196 E.02175
G1 X47.443 Y61.196 E.00152
G1 X45.188 Y58.941 E.02054
G1 X45.24 Y59.229 E.00189
G1 X47.207 Y61.196 E.01791
G1 X46.97 Y61.196 E.00152
G1 X45.293 Y59.518 E.01528
M73 P34 R0
G1 X45.345 Y59.807 E.00189
G1 X46.734 Y61.196 E.01265
G1 X46.497 Y61.196 E.00152
G1 X45.433 Y60.131 E.0097
G1 X45.563 Y60.498 E.00251
G1 X46.261 Y61.196 E.00635
G1 X46.024 Y61.196 E.00152
G1 X45.57 Y60.742 E.00413
; stop printing object luffyred.stl id:0 copy 0
;LAYER_CHANGE
;Z:0.2
;HEIGHT:0.1
;BEFORE_LAYER_CHANGE
;0.2
G92 E0

EXCLUDE_OBJECT_END NAME=luffyred.stl_id_0_copy_0
;AFTER_LAYER_CHANGE
;0.2
SET_VELOCITY_LIMIT ACCEL=5000 ACCEL_TO_DECEL=2500
M140 S110 ; set bed temperature
; printing object luffyred.stl id:0 copy 0
SET_VELOCITY_LIMIT ACCEL=6000 ACCEL_TO_DECEL=3000
SET_VELOCITY_LIMIT SQUARE_CORNER_VELOCITY=12
G1 E-.5 F3000
EXCLUDE_OBJECT_START NAME=luffyred.stl_id_0_copy_0
G1 Z.3 F21000
G1 X44.625 Y58.332 Z.3
G1 Z.2
G1 E.5 F1800
SET_VELOCITY_LIMIT ACCEL=3000 ACCEL_TO_DECEL=1500
SET_VELOCITY_LIMIT SQUARE_CORNER_VELOCITY=7
;TYPE:Outer wall
;WIDTH:0.149999
G1 F7200
G1 X75.393 Y58.366 E.15225
G1 X75.117 Y59.921 E.00782
G1 X75.097 Y60.03 E.00055
G1 X74.512 Y61.671 E.00862
M73 P35 R0
G1 X45.476 Y61.672 E.14369
G1 X44.913 Y60.089 E.00831
G1 X44.602 Y58.376 E.00861
G1 X44.618 Y58.345 E.00017
SET_VELOCITY_LIMIT ACCEL=6000 ACCEL_TO_DECEL=3000
SET_VELOCITY_LIMIT SQUARE_CORNER_VELOCITY=12
G1 X44.762 Y58.472 F21000
SET_VELOCITY_LIMIT ACCEL=5000 ACCEL_TO_DECEL=2500
SET_VELOCITY_LIMIT SQUARE_CORNER_VELOCITY=7
;TYPE:Inner wall
;WIDTH:0.172499
G1 F12000
G1 X75.226 Y58.506 E.17714
G1 X74.979 Y59.897 E.00822
G1 X74.962 Y59.994 E.00058
G1 X74.413 Y61.532 E.00949
G1 X45.574 Y61.532 E.16769
G1 X45.048 Y60.052 E.00913
M73 P36 R0
G1 X44.764 Y58.487 E.00925
SET_VELOCITY_LIMIT ACCEL=6000 ACCEL_TO_DECEL=3000
SET_VELOCITY_LIMIT SQUARE_CORNER_VELOCITY=12
G1 X44.943 Y58.623 F21000
SET_VELOCITY_LIMIT ACCEL=5000 ACCEL_TO_DECEL=2500
SET_VELOCITY_LIMIT SQUARE_CORNER_VELOCITY=7
G1 F12000
G1 X75.046 Y58.656 E.17504
G1 X74.83 Y59.87 E.00717
G1 X74.815 Y59.956 E.0005
G1 X74.307 Y61.381 E.0088
G1 X45.681 Y61.381 E.16645
G1 X45.195 Y60.013 E.00844
G1 X44.945 Y58.638 E.00813
SET_VELOCITY_LIMIT ACCEL=6000 ACCEL_TO_DECEL=3000
SET_VELOCITY_LIMIT SQUARE_CORNER_VELOCITY=12
G1 X73.346 Y59.939 F21000
SET_VELOCITY_LIMIT ACCEL=5000 ACCEL_TO_DECEL=2500
;TYPE:Internal solid infill
;WIDTH:0.185161
G1 F12000
G1 X46.532 Y59.917 E.16899
G1 X46.593 Y60.088 E.00115
G1 X73.401 Y60.096 E.16895
M73 P37 R0
G1 X73.457 Y59.94 E.00105
G1 X73.361 Y59.939 E.0006
SET_VELOCITY_LIMIT ACCEL=6000 ACCEL_TO_DECEL=3000
G1 X73.523 Y60.268 F21000
SET_VELOCITY_LIMIT ACCEL=5000 ACCEL_TO_DECEL=2500
;WIDTH:0.209999
G1 F12000
G1 X73.701 Y59.767 E.00386
G1 X46.277 Y59.737 E.19906
G1 X46.466 Y60.268 E.00409
G1 X73.508 Y60.268 E.19628
SET_VELOCITY_LIMIT ACCEL=6000 ACCEL_TO_DECEL=3000
G1 X73.656 Y60.457 F21000
SET_VELOCITY_LIMIT ACCEL=5000 ACCEL_TO_DECEL=2500
G1 F12000
G1 X73.919 Y59.718 E.00569
G1 X73.944 Y59.579 E.00102
G1 X46.049 Y59.548 E.20247
G2 X46.333 Y60.457 I7.852 J-1.952 E.00691
G1 X73.641 Y60.457 E.19821
SET_VELOCITY_LIMIT ACCEL=6000 ACCEL_TO_DECEL=3000
M73 P38 R0
G1 X73.788 Y60.645 F21000
SET_VELOCITY_LIMIT ACCEL=5000 ACCEL_TO_DECEL=2500
G1 F12000
G1 X74.102 Y59.766 E.00677
G1 X74.169 Y59.391 E.00277
G1 X45.824 Y59.36 E.20574
G1 X45.918 Y59.852 E.00364
G1 X46.2 Y60.645 E.00611
G1 X73.773 Y60.645 E.20014
SET_VELOCITY_LIMIT ACCEL=6000 ACCEL_TO_DECEL=3000
G1 X73.921 Y60.834 F21000
SET_VELOCITY_LIMIT ACCEL=5000 ACCEL_TO_DECEL=2500
G1 F12000
G1 X74.285 Y59.815 E.00785
G1 X74.393 Y59.203 E.00451
G1 X45.598 Y59.171 E.20901
G1 X45.725 Y59.872 E.00517
G1 X46.067 Y60.834 E.00741
G1 X73.906 Y60.834 E.20207
SET_VELOCITY_LIMIT ACCEL=6000 ACCEL_TO_DECEL=3000
M73 P39 R0
G1 X74.054 Y61.022 F21000
SET_VELOCITY_LIMIT ACCEL=5000 ACCEL_TO_DECEL=2500
G1 F12000
G1 X74.468 Y59.863 E.00893
G1 X74.618 Y59.014 E.00626
G1 X45.372 Y58.982 E.21229
G1 X45.542 Y59.921 E.00693
G1 X45.934 Y61.022 E.00849
G1 X74.039 Y61.022 E.204
SET_VELOCITY_LIMIT ACCEL=6000 ACCEL_TO_DECEL=3000
G1 X74.187 Y61.211 F21000
SET_VELOCITY_LIMIT ACCEL=5000 ACCEL_TO_DECEL=2500
G1 F12000
G1 X74.651 Y59.912 E.01001
G1 X74.843 Y58.826 E.00801
G1 X45.146 Y58.793 E.21556
G1 X45.359 Y59.97 E.00868
M73 P40 R0
G1 X45.801 Y61.211 E.00956
G1 X74.172 Y61.211 E.20593
; stop printing object luffyred.stl id:0 copy 0
;LAYER_CHANGE
;Z:0.3
;HEIGHT:0.1
;BEFORE_LAYER_CHANGE
;0.3
G92 E0

EXCLUDE_OBJECT_END NAME=luffyred.stl_id_0_copy_0
;AFTER_LAYER_CHANGE
;0.3
; printing object luffyred.stl id:0 copy 0
SET_VELOCITY_LIMIT ACCEL=6000 ACCEL_TO_DECEL=3000
G1 E-.5 F3000
EXCLUDE_OBJECT_START NAME=luffyred.stl_id_0_copy_0
G1 Z.4 F21000
G1 X44.625 Y58.332 Z.4
G1 Z.3
G1 E.5 F1800
SET_VELOCITY_LIMIT ACCEL=3000 ACCEL_TO_DECEL=1500
SET_VELOCITY_LIMIT SQUARE_CORNER_VELOCITY=7
;TYPE:Outer wall
;WIDTH:0.149999
G1 F7200
G1 X75.393 Y58.366 E.15225
G1 X75.117 Y59.921 E.00782
G1 X75.097 Y60.03 E.00055
G1 X74.512 Y61.671 E.00862
G1 X45.476 Y61.672 E.14369
M73 P41 R0
G1 X44.913 Y60.089 E.00831
G1 X44.602 Y58.376 E.00861
G1 X44.618 Y58.345 E.00017
SET_VELOCITY_LIMIT ACCEL=6000 ACCEL_TO_DECEL=3000
SET_VELOCITY_LIMIT SQUARE_CORNER_VELOCITY=12
G1 X44.762 Y58.472 F21000
SET_VELOCITY_LIMIT ACCEL=5000 ACCEL_TO_DECEL=2500
SET_VELOCITY_LIMIT SQUARE_CORNER_VELOCITY=7
;TYPE:Inner wall
;WIDTH:0.172499
G1 F12000
G1 X75.226 Y58.506 E.17714
G1 X74.979 Y59.897 E.00822
G1 X74.962 Y59.994 E.00058
G1 X74.413 Y61.532 E.00949
G1 X45.574 Y61.532 E.16769
G1 X45.048 Y60.052 E.00913
G1 X44.764 Y58.487 E.00925
SET_VELOCITY_LIMIT ACCEL=6000 ACCEL_TO_DECEL=3000
SET_VELOCITY_LIMIT SQUARE_CORNER_VELOCITY=12
G1 X44.943 Y58.623 F21000
SET_VELOCITY_LIMIT ACCEL=5000 ACCEL_TO_DECEL=2500
