; HEADER_BLOCK_START
; generated by OrcaSlicer 1.6.3-beta on 2023-05-30 at 11:46:51
; total layer number: 150
; HEADER_BLOCK_END

; THUMBNAIL_BLOCK_START
; THUMBNAIL_BLOCK_END

; external perimeters extrusion width = 0.40mm
; perimeters extrusion width = 0.45mm
; infill extrusion width = 0.45mm
; solid infill extrusion width = 0.40mm
; top infill extrusion width = 0.40mm
; first layer extrusion width = 0.40mm

; external perimeters extrusion width = 0.40mm
; perimeters extrusion width = 0.45mm
; infill extrusion width = 0.45mm
; solid infill extrusion width = 0.40mm
; top infill extrusion width = 0.40mm
; first layer extrusion width = 0.40mm

; external perimeters extrusion width = 0.40mm
; perimeters extrusion width = 0.45mm
; infill extrusion width = 0.45mm
; solid infill extrusion width = 0.40mm
; top infill extrusion width = 0.40mm
; first layer extrusion width = 0.40mm

; external perimeters extrusion width = 0.40mm
; perimeters extrusion width = 0.45mm
; infill extrusion width = 0.45mm
; solid infill extrusion width = 0.40mm
; top infill extrusion width = 0.40mm
; first layer extrusion width = 0.40mm

; EXECUTABLE_BLOCK_START
EXCLUDE_OBJECT_DEFINE NAME=m3x30standoff.stl_id_0_copy_0 CENTER=65,65 POLYGON=[[62.5,65],[62.5157,64.7201],[62.5627,64.4437],[62.6403,64.1743],[62.7476,63.9153],[62.8832,63.6699],[63.0454,63.4413],[63.2322,63.2322],[63.4413,63.0454],[63.6699,62.8832],[63.9153,62.7476],[64.1743,62.6403],[64.4437,62.5627],[64.7201,62.5157],[65,62.5],[65.2799,62.5157],[65.5563,62.5627],[65.8257,62.6403],[66.0847,62.7476],[66.3301,62.8832],[66.5587,63.0454],[66.7678,63.2322],[66.9546,63.4413],[67.1168,63.6699],[67.2524,63.9153],[67.3597,64.1743],[67.4373,64.4437],[67.4843,64.7201],[67.5,65],[67.4843,65.2799],[67.4373,65.5563],[67.3597,65.8257],[67.2524,66.0847],[67.1168,66.3301],[66.9546,66.5587],[66.7678,66.7678],[66.5587,66.9546],[66.3301,67.1168],[66.0847,67.2524],[65.8257,67.3597],[65.5563,67.4373],[65.2799,67.4843],[65,67.5],[64.7201,67.4843],[64.4437,67.4373],[64.1743,67.3597],[63.9153,67.2524],[63.6699,67.1168],[63.4413,66.9546],[63.2322,66.7678],[63.0454,66.5587],[62.8832,66.3301],[62.7476,66.0847],[62.6403,65.8257],[62.5627,65.5563],[62.5157,65.2799],[62.5,65]]
EXCLUDE_OBJECT_DEFINE NAME=m3x30standoff.stl_id_1_copy_0 CENTER=55,65 POLYGON=[[52.5,65],[52.5157,64.7201],[52.5627,64.4437],[52.6403,64.1743],[52.7476,63.9153],[52.8832,63.6699],[53.0454,63.4413],[53.2322,63.2322],[53.4413,63.0454],[53.6699,62.8832],[53.9153,62.7476],[54.1743,62.6403],[54.4437,62.5627],[54.7201,62.5157],[55,62.5],[55.2799,62.5157],[55.5563,62.5627],[55.8257,62.6403],[56.0847,62.7476],[56.3301,62.8832],[56.5587,63.0454],[56.7678,63.2322],[56.9546,63.4413],[57.1168,63.6699],[57.2524,63.9153],[57.3597,64.1743],[57.4373,64.4437],[57.4843,64.7201],[57.5,65],[57.4843,65.2799],[57.4373,65.5563],[57.3597,65.8257],[57.2524,66.0847],[57.1168,66.3301],[56.9546,66.5587],[56.7678,66.7678],[56.5587,66.9546],[56.3301,67.1168],[56.0847,67.2524],[55.8257,67.3597],[55.5563,67.4373],[55.2799,67.4843],[55,67.5],[54.7201,67.4843],[54.4437,67.4373],[54.1743,67.3597],[53.9153,67.2524],[53.6699,67.1168],[53.4413,66.9546],[53.2322,66.7678],[53.0454,66.5587],[52.8832,66.3301],[52.7476,66.0847],[52.6403,65.8257],[52.5627,65.5563],[52.5157,65.2799],[52.5,65]]
EXCLUDE_OBJECT_DEFINE NAME=m3x30standoff.stl_id_2_copy_0 CENTER=55,55 POLYGON=[[52.5,55],[52.5157,54.7201],[52.5627,54.4437],[52.6403,54.1743],[52.7476,53.9153],[52.8832,53.6699],[53.0454,53.4413],[53.2322,53.2322],[53.4413,53.0454],[53.6699,52.8832],[53.9153,52.7476],[54.1743,52.6403],[54.4437,52.5627],[54.7201,52.5157],[55,52.5],[55.2799,52.5157],[55.5563,52.5627],[55.8257,52.6403],[56.0847,52.7476],[56.3301,52.8832],[56.5587,53.0454],[56.7678,53.2322],[56.9546,53.4413],[57.1168,53.6699],[57.2524,53.9153],[57.3597,54.1743],[57.4373,54.4437],[57.4843,54.7201],[57.5,55],[57.4843,55.2799],[57.4373,55.5563],[57.3597,55.8257],[57.2524,56.0847],[57.1168,56.3301],[56.9546,56.5587],[56.7678,56.7678],[56.5587,56.9546],[56.3301,57.1168],[56.0847,57.2524],[55.8257,57.3597],[55.5563,57.4373],[55.2799,57.4843],[55,57.5],[54.7201,57.4843],[54.4437,57.4373],[54.1743,57.3597],[53.9153,57.2524],[53.6699,57.1168],[53.4413,56.9546],[53.2322,56.7678],[53.0454,56.5587],[52.8832,56.3301],[52.7476,56.0847],[52.6403,55.8257],[52.5627,55.5563],[52.5157,55.2799],[52.5,55]]
EXCLUDE_OBJECT_DEFINE NAME=m3x30standoff.stl_id_3_copy_0 CENTER=65,55 POLYGON=[[62.5,55],[62.5157,54.7201],[62.5627,54.4437],[62.6403,54.1743],[62.7476,53.9153],[62.8832,53.6699],[63.0454,53.4413],[63.2322,53.2322],[63.4413,53.0454],[63.6699,52.8832],[63.9153,52.7476],[64.1743,52.6403],[64.4437,52.5627],[64.7201,52.5157],[65,52.5],[65.2799,52.5157],[65.5563,52.5627],[65.8257,52.6403],[66.0847,52.7476],[66.3301,52.8832],[66.5587,53.0454],[66.7678,53.2322],[66.9546,53.4413],[67.1168,53.6699],[67.2524,53.9153],[67.3597,54.1743],[67.4373,54.4437],[67.4843,54.7201],[67.5,55],[67.4843,55.2799],[67.4373,55.5563],[67.3597,55.8257],[67.2524,56.0847],[67.1168,56.3301],[66.9546,56.5587],[66.7678,56.7678],[66.5587,56.9546],[66.3301,57.1168],[66.0847,57.2524],[65.8257,57.3597],[65.5563,57.4373],[65.2799,57.4843],[65,57.5],[64.7201,57.4843],[64.4437,57.4373],[64.1743,57.3597],[63.9153,57.2524],[63.6699,57.1168],[63.4413,56.9546],[63.2322,56.7678],[63.0454,56.5587],[62.8832,56.3301],[62.7476,56.0847],[62.6403,55.8257],[62.5627,55.5563],[62.5157,55.2799],[62.5,55]]
M73 P0 R12
;TYPE:Custom
START_PRINT T_BED=110 T_EXTRUDER=260
G90
G21
M83 ; use relative distances for extrusion
; Filament gcode

    PRESSURE_ADVANCE_SELECT FILAMENT=ABS
M106 S0
;LAYER_CHANGE
;Z:0.2
;HEIGHT:0.2
;BEFORE_LAYER_CHANGE
;0.2
G92 E0

;AFTER_LAYER_CHANGE
;0.2
SET_VELOCITY_LIMIT ACCEL_TO_DECEL=500
M204 S1000
G1 E-.5 F3000
G1 Z.2 F21000
G1 X47.844 Y47.638
G1 E.5 F1800
;TYPE:Skirt
;WIDTH:0.4
G1 F3000
G1 X48.38 Y47.1 E.02088
G1 X49.306 Y46.408 E.03178
G1 X50.256 Y45.847 E.03035
G1 X52.081 Y45.115 E.05407
G1 X53.108 Y44.865 E.02904
G1 X54.382 Y44.712 E.0353
G1 X65.543 Y44.707 E.30685
G1 X66.849 Y44.857 E.03614
G1 X68.167 Y45.191 E.03739
G1 X70.021 Y45.999 E.0556
G1 X71.189 Y46.755 E.03825
G1 X72.433 Y47.859 E.04573
G1 X73.185 Y48.736 E.03178
G1 X73.948 Y49.879 E.03777
G1 X74.643 Y51.361 E.04501
G1 X75.166 Y53.297 E.05513
G1 X75.305 Y54.703 E.03886
G1 X75.306 Y65.264 E.29035
G1 X75.217 Y66.359 E.0302
G1 X75.001 Y67.494 E.03178
G1 X74.659 Y68.598 E.03178
G1 X74.104 Y69.839 E.03739
G1 X73.393 Y70.984 E.03704
G1 X72.67 Y71.886 E.03178
G1 X71.851 Y72.701 E.03178
G1 X71.018 Y73.368 E.02935
G1 X70.119 Y73.949 E.02942
G1 X68.921 Y74.533 E.03664
G1 X67.831 Y74.911 E.03172
G1 X66.793 Y75.15 E.02927
G1 X64.794 Y75.305 E.05514
G1 X54.49 Y75.295 E.2833
G1 X53.439 Y75.191 E.02904
G1 X52.124 Y74.898 E.03704
G1 X51.034 Y74.514 E.03178
G1 X49.994 Y74.01 E.03178
G1 X49.091 Y73.445 E.02927
G1 X48.183 Y72.731 E.03178
G1 X47.231 Y71.777 E.03704
G1 X46.58 Y70.945 E.02904
G1 X45.96 Y69.95 E.03225
G1 X45.468 Y68.921 E.03136
G1 X45.089 Y67.831 E.03173
G1 X44.834 Y66.703 E.03178
G1 X44.695 Y65.3 E.03877
G1 X44.715 Y54.28 E.30299
G1 X44.843 Y53.249 E.02857
G1 X45.102 Y52.124 E.03173
G1 X45.452 Y51.118 E.02927
G1 X45.946 Y50.074 E.03178
G1 X47.071 Y48.414 E.05514
G1 X47.802 Y47.681 E.02845
G1 X48.052 Y47.93 F21000
G1 F3000
G1 X48.597 Y47.383 E.02124
G1 X49.491 Y46.714 E.03068
G1 X50.412 Y46.169 E.02944
G1 X52.168 Y45.461 E.05206
G1 X53.168 Y45.217 E.0283
G1 X54.389 Y45.069 E.03381
G1 X65.51 Y45.062 E.30576
G1 X66.79 Y45.209 E.03542
G1 X68.043 Y45.526 E.03555
G1 X69.86 Y46.318 E.05449
G1 X70.966 Y47.035 E.03625
G1 X72.186 Y48.117 E.04481
G1 X72.911 Y48.964 E.03068
G1 X73.635 Y50.051 E.03592
G1 X74.304 Y51.473 E.04319
G1 X74.816 Y53.37 E.05403
G1 X74.948 Y54.703 E.03683
G1 X74.949 Y65.264 E.29035
G1 X74.862 Y66.326 E.02931
G1 X74.651 Y67.422 E.03068
G1 X74.319 Y68.487 E.03068
G1 X73.791 Y69.667 E.03555
G1 X73.094 Y70.788 E.0363
G1 X72.395 Y71.658 E.03068
G1 X71.001 Y72.94 E.05206
G1 X69.946 Y73.637 E.03475
G1 X68.772 Y74.208 E.03592
G1 X67.719 Y74.572 E.03063
G1 X66.746 Y74.796 E.02745
G1 X64.786 Y74.948 E.05403
G1 X54.522 Y74.939 E.2822
G1 X53.498 Y74.839 E.0283
G1 X52.209 Y74.551 E.0363
G1 X51.158 Y74.179 E.03068
G1 X50.154 Y73.691 E.03068
G1 X49.308 Y73.161 E.02745
G1 X48.43 Y72.473 E.03068
G1 X47.496 Y71.539 E.0363
G1 X46.863 Y70.728 E.0283
G1 X46.265 Y69.766 E.03114
G1 X45.792 Y68.772 E.03027
G1 X45.428 Y67.719 E.03064
G1 X45.184 Y66.63 E.03068
G1 X45.052 Y65.3 E.03675
G1 X45.072 Y54.3 E.30243
G1 X45.197 Y53.295 E.02784
G1 X45.449 Y52.209 E.03064
G1 X45.777 Y51.266 E.02745
G1 X46.253 Y50.257 E.03068
G1 X47.355 Y48.63 E.05403
G1 X48.01 Y47.973 E.02551
; printing object m3x30standoff.stl id:0 copy 0
EXCLUDE_OBJECT_START NAME=m3x30standoff.stl_id_0_copy_0
G1 E-.5
G1 Z.4 F21000
G1 X59.802 Y59.714
G1 Z.2
G1 E.5 F1800
;TYPE:Brim
G1 F3000
G1 X59.939 Y59.577 E.00533
G1 X60.582 Y59.042 E.02301
G1 X60.809 Y58.88 E.00765
G1 X61.523 Y58.448 E.02296
G1 X62.279 Y58.1 E.02287
G1 X63.07 Y57.838 E.02292
G1 X63.601 Y57.716 E.01498
G1 X64.139 Y57.639 E.01494
G1 X64.397 Y57.712 E.00738
G1 X64.673 Y57.759 E.00771
G1 X64.984 Y57.778 E.00855
G1 X65.327 Y57.759 E.00943
G1 X65.603 Y57.712 E.00771
G1 X65.866 Y57.638 E.00752
G1 X66.084 Y57.662 E.00603
G1 X66.901 Y57.83 E.02292
G1 X67.692 Y58.088 E.02287
G1 X68.459 Y58.439 E.0232
G1 X68.707 Y58.575 E.00778
G1 X69.395 Y59.025 E.02259
G1 X70.037 Y59.555 E.02291
G1 X70.423 Y59.939 E.01496
G1 X70.956 Y60.58 E.02291
G1 X71.42 Y61.285 E.0232
G1 X71.557 Y61.532 E.00778
G1 X71.9 Y62.279 E.02259
G1 X72.162 Y63.07 E.02291
G1 X72.284 Y63.6 E.01496
G1 X72.395 Y64.426 E.02292
G1 X72.413 Y65.258 E.02287
G1 X72.337 Y66.086 E.02287
G1 X72.17 Y66.901 E.02287
G1 X71.912 Y67.692 E.02287
G1 X71.566 Y68.452 E.02296
G1 X71.432 Y68.695 E.00765
G1 X70.975 Y69.395 E.02296
G1 X70.446 Y70.036 E.02287
G1 X69.846 Y70.615 E.02292
G1 X69.422 Y70.955 E.01496
G1 X68.714 Y71.421 E.0233
G1 X68.465 Y71.558 E.00781
G1 X67.721 Y71.9 E.02252
G1 X66.93 Y72.162 E.02291
G1 X66.4 Y72.284 E.01496
G1 X65.574 Y72.395 E.02292
G1 X64.742 Y72.413 E.02287
G1 X63.914 Y72.337 E.02287
G1 X63.099 Y72.17 E.02287
G1 X62.308 Y71.912 E.02287
G1 X61.548 Y71.566 E.02296
G1 X61.305 Y71.432 E.00765
G1 X60.605 Y70.975 E.02296
G1 X59.964 Y70.446 E.02287
G1 X59.385 Y69.846 E.02292
G1 X59.045 Y69.422 E.01496
G1 X58.58 Y68.715 E.02325
G1 X58.443 Y68.468 E.00778
G1 X58.1 Y67.721 E.02259
G1 X57.838 Y66.93 E.02291
G1 X57.716 Y66.399 E.01498
G1 X57.639 Y65.863 E.0149
G1 X57.712 Y65.603 E.00742
G1 X57.759 Y65.327 E.00771
G1 X57.778 Y65.016 E.00856
G1 X57.759 Y64.673 E.00943
G1 X57.712 Y64.397 E.00771
G1 X57.638 Y64.135 E.0075
G1 X57.663 Y63.911 E.00619
G1 X57.83 Y63.099 E.02278
G1 X58.089 Y62.305 E.02296
G1 X58.195 Y62.048 E.00765
G1 X58.57 Y61.302 E.02296
G1 X59.025 Y60.605 E.02287
G1 X59.555 Y59.963 E.02292
G1 X59.76 Y59.757 E.00798
G1 X60.013 Y60.009 F21000
G1 F3000
G1 X60.184 Y59.838 E.00666
G1 X60.804 Y59.322 E.02215
G1 X61.008 Y59.177 E.00691
G1 X61.696 Y58.761 E.02209
G1 X62.416 Y58.431 E.02177
G1 X63.171 Y58.181 E.02188
G1 X63.662 Y58.068 E.01384
G1 X64.092 Y58.007 E.01196
G1 X64.611 Y58.11 E.01454
G1 X64.956 Y58.134 E.00952
G1 X65.39 Y58.11 E.01195
G1 X65.882 Y58.004 E.01384
G1 X66.023 Y58.015 E.00389
G1 X66.803 Y58.175 E.02189
G1 X67.556 Y58.419 E.02176
G1 X68.295 Y58.756 E.02232
G1 X68.519 Y58.88 E.00704
G1 X69.178 Y59.309 E.02162
G1 X69.793 Y59.817 E.02193
G1 X70.162 Y60.184 E.01432
G1 X70.665 Y60.788 E.0216
G1 X71.112 Y61.466 E.02233
G1 X71.24 Y61.697 E.00726
G1 X71.569 Y62.416 E.02173
G1 X71.819 Y63.171 E.02188
G1 X71.933 Y63.669 E.01404
G1 X72.039 Y64.46 E.02194
G1 X72.055 Y65.251 E.02177
G1 X71.984 Y66.028 E.02144
G1 X71.825 Y66.803 E.02177
G1 X71.58 Y67.556 E.02177
G1 X71.248 Y68.288 E.02209
G1 X71.127 Y68.508 E.00691
G1 X70.691 Y69.178 E.02198
G1 X70.187 Y69.789 E.02177
G1 X69.614 Y70.344 E.02194
G1 X69.216 Y70.663 E.01403
G1 X68.533 Y71.113 E.02249
G1 X68.301 Y71.241 E.00729
G1 X67.584 Y71.569 E.02166
G1 X66.829 Y71.819 E.02188
G1 X66.331 Y71.933 E.01404
G1 X65.54 Y72.039 E.02194
G1 X64.749 Y72.055 E.02177
G1 X63.972 Y71.984 E.02144
G1 X63.197 Y71.825 E.02177
G1 X62.444 Y71.58 E.02177
G1 X61.712 Y71.248 E.02209
G1 X61.492 Y71.127 E.00691
G1 X60.822 Y70.691 E.02198
G1 X60.211 Y70.187 E.02177
G1 X59.656 Y69.614 E.02194
G1 X59.337 Y69.216 E.01404
G1 X58.888 Y68.534 E.02244
G1 X58.76 Y68.303 E.00726
G1 X58.431 Y67.584 E.02173
G1 X58.181 Y66.829 E.02188
G1 X58.068 Y66.338 E.01385
G1 X58.006 Y65.909 E.01191
G1 X58.11 Y65.389 E.01458
G1 X58.134 Y65.044 E.00953
G1 X58.116 Y64.659 E.0106
G1 X58.065 Y64.342 E.00882
G1 X58.006 Y64.124 E.00621
G1 X58.015 Y63.972 E.00419
G1 X58.175 Y63.197 E.02175
G1 X58.423 Y62.433 E.02209
G1 X58.522 Y62.193 E.00713
G1 X58.883 Y61.475 E.02209
G1 X59.317 Y60.813 E.02177
G1 X59.817 Y60.207 E.02161
G1 X59.971 Y60.052 E.00601
G1 X60.224 Y60.304 F21000
G1 F3000
G1 X60.429 Y60.098 E.00799
G1 X61.025 Y59.603 E.0213
G1 X61.208 Y59.473 E.00616
G1 X61.869 Y59.075 E.02123
G1 X62.552 Y58.762 E.02066
G1 X63.272 Y58.524 E.02085
G1 X63.723 Y58.42 E.0127
G1 X64.064 Y58.371 E.00948
G1 X64.592 Y58.467 E.01476
G1 X64.982 Y58.49 E.01074
G1 X65.403 Y58.467 E.0116
G1 X65.981 Y58.371 E.01612
G1 X66.718 Y58.522 E.02067
G1 X67.42 Y58.751 E.02032
G1 X68.131 Y59.074 E.02145
G1 X68.332 Y59.184 E.0063
G1 X68.961 Y59.594 E.02066
G1 X69.549 Y60.079 E.02095
G1 X69.902 Y60.429 E.01367
G1 X70.374 Y60.996 E.02029
G1 X70.804 Y61.648 E.02145
G1 X70.922 Y61.862 E.00674
G1 X71.238 Y62.552 E.02087
G1 X71.476 Y63.272 E.02085
G1 X71.582 Y63.738 E.01313
G1 X71.682 Y64.493 E.02095
G1 X71.697 Y65.233 E.02034
G1 X71.631 Y65.97 E.02034
G1 X71.481 Y66.706 E.02067
G1 X71.249 Y67.421 E.02066
G1 X70.93 Y68.124 E.02123
G1 X70.823 Y68.321 E.00616
G1 X70.406 Y68.961 E.02101
G1 X69.928 Y69.541 E.02066
G1 X69.381 Y70.072 E.02095
G1 X69.009 Y70.371 E.01311
M73 P1 R12
G1 X68.351 Y70.804 E.02167
G1 X68.136 Y70.924 E.00677
G1 X67.448 Y71.238 E.0208
G1 X66.728 Y71.476 E.02085
G1 X66.262 Y71.582 E.01313
G1 X65.507 Y71.682 E.02096
G1 X64.767 Y71.697 E.02034
G1 X64.03 Y71.631 E.02034
G1 X63.294 Y71.481 E.02066
G1 X62.579 Y71.249 E.02066
G1 X61.876 Y70.93 E.02123
G1 X61.679 Y70.823 E.00616
G1 X61.039 Y70.406 E.02101
G1 X60.459 Y69.928 E.02066
G1 X59.928 Y69.381 E.02095
G1 X59.629 Y69.009 E.01312
G1 X59.196 Y68.353 E.02162
G1 X59.078 Y68.138 E.00674
G1 X58.762 Y67.448 E.02087
G1 X58.524 Y66.728 E.02085
G1 X58.42 Y66.277 E.01272
G1 X58.371 Y65.937 E.00943
G1 X58.459 Y65.466 E.01318
G1 X58.49 Y65.02 E.01228
G1 X58.467 Y64.597 E.01166
G1 X58.372 Y64.012 E.01631
G1 X58.522 Y63.283 E.02046
G1 X58.757 Y62.56 E.02089
G1 X58.849 Y62.338 E.0066
G1 X59.197 Y61.649 E.02122
G1 X59.601 Y61.03 E.02034
G1 X60.079 Y60.451 E.02063
G1 X60.182 Y60.347 E.00404
G1 X60.435 Y60.599 F21000
G1 F3000
G1 X60.675 Y60.359 E.00931
G1 X61.251 Y59.88 E.0206
G1 X62.03 Y59.395 E.02522
G1 X62.678 Y59.097 E.01961
G1 X63.364 Y58.87 E.01987
G1 X63.784 Y58.773 E.01186
G1 X64.074 Y58.736 E.00805
G1 X64.522 Y58.817 E.01251
G1 X65.008 Y58.846 E.01337
G1 X65.467 Y58.818 E.01266
G1 X65.994 Y58.738 E.01465
G1 X66.62 Y58.867 E.01758
G1 X67.298 Y59.087 E.0196
G1 X68.139 Y59.486 E.02558
G1 X68.744 Y59.879 E.01986
G1 X69.306 Y60.34 E.01996
G1 X69.641 Y60.675 E.01303
G1 X70.09 Y61.215 E.01931
G1 X70.496 Y61.829 E.02024
G1 X70.605 Y62.027 E.00621
G1 X70.907 Y62.688 E.02
G1 X71.13 Y63.363 E.01954
G1 X71.231 Y63.806 E.01249
G1 X71.325 Y64.514 E.01965
G1 X71.34 Y65.214 E.01925
G1 X71.278 Y65.912 E.01925
G1 X71.136 Y66.609 E.01956
G1 X70.912 Y67.299 E.01993
G1 X70.521 Y68.128 E.02522
G1 X70.12 Y68.744 E.02021
G1 X69.669 Y69.294 E.01956
G1 X69.148 Y69.801 E.01997
G1 X68.794 Y70.085 E.01247
G1 X68.17 Y70.496 E.02057
G1 X67.971 Y70.606 E.00624
G1 X67.312 Y70.907 E.01993
G1 X66.637 Y71.13 E.01954
G1 X66.194 Y71.231 E.01248
G1 X65.486 Y71.325 E.01965
G1 X64.786 Y71.34 E.01925
G1 X64.088 Y71.278 E.01925
G1 X63.391 Y71.136 E.01956
G1 X62.703 Y70.913 E.01989
G1 X62.039 Y70.612 E.02003
G1 X61.257 Y70.121 E.02539
G1 X60.706 Y69.669 E.01961
G1 X60.199 Y69.148 E.01998
G1 X59.915 Y68.794 E.01247
G1 X59.504 Y68.171 E.02053
