; HEADER_BLOCK_START
; generated by OrcaSlicer 1.6.3 on 2023-06-16 at 13:28:44
; total layer number: 82
; HEADER_BLOCK_END

; THUMBNAIL_BLOCK_START
; THUMBNAIL_BLOCK_END

; external perimeters extrusion width = 0.40mm
; perimeters extrusion width = 0.45mm
; infill extrusion width = 0.45mm
; solid infill extrusion width = 0.40mm
; top infill extrusion width = 0.40mm
; support material extrusion width = 0.40mm
; first layer extrusion width = 0.50mm

; EXECUTABLE_BLOCK_START
EXCLUDE_OBJECT_DEFINE NAME=Main-Body-RIDGA.stl_id_0_copy_0 CENTER=59.9294,60 POLYGON=[[40.1604,46.542],[40.1944,46.192],[40.2764,45.76],[40.3364,45.502],[40.5044,45],[42.0124,41.23],[42.2484,40.642],[79.6984,40.642],[79.5804,41.434],[79.3684,42.664],[73.1284,76.922],[73.0844,77.112],[73.0684,77.176],[73.0284,77.302],[72.9804,77.442],[72.9184,77.59],[72.8664,77.694],[72.8224,77.776],[72.6464,78.058],[72.5744,78.164],[72.3224,78.456],[71.8204,78.87],[71.4104,79.092],[71.2684,79.152],[70.8784,79.274],[70.6204,79.324],[70.3804,79.35],[70.1824,79.358],[57.7664,79.358],[56.8544,78.456],[40.9444,49.56],[40.6064,48.944],[40.4704,48.618],[40.2684,47.942],[40.1644,47.246],[40.1604,46.542]]
M73 P0 R27
;TYPE:Custom
START_PRINT T_BED=110 T_EXTRUDER=260
G90
G21
M83 ; use relative distances for extrusion
; Filament gcode

    PRESSURE_ADVANCE_SELECT FILAMENT=ABS
M106 S0
;LAYER_CHANGE
;Z:0.2
;HEIGHT:0.2
;BEFORE_LAYER_CHANGE
;0.2
G92 E0

;AFTER_LAYER_CHANGE
;0.2
M204 S500
; printing object Main-Body-RIDGA.stl id:0 copy 0
EXCLUDE_OBJECT_START NAME=Main-Body-RIDGA.stl_id_0_copy_0
G1 E-.5 F3000
G1 Z.2 F21000
G1 X49.328 Y37.481
G1 E.5 F1800
;TYPE:Support
;WIDTH:0.5
G1 F3000
G1 X49.472 Y37.318 E.00762
G1 X49.787 Y37.022 E.01523
G1 X50.137 Y36.768 E.01523
G1 X50.516 Y36.559 E.01523
G1 X50.715 Y36.474 E.00762
G1 X51.126 Y36.34 E.01523
G1 X51.551 Y36.259 E.01523
G1 X51.983 Y36.232 E.01523
G1 X52.2 Y36.238 E.00762
G1 X52.629 Y36.293 E.01523
G1 X53.048 Y36.4 E.01523
G1 X53.45 Y36.559 E.01523
G1 X53.643 Y36.658 E.00762
G1 X53.829 Y36.768 E.00762
G1 X54.179 Y37.022 E.01523
G1 X54.342 Y37.165 E.00762
G1 X54.638 Y37.481 E.01523
G1 X54.892 Y37.831 E.01523
G1 X55.002 Y38.017 E.00762
G1 X55.101 Y38.21 E.00762
G1 X55.26 Y38.612 E.01523
G1 X55.32 Y38.82 E.00762
G1 X55.401 Y39.245 E.01523
G1 X55.429 Y39.677 E.01523
G1 X55.41 Y40.014 E.01189
G1 X48.556 Y40.014 E.24123
G1 X48.538 Y39.677 E.01187
G1 X48.565 Y39.245 E.01523
G1 X48.646 Y38.82 E.01523
G1 X48.706 Y38.612 E.00762
G1 X48.866 Y38.21 E.01523
G1 X49.074 Y37.831 E.01523
G1 X49.293 Y37.529 E.01312
G1 X49.641 Y37.836 F21000
G1 F3000
G1 X49.938 Y37.499 E.01581
G1 X50.382 Y37.154 E.01979
G1 X50.711 Y36.973 E.01321
G1 X51.06 Y36.835 E.01321
G1 X51.609 Y36.712 E.01979
G1 X52.171 Y36.695 E.01979
G1 X52.726 Y36.783 E.01979
G1 X53.255 Y36.973 E.01979
G1 X53.74 Y37.26 E.01979
G1 X54.161 Y37.631 E.01979
G1 X54.506 Y38.076 E.01979
G1 X54.762 Y38.577 E.01979
G1 X54.918 Y39.117 E.01979
G1 X54.972 Y39.557 E.0156
G1 X48.995 Y39.557 E.21036
G1 X49.019 Y39.302 E.00899
G1 X49.089 Y38.934 E.01321
G1 X49.279 Y38.405 E.01979
G1 X49.566 Y37.921 E.01979
G1 X49.601 Y37.881 E.00187
G1 X49.967 Y38.165 F21000
G1 F3000
G1 X50.138 Y37.945 E.00982
G1 X50.496 Y37.63 E.01676
G1 X50.764 Y37.459 E.01119
G1 X51.201 Y37.27 E.01676
G1 X51.666 Y37.166 E.01676
G1 X52.142 Y37.151 E.01677
G1 X52.613 Y37.226 E.01676
G1 X52.915 Y37.324 E.01118
G1 X53.202 Y37.459 E.01119
G1 X53.596 Y37.727 E.01676
G1 X53.933 Y38.064 E.01676
G1 X54.12 Y38.321 E.01119
G1 X54.273 Y38.599 E.01118
G1 X54.464 Y39.1 E.01886
G1 X49.503 Y39.1 E.17461
G1 X49.693 Y38.599 E.01884
G1 X49.846 Y38.321 E.01118
G1 X49.931 Y38.212 E.00484
G1 X50.256 Y38.506 F21000
G1 F3000
G1 X50.564 Y38.165 E.01617
G1 X50.764 Y37.999 E.00916
G1 X50.984 Y37.86 E.00916
G1 X51.342 Y37.705 E.01374
G1 X51.595 Y37.64 E.00917
G1 X51.853 Y37.608 E.00916
G1 X52.113 Y37.608 E.00917
G1 X52.372 Y37.64 E.00916
G1 X52.624 Y37.705 E.00917
G1 X52.866 Y37.801 E.00916
G1 X53.094 Y37.926 E.00916
G1 X53.403 Y38.165 E.01374
G1 X53.834 Y38.643 E.02266
G1 X50.132 Y38.643 E.1303
G1 X50.215 Y38.551 E.00436
G1 E-.5
G1 Z.4 F21000
G1 X55.613 Y52.12
G1 Z.2
G1 E.5 F1800
G1 F3000
G1 X57.248 Y51.71 E.0593
G1 X59.247 Y52.008 E.07113
G1 X59.504 Y52.223 E.01179
G1 X59.793 Y52.532 E.0149
G1 X59.903 Y52.572 E.00413
G1 X60.354 Y52.513 E.01601
G1 X60.789 Y52.517 E.01529
G1 X61.319 Y52.814 E.02139
G1 X63.218 Y54.562 E.09082
G1 X63.321 Y54.592 E.00378
G1 X63.814 Y54.503 E.01764
G1 X63.882 Y54.579 E.0036
G1 X64.111 Y54.895 E.01371
G1 X64.21 Y55.062 E.00686
G1 X64.376 Y55.415 E.01371
G1 X64.496 Y55.785 E.01371
G1 X64.586 Y56.346 E.02
G1 X64.857 Y56.836 E.0197
G1 X65.001 Y57.198 E.01371
G1 X65.055 Y57.386 E.00686
G1 X65.097 Y57.576 E.00686
G1 X65.146 Y57.962 E.01371
G1 X65.146 Y58.352 E.01371
G1 X65.097 Y58.738 E.01371
G1 X65.001 Y59.116 E.01371
G1 X64.857 Y59.478 E.01371
G1 X64.669 Y59.819 E.01371
G1 X64.44 Y60.135 E.01371
G1 X64.054 Y60.524 E.01931
G1 X63.736 Y60.392 E.01213
G1 X63.611 Y60.41 E.00442
G1 X61.196 Y62.362 E.10929
G1 X59.954 Y62.955 E.04843
G1 X59.545 Y62.927 E.01445
G1 X59.461 Y62.952 E.00307
G1 X59.063 Y63.227 E.01703
G1 X57.864 Y63.406 E.04268
G1 X55.622 Y62.958 E.08047
G1 X55.329 Y62.766 E.01231
G1 X55.108 Y62.527 E.01145
G1 X54.879 Y62.212 E.01371
G1 X54.692 Y61.871 E.01371
G1 X54.548 Y61.508 E.01371
G1 X54.451 Y61.131 E.01371
G1 X54.402 Y60.745 E.01371
G1 X54.402 Y60.355 E.01371
G1 X54.451 Y59.968 E.01371
G1 X54.548 Y59.591 E.01371
G1 X54.692 Y59.229 E.01371
G1 X54.879 Y58.888 E.01371
G1 X55.108 Y58.572 E.01371
G1 X55.375 Y58.288 E.01371
G1 X55.675 Y58.04 E.01371
G1 X56.15 Y57.757 E.01948
G1 X56.132 Y57.457 E.01057
G1 X55.788 Y57.32 E.01301
G1 X55.447 Y57.133 E.01371
G1 X55.132 Y56.904 E.01371
G1 X54.985 Y56.775 E.00686
G1 X54.719 Y56.491 E.01371
G1 X54.599 Y56.337 E.00686
G1 X54.391 Y56.008 E.01371
G1 X54.302 Y55.834 E.00686
G1 X54.159 Y55.472 E.01371
G1 X54.104 Y55.285 E.00686
G1 X54.062 Y55.095 E.00686
G1 X54.013 Y54.708 E.01371
G1 X54.013 Y54.319 E.01371
G1 X54.031 Y54.125 E.00686
G1 X54.062 Y53.932 E.00686
G1 X54.159 Y53.555 E.01371
G1 X54.302 Y53.193 E.01371
G1 X54.391 Y53.019 E.00686
G1 X54.62 Y52.663 E.01489
G1 X55.561 Y52.149 E.03774
G1 X55.78 Y52.55 F21000
G1 F3000
G1 X55.781 Y52.549 E.00005
G1 X57.271 Y52.176 E.05403
G1 X59.062 Y52.443 E.06374
G1 X59.308 Y52.674 E.01189
G1 X59.528 Y52.923 E.01167
G1 X59.859 Y53.042 E.01239
G1 X60.383 Y52.969 E.01863
G1 X60.657 Y52.968 E.00965
G1 X61.049 Y53.187 E.01579
G1 X62.987 Y54.971 E.09272
G1 X63.296 Y55.061 E.01133
G1 X63.63 Y55.001 E.01193
G1 X63.809 Y55.283 E.01176
G1 X63.951 Y55.583 E.01169
G1 X64.089 Y56.061 E.01752
G1 X64.136 Y56.447 E.01368
G1 X64.195 Y56.61 E.0061
G1 X64.443 Y57.031 E.0172
G1 X64.612 Y57.499 E.01752
G1 X64.69 Y57.991 E.01752
G1 X64.69 Y58.323 E.01169
G1 X64.648 Y58.653 E.01169
G1 X64.566 Y58.974 E.01169
G1 X64.443 Y59.283 E.01169
G1 X64.283 Y59.574 E.01169
G1 X63.959 Y59.99 E.01855
G1 X63.795 Y59.922 E.00624
G1 X63.422 Y59.976 E.01327
G1 X60.95 Y61.973 E.11183
G1 X59.853 Y62.497 E.0428
G1 X59.501 Y62.464 E.01245
G1 X59.25 Y62.537 E.00921
G1 X58.909 Y62.788 E.0149
G1 X57.875 Y62.942 E.03678
G1 X55.798 Y62.527 E.07454
G1 X55.619 Y62.409 E.00754
G1 X55.359 Y62.104 E.01412
G1 X55.181 Y61.824 E.01169
G1 X55.039 Y61.523 E.01169
G1 X54.937 Y61.208 E.01169
G1 X54.874 Y60.881 E.01169
G1 X54.854 Y60.55 E.01169
G1 X54.874 Y60.218 E.01169
G1 X54.937 Y59.892 E.01169
G1 X55.105 Y59.424 E.01752
G1 X55.265 Y59.133 E.01169
G1 X55.461 Y58.864 E.01169
G1 X55.688 Y58.622 E.01169
G1 X55.944 Y58.41 E.01169
G1 X56.224 Y58.232 E.01169
G1 X56.625 Y58.028 E.01584
G1 X56.569 Y57.129 E.0317
G1 X55.983 Y56.907 E.02205
G1 X55.554 Y56.653 E.01752
G1 X55.298 Y56.441 E.01169
G1 X55.071 Y56.199 E.01169
G1 X54.791 Y55.788 E.01752
G1 X54.594 Y55.331 E.01752
G1 X54.511 Y55.009 E.01169
G1 X54.469 Y54.68 E.01169
G1 X54.485 Y54.182 E.01752
G1 X54.594 Y53.696 E.01752
G1 X54.716 Y53.387 E.01169
G1 X54.932 Y53.014 E.01519
G1 X55.727 Y52.579 E.03191
G1 X55.947 Y52.98 F21000
G1 F3000
G1 X55.949 Y52.978 E.0001
G1 X57.293 Y52.641 E.04877
G1 X58.863 Y52.875 E.05586
G1 X59.262 Y53.313 E.02085
G1 X59.814 Y53.512 E.02065
G1 X60.275 Y53.439 E.01641
G1 X60.533 Y53.422 E.00911
G1 X60.779 Y53.559 E.0099
G1 X62.757 Y55.38 E.09461
G1 X63.272 Y55.53 E.01889
G1 X63.418 Y55.503 E.00522
G1 X63.525 Y55.752 E.00952
G1 X63.61 Y56.013 E.00967
G1 X63.662 Y56.283 E.00967
G1 X63.687 Y56.547 E.00936
G1 X63.785 Y56.819 E.01016
G1 X63.967 Y57.103 E.01189
G1 X64.084 Y57.352 E.00967
G1 X64.199 Y57.747 E.01449
G1 X64.233 Y58.02 E.00967
G1 X64.233 Y58.294 E.00967
G1 X64.199 Y58.567 E.00967
G1 X64.131 Y58.833 E.00967
G1 X63.967 Y59.211 E.01449
G1 X63.81 Y59.458 E.0103
G1 X63.232 Y59.541 E.02054
G1 X60.705 Y61.583 E.11436
M73 P0 R26
G1 X59.77 Y62.03 E.03646
G1 X59.457 Y62.001 E.01106
G1 X59.039 Y62.122 E.01534
G1 X58.738 Y62.351 E.0133
G1 X57.887 Y62.478 E.0303
G1 X55.975 Y62.096 E.0686
G1 X55.908 Y62.052 E.00283
G1 X55.813 Y61.944 E.00506
G1 X55.651 Y61.722 E.00967
G1 X55.519 Y61.481 E.00967
G1 X55.418 Y61.226 E.00967
G1 X55.35 Y60.96 E.00967
G1 X55.315 Y60.687 E.00967
G1 X55.315 Y60.412 E.00967
G1 X55.35 Y60.14 E.00967
G1 X55.418 Y59.874 E.00967
G1 X55.519 Y59.618 E.00967
G1 X55.651 Y59.378 E.00967
G1 X55.904 Y59.052 E.01449
G1 X56.104 Y58.864 E.00967
G1 X56.326 Y58.703 E.00967
G1 X57.1 Y58.299 E.03073
G1 X57.006 Y56.8 E.05283
G1 X56.304 Y56.547 E.02628
G1 X55.937 Y56.36 E.01449
G1 X55.611 Y56.108 E.01449
G1 X55.423 Y55.908 E.00967
G1 X55.262 Y55.686 E.00967
G1 X55.13 Y55.445 E.00967
G1 X55.028 Y55.189 E.00967
G1 X54.939 Y54.788 E.01449
G1 X54.926 Y54.376 E.01449
G1 X54.96 Y54.103 E.00967
G1 X55.028 Y53.837 E.00967
G1 X55.13 Y53.582 E.00967
G1 X55.251 Y53.36 E.00889
G1 X55.894 Y53.008 E.02581
G1 X56.113 Y53.41 F21000
G1 F3000
G1 X56.117 Y53.407 E.00016
G1 X57.316 Y53.107 E.0435
G1 X58.646 Y53.305 E.04732
G1 X58.997 Y53.703 E.01869
G1 X59.77 Y53.981 E.02891
G1 X60.423 Y53.884 E.02322
G1 X60.508 Y53.932 E.00347
G1 X62.526 Y55.789 E.0965
G1 X63.119 Y55.961 E.02174
G1 X63.191 Y56.233 E.00988
G1 X63.237 Y56.648 E.01471
G1 X63.374 Y57.028 E.01423
G1 X63.616 Y57.42 E.01621
G1 X63.726 Y57.727 E.01146
G1 X63.777 Y58.048 E.01146
G1 X63.777 Y58.266 E.00765
G1 X63.75 Y58.481 E.00765
G1 X63.696 Y58.692 E.00765
G1 X63.544 Y59.034 E.01318
G1 X63.043 Y59.107 E.01783
G1 X60.459 Y61.194 E.11689
G1 X59.687 Y61.563 E.03012
G1 X59.414 Y61.537 E.00968
G1 X58.827 Y61.708 E.02148
G1 X58.559 Y61.916 E.01194
G1 X57.898 Y62.015 E.02354
G1 X56.179 Y61.671 E.06168
G1 X55.982 Y61.383 E.01227
G1 X55.853 Y61.084 E.01146
G1 X55.799 Y60.874 E.00765
G1 X55.772 Y60.658 E.00765
G1 X55.772 Y60.441 E.00765
G1 X55.799 Y60.226 E.00765
G1 X55.853 Y60.015 E.00765
G1 X55.933 Y59.813 E.00765
G1 X56.099 Y59.533 E.01146
G1 X56.314 Y59.288 E.01146
G1 X56.571 Y59.089 E.01146
G1 X57.575 Y58.57 E.03979
G1 X57.444 Y56.472 E.07397
G1 X56.372 Y56.079 E.04016
G1 X56.092 Y55.913 E.01146
G1 X55.848 Y55.698 E.01146
G1 X55.648 Y55.441 E.01146
G1 X55.5 Y55.15 E.01146
G1 X55.409 Y54.838 E.01146
G1 X55.382 Y54.622 E.00765
G1 X55.382 Y54.405 E.00765
G1 X55.433 Y54.083 E.01146
G1 X55.5 Y53.876 E.00765
G1 X55.583 Y53.7 E.00686
G1 X56.061 Y53.438 E.01918
G1 X56.28 Y53.839 F21000
G1 F3000
G1 X56.285 Y53.837 E.00021
G1 X57.339 Y53.572 E.03823
G1 X58.413 Y53.732 E.03823
G1 X58.732 Y54.093 E.01694
G1 X59.726 Y54.451 E.03717
G1 X60.299 Y54.36 E.02043
G1 X62.295 Y56.198 E.0955
G1 X62.748 Y56.329 E.01658
G1 X62.788 Y56.748 E.01481
G1 X62.964 Y57.237 E.01829
G1 X63.166 Y57.544 E.01292
G1 X63.261 Y57.764 E.00843
G1 X63.313 Y57.998 E.00843
G1 X63.321 Y58.237 E.00843
G1 X63.301 Y58.396 E.00563
G1 X63.242 Y58.616 E.00803
G1 X62.853 Y58.672 E.01382
G1 X60.214 Y60.805 E.11943
G1 X59.604 Y61.096 E.02378
G1 X59.37 Y61.074 E.00829
G1 X58.616 Y61.293 E.02762
G1 X58.374 Y61.481 E.0108
G1 X57.909 Y61.551 E.01652
G1 X56.438 Y61.257 E.0528
G1 X56.288 Y60.943 E.01223
G1 X56.248 Y60.788 E.00562
G1 X56.225 Y60.55 E.00843
G1 X56.248 Y60.311 E.00843
G1 X56.347 Y60.008 E.01123
G1 X56.469 Y59.802 E.00843
G1 X56.627 Y59.622 E.00843
G1 X56.885 Y59.434 E.01123
G1 X58.051 Y58.84 E.04603
G1 X57.881 Y56.144 E.0951
G1 X56.64 Y55.697 E.0464
G1 X56.496 Y55.629 E.00563
G1 X56.298 Y55.494 E.00843
G1 X56.128 Y55.325 E.00843
G1 X55.957 Y55.055 E.01123
G1 X55.859 Y54.752 E.01123
G1 X55.839 Y54.433 E.01123
G1 X55.876 Y54.197 E.00843
G1 X55.931 Y54.03 E.00616
G1 X56.227 Y53.868 E.01191
G1 X56.447 Y54.269 F21000
G1 F3000
G1 X56.453 Y54.266 E.00026
G1 X57.362 Y54.038 E.03296
G1 X58.181 Y54.16 E.02915
G1 X58.467 Y54.484 E.0152
G1 X59.681 Y54.921 E.04543
G1 X60.152 Y54.846 E.01678
G1 X62.065 Y56.607 E.09149
G1 X62.322 Y56.682 E.00943
G1 X62.338 Y56.849 E.00591
G1 X62.553 Y57.447 E.02235
G1 X62.739 Y57.72 E.01163
G1 X62.809 Y57.857 E.0054
G1 X62.883 Y58.206 E.01257
G1 X62.664 Y58.238 E.00782
G1 X59.968 Y60.416 E.12196
G1 X59.521 Y60.629 E.01743
G1 X59.326 Y60.611 E.00691
G1 X58.405 Y60.879 E.03376
G1 X58.188 Y61.047 E.00967
G1 X57.921 Y61.087 E.00951
G1 X56.73 Y60.849 E.04274
G1 X56.689 Y60.652 E.00707
G1 X56.684 Y60.499 E.0054
G1 X56.723 Y60.298 E.0072
G1 X56.784 Y60.157 E.0054
G1 X56.904 Y59.991 E.0072
G1 X57.019 Y59.89 E.0054
G1 X58.526 Y59.111 E.05968
G1 X58.318 Y55.815 E.11623
G1 X56.809 Y55.272 E.05646
G1 X56.672 Y55.202 E.0054
G1 X56.514 Y55.072 E.0072
G1 X56.371 Y54.861 E.00898
G1 X56.308 Y54.666 E.00719
G1 X56.295 Y54.462 E.0072
G1 X56.306 Y54.346 E.0041
G1 X56.394 Y54.298 E.00354
G1 X57.033 Y54.591 F21000
G1 F3000
G1 X57.384 Y54.503 E.01275
G1 X57.948 Y54.587 E.02007
G1 X58.201 Y54.874 E.01345
G1 X59.637 Y55.391 E.05369
G1 X60.005 Y55.333 E.01313
G1 X61.834 Y57.016 E.08749
G1 X61.921 Y57.041 E.00319
G1 X62.143 Y57.656 E.02298
G1 X62.325 Y57.924 E.0114
G1 X59.723 Y60.027 E.11774
G1 X59.438 Y60.162 E.01109
G1 X59.282 Y60.148 E.00552
G1 X58.194 Y60.464 E.03989
G1 X57.977 Y60.632 E.00965
G1 X57.34 Y60.505 E.02288
G1 X57.304 Y60.247 E.00915
G1 X59.001 Y59.382 E.06701
G1 X58.755 Y55.487 E.13737
G1 X57.02 Y54.862 E.06493
G1 X57.03 Y54.651 E.00742
G1 X59.229 Y55.73 F21000
G1 F3000
G1 X59.592 Y55.861 E.0136
G1 X59.858 Y55.819 E.00948
G1 X61.559 Y57.384 E.08134
G1 X61.718 Y57.826 E.01655
G1 X59.475 Y59.639 E.10151
G1 X59.233 Y55.79 E.13575
G1 X59.724 Y56.316 F21000
G1 F3000
G1 X61.19 Y57.665 E.07014
G1 X59.875 Y58.728 E.05948
G1 X59.727 Y56.376 E.08295
G1 E-.5
G1 Z.4 F21000
G1 X67.215 Y55.341
G1 Z.2
G1 E.5 F1800
G1 F3000
G1 X68.661 Y54.183 E.0652
G1 X68.569 Y55.335 E.04068
G1 X68.514 Y55.537 E.00738
G1 X68.379 Y55.726 E.00817
G1 X68.186 Y55.848 E.00802
G1 X67.947 Y55.89 E.00855
G1 X67.728 Y55.851 E.00783
G1 X67.516 Y55.74 E.00842
G1 X67.341 Y55.564 E.00874
G1 X67.244 Y55.393 E.00691
G1 X69.346 Y53.41 F21000
G1 F3000
G1 X69.597 Y52.96 E.01814
G1 X69.813 Y51.234 E.06123
G1 X70.01 Y50.98 E.01132
G1 X70.206 Y49.686 E.04606
G1 X70.056 Y49.286 E.01503
G1 X70.099 Y48.946 E.01208
G1 X71.732 Y46.805 E.09475
G1 X71.779 Y47.409 E.02133
G1 X72.034 Y47.643 E.01218
G1 X71.799 Y48.11 E.01839
G1 X71.698 Y48.428 E.01174
G1 X71.375 Y48.938 E.02124
G1 X71.257 Y49.211 E.01048
G1 X70.758 Y49.866 E.02895
G1 X70.556 Y51.141 E.04544
G1 X70.758 Y51.703 E.02102
G1 X70.79 Y51.866 E.00584
G1 X70.779 Y52.032 E.00585
G1 X70.69 Y52.581 E.01959
G1 X70.655 Y52.701 E.00439
G1 X70.549 Y52.879 E.00729
G1 X70.358 Y53.037 E.00874
G1 X69.402 Y53.389 E.03586
G1 X68.969 Y53.147 F21000
G1 F3000
G1 X69.155 Y52.815 E.01339
G1 X69.375 Y51.053 E.0625
G1 X69.576 Y50.794 E.01155
G1 X69.737 Y49.735 E.03768
G1 X69.589 Y49.341 E.01481
G1 X69.661 Y48.766 E.02039
G1 X71.039 Y46.96 E.07996
G1 X71.255 Y46.319 E.0238
G1 X71.255 Y45.997 E.01135
G1 X72.127 Y45.997 E.03069
G1 X72.221 Y47.194 E.04227
G1 X72.649 Y47.589 E.02051
G1 X72.396 Y47.94 E.01524
G1 X72.226 Y48.278 E.01332
G1 X72.112 Y48.623 E.01278
G1 X71.785 Y49.144 E.02165
G1 X71.624 Y49.488 E.01336
G1 X71.191 Y50.053 E.02505
G1 X71.026 Y51.096 E.03718
G1 X71.213 Y51.629 E.01987
G1 X71.246 Y51.837 E.00742
G1 X71.246 Y51.978 E.00495
G1 X71.139 Y52.667 E.02454
G1 X71.08 Y52.869 E.00742
G1 X71.02 Y52.996 E.00495
G1 X70.855 Y53.223 E.00988
G1 X70.639 Y53.402 E.00988
G1 X70.451 Y53.498 E.00742
G1 X69.815 Y53.727 E.0238
