; HEADER_BLOCK_START
; generated by OrcaSlicer 1.6.3 on 2023-06-16 at 15:55:21
; total layer number: 89
; HEADER_BLOCK_END

; THUMBNAIL_BLOCK_START
; THUMBNAIL_BLOCK_END

; external perimeters extrusion width = 0.40mm
; perimeters extrusion width = 0.45mm
; infill extrusion width = 0.45mm
; solid infill extrusion width = 0.40mm
; top infill extrusion width = 0.40mm
; support material extrusion width = 0.40mm
; first layer extrusion width = 0.50mm

; EXECUTABLE_BLOCK_START
EXCLUDE_OBJECT_DEFINE NAME=main_body.stl_id_0_copy_0 CENTER=60,60 POLYGON=[[40.2272,46.6415],[40.2816,46.0747],[40.4001,45.5177],[40.5811,44.9779],[42.2049,40.9184],[42.3249,40.6183],[79.6136,40.6183],[79.7728,40.6183],[79.7148,41.0183],[79.6525,41.4329],[79.5823,41.8676],[79.5704,41.9384],[79.5043,42.3164],[73.2135,76.8418],[73.1674,77.0605],[73.1605,77.0878],[73.1545,77.1105],[73.1161,77.2416],[73.1099,77.2611],[73.088,77.3261],[73.0716,77.3716],[73.0633,77.3937],[73.0178,77.5074],[72.9877,77.5761],[72.977,77.5991],[72.9652,77.6241],[72.9613,77.6324],[72.9298,77.696],[72.8362,77.8658],[72.7995,77.926],[72.6857,78.0947],[72.6848,78.096],[72.6043,78.202],[72.515,78.309],[72.3781,78.4553],[72.3254,78.5068],[72.1247,78.6815],[72.1185,78.6864],[72.0201,78.7611],[71.8961,78.8465],[71.8487,78.8768],[71.7323,78.9461],[71.6187,79.007],[71.5624,79.035],[71.5551,79.0385],[71.3872,79.1129],[71.2488,79.1652],[71.2074,79.1794],[71.1838,79.1872],[71.0236,79.2343],[71.0106,79.2377],[70.8368,79.2774],[70.7646,79.2907],[70.7261,79.2971],[70.6476,79.3084],[70.5117,79.3231],[70.4568,79.3273],[70.3901,79.331],[70.3235,79.3333],[70.2568,79.334],[60.5466,79.3817],[57.8301,79.334],[56.9303,78.434],[40.9121,49.367],[40.6522,48.8603],[40.4515,48.3275],[40.3127,47.7752],[40.2377,47.2108],[40.2272,46.6415]]
M73 P0 R26
;TYPE:Custom
START_PRINT T_BED=110 T_EXTRUDER=260
G90
G21
M83 ; use relative distances for extrusion
; Filament gcode

    PRESSURE_ADVANCE_SELECT FILAMENT=ABS
M106 S0
;LAYER_CHANGE
;Z:0.2
;HEIGHT:0.2
;BEFORE_LAYER_CHANGE
;0.2
G92 E0

;AFTER_LAYER_CHANGE
;0.2
M204 S500
; printing object main body.stl id:0 copy 0
EXCLUDE_OBJECT_START NAME=main_body.stl_id_0_copy_0
G1 E-.5 F3000
G1 Z.2 F21000
G1 X57.058 Y54.387
G1 E.5 F1800
;TYPE:Support
;WIDTH:0.5
G1 F3000
G1 X57.548 Y54.237 E.01803
G1 X58.078 Y54.219 E.01866
G1 X58.208 Y54.249 E.00471
G1 X60.345 Y55.255 E.08314
G1 X61.727 Y56.624 E.06844
G1 X62.867 Y57.071 E.04309
G1 X65.089 Y56.999 E.07824
G1 X64.908 Y57.622 E.0228
G1 X64.829 Y57.805 E.00702
G1 X64.739 Y57.957 E.00622
G1 X64.613 Y57.902 E.00483
G1 X63.509 Y57.855 E.0389
G1 X61.895 Y58.398 E.05991
G1 X61.334 Y58.739 E.02312
G1 X59.781 Y60.231 E.0758
G1 X58.924 Y60.638 E.03337
G1 X57.283 Y60.756 E.05792
G1 X57.321 Y59.533 E.04309
G1 X55.765 Y57.768 E.0828
G1 X54.802 Y57.677 E.03406
G1 X54.792 Y57.355 E.01135
G1 X55.661 Y57.217 E.03098
G1 X57.093 Y55.487 E.07902
G1 X57.06 Y54.447 E.0366
G1 X57.525 Y54.695 F21000
G1 F3000
G1 X58.043 Y54.677 E.01826
G1 X60.08 Y55.635 E.0792
G1 X61.472 Y57.015 E.06899
G1 X62.903 Y57.576 E.05409
G1 X61.702 Y57.981 E.04462
G1 X61.053 Y58.374 E.02668
G1 X59.517 Y59.85 E.07496
G1 X58.806 Y60.188 E.02773
G1 X57.756 Y60.264 E.03705
G1 X57.784 Y59.366 E.03161
G1 X56.078 Y57.431 E.0908
G1 X57.555 Y55.645 E.08156
G1 X57.527 Y54.755 E.03136
G1 X57.997 Y55.16 F21000
G1 F3000
G1 X59.814 Y56.015 E.07067
G1 X61.218 Y57.406 E.06954
G1 X61.552 Y57.537 E.01265
G1 X60.773 Y58.01 E.03207
G1 X59.254 Y59.469 E.07413
G1 X58.687 Y59.738 E.0221
G1 X58.228 Y59.771 E.01618
G1 X58.246 Y59.2 E.02014
G1 X56.679 Y57.421 E.08343
G1 X58.017 Y55.804 E.0739
G1 X57.999 Y55.22 E.02053
G1 X58.521 Y55.912 F21000
G1 F3000
G1 X59.548 Y56.396 E.03997
G1 X60.689 Y57.526 E.05653
G1 X60.493 Y57.645 E.00809
G1 X58.991 Y59.088 E.07329
G1 X58.826 Y59.166 E.00643
G1 X57.28 Y57.412 E.08231
G1 X58.482 Y55.958 E.0664
G1 X58.647 Y56.477 F21000
G1 F3000
G1 X59.282 Y56.776 E.02472
G1 X59.999 Y57.486 E.03551
G1 X58.892 Y58.549 E.05404
G1 X57.881 Y57.403 E.05381
G1 X58.608 Y56.523 E.04018
G1 X58.773 Y57.041 F21000
G1 F3000
G1 X59.017 Y57.156 E.00948
G1 X59.345 Y57.481 E.01625
G1 X58.919 Y57.889 E.02076
G1 X58.482 Y57.393 E.02328
G1 X58.735 Y57.087 E.01397
G1 X67.579 Y55.366 F21000
G1 F3000
G1 X68.294 Y54.803 E.03206
G1 X68.26 Y55.233 E.0152
G1 X68.197 Y55.394 E.00606
G1 X68.103 Y55.414 E.00338
G1 X67.638 Y55.372 E.01642
G1 X67.593 Y55.824 F21000
G1 F3000
G1 X67.144 Y55.779 E.0159
G1 X65.623 Y56.797 E.0644
G1 X65.343 Y57.763 E.0354
G1 X65.273 Y57.94 E.00671
G1 X65.069 Y58.261 E.01339
G1 X64.831 Y58.495 E.01175
G1 X64.508 Y58.355 E.01237
G1 X63.574 Y58.315 E.03291
G1 X62.089 Y58.815 E.05514
G1 X61.614 Y59.104 E.01956
G1 X60.044 Y60.612 E.07663
G1 X59.043 Y61.087 E.039
G1 X57.33 Y61.211 E.06042
G1 X56.853 Y61.064 E.01757
G1 X56.826 Y60.749 E.01116
G1 X56.859 Y59.699 E.03695
G1 X55.542 Y58.206 E.07006
G1 X54.554 Y58.113 E.03494
G1 X54.321 Y58.044 E.00856
G1 X54.193 Y57.247 E.02839
G1 X54.231 Y57.071 E.00635
G1 X54.342 Y56.999 E.00464
G1 X54.48 Y56.944 E.00526
G1 X55.419 Y56.793 E.03346
G1 X56.63 Y55.329 E.06686
G1 X56.598 Y54.312 E.0358
G1 X56.646 Y54.036 E.00985
G1 X57.471 Y53.782 E.03041
G1 X58.123 Y53.76 E.02295
G1 X58.455 Y53.838 E.01202
G1 X58.465 Y53.865 E.00102
G1 X60.35 Y54.752 E.07329
G1 X60.45 Y54.716 E.00376
G1 X61.982 Y56.233 E.07586
G1 X62.946 Y56.611 E.03646
G1 X64.934 Y56.547 E.07
G1 X65.69 Y56.272 E.02831
G1 X69.053 Y53.623 E.15066
G1 X69.283 Y53.85 E.01135
G1 X68.776 Y54.513 E.02936
G1 X68.708 Y55.33 E.02887
G1 X68.655 Y55.498 E.00621
G1 X68.54 Y55.671 E.00731
G1 X68.344 Y55.814 E.00855
G1 X68.225 Y55.855 E.0044
G1 X68.097 Y55.874 E.00457
G1 X67.653 Y55.83 E.0157
G1 X69.962 Y52.916 F21000
G1 F3000
G1 X70.051 Y52.114 E.0284
G1 X70.391 Y52.127 E.01199
G1 X70.4 Y52.435 E.01084
G1 X70.37 Y52.537 E.00373
G1 X70.323 Y52.597 E.00267
G1 X70.007 Y52.876 E.01487
G1 X70.709 Y49.456 F21000
G1 F3000
G1 X70.433 Y48.84 E.02376
G1 X70.59 Y48.554 E.01148
G1 X71.304 Y47.898 E.03411
G1 X71.539 Y49.27 E.04901
G1 X70.767 Y49.443 E.02784
G1 X71.093 Y49.838 F21000
G1 F3000
G1 X70.914 Y51.735 E.06704
G1 X70.851 Y52.211 E.0169
G1 X70.852 Y52.508 E.01044
G1 X70.791 Y52.718 E.00771
G1 X70.668 Y52.899 E.00771
G1 X70.495 Y53.033 E.00771
G1 X69.675 Y53.337 E.03076
G1 X69.347 Y53.766 E.01898
G1 X69.063 Y53.579 E.01198
G1 X69.516 Y52.767 E.03274
G1 X69.7 Y51.167 E.05668
G1 X70.047 Y50.655 E.02176
G1 X70.163 Y49.354 E.04598
G1 X69.959 Y48.899 E.01754
G1 X69.981 Y48.715 E.00654
G1 X70.226 Y48.268 E.01794
G1 X71.188 Y47.384 E.04597
G1 X71.334 Y47.449 E.00565
G1 X71.465 Y47.528 E.00538
G1 X71.581 Y47.631 E.00546
G1 X71.677 Y47.754 E.00547
G1 X71.765 Y47.937 E.00715
G1 X72.063 Y49.622 E.06021
G1 X71.152 Y49.825 E.03287
G1 X71.517 Y50.212 F21000
G1 F3000
G1 X71.367 Y51.792 E.05586
G1 X71.309 Y52.225 E.01538
G1 X71.306 Y52.565 E.01195
G1 X71.278 Y52.708 E.00512
G1 X71.205 Y52.913 E.00767
G1 X71.094 Y53.1 E.00767
G1 X71.001 Y53.212 E.00512
G1 X70.777 Y53.397 E.01021
G1 X70.583 Y53.496 E.00767
G1 X69.956 Y53.722 E.02345
G1 X69.221 Y54.683 E.0426
G1 X69.169 Y55.336 E.02303
G1 X69.123 Y55.553 E.00781
G1 X69.004 Y55.815 E.01013
G1 X68.825 Y56.033 E.00991
G1 X68.659 Y56.162 E.00739
G1 X68.536 Y56.229 E.00495
G1 X68.335 Y56.299 E.0075
G1 X68.192 Y56.325 E.00508
G1 X67.972 Y56.329 E.00776
G1 X67.26 Y56.251 E.0252
G1 X66.016 Y57.084 E.05269
G1 X65.778 Y57.904 E.03005
G1 X65.63 Y58.245 E.01308
G1 X65.497 Y58.455 E.00873
G1 X65.339 Y58.646 E.00873
G1 X65.158 Y58.816 E.00873
G1 X64.879 Y59.015 E.01207
G1 X64.404 Y58.808 E.01824
G1 X63.639 Y58.775 E.02693
G1 X62.283 Y59.232 E.05037
G1 X61.894 Y59.468 E.01601
G1 X60.307 Y60.993 E.07747
G1 X59.161 Y61.537 E.04463
G1 X57.278 Y61.673 E.06646
G1 X56.37 Y61.394 E.03344
G1 X56.397 Y61.099 E.01041
G1 X56.368 Y60.749 E.01238
G1 X56.396 Y59.866 E.03109
G1 X55.319 Y58.644 E.05732
G1 X54.367 Y58.541 E.03371
G1 X54.121 Y58.444 E.00929
G1 X53.896 Y58.279 E.00985
G1 X53.728 Y57.235 E.0372
G1 X53.809 Y56.858 E.01356
G1 X53.908 Y56.753 E.00506
G1 X54.064 Y56.632 E.00698
G1 X54.18 Y56.568 E.00466
G1 X54.367 Y56.501 E.00698
G1 X55.177 Y56.368 E.0289
G1 X56.168 Y55.17 E.05471
G1 X56.143 Y54.246 E.03255
G1 X56.215 Y53.866 E.01361
G1 X56.221 Y53.689 E.00624
G1 X57.395 Y53.327 E.04324
G1 X58.168 Y53.301 E.02724
G1 X58.802 Y53.45 E.02289
G1 X58.831 Y53.532 E.00308
G1 X60.373 Y54.258 E.05997
G1 X60.496 Y54.214 E.00459
G1 X60.75 Y54.37 E.01051
G1 X62.237 Y55.842 E.07362
G1 X63.026 Y56.151 E.02983
G1 X64.846 Y56.093 E.06411
G1 X65.465 Y55.867 E.02317
G1 X68.672 Y53.342 E.14364
G1 X69.073 Y52.624 E.02896
G1 X69.258 Y51.003 E.05742
G1 X69.602 Y50.497 E.02154
G1 X69.697 Y49.432 E.03762
G1 X69.491 Y48.971 E.01776
G1 X69.537 Y48.573 E.0141
G1 X69.861 Y47.982 E.02374
G1 X70.783 Y47.135 E.04407
G1 X70.879 Y46.916 E.0084
G1 X71.089 Y46.917 E.00739
G1 X71.388 Y46.978 E.01074
G1 X71.603 Y47.074 E.00826
G1 X71.858 Y47.262 E.01117
G1 X72.017 Y47.441 E.00843
G1 X72.139 Y47.645 E.00838
G1 X72.221 Y47.866 E.00827
G1 X72.459 Y49.225 E.04857
G1 X73.293 Y49.549 E.0315
G1 X73.273 Y49.82 E.00954
G1 X71.575 Y50.199 E.06122
G1 X75.899 Y50.242 F21000
G1 F3000
G1 X76.1 Y50.089 E.00887
G1 X76.232 Y50.06 E.00477
G1 X76.475 Y50.149 E.00912
G1 X76.455 Y50.348 E.00701
G1 X76.413 Y50.445 E.00373
G1 X76.32 Y50.522 E.00425
G1 X76.201 Y50.545 E.00425
G1 X76.113 Y50.522 E.0032
G1 X76.04 Y50.468 E.0032
G1 X75.93 Y50.293 E.00729
G1 X75.536 Y50.526 F21000
G1 F3000
G1 X75.3 Y50.127 E.01629
G1 X75.879 Y49.689 E.02557
G1 X76.085 Y49.614 E.00771
G1 X76.261 Y49.603 E.00618
G1 X76.474 Y49.651 E.00771
G1 X76.961 Y49.862 E.01867
G1 X76.904 Y50.433 E.02021
G1 X76.868 Y50.56 E.00464
G1 X76.783 Y50.714 E.00618
G1 X76.663 Y50.842 E.00618
G1 X76.515 Y50.936 E.00618
G1 X76.348 Y50.99 E.00618
G1 X76.173 Y51.001 E.00618
G1 X76.042 Y50.98 E.00464
G1 X75.918 Y50.936 E.00464
G1 X75.805 Y50.869 E.00464
G1 X75.706 Y50.782 E.00464
G1 X75.625 Y50.677 E.00464
G1 X75.566 Y50.578 E.00408
G1 X75.173 Y50.81 F21000
G1 F3000
G1 X74.702 Y50.013 E.03259
G1 X75.536 Y49.366 E.03718
G1 X75.659 Y49.288 E.00511
G1 X75.79 Y49.226 E.00512
G1 X76 Y49.165 E.00767
G1 X76.289 Y49.147 E.01021
G1 X76.433 Y49.165 E.00511
G1 X76.643 Y49.226 E.00767
G1 X77.447 Y49.574 E.03086
G1 X77.354 Y50.519 E.03341
G1 X77.293 Y50.728 E.00767
G1 X77.153 Y50.983 E.01021
G1 X76.954 Y51.194 E.01021
G1 X76.709 Y51.349 E.01021
G1 X76.433 Y51.439 E.01021
G1 X76.144 Y51.457 E.01021
G1 X75.929 Y51.423 E.00767
G1 X75.724 Y51.349 E.00767
G1 X75.536 Y51.239 E.00767
G1 X75.373 Y51.095 E.00767
G1 X75.239 Y50.922 E.00767
G1 X75.203 Y50.862 E.00248
G1 X79.978 Y48.012 F21000
G1 F3000
G1 X79.984 Y47.662 E.01232
G1 X80.232 Y47.471 E.01098
G1 X80.73 Y46.841 E.02827
G1 X80.865 Y46.873 E.00487
G1 X81.053 Y46.949 E.00716
G1 X81.182 Y47.037 E.00547
G1 X81.323 Y47.187 E.00726
G1 X81.422 Y47.361 E.00706
G1 X81.472 Y47.546 E.00672
G1 X81.475 Y47.726 E.00633
G1 X81.434 Y47.89 E.00597
G1 X81.331 Y48.066 E.00716
G1 X81.212 Y48.177 E.00574
G1 X81.103 Y48.24 E.00444
G1 X80.934 Y48.292 E.00621
G1 X80.795 Y48.304 E.00492
G1 X80.553 Y48.262 E.00863
G1 X80.033 Y48.036 E.01996
G1 X79.851 Y48.454 F21000
G1 F3000
G1 X79.516 Y48.308 E.01289
G1 X79.531 Y47.434 E.03076
G1 X79.908 Y47.144 E.01673
G1 X80.497 Y46.398 E.03343
G1 X80.754 Y46.392 E.00902
G1 X80.983 Y46.431 E.00818
G1 X81.205 Y46.513 E.00832
G1 X81.41 Y46.635 E.00841
G1 X81.533 Y46.737 E.00562
G1 X81.691 Y46.915 E.00839
G1 X81.813 Y47.117 E.00829
G1 X81.894 Y47.334 E.00815
G1 X81.933 Y47.557 E.00796
G1 X81.929 Y47.777 E.00777
G1 X81.884 Y47.988 E.00759
G1 X81.801 Y48.184 E.00746
G1 X81.637 Y48.41 E.00985
G1 X81.478 Y48.549 E.00743
G1 X81.293 Y48.656 E.00753
G1 X81.086 Y48.728 E.00769
G1 X80.865 Y48.759 E.00788
G1 X80.636 Y48.749 E.00807
G1 X80.408 Y48.696 E.00824
G1 X79.907 Y48.477 E.01925
G1 X79.725 Y48.896 F21000
G1 F3000
G1 X79.321 Y48.721 E.01551
G1 X77.909 Y49.55 E.05762
G1 X77.803 Y50.605 E.03732
G1 X77.718 Y50.897 E.0107
G1 X77.58 Y51.167 E.0107
G1 X77.394 Y51.408 E.0107
G1 X77.246 Y51.546 E.00714
G1 X77.082 Y51.666 E.00714
G1 X76.811 Y51.804 E.0107
G1 X76.519 Y51.888 E.0107
G1 X76.318 Y51.914 E.00714
G1 X76.115 Y51.914 E.00714
G1 X75.815 Y51.866 E.0107
G1 X75.529 Y51.763 E.0107
G1 X75.351 Y51.666 E.00714
G1 X75.187 Y51.546 E.00714
G1 X74.972 Y51.331 E.0107
G1 X74.853 Y51.167 E.00714
G1 X74.209 Y50.079 E.04452
G1 X71.941 Y50.586 E.08181
G1 X71.821 Y51.85 E.04468
G1 X71.766 Y52.24 E.01387
G1 X71.759 Y52.622 E.01346
G1 X71.721 Y52.821 E.00714
G1 X71.618 Y53.107 E.0107
G1 X71.521 Y53.285 E.00714
G1 X71.401 Y53.449 E.00714
G1 X71.263 Y53.597 E.00714
G1 X71.106 Y53.726 E.00714
G1 X70.845 Y53.881 E.0107
G1 X70.238 Y54.106 E.02278
G1 X69.666 Y54.854 E.03314
G1 X69.623 Y55.387 E.0188
G1 X69.56 Y55.689 E.01086
G1 X69.442 Y55.969 E.01071
G1 X69.275 Y56.219 E.01059
G1 X69.139 Y56.365 E.00702
G1 X68.903 Y56.548 E.01051
G1 X68.636 Y56.683 E.01054
G1 X68.444 Y56.743 E.00708
G1 X68.244 Y56.779 E.00714
G1 X68.04 Y56.789 E.0072
G1 X67.376 Y56.724 E.02348
G1 X66.409 Y57.372 E.04098
G1 X66.161 Y58.189 E.03007
G1 X66.031 Y58.466 E.01075
G1 X65.867 Y58.724 E.01075
G1 X65.673 Y58.959 E.01075
G1 X65.45 Y59.168 E.01075
G1 X65.203 Y59.348 E.01075
G1 X64.889 Y59.518 E.01256
G1 X64.299 Y59.261 E.02265
G1 X63.705 Y59.236 E.02095
G1 X62.477 Y59.649 E.0456
G1 X62.174 Y59.833 E.01245
G1 X60.57 Y61.374 E.07831
G1 X59.28 Y61.987 E.05026
G1 X57.225 Y62.135 E.0725
G1 X55.822 Y61.703 E.05168
G1 X55.91 Y61.4 E.0111
G1 X55.938 Y61.099 E.01064
G1 X55.911 Y60.749 E.01238
G1 X55.934 Y60.032 E.02522
G1 X55.096 Y59.082 E.04458
G1 X54.439 Y59.02 E.02321
G1 X54.073 Y58.926 E.01333
G1 X53.741 Y58.743 E.01333
G1 X53.466 Y58.486 E.01326
G1 X53.263 Y57.222 E.04502
G1 X53.384 Y56.662 E.02017
G1 X53.527 Y56.487 E.00797
G1 X53.666 Y56.357 E.00668
G1 X53.985 Y56.154 E.01333
G1 X54.346 Y56.037 E.01333
G1 X54.935 Y55.944 E.021
G1 X55.706 Y55.012 E.04255
G1 X55.684 Y54.312 E.02465
G1 X55.696 Y54.123 E.00668
G1 X55.76 Y53.808 E.01129
G1 X55.769 Y53.506 E.01064
G1 X55.746 Y53.357 E.00532
G1 X57.319 Y52.872 E.05793
G1 X58.214 Y52.842 E.03152
G1 X59.148 Y53.062 E.03376
G1 X59.197 Y53.199 E.00514
G1 X60.396 Y53.764 E.04664
G1 X60.547 Y53.709 E.00564
G1 X61.034 Y54.008 E.0201
G1 X62.491 Y55.451 E.07218
G1 X63.105 Y55.692 E.0232
G1 X64.758 Y55.638 E.05822
G1 X65.239 Y55.463 E.01802
G1 X68.317 Y53.04 E.13785
G1 X68.629 Y52.481 E.02253
G1 X68.816 Y50.85 E.05779
G1 X69.157 Y50.338 E.02165
G1 X69.231 Y49.51 E.02926
G1 X69.024 Y49.033 E.01829
G1 X69.093 Y48.432 E.0213
G1 X69.497 Y47.696 E.02954
G1 X70.403 Y46.863 E.04333
G1 X70.557 Y46.514 E.0134
G1 X70.918 Y46.458 E.01286
G1 X71.124 Y46.461 E.00728
G1 X71.331 Y46.49 E.00735
G1 X71.535 Y46.545 E.00742
G1 X71.732 Y46.625 E.00748
G1 X72.007 Y46.791 E.0113
G1 X72.172 Y46.929 E.00758
G1 X72.32 Y47.086 E.00759
G1 X72.447 Y47.26 E.00758
G1 X72.595 Y47.545 E.01131
G1 X72.687 Y47.85 E.01121
G1 X72.866 Y48.893 E.03723
G1 X74.554 Y49.549 E.06376
G1 X75.267 Y48.996 E.03176
G1 X75.439 Y48.887 E.00714
G1 X75.718 Y48.766 E.0107
G1 X76.014 Y48.7 E.0107
G1 X76.318 Y48.691 E.0107
G1 X76.618 Y48.738 E.0107
G1 X76.811 Y48.801 E.00714
G1 X77.624 Y49.153 E.03118
G1 X79.06 Y48.228 E.0601
G1 X79.074 Y47.422 E.02837
G1 X79.111 Y47.127 E.01047
G1 X79.271 Y47.057 E.00614
G1 X79.585 Y46.816 E.01392
M73 P1 R26
G1 X80.242 Y45.984 E.03734
G1 X80.475 Y45.942 E.00832
G1 X80.788 Y45.936 E.01102
G1 X81.101 Y45.989 E.01117
G1 X81.304 Y46.057 E.00752
G1 X81.59 Y46.205 E.01134
G1 X81.764 Y46.332 E.00759
G1 X81.922 Y46.479 E.00758
G1 X82.06 Y46.644 E.00756
G1 X82.176 Y46.823 E.00753
G1 X82.305 Y47.114 E.01118
G1 X82.36 Y47.316 E.00738
G1 X82.389 Y47.522 E.00731
G1 X82.392 Y47.727 E.00724
G1 X82.348 Y48.029 E.01072
G1 X82.287 Y48.221 E.00708
G1 X82.153 Y48.488 E.01054
G1 X81.97 Y48.724 E.01051
G1 X81.824 Y48.86 E.00702
G1 X81.574 Y49.027 E.01059
G1 X81.293 Y49.145 E.01071
G1 X80.991 Y49.208 E.01086
G1 X80.678 Y49.213 E.01102
G1 X80.469 Y49.184 E.00744
G1 X80.263 Y49.129 E.00749
G1 X79.78 Y48.92 E.01852
G1 X79.594 Y49.341 F21000
G1 F3000
G1 X79.35 Y49.234 E.00939
G1 X78.342 Y49.826 E.04115
G1 X78.272 Y50.562 E.02603
G1 X78.187 Y50.943 E.01373
G1 X78.032 Y51.3 E.01373
G1 X77.893 Y51.52 E.00916
