; HEADER_BLOCK_START
; generated by OrcaSlicer 1.7.0-beta on 2023-09-30 at 17:27:31
; total layer number: 10
; HEADER_BLOCK_END

; THUMBNAIL_BLOCK_START
; THUMBNAIL_BLOCK_END

; external perimeters extrusion width = 0.15mm
; perimeters extrusion width = 0.17mm
; infill extrusion width = 0.24mm
; solid infill extrusion width = 0.21mm
; top infill extrusion width = 0.15mm
; first layer extrusion width = 0.19mm

; external perimeters extrusion width = 0.15mm
; perimeters extrusion width = 0.17mm
; infill extrusion width = 0.24mm
; solid infill extrusion width = 0.21mm
; top infill extrusion width = 0.15mm
; first layer extrusion width = 0.19mm

; external perimeters extrusion width = 0.15mm
; perimeters extrusion width = 0.17mm
; infill extrusion width = 0.24mm
; solid infill extrusion width = 0.21mm
; top infill extrusion width = 0.15mm
; first layer extrusion width = 0.19mm

; EXECUTABLE_BLOCK_START
EXCLUDE_OBJECT_DEFINE NAME=makimahair.stl_id_0_copy_0 CENTER=79.4507,80.4519 POLYGON=[[60.4908,77.265],[60.5013,76.7496],[60.5236,76.2347],[60.5582,75.7205],[60.6055,75.2072],[60.6659,74.6948],[60.7398,74.1835],[60.8275,73.6733],[60.9296,73.1644],[60.9903,72.8899],[61.0547,72.6167],[61.1229,72.345],[61.1952,72.0746],[61.2716,71.8057],[61.3525,71.5382],[61.4379,71.2721],[61.528,71.0075],[61.6231,70.7442],[61.7232,70.4823],[61.8286,70.2219],[62.0194,69.774],[62.1076,69.5887],[62.204,69.4067],[62.3085,69.2282],[62.4209,69.0529],[62.5411,68.8808],[62.6691,68.7119],[66.0578,64.4424],[66.252,64.2092],[66.452,63.9811],[66.658,63.7582],[66.87,63.5409],[67.0882,63.3292],[67.3124,63.1233],[67.5428,62.9234],[67.7795,62.7296],[67.8009,62.7127],[67.8229,62.6958],[67.8455,62.6788],[67.8686,62.6619],[67.8922,62.6449],[67.9162,62.628],[67.9406,62.611],[67.9653,62.5941],[67.9901,62.5772],[68.0152,62.5602],[68.0404,62.5433],[68.0656,62.5264],[90.8032,62.4925],[90.8452,62.5264],[91.266,62.8651],[91.3081,62.899],[91.5977,63.1573],[91.8777,63.4239],[92.148,63.6986],[92.4089,63.9813],[92.6604,64.2717],[92.9027,64.5697],[96.2057,68.7137],[96.3371,68.8872],[96.4623,69.065],[96.5812,69.2471],[96.6937,69.4333],[96.8,69.6235],[96.8999,69.8176],[96.9935,70.0154],[97.0808,70.2169],[97.2628,70.6799],[97.4304,71.1458],[97.5836,71.6144],[97.7229,72.0859],[97.8483,72.5602],[97.9602,73.0374],[98.0588,73.5173],[98.1442,74.0001],[98.2169,74.4857],[98.2768,74.9741],[98.3245,75.4654],[98.3599,75.9594],[98.388,76.4884],[98.4049,77.0168],[98.4107,77.5443],[98.4054,78.0712],[98.3892,78.5974],[98.362,79.1229],[98.324,79.6477],[98.2751,80.1717],[98.2155,80.6951],[98.1453,81.2178],[98.0643,81.7397],[97.9728,82.2609],[97.8627,82.8309],[97.743,83.3975],[97.6139,83.9607],[97.4754,84.5208],[97.3278,85.0778],[97.1713,85.6319],[97.006,86.1832],[96.8321,86.7317],[96.6498,87.2777],[96.4593,87.8212],[96.2607,88.3623],[96.0542,88.9012],[95.707,89.714],[95.3219,90.492],[94.8987,91.2352],[94.4372,91.9435],[93.9375,92.6167],[93.3992,93.2547],[92.8224,93.8574],[92.2069,94.4248],[91.5527,94.9566],[90.8594,95.4527],[90.1272,95.9132],[89.3558,96.3377],[88.738,96.6417],[88.1134,96.9189],[87.4821,97.1701],[86.8444,97.3961],[86.2003,97.5976],[85.5501,97.7754],[84.8939,97.9303],[84.2319,98.063],[83.5644,98.1743],[82.8914,98.2649],[82.2131,98.3357],[81.5297,98.3874],[81.3278,98.3981],[81.1258,98.4051],[80.9239,98.4091],[80.7219,98.4106],[78.4162,98.4112],[78.0714,98.407],[77.7268,98.3974],[77.3823,98.3825],[77.0382,98.362],[76.6944,98.3359],[76.3511,98.304],[76.0081,98.2662],[75.6658,98.2224],[75.324,98.1725],[74.9828,98.1163],[74.5217,98.0316],[74.0642,97.9379],[73.6101,97.8347],[73.1596,97.7217],[72.7125,97.5984],[72.269,97.4642],[71.8289,97.3187],[71.3924,97.1615],[70.9594,96.992],[70.5298,96.8098],[70.1038,96.6145],[69.6813,96.4055],[68.9769,96.0264],[68.3029,95.6175],[67.6593,95.1787],[67.0465,94.7096],[66.4644,94.2102],[65.9135,93.6803],[65.3937,93.1197],[64.9053,92.5282],[64.4484,91.9056],[64.0233,91.2518],[63.6301,90.5666],[63.269,89.8499],[63.182,89.6628],[63.0977,89.4745],[63.0158,89.285],[62.9362,89.0945],[62.8586,88.903],[62.783,88.7107],[62.7092,88.5177],[62.637,88.324],[62.5661,88.13],[62.4965,87.9355],[62.4279,87.7409],[62.3602,87.5461],[62.131,86.8798],[61.9147,86.2105],[61.712,85.5382],[61.523,84.8627],[61.3484,84.1839],[61.1884,83.5018],[61.0435,82.816],[60.914,82.1267],[60.8005,81.4336],[60.7033,80.7365],[60.6228,80.0355],[60.5594,79.3304],[60.5265,78.8138],[60.5038,78.2973],[60.4918,77.781],[60.4908,77.265]]
EXCLUDE_OBJECT_DEFINE NAME=makimahair.stl_id_1_copy_0 CENTER=79.4507,39.5488 POLYGON=[[60.4908,36.3619],[60.5013,35.8465],[60.5236,35.3316],[60.5582,34.8175],[60.6055,34.3041],[60.6659,33.7917],[60.7398,33.2804],[60.8275,32.7702],[60.9296,32.2613],[60.9903,31.9868],[61.0547,31.7136],[61.1229,31.4419],[61.1952,31.1715],[61.2716,30.9026],[61.3525,30.6351],[61.4379,30.369],[61.528,30.1044],[61.6231,29.8411],[61.7232,29.5792],[61.8286,29.3188],[62.0194,28.8709],[62.1076,28.6856],[62.204,28.5036],[62.3085,28.3251],[62.4209,28.1498],[62.5411,27.9777],[62.6691,27.8088],[66.0578,23.5393],[66.252,23.3061],[66.452,23.078],[66.658,22.8551],[66.87,22.6378],[67.0882,22.4261],[67.3124,22.2202],[67.5428,22.0203],[67.7795,21.8266],[67.8009,21.8096],[67.8229,21.7927],[67.8455,21.7757],[67.8686,21.7588],[67.8922,21.7418],[67.9162,21.7249],[67.9406,21.708],[67.9653,21.691],[67.9901,21.6741],[68.0152,21.6571],[68.0404,21.6402],[68.0656,21.6233],[90.8032,21.5894],[90.8452,21.6233],[91.266,21.962],[91.3081,21.9959],[91.5977,22.2542],[91.8777,22.5208],[92.148,22.7955],[92.4089,23.0782],[92.6604,23.3686],[92.9027,23.6666],[96.2057,27.8106],[96.3371,27.9841],[96.4623,28.1619],[96.5812,28.344],[96.6937,28.5302],[96.8,28.7204],[96.8999,28.9145],[96.9935,29.1123],[97.0808,29.3138],[97.2628,29.7768],[97.4304,30.2427],[97.5836,30.7113],[97.7229,31.1828],[97.8483,31.6571],[97.9602,32.1343],[98.0588,32.6142],[98.1442,33.097],[98.2169,33.5826],[98.2768,34.071],[98.3245,34.5623],[98.3599,35.0563],[98.388,35.5853],[98.4049,36.1137],[98.4107,36.6412],[98.4054,37.1681],[98.3892,37.6943],[98.362,38.2198],[98.324,38.7446],[98.2751,39.2686],[98.2155,39.792],[98.1453,40.3147],[98.0643,40.8366],[97.9728,41.3579],[97.8627,41.9278],[97.743,42.4944],[97.6139,43.0576],[97.4754,43.6177],[97.3278,44.1747],[97.1713,44.7288],[97.006,45.2801],[96.8321,45.8286],[96.6498,46.3746],[96.4593,46.9181],[96.2607,47.4592],[96.0542,47.9981],[95.707,48.8109],[95.3219,49.5889],[94.8987,50.3321],[94.4372,51.0404],[93.9375,51.7136],[93.3992,52.3516],[92.8224,52.9543],[92.2069,53.5217],[91.5527,54.0535],[90.8594,54.5496],[90.1272,55.0101],[89.3558,55.4346],[88.738,55.7386],[88.1134,56.0158],[87.4821,56.267],[86.8444,56.493],[86.2003,56.6945],[85.5501,56.8723],[84.8939,57.0272],[84.2319,57.1599],[83.5644,57.2712],[82.8914,57.3619],[82.2131,57.4326],[81.5297,57.4843],[81.3278,57.495],[81.1258,57.502],[80.9239,57.506],[80.7219,57.5075],[78.4162,57.5081],[78.0714,57.5039],[77.7268,57.4943],[77.3823,57.4794],[77.0382,57.4589],[76.6944,57.4328],[76.3511,57.4009],[76.0081,57.3631],[75.6658,57.3193],[75.324,57.2694],[74.9828,57.2133],[74.5217,57.1285],[74.0642,57.0348],[73.6101,56.9316],[73.1596,56.8186],[72.7125,56.6953],[72.269,56.5611],[71.8289,56.4156],[71.3924,56.2584],[70.9594,56.0889],[70.5298,55.9067],[70.1038,55.7114],[69.6813,55.5024],[68.9769,55.1233],[68.3029,54.7144],[67.6593,54.2756],[67.0465,53.8065],[66.4644,53.3071],[65.9135,52.7772],[65.3937,52.2166],[64.9053,51.6251],[64.4484,51.0025],[64.0233,50.3487],[63.6301,49.6635],[63.269,48.9468],[63.182,48.7597],[63.0977,48.5714],[63.0158,48.3819],[62.9362,48.1914],[62.8586,47.9999],[62.783,47.8076],[62.7092,47.6146],[62.637,47.4209],[62.5661,47.2269],[62.4965,47.0324],[62.4279,46.8378],[62.3602,46.643],[62.131,45.9767],[61.9147,45.3074],[61.712,44.6351],[61.523,43.9596],[61.3484,43.2809],[61.1884,42.5987],[61.0435,41.9129],[60.914,41.2236],[60.8005,40.5305],[60.7033,39.8334],[60.6228,39.1324],[60.5594,38.4273],[60.5265,37.9107],[60.5038,37.3942],[60.4918,36.8779],[60.4908,36.3619]]
EXCLUDE_OBJECT_DEFINE NAME=makimahair.stl_id_2_copy_0 CENTER=40.5493,59.9982 POLYGON=[[21.5893,56.8114],[21.5998,56.2959],[21.6221,55.7811],[21.6568,55.2669],[21.704,54.7536],[21.7644,54.2412],[21.8383,53.7298],[21.9261,53.2196],[22.0282,52.7107],[22.0889,52.4362],[22.1532,52.163],[22.2215,51.8913],[22.2937,51.621],[22.3702,51.3521],[22.451,51.0846],[22.5364,50.8185],[22.6266,50.5538],[22.7216,50.2905],[22.8218,50.0287],[22.9272,49.7682],[23.1179,49.3204],[23.2061,49.135],[23.3025,48.9531],[23.407,48.7745],[23.5194,48.5992],[23.6397,48.4272],[23.7676,48.2583],[27.1564,43.9888],[27.3505,43.7555],[27.5506,43.5274],[27.7566,43.3046],[27.9686,43.0872],[28.1867,42.8755],[28.4109,42.6696],[28.6414,42.4697],[28.8781,42.276],[28.8994,42.259],[28.9215,42.2421],[28.9441,42.2252],[28.9672,42.2082],[28.9908,42.1913],[29.0148,42.1743],[29.0391,42.1574],[29.0638,42.1405],[29.0887,42.1235],[29.1137,42.1066],[29.1389,42.0896],[29.1642,42.0727],[51.9017,42.0388],[51.9438,42.0727],[52.3645,42.4115],[52.4066,42.4454],[52.6963,42.7037],[52.9762,42.9703],[53.2466,43.245],[53.5074,43.5276],[53.759,43.818],[54.0013,44.116],[57.3042,48.26],[57.4357,48.4335],[57.5609,48.6114],[57.6797,48.7935],[57.7923,48.9797],[57.8985,49.1699],[57.9984,49.3639],[58.0921,49.5618],[58.1794,49.7633],[58.3614,50.2263],[58.5289,50.6921],[58.6822,51.1608],[58.8214,51.6323],[58.9468,52.1066],[59.0587,52.5837],[59.1573,53.0637],[59.2428,53.5464],[59.3154,54.032],[59.3754,54.5204],[59.423,55.0117],[59.4585,55.5058],[59.4865,56.0348],[59.5034,56.5631],[59.5092,57.0907],[59.504,57.6176],[59.4877,58.1438],[59.4606,58.6692],[59.4225,59.194],[59.3737,59.7181],[59.3141,60.2414],[59.2438,60.7641],[59.1629,61.2861],[59.0714,61.8073],[58.9613,62.3773],[58.8416,62.9438],[58.7124,63.507],[58.5739,64.0671],[58.4263,64.6242],[58.2698,65.1782],[58.1045,65.7295],[57.9307,66.278],[57.7483,66.824],[57.5578,67.3675],[57.3592,67.9087],[57.1527,68.4476],[56.8056,69.2603],[56.4205,70.0383],[55.9972,70.7815],[55.5358,71.4898],[55.036,72.163],[54.4978,72.801],[53.921,73.4038],[53.3055,73.9711],[52.6512,74.5029],[51.958,74.9991],[51.2257,75.4595],[50.4543,75.884],[49.8366,76.188],[49.2119,76.4652],[48.5807,76.7165],[47.9429,76.9424],[47.2988,77.144],[46.6486,77.3218],[45.9924,77.4767],[45.3305,77.6093],[44.6629,77.7206],[43.9899,77.8113],[43.3117,77.8821],[42.6283,77.9337],[42.4263,77.9444],[42.2244,77.9515],[42.0224,77.9554],[41.8204,77.9569],[39.5148,77.9576],[39.17,77.9533],[38.8253,77.9438],[38.4809,77.9288],[38.1368,77.9083],[37.793,77.8822],[37.4496,77.8503],[37.1067,77.8125],[36.7643,77.7687],[36.4225,77.7188],[36.0814,77.6627],[35.6203,77.5779],[35.1627,77.4842],[34.7087,77.3811],[34.2581,77.2681],[33.8111,77.1447],[33.3675,77.0105],[32.9275,76.865],[32.4909,76.7078],[32.0579,76.5383],[31.6284,76.3561],[31.2024,76.1608],[30.7799,75.9518],[30.0755,75.5728],[29.4014,75.1639],[28.7579,74.725],[28.145,74.256],[27.563,73.7566],[27.012,73.2267],[26.4922,72.666],[26.0038,72.0745],[25.547,71.452],[25.1219,70.7982],[24.7287,70.113],[24.3676,69.3962],[24.2806,69.2092],[24.1962,69.0209],[24.1143,68.8314],[24.0347,68.6408],[23.9572,68.4493],[23.8816,68.257],[23.8078,68.064],[23.7355,67.8704],[23.6646,67.6763],[23.595,67.4819],[23.5264,67.2872],[23.4587,67.0924],[23.2295,66.4261],[23.0133,65.7569],[22.8105,65.0845],[22.6216,64.4091],[22.4469,63.7303],[22.2869,63.0481],[22.142,62.3624],[22.0126,61.673],[21.8991,60.9799],[21.8018,60.2829],[21.7213,59.5819],[21.6579,58.8767],[21.625,58.3601],[21.6024,57.8436],[21.5903,57.3273],[21.5893,56.8114]]
M73 P0 R28
;TYPE:Custom
START_PRINT T_BED=60 T_EXTRUDER=220
G90
G21
M83 ; use relative distances for extrusion
; filament start gcode

    PRESSURE_ADVANCE_SELECT FILAMENT=PLA
M106 S0
;LAYER_CHANGE
;Z:0.1
;HEIGHT:0.1
;BEFORE_LAYER_CHANGE
;0.1
G92 E0

;AFTER_LAYER_CHANGE
;0.1
;_SET_FAN_SPEED_CHANGING_LAYER
SET_VELOCITY_LIMIT ACCEL=500 ACCEL_TO_DECEL=250
G1 E-.8 F3000
G1 Z.2 F21000
G1 X27.451 Y40.432
G1 Z.2
G1 Z.1
G1 E.8 F1800
;TYPE:Skirt
;WIDTH:0.1875
G1 F3000
G1 X28.079 Y40.008 E.00513
G1 X66.98 Y19.559 E.29732
G1 X68.062 Y19.291 E.00754
G1 X90.8 Y19.257 E.15382
G1 X92.266 Y19.773 E.01051
G1 X93.486 Y20.832 E.01093
G1 X94.47 Y21.897 E.00981
G1 X98.196 Y26.576 E.04046
G1 X98.973 Y27.847 E.01008
G1 X99.8 Y29.986 E.01552
G1 X100.343 Y32.145 E.01506
G1 X100.646 Y34.337 E.01497
G1 X100.743 Y36.616 E.01543
G1 X100.743 Y77.544 E.27689
G1 X100.688 Y79.291 E.01183
G1 X100.527 Y81.006 E.01165
G1 X100.144 Y83.313 E.01582
G1 X99.572 Y85.712 E.01668
G1 X98.66 Y88.593 E.02044
G1 X97.797 Y90.749 E.01571
G1 X96.853 Y92.508 E.01351
G1 X95.72 Y94.12 E.01333
G1 X94.403 Y95.572 E.01326
G1 X93.024 Y96.766 E.01234
G1 X92.101 Y97.427 E.00768
G1 X90.48 Y98.381 E.01272
G1 X88.344 Y99.337 E.01583
G1 X86.086 Y100.045 E.01601
G1 X83.203 Y100.576 E.01983
G1 X81.146 Y100.737 E.01396
G1 X78.043 Y100.739 E.02099
G1 X76.479 Y100.658 E.01059
G1 X73.596 Y100.223 E.01972
G1 X71.097 Y99.533 E.01754
G1 X68.596 Y98.47 E.01838
G1 X28.97 Y77.626 E.30289
G1 X27.444 Y76.652 E.01225
G1 X26.626 Y76.026 E.00697
G1 X25.302 Y74.812 E.01215
G1 X24.206 Y73.559 E.01126
G1 X23.099 Y71.959 E.01316
G1 X22.05 Y69.933 E.01543
G1 X21.01 Y67.143 E.02014
G1 X20.188 Y64.311 E.01995
G1 X19.598 Y61.357 E.02038
G1 X19.335 Y59.086 E.01547
G1 X19.258 Y56.764 E.01571
G1 X19.382 Y54.54 E.01507
G1 X19.64 Y52.761 E.01216
G1 X20.122 Y50.732 E.01411
G1 X20.66 Y49.154 E.01128
G1 X21.29 Y47.775 E.01025
G1 X21.909 Y46.85 E.00753
G1 X25.558 Y42.264 E.03965
G1 X26.562 Y41.202 E.00989
G1 X27.439 Y40.442 E.00785
G1 X27.548 Y40.568 F21000
G1 F3000
G1 X27.555 Y40.561 E.00007
G1 X28.156 Y40.155 E.00491
G1 X67.058 Y19.706 E.29732
G1 X68.062 Y19.457 E.007
G1 X90.8 Y19.423 E.15382
G1 X92.161 Y19.902 E.00976
G1 X93.371 Y20.952 E.01084
G1 X94.341 Y22.002 E.00967
G1 X98.063 Y26.676 E.04042
G1 X98.826 Y27.923 E.00989
G1 X99.642 Y30.038 E.01534
G1 X100.181 Y32.178 E.01493
G1 X100.48 Y34.353 E.01485
G1 X100.577 Y36.617 E.01533
G1 X100.577 Y77.544 E.27687
G1 X100.522 Y79.279 E.01174
G1 X100.362 Y80.984 E.01158
G1 X99.982 Y83.279 E.01574
G1 X99.412 Y85.667 E.01661
G1 X98.503 Y88.538 E.02037
G1 X97.648 Y90.675 E.01557
G1 X96.714 Y92.418 E.01338
G1 X95.593 Y94.013 E.01319
G1 X94.29 Y95.45 E.01312
G1 X92.919 Y96.637 E.01227
G1 X92.012 Y97.286 E.00754
G1 X90.4 Y98.235 E.01266
G1 X88.283 Y99.183 E.01569
G1 X86.048 Y99.884 E.01585
G1 X83.181 Y100.412 E.01972
G1 X81.144 Y100.571 E.01382
G1 X78.045 Y100.573 E.02097
G1 X76.494 Y100.493 E.0105
G1 X73.63 Y100.06 E.0196
G1 X71.149 Y99.375 E.01741
G1 X68.673 Y98.323 E.0182
G1 X29.049 Y77.48 E.30288
G1 X27.537 Y76.515 E.01213
G1 X26.735 Y75.9 E.00684
G1 X25.424 Y74.699 E.01203
G1 X24.334 Y73.454 E.0112
G1 X23.243 Y71.876 E.01297
G1 X22.203 Y69.868 E.0153
G1 X21.168 Y67.092 E.02004
G1 X20.349 Y64.27 E.01988
G1 X19.762 Y61.33 E.02028
G1 X19.501 Y59.071 E.01539
G1 X19.424 Y56.767 E.01559
G1 X19.547 Y54.555 E.01499
G1 X19.802 Y52.794 E.01204
G1 X20.282 Y50.776 E.01403
G1 X20.814 Y49.216 E.01115
G1 X21.433 Y47.859 E.01009
G1 X22.041 Y46.95 E.0074
G1 X25.686 Y42.37 E.0396
G1 X26.678 Y41.321 E.00977
G1 X27.537 Y40.577 E.00769
; printing object makimahair.stl id:2 copy 0
G1 E-.8
EXCLUDE_OBJECT_START NAME=makimahair.stl_id_2_copy_0
G1 Z.3 F21000
G1 X26.24 Y65.063 Z.3
G1 Z.1
G1 E.8 F1800
;TYPE:Outer wall
G1 F3000
G1 X26.233 Y64.959 E.00071
G2 X26.196 Y64.859 I-.301 J.056 E.00072
G3 X25.103 Y62.078 I9.853 J-5.479 E.02028
G3 X23.998 Y53.2 I28.361 J-8.035 E.06076
G3 X26.24 Y45.458 I16.256 J.512 E.0551
G3 X28.91 Y42.372 I10.002 J5.956 E.02774
G1 X28.973 Y42.424 E.00055
G2 X27.711 Y46.052 I11.111 J5.899 E.02608
G2 X27.803 Y58.84 I31.49 J6.167 E.0871
G2 X28.941 Y62.954 I32.67 J-6.822 E.0289
G2 X29.204 Y63.303 I.497 J-.101 E.00306
G2 X29.627 Y62.976 I.12 J-.282 E.0044
G3 X28.963 Y60.826 I78.736 J-25.485 E.01522
G3 X28.176 Y57.164 I27.027 J-7.722 E.02536
G3 X28.308 Y56.51 I1.751 J.013 E.00454
G3 X30.051 Y54.196 I4.351 J1.464 E.01993
G2 X30.015 Y56.895 I6.885 J1.441 E.01837
G3 X30.096 Y57.39 I-.733 J.375 E.00345
G2 X29.905 Y58.729 I17.252 J3.15 E.00915
