; HEADER_BLOCK_START
; generated by OrcaSlicer 1.6.6 on 2023-09-05 at 20:35:50
; total layer number: 5
; HEADER_BLOCK_END

; THUMBNAIL_BLOCK_START
; THUMBNAIL_BLOCK_END

; external perimeters extrusion width = 0.15mm
; perimeters extrusion width = 0.17mm
; infill extrusion width = 0.24mm
; solid infill extrusion width = 0.21mm
; top infill extrusion width = 0.15mm
; first layer extrusion width = 0.19mm

; EXECUTABLE_BLOCK_START
EXCLUDE_OBJECT_DEFINE NAME=makimahair.stl_id_0_copy_0 CENTER=60,60 POLYGON=[[35.0594,55.8359],[35.0732,55.1623],[35.1026,54.4896],[35.1481,53.8177],[35.2103,53.147],[35.2897,52.4775],[35.3869,51.8093],[35.5024,51.1427],[35.6367,50.4777],[35.7165,50.119],[35.8012,49.7621],[35.8909,49.407],[35.986,49.0538],[36.0866,48.7024],[36.1929,48.3528],[36.3053,48.0051],[36.4238,47.6593],[36.5489,47.3153],[36.6806,46.9731],[36.8192,46.6328],[37.0701,46.0476],[37.1862,45.8054],[37.313,45.5677],[37.4504,45.3344],[37.5983,45.1053],[37.7565,44.8805],[37.9248,44.6598],[42.3825,39.081],[42.6379,38.7762],[42.901,38.4781],[43.172,38.187],[43.4509,37.903],[43.7378,37.6263],[44.0328,37.3573],[44.3359,37.0961],[44.6472,36.843],[44.6754,36.8208],[44.7043,36.7987],[44.7341,36.7766],[44.7645,36.7544],[44.7955,36.7323],[44.8271,36.7101],[44.8592,36.688],[44.8916,36.6659],[44.9243,36.6437],[44.9573,36.6216],[44.9904,36.5994],[45.0236,36.5773],[74.9334,36.5331],[74.9888,36.5774],[75.5422,37.02],[75.5976,37.0643],[75.9786,37.4018],[76.3468,37.7502],[76.7025,38.1091],[77.0456,38.4785],[77.3765,38.8579],[77.6953,39.2473],[82.04,44.6621],[82.213,44.8888],[82.3777,45.1212],[82.534,45.3591],[82.6821,45.6024],[82.8218,45.851],[82.9533,46.1045],[83.0764,46.3631],[83.1913,46.6264],[83.4307,47.2313],[83.651,47.8401],[83.8527,48.4524],[84.0358,49.0685],[84.2008,49.6883],[84.348,50.3117],[84.4777,50.9388],[84.5901,51.5697],[84.6856,52.2042],[84.7646,52.8424],[84.8272,53.4843],[84.8738,54.1299],[84.9107,54.8211],[84.933,55.5115],[84.9406,56.2008],[84.9337,56.8893],[84.9123,57.5769],[84.8766,58.2635],[84.8266,58.9492],[84.7623,59.634],[84.6839,60.3178],[84.5915,61.0008],[84.485,61.6828],[84.3646,62.3639],[84.2198,63.1086],[84.0624,63.8489],[83.8924,64.5849],[83.7103,65.3167],[83.5161,66.0446],[83.3102,66.7686],[83.0928,67.4889],[82.8641,68.2057],[82.6243,68.9191],[82.3736,69.6292],[82.1124,70.3363],[81.8408,71.0405],[81.3841,72.1025],[80.8775,73.1191],[80.3208,74.0902],[79.7138,75.0157],[79.0564,75.8953],[78.3484,76.729],[77.5896,77.5166],[76.78,78.2579],[75.9193,78.9528],[75.0074,79.6012],[74.0442,80.2028],[73.0295,80.7575],[72.2168,81.1547],[71.3952,81.5169],[70.5648,81.8452],[69.7258,82.1405],[68.8786,82.4038],[68.0233,82.6361],[67.1601,82.8385],[66.2894,83.0119],[65.4112,83.1573],[64.5259,83.2758],[63.6337,83.3682],[62.7348,83.4357],[62.4691,83.4497],[62.2035,83.4589],[61.9378,83.4641],[61.6721,83.4661],[58.6392,83.4669],[58.1856,83.4614],[57.7322,83.4489],[57.2791,83.4293],[56.8265,83.4026],[56.3742,83.3684],[55.9226,83.3267],[55.4715,83.2773],[55.0211,83.2201],[54.5715,83.1549],[54.1227,83.0816],[53.5162,82.9708],[52.9143,82.8484],[52.317,82.7136],[51.7244,82.5659],[51.1363,82.4048],[50.5528,82.2294],[49.974,82.0393],[49.3998,81.8339],[48.8301,81.6124],[48.2651,81.3744],[47.7047,81.1191],[47.1489,80.846],[46.2224,80.3507],[45.3357,79.8165],[44.4892,79.243],[43.683,78.6301],[42.9174,77.9776],[42.1926,77.2852],[41.5088,76.5526],[40.8664,75.7797],[40.2654,74.9662],[39.7062,74.1119],[39.189,73.2166],[38.714,72.28],[38.5996,72.0357],[38.4886,71.7896],[38.3809,71.542],[38.2761,71.293],[38.1741,71.0428],[38.0747,70.7915],[37.9776,70.5393],[37.8825,70.2863],[37.7893,70.0327],[37.6978,69.7787],[37.6075,69.5243],[37.5185,69.2698],[37.2169,68.3991],[36.9325,67.5246],[36.6658,66.6461],[36.4173,65.7635],[36.1875,64.8766],[35.9771,63.9852],[35.7864,63.0892],[35.6162,62.1884],[35.4668,61.2827],[35.3389,60.372],[35.233,59.456],[35.1496,58.5346],[35.1063,57.8596],[35.0765,57.1846],[35.0607,56.51],[35.0594,55.8359]]
M73 P0 R9
;TYPE:Custom
START_PRINT T_BED=60 T_EXTRUDER=220
G90
G21
M83 ; use relative distances for extrusion
; filament start gcode

    PRESSURE_ADVANCE_SELECT FILAMENT=PLA
M106 S0
;LAYER_CHANGE
;Z:0.1
;HEIGHT:0.1
;BEFORE_LAYER_CHANGE
;0.1
G92 E0

;AFTER_LAYER_CHANGE
;0.1
SET_VELOCITY_LIMIT ACCEL=500 ACCEL_TO_DECEL=250
SET_VELOCITY_LIMIT SQUARE_CORNER_VELOCITY=9
G1 E-.8 F3000
G1 Z.2 F21000
G1 X41.033 Y37.103
G1 Z.2
G1 Z.1
G1 E.8 F1800
;TYPE:Skirt
;WIDTH:0.1875
G1 F3000
G1 X41.787 Y36.269 E.00761
G1 X42.814 Y35.329 E.00942
G1 X43.718 Y34.645 E.00767
G1 X45.02 Y34.245 E.00922
G1 X74.93 Y34.201 E.20234
G1 X76.39 Y34.712 E.01046
G1 X77.949 Y36.056 E.01393
G1 X79.134 Y37.325 E.01175
G1 X83.859 Y43.203 E.05102
G1 X84.526 Y44.147 E.00782
G1 X85.329 Y45.694 E.01179
G1 X86.068 Y47.723 E.01461
G1 X86.618 Y49.776 E.01438
G1 X87 Y51.918 E.01472
G1 X87.264 Y55.436 E.02387
G1 X87.206 Y58.385 E.01995
G1 X86.902 Y61.314 E.01992
G1 X86.343 Y64.334 E.02078
G1 X85.325 Y68.163 E.0268
G1 X84.017 Y71.88 E.02666
G1 X82.901 Y74.279 E.0179
G1 X81.582 Y76.412 E.01696
G1 X80.028 Y78.347 E.01679
G1 X78.355 Y79.978 E.01581
G1 X77.271 Y80.854 E.00943
G1 X75.163 Y82.249 E.0171
G1 X73.158 Y83.289 E.01528
G1 X70.418 Y84.367 E.01992
G1 X67.693 Y85.109 E.01911
G1 X64.835 Y85.587 E.0196
G1 X62.249 Y85.791 E.01755
G1 X57.632 Y85.779 E.03124
G1 X55.178 Y85.591 E.01665
G1 X52.449 Y85.134 E.01871
G1 X49.825 Y84.445 E.01835
G1 X47.36 Y83.524 E.01781
G1 X45.123 Y82.407 E.01691
G1 X43.181 Y81.174 E.01556
G1 X41.405 Y79.752 E.01539
G1 X39.804 Y78.144 E.01535
G1 X38.39 Y76.352 E.01544
G1 X37.17 Y74.383 E.01567
G1 X36.112 Y72.162 E.01664
G1 X35.014 Y69.164 E.0216
G1 X34.16 Y66.348 E.0199
G1 X33.495 Y63.522 E.01964
G1 X33.03 Y60.696 E.01938
G1 X32.779 Y58.009 E.01826
G1 X32.742 Y55.115 E.01958
G1 X32.894 Y52.872 E.0152
G1 X33.351 Y50.016 E.01957
G1 X33.974 Y47.636 E.01664
G1 X34.967 Y45.04 E.0188
G1 X35.849 Y43.539 E.01178
G1 X40.561 Y37.625 E.05115
G1 X41.022 Y37.114 E.00466
G1 X41.141 Y37.219 F21000
G1 F3000
G1 X41.627 Y36.669 E.00496
G1 X42.619 Y35.716 E.00931
G1 X43.811 Y34.783 E.01024
G1 X45.02 Y34.411 E.00856
G1 X74.93 Y34.367 E.20234
G1 X76.286 Y34.842 E.00972
G1 X77.835 Y36.177 E.01383
G1 X79.009 Y37.434 E.01164
G1 X83.729 Y43.307 E.05097
G1 X84.384 Y44.233 E.00768
G1 X85.177 Y45.76 E.01164
G1 X85.91 Y47.775 E.0145
G1 X86.456 Y49.814 E.01428
G1 X86.835 Y51.938 E.0146
G1 X87.098 Y55.442 E.02377
M73 P1 R9
G1 X87.04 Y58.376 E.01985
G1 X86.738 Y61.291 E.01983
G1 X86.181 Y64.3 E.0207
G1 X85.166 Y68.115 E.02671
G1 X83.862 Y71.82 E.02657
G1 X82.757 Y74.196 E.01773
G1 X81.449 Y76.312 E.01683
G1 X79.908 Y78.232 E.01665
G1 X78.243 Y79.855 E.01574
G1 X77.174 Y80.718 E.00929
G1 X75.083 Y82.103 E.01697
G1 X73.091 Y83.137 E.01518
G1 X70.369 Y84.209 E.01979
G1 X67.655 Y84.947 E.01903
G1 X64.813 Y85.423 E.01949
G1 X62.246 Y85.625 E.01742
G1 X57.639 Y85.613 E.03117
G1 X55.199 Y85.426 E.01656
G1 X52.482 Y84.971 E.01863
G1 X49.877 Y84.287 E.01822
G1 X47.424 Y83.37 E.01771
G1 X45.201 Y82.261 E.01681
G1 X43.274 Y81.036 E.01545
G1 X41.512 Y79.626 E.01527
G1 X39.925 Y78.031 E.01522
G1 X38.523 Y76.253 E.01531
G1 X37.313 Y74.3 E.01554
G1 X36.266 Y72.1 E.01648
G1 X35.171 Y69.11 E.02155
G1 X34.32 Y66.307 E.01981
G1 X33.658 Y63.491 E.01957
G1 X33.194 Y60.673 E.01932
G1 X32.945 Y57.998 E.01818
G1 X32.908 Y55.118 E.01949
G1 X33.059 Y52.892 E.0151
G1 X33.514 Y50.049 E.01948
G1 X34.132 Y47.687 E.01652
G1 X35.117 Y45.112 E.01865
G1 X35.985 Y43.634 E.01159
G1 X40.69 Y37.729 E.05108
G1 X41.131 Y37.23 E.0045
; printing object makimahair.stl id:0 copy 0
G1 E-.8
EXCLUDE_OBJECT_START NAME=makimahair.stl_id_0_copy_0
G1 Z.3 F21000
G1 X54.285 Y52.695 Z.3
G1 Z.1
G1 E.8 F1800
;TYPE:Outer wall
;WIDTH:0.187499
G1 F3000
G2 X53.554 Y56.397 I9.886 J3.873 E.02567
G2 X53.581 Y57.675 I10.631 J.418 E.00865
G1 X53.68 Y57.919 E.00178
G1 X53.884 Y58.044 E.00162
G1 X54.107 Y58.027 E.00151
G1 X54.32 Y57.797 E.00213
G3 X54.719 Y56.666 I10.704 J3.137 E.00812
G3 X57.844 Y52.986 I8.771 J4.282 E.033
G3 X60.379 Y51.954 I3.784 J5.665 E.01864
G1 X60.897 Y51.932 E.00351
G2 X60.218 Y53.317 I6.616 J4.1 E.01045
G2 X59.864 Y55.504 I8.698 J2.529 E.01502
G2 X59.898 Y58.267 I17.114 J1.173 E.01871
G1 X60.045 Y58.904 E.00443
G1 X60.158 Y59.053 E.00127
G1 X60.336 Y59.124 E.00129
G1 X60.56 Y59.093 E.00153
G1 X60.73 Y58.953 E.00149
G1 X60.79 Y58.726 E.00159
G3 X60.678 Y57.614 I5.202 J-1.085 E.00757
G1 X60.78 Y57.134 E.00332
G3 X61.282 Y56.038 I23.366 J10.043 E.00816
G3 X66.769 Y52.078 I6.688 J3.485 E.04747
G1 X66.743 Y52.125 E.00037
G2 X65.941 Y53.769 I8.751 J5.285 E.01239
G1 X65.674 Y54.68 E.00643
G2 X65.579 Y57.626 I7.713 J1.722 E.02006
G1 X65.7 Y58.126 E.00348
G1 X65.828 Y58.37 E.00186
G1 X66.006 Y58.494 E.00147
G1 X66.205 Y58.512 E.00135
G1 X66.451 Y58.42 E.00178
G2 X70.224 Y53.709 I-8.13 J-10.378 E.0412
G1 X70.643 Y52.759 E.00702
G1 X70.796 Y53.078 E.0024
G3 X70.873 Y58.072 I-8.607 J2.63 E.03424
G1 X70.791 Y58.593 E.00356
G1 X70.906 Y58.82 E.00172
G1 X71.069 Y58.898 E.00122
G1 X71.349 Y58.846 E.00192
G1 X71.494 Y58.709 E.00135
G2 X73.137 Y55.918 I-67.344 J-41.507 E.02192
G2 X74.176 Y52.934 I-9.024 J-4.814 E.02145
G1 X74.299 Y52.343 E.00409
G3 X75.722 Y57.386 I-10.505 J5.685 E.03574
G3 X75.765 Y58.618 I-11.612 J1.027 E.00834
G1 X75.661 Y59.4 E.00534
G3 X74.418 Y63.571 I-40.248 J-9.725 E.02946
G1 X74.351 Y63.937 E.00252
G1 X74.406 Y64.123 E.00131
G1 X74.594 Y64.275 E.00164
G1 X74.825 Y64.295 E.00157
G1 X75.078 Y64.108 E.00213
G1 X75.288 Y63.611 E.00365
G2 X76.709 Y41.306 I-39.832 J-13.735 E.15303
G2 X74.97 Y36.682 I-16.44 J3.544 E.03354
M73 P2 R9
G3 X79.638 Y42.517 I-10.204 J12.948 E.05099
G3 X81.703 Y50.682 I-19.114 J9.178 E.05736
G3 X81.09 Y59.02 I-34.024 J1.69 E.0567
G3 X79.955 Y63.751 I-40.557 J-7.232 E.03293
G3 X78.812 Y66.307 I-12.837 J-4.202 E.01898
G1 X78.771 Y66.559 E.00173
G1 X78.881 Y66.775 E.00164
G1 X79.075 Y66.884 E.00151
G1 X79.348 Y66.84 E.00187
G1 X79.602 Y66.54 E.00266
G2 X80.933 Y63.287 I-13.06 J-7.239 E.02383
G2 X82.522 Y53.918 I-41.776 J-11.907 E.06442
G2 X82.328 Y48.792 I-31.059 J-1.391 E.03474
G2 X81.306 Y44.467 I-23.186 J3.197 E.03011
G1 X81.095 Y43.798 E.00475
G3 X83.11 Y46.677 I-5.434 J5.949 E.02397
G3 X84.817 Y54.837 I-21.798 J8.819 E.0567
G3 X84.847 Y56.214 I-32.527 J1.38 E.00932
G3 X83.62 Y65.293 I-35.733 J-.207 E.06215
G3 X81.299 Y72.063 I-43.377 J-11.086 E.04846
G3 X73.997 Y80.122 I-16.326 J-7.455 E.07474
G3 X64.515 Y83.183 I-12.125 J-21.344 E.06788
G3 X61.936 Y83.37 I-3.42 J-29.184 E.01749
G3 X57.736 Y83.355 I-.66 J-399.207 E.02842
G3 X48.303 Y81.288 I.781 J-26.125 E.0657
G3 X42.98 Y77.908 I8.118 J-18.662 E.04283
G3 X38.363 Y71.257 I12.479 J-13.592 E.05522
G3 X35.557 Y61.252 I43.046 J-17.466 E.07044
G3 X35.305 Y53.144 I31.506 J-5.038 E.05503
G3 X37.162 Y46.074 I23.547 J2.406 E.04965
G3 X38.837 Y43.815 I6.7 J3.217 E.01914
G2 X37.917 Y46.989 I25.296 J9.054 E.02237
G2 X37.398 Y53.859 I26.54 J5.456 E.04674
G2 X38.341 Y60.779 I40.515 J-1.993 E.0473
G2 X39.508 Y64.846 I22.859 J-4.36 E.02866
G2 X40.263 Y66.466 I25.777 J-11.025 E.0121
G1 X40.523 Y66.825 E.003
G1 X40.696 Y66.913 E.00131
G1 X40.894 Y66.898 E.00134
G1 X41.066 Y66.784 E.0014
G1 X41.144 Y66.57 E.00155
G1 X41.027 Y66.218 E.00251
G3 X39.653 Y62.725 I12.626 J-6.987 E.02547
G3 X38.179 Y51.663 I37.23 J-10.587 E.07576
G3 X40.197 Y42.754 I21.89 J.274 E.06225
G3 X44.095 Y37.428 I15.132 J6.983 E.04495
G3 X44.918 Y36.764 I10.932 J12.73 E.00715
G2 X44.068 Y38.597 I40.487 J19.887 E.01367
G2 X43.003 Y42.471 I19.101 J7.336 E.02722
G2 X43.334 Y58.803 I41.335 J7.331 E.11122
G2 X44.757 Y63.848 I43.475 J-9.534 E.03548
G1 X44.942 Y64.198 E.00268
G1 X45.192 Y64.307 E.00185
G1 X45.451 Y64.244 E.0018
G1 X45.592 Y64.053 E.00161
G1 X45.519 Y63.587 E.00319
G3 X43.732 Y56.622 I40.239 J-14.039 E.04871
M73 P3 R9
G1 X43.699 Y56.098 E.00355
G3 X44.132 Y54.787 I5.083 J.949 E.00937
G3 X46.202 Y52.391 I5.46 J2.627 E.02167
G2 X46.105 Y55.565 I10.162 J1.9 E.02156
G1 X46.291 Y56.306 E.00517
G3 X46.149 Y57.316 I-4.988 J-.185 E.00691
G1 X46.036 Y58.203 E.00605
G1 X46.068 Y58.71 E.00344
G1 X46.193 Y58.898 E.00152
G1 X46.395 Y58.996 E.00152
G1 X46.625 Y58.956 E.00158
G1 X46.803 Y58.71 E.00205
G3 X46.989 Y57.256 I15.476 J1.242 E.00992
G1 X47.229 Y56.364 E.00626
G1 X47.579 Y55.539 E.00605
G1 X48.037 Y54.782 E.00599
G1 X48.604 Y54.088 E.00606
G1 X49.272 Y53.467 E.00617
G1 X49.674 Y53.162 E.00342
G1 X49.794 Y53.121 E.00086
G1 X49.79 Y53.23 E.00073
G2 X50.112 Y56.983 I7.252 J1.269 E.02577
G1 X50.445 Y57.916 E.0067
G2 X50.406 Y60.029 I33.046 J1.666 E.0143
G2 X50.949 Y63.357 I14.341 J-.63 E.02287
G1 X51.142 Y63.895 E.00387
G1 X51.298 Y64.125 E.00187
G1 X51.526 Y64.202 E.00163
G1 X51.733 Y64.151 E.00144
G1 X51.881 Y63.979 E.00154
G1 X51.907 Y63.735 E.00166
G3 X51.496 Y62.16 I34.987 J-9.96 E.01101
G3 X51.385 Y57.56 I12.575 J-2.605 E.0313
G3 X53.711 Y53.18 I7.612 J1.234 E.03416
G1 X54.273 Y52.705 E.00498
G1 X53.913 Y53.224 F21000
;TYPE:Inner wall
G1 F3000
G2 X53.415 Y57.684 I11.571 J3.548 E.03054
G2 X53.611 Y58.088 I1.021 J-.245 E.00306
G1 X53.872 Y58.214 E.00196
G2 X54.255 Y58.136 I.043 J-.767 E.00267
G1 X54.478 Y57.848 E.00247
G3 X55.203 Y56.122 I6.853 J1.863 E.0127
G3 X57.513 Y53.431 I8.661 J5.098 E.02412
G3 X60.392 Y52.122 I4.109 J5.212 E.0216
G1 X60.6 Y52.111 E.00141
G2 X59.888 Y53.915 I4.659 J2.881 E.01319
G2 X59.698 Y55.497 I8.319 J1.799 E.01079
G2 X59.684 Y57.615 I20.791 J1.205 E.01434
G1 X59.736 Y58.304 E.00467
G1 X59.883 Y58.941 E.00443
G1 X60.039 Y59.169 E.00186
G1 X60.299 Y59.286 E.00193
G1 X60.622 Y59.249 E.0022
G1 X60.863 Y59.054 E.0021
G1 X60.953 Y58.757 E.0021
G3 X60.845 Y57.631 I6.574 J-1.203 E.00766
G1 X60.939 Y57.185 E.00308
G1 X61.314 Y56.325 E.00635
G3 X66.45 Y52.303 I6.671 J3.229 E.0457
G2 X65.783 Y53.717 I8.453 J4.853 E.01059
G1 X65.511 Y54.647 E.00656
G2 X65.418 Y57.665 I7.844 J1.753 E.02055
G1 X65.539 Y58.165 E.00348
G1 X65.681 Y58.448 E.00214
G1 X65.918 Y58.635 E.00204
G1 X66.218 Y58.679 E.00205
G1 X66.52 Y58.571 E.00217
G2 X70.647 Y53.161 I-7.95 J-10.344 E.04657
G3 X70.67 Y58.214 I-8.618 J2.567 E.03465
G1 X70.64 Y58.691 E.00323
G1 X70.833 Y58.98 E.00235
G1 X71.099 Y59.069 E.0019
G1 X71.481 Y58.963 E.00268
G1 X71.638 Y58.793 E.00156
G2 X73.285 Y55.993 I-67.05 J-41.33 E.02198
G2 X74.366 Y52.818 I-9.209 J-4.905 E.02278
G3 X75.556 Y57.396 I-10.985 J5.3 E.03221
G3 X75.6 Y58.604 I-11.584 J1.024 E.00818
G1 X75.499 Y59.364 E.00519
G3 X74.261 Y63.515 I-40.067 J-9.683 E.02932
G1 X74.185 Y63.934 E.00288
G1 X74.272 Y64.227 E.00207
G1 X74.543 Y64.436 E.00231
G1 X74.868 Y64.457 E.00221
G1 X75.151 Y64.275 E.00227
G1 X75.231 Y64.173 E.00088
G1 X75.467 Y63.6 E.00419
G2 X76.869 Y41.262 I-39.953 J-13.721 E.15324
G2 X75.492 Y37.318 I-17.051 J3.74 E.02833
G3 X79.814 Y43.287 I-11.217 J12.671 E.05026
G3 X81.575 Y51.723 I-19.942 J8.565 E.05869
G3 X80.926 Y58.99 I-34.607 J.572 E.04945
G3 X79.797 Y63.698 I-40.399 J-7.203 E.03277
G3 X78.667 Y66.226 I-12.687 J-4.153 E.01877
G1 X78.606 Y66.603 E.00258
G1 X78.745 Y66.871 E.00204
G1 X79.002 Y67.034 E.00206
G1 X79.16 Y67.054 E.00108
G1 X79.497 Y66.943 E.0024
G1 X79.748 Y66.62 E.00277
G2 X81.145 Y63.137 I-13.48 J-7.43 E.02545
G2 X82.675 Y54.152 I-42.403 J-11.843 E.06177
G2 X82.493 Y48.772 I-32.698 J-1.586 E.03646
G2 X81.45 Y44.375 I-23.34 J3.216 E.03062
G3 X83.19 Y47.33 I-6.271 J5.683 E.02336
G3 X84.673 Y55.528 I-22.781 J8.355 E.05664
M73 P4 R9
G1 X84.681 Y56.212 E.00463
G3 X83.459 Y65.252 I-35.567 J-.206 E.06188
G3 X81.148 Y71.993 I-44.31 J-11.419 E.04826
G3 X73.913 Y79.978 I-16.175 J-7.386 E.07406
G3 X64.495 Y83.018 I-12.041 J-21.199 E.06742
G3 X61.934 Y83.204 I-3.399 J-28.999 E.01738
G3 X57.741 Y83.189 I-.657 J-400.928 E.02836
G3 X48.369 Y81.136 I.775 J-25.959 E.06528
G3 X43.091 Y77.785 I8.05 J-18.507 E.04247
G3 X38.516 Y71.194 I12.367 J-13.468 E.05472
G3 X35.872 Y62.143 I43.512 J-17.624 E.06389
G3 X35.469 Y53.174 I32.221 J-5.942 E.06093
G3 X37.306 Y46.157 I23.338 J2.361 E.04927
G3 X38.453 Y44.442 I6.085 J2.827 E.01402
G2 X37.208 Y51.989 I22.791 J7.634 E.05197
G2 X37.998 Y59.938 I36.572 J.381 E.05415
G2 X39.101 Y64.249 I31.664 J-5.806 E.03012
G2 X40.113 Y66.538 I20.363 J-7.637 E.01694
G1 X40.389 Y66.923 E.0032
G1 X40.665 Y67.078 E.00214
