; HEADER_BLOCK_START
; generated by OrcaSlicer 1.7.0-beta on 2023-09-30 at 15:27:29
; total layer number: 37
; HEADER_BLOCK_END

; THUMBNAIL_BLOCK_START
; THUMBNAIL_BLOCK_END

; external perimeters extrusion width = 0.15mm
; perimeters extrusion width = 0.17mm
; infill extrusion width = 0.24mm
; solid infill extrusion width = 0.21mm
; top infill extrusion width = 0.15mm
; first layer extrusion width = 0.19mm

; external perimeters extrusion width = 0.15mm
; perimeters extrusion width = 0.17mm
; infill extrusion width = 0.24mm
; solid infill extrusion width = 0.21mm
; top infill extrusion width = 0.15mm
; first layer extrusion width = 0.19mm

; EXECUTABLE_BLOCK_START
EXCLUDE_OBJECT_DEFINE NAME=MakimaKeychainByPekole.stl_id_0_copy_0 CENTER=82.0495,60.1413 POLYGON=[[62.4995,66.7367],[62.5062,66.3154],[62.5208,65.894],[62.5434,65.4728],[62.5745,65.0518],[62.6145,64.6312],[62.6636,64.211],[62.7223,63.7914],[62.7809,63.4028],[62.8468,63.0165],[62.9203,62.6323],[63.0015,62.2505],[63.0907,61.871],[63.1882,61.494],[63.2941,61.1194],[63.4088,60.7473],[63.5324,60.3778],[63.6651,60.011],[63.8073,59.6468],[63.9591,59.2855],[75.1786,32.6691],[75.2144,32.6014],[75.2581,32.5401],[75.3098,32.4848],[75.37,32.4351],[75.4389,32.3905],[75.5168,32.3508],[75.6039,32.3153],[75.7346,32.2718],[75.7685,32.2611],[75.8024,32.2516],[75.8362,32.2431],[75.8701,32.2355],[75.904,32.2288],[75.9379,32.2228],[75.9718,32.2173],[76.2344,32.1766],[76.2768,32.1703],[76.3191,32.1644],[76.3615,32.1589],[76.4038,32.1538],[76.4462,32.149],[76.4885,32.1444],[76.5309,32.1399],[76.5733,32.1356],[76.6156,32.1314],[76.7805,32.1187],[76.9447,32.1061],[77.1086,32.0935],[77.272,32.0812],[77.4352,32.0691],[77.5983,32.0573],[77.7614,32.0458],[77.9246,32.0348],[78.0881,32.0242],[78.2519,32.0142],[78.4162,32.0047],[78.6283,31.9927],[78.6767,31.9915],[85.299,31.9746],[85.354,31.9758],[85.5619,31.9839],[85.7154,31.9901],[85.8695,31.9975],[86.0241,32.0059],[86.1791,32.0153],[86.3346,32.0255],[86.4904,32.0364],[86.6466,32.048],[86.8029,32.0599],[86.9595,32.0723],[87.3318,32.1021],[87.3902,32.1073],[87.4481,32.1131],[87.5056,32.1195],[87.563,32.1263],[87.6202,32.1335],[87.6774,32.1411],[87.7347,32.149],[87.7922,32.1571],[87.8502,32.1654],[87.9675,32.1822],[88.135,32.211],[88.2823,32.2472],[88.4104,32.2918],[88.5204,32.346],[88.6131,32.4107],[88.6897,32.4871],[88.7511,32.5762],[88.7983,32.6791],[100.251,59.5396],[100.431,59.9941],[100.596,60.4515],[100.748,60.9117],[100.886,61.3747],[101.012,61.8405],[101.124,62.3092],[101.223,62.7807],[101.311,63.255],[101.385,63.7321],[101.448,64.2121],[101.499,64.6948],[101.539,65.1804],[101.571,65.7345],[101.591,66.2873],[101.6,66.8389],[101.596,67.3895],[101.581,67.9391],[101.554,68.4879],[101.515,69.036],[101.465,69.5835],[101.403,70.1305],[101.33,70.6772],[101.245,71.2236],[101.149,71.7699],[101.038,72.3357],[100.918,72.898],[100.788,73.4573],[100.649,74.0135],[100.501,74.5669],[100.344,75.1176],[100.179,75.6659],[100.006,76.2118],[99.8245,76.7557],[99.6354,77.2976],[99.4387,77.8378],[99.2347,78.3763],[98.8475,79.2868],[98.4145,80.1549],[97.9359,80.9805],[97.4117,81.7636],[96.8422,82.5041],[96.2273,83.202],[95.5672,83.8572],[94.8621,84.4696],[94.112,85.0391],[93.3171,85.5658],[92.4775,86.0496],[91.5933,86.4904],[90.857,86.812],[90.1139,87.0998],[89.364,87.3546],[88.6076,87.577],[87.8448,87.768],[87.0759,87.9281],[86.3009,88.0583],[85.5202,88.1592],[84.7338,88.2317],[83.9419,88.2765],[83.1447,88.2943],[81.1747,88.3071],[80.8035,88.3079],[80.4328,88.3023],[80.0627,88.29],[79.6929,88.2711],[79.3235,88.2456],[78.9544,88.2132],[78.5855,88.174],[78.2168,88.128],[77.8482,88.0749],[77.4797,88.0149],[77.0872,87.9479],[76.6974,87.8736],[76.3104,87.7921],[75.926,87.7031],[75.5442,87.6067],[75.1649,87.5025],[74.788,87.3906],[74.4136,87.2708],[74.0416,87.1431],[73.6718,87.0072],[73.3043,86.8631],[72.939,86.7106],[71.9849,86.2674],[71.0798,85.776],[70.2238,85.2366],[69.4173,84.649],[68.6604,84.0132],[67.9534,83.3291],[67.2966,82.5966],[66.6901,81.8157],[66.1342,80.9864],[65.6291,80.1085],[65.1751,79.182],[64.7724,78.2069],[64.6753,77.944],[64.5792,77.6804],[64.4841,77.4161],[64.3902,77.151],[64.2978,76.8853],[64.2069,76.6188],[64.1178,76.3517],[64.0306,76.0838],[63.9456,75.8153],[63.8629,75.546],[63.7826,75.2761],[63.705,75.0054],[63.5645,74.5007],[63.4314,73.9946],[63.306,73.4869],[63.1885,72.9776],[63.0793,72.4667],[62.9785,71.9541],[62.8866,71.4398],[62.8038,70.9236],[62.7305,70.4055],[62.6668,69.8855],[62.6131,69.3635],[62.5698,68.8394],[62.543,68.4198],[62.5222,67.9996],[62.5078,67.579],[62.5001,67.158],[62.4995,66.7367]]
EXCLUDE_OBJECT_DEFINE NAME=MakimaKeychainByPekole.stl_id_1_copy_0 CENTER=37.9505,59.8587 POLYGON=[[18.4004,66.4542],[18.4072,66.0328],[18.4217,65.6115],[18.4444,65.1903],[18.4755,64.7692],[18.5154,64.3486],[18.5645,63.9284],[18.6232,63.5088],[18.6818,63.1203],[18.7478,62.7339],[18.8212,62.3498],[18.9024,61.968],[18.9917,61.5885],[19.0891,61.2114],[19.1951,60.8368],[19.3097,60.4647],[19.4333,60.0953],[19.5661,59.7284],[19.7082,59.3643],[19.86,59.0029],[31.0795,32.3865],[31.1153,32.3188],[31.159,32.2575],[31.2108,32.2022],[31.2709,32.1525],[31.3398,32.108],[31.4177,32.0682],[31.5049,32.0328],[31.6355,31.9893],[31.6694,31.9786],[31.7033,31.969],[31.7372,31.9605],[31.7711,31.953],[31.805,31.9462],[31.8388,31.9402],[31.8727,31.9348],[32.1353,31.8941],[32.1777,31.8877],[32.2201,31.8818],[32.2624,31.8764],[32.3048,31.8712],[32.3471,31.8664],[32.3895,31.8618],[32.4318,31.8574],[32.4742,31.8531],[32.5166,31.8488],[32.6814,31.8361],[32.8457,31.8235],[33.0095,31.811],[33.1729,31.7987],[33.3362,31.7865],[33.4993,31.7747],[33.6624,31.7633],[33.8256,31.7522],[33.989,31.7416],[34.1528,31.7316],[34.3171,31.7221],[34.5292,31.7101],[34.5777,31.7089],[41.2,31.6921],[41.255,31.6932],[41.4629,31.7013],[41.6164,31.7075],[41.7704,31.7149],[41.925,31.7234],[42.0801,31.7328],[42.2356,31.743],[42.3914,31.7539],[42.5475,31.7654],[42.7039,31.7774],[42.8604,31.7897],[43.2327,31.8195],[43.2911,31.8248],[43.349,31.8306],[43.4066,31.8369],[43.4639,31.8437],[43.5211,31.851],[43.5783,31.8585],[43.6356,31.8664],[43.6932,31.8745],[43.7511,31.8828],[43.8684,31.8997],[44.0359,31.9284],[44.1832,31.9646],[44.3114,32.0092],[44.4213,32.0634],[44.5141,32.1282],[44.5906,32.2046],[44.6521,32.2937],[44.6993,32.3966],[56.1522,59.257],[56.3316,59.7116],[56.497,60.1689],[56.6488,60.6291],[56.7873,61.0921],[56.9125,61.558],[57.0248,62.0266],[57.1244,62.4981],[57.2115,62.9724],[57.2863,63.4495],[57.3492,63.9295],[57.4003,64.4123],[57.4399,64.8979],[57.472,65.452],[57.4922,66.0048],[57.5005,66.5564],[57.497,67.1069],[57.4817,67.6565],[57.4547,68.2053],[57.4161,68.7534],[57.3658,69.3009],[57.3041,69.8479],[57.2308,70.3946],[57.1462,70.941],[57.0502,71.4874],[56.9394,72.0531],[56.8189,72.6155],[56.6891,73.1747],[56.5501,73.7309],[56.4021,74.2843],[56.2454,74.835],[56.0802,75.3833],[55.9068,75.9293],[55.7255,76.4732],[55.5363,77.0151],[55.3396,77.5552],[55.1356,78.0938],[54.7484,79.0043],[54.3154,79.8724],[53.8368,80.698],[53.3127,81.4811],[52.7431,82.2216],[52.1282,82.9194],[51.4682,83.5746],[50.763,84.187],[50.013,84.7566],[49.2181,85.2833],[48.3785,85.767],[47.4943,86.2078],[46.758,86.5295],[46.0148,86.8173],[45.2649,87.072],[44.5085,87.2945],[43.7458,87.4854],[42.9768,87.6456],[42.2019,87.7758],[41.4211,87.8767],[40.6347,87.9492],[39.8428,87.9939],[39.0456,88.0118],[37.0756,88.0245],[36.7044,88.0254],[36.3338,88.0197],[35.9636,88.0075],[35.5939,87.9886],[35.2245,87.963],[34.8553,87.9306],[34.4865,87.8914],[34.1178,87.8454],[33.7492,87.7924],[33.3807,87.7324],[32.9881,87.6653],[32.5984,87.5911],[32.2113,87.5095],[31.8269,87.4206],[31.4451,87.3241],[31.0658,87.22],[30.689,87.1081],[30.3146,86.9883],[29.9425,86.8605],[29.5728,86.7246],[29.2052,86.5805],[28.8399,86.428],[27.8858,85.9848],[26.9807,85.4935],[26.1248,84.954],[25.3182,84.3665],[24.5614,83.7306],[23.8544,83.0465],[23.1975,82.314],[22.591,81.5331],[22.0351,80.7038],[21.53,79.8259],[21.076,78.8995],[20.6733,77.9244],[20.5763,77.6615],[20.4801,77.3978],[20.385,77.1335],[20.2912,76.8685],[20.1987,76.6028],[20.1078,76.3363],[20.0187,76.0691],[19.9316,75.8013],[19.8466,75.5327],[19.7638,75.2635],[19.6835,74.9935],[19.6059,74.7228],[19.4655,74.2182],[19.3324,73.712],[19.207,73.2043],[19.0895,72.6951],[18.9802,72.1842],[18.8795,71.6716],[18.7876,71.1572],[18.7048,70.641],[18.6314,70.1229],[18.5677,69.6029],[18.5141,69.0809],[18.4707,68.5568],[18.4439,68.1372],[18.4232,67.7171],[18.4088,67.2964],[18.4011,66.8754],[18.4004,66.4542]]
M73 P0 R58
M73 C47
;TYPE:Custom
START_PRINT T_BED=60 T_EXTRUDER=220
G90
G21
M83 ; use relative distances for extrusion
; filament start gcode

    PRESSURE_ADVANCE_SELECT FILAMENT=PLA
M106 S0
;LAYER_CHANGE
;Z:0.1
;HEIGHT:0.1
;BEFORE_LAYER_CHANGE
;0.1
G92 E0

;AFTER_LAYER_CHANGE
;0.1
;_SET_FAN_SPEED_CHANGING_LAYER
SET_VELOCITY_LIMIT ACCEL=500 ACCEL_TO_DECEL=250
G1 E-.8 F3000
G1 Z.2 F21000
G1 X29.725 Y30.404
G1 Z.2
G1 Z.1
G1 E.8 F1800
;TYPE:Skirt
;WIDTH:0.1875
G1 F3000
G1 X30.357 Y29.991 E.00511
G1 X31.128 Y29.71 E.00555
G1 X31.962 Y29.564 E.00572
G1 X34.517 Y29.378 E.01733
G1 X41.216 Y29.36 E.04532
G1 X85.387 Y29.644 E.29882
G1 X87.516 Y29.777 E.01443
G1 X88.691 Y29.946 E.00803
G1 X89.551 Y30.254 E.00618
G1 X90.26 Y30.76 E.00589
G1 X90.671 Y31.253 E.00434
G1 X90.944 Y31.764 E.00392
G1 X102.396 Y58.625 E.19754
G1 X103.138 Y60.769 E.01535
G1 X103.698 Y63.429 E.01839
G1 X103.923 Y66.252 E.01916
G1 X103.841 Y69.2 E.01995
G1 X103.446 Y72.174 E.02029
G1 X102.754 Y75.169 E.0208
G1 X101.62 Y78.664 E.02485
G1 X100.501 Y81.196 E.01873
G1 X99.26 Y83.185 E.01586
G1 X97.87 Y84.857 E.01471
G1 X96.272 Y86.327 E.01469
G1 X94.481 Y87.586 E.01481
G1 X92.527 Y88.627 E.01498
G1 X90.114 Y89.563 E.01751
G1 X88.32 Y90.051 E.01258
G1 X85.819 Y90.472 E.01716
G1 X83.994 Y90.608 E.01238
G1 X80.809 Y90.64 E.02155
G1 X36.689 Y90.357 E.29848
G1 X34.609 Y90.25 E.01409
G1 X32.604 Y89.966 E.0137
G1 X30.874 Y89.585 E.01198
G1 X29.185 Y89.066 E.01195
G1 X27.857 Y88.543 E.00965
G1 X25.868 Y87.543 E.01506
G1 X24.752 Y86.839 E.00893
G1 X23.061 Y85.516 E.01452
G1 X22.233 Y84.722 E.00776
G1 X20.654 Y82.832 E.01666
G1 X20.014 Y81.867 E.00783
G1 X18.982 Y79.926 E.01487
G1 X17.705 Y76.496 E.02476
G1 X17.077 Y74.305 E.01542
G1 X16.692 Y72.634 E.0116
G1 X16.19 Y69.273 E.02299
G1 X16.078 Y67.376 E.01285
G1 X16.091 Y65.531 E.01248
G1 X16.199 Y64.078 E.00986
G1 X16.457 Y62.296 E.01218
G1 X16.831 Y60.628 E.01156
G1 X17.222 Y59.356 E.009
G1 X28.931 Y31.481 E.20454
G1 X29.259 Y30.905 E.00449
G1 X29.715 Y30.415 E.00453
G1 X29.831 Y30.532 F21000
G1 F3000
G1 X30.433 Y30.139 E.00486
G1 X31.167 Y29.872 E.00529
G1 X31.98 Y29.729 E.00559
G1 X34.518 Y29.544 E.01721
G1 X41.215 Y29.526 E.04531
G1 X85.381 Y29.81 E.29879
G1 X87.502 Y29.943 E.01438
G1 X88.652 Y30.107 E.00785
G1 X89.478 Y30.403 E.00594
G1 X90.143 Y30.877 E.00553
G1 X90.535 Y31.347 E.00414
G1 X90.791 Y31.83 E.00369
G1 X102.244 Y58.69 E.19754
G1 X102.978 Y60.812 E.01519
G1 X103.533 Y63.451 E.01824
G1 X103.757 Y66.255 E.01903
G1 X103.676 Y69.188 E.01985
G1 X103.283 Y72.145 E.02018
G1 X102.594 Y75.126 E.0207
G1 X101.464 Y78.605 E.02474
G1 X100.353 Y81.122 E.01861
G1 X99.129 Y83.084 E.01565
G1 X97.753 Y84.739 E.01456
G1 X96.172 Y86.195 E.01454
G1 X94.399 Y87.443 E.01467
G1 X92.46 Y88.475 E.01486
G1 X90.061 Y89.405 E.01741
G1 X88.287 Y89.888 E.01244
G1 X85.798 Y90.307 E.01707
G1 X83.99 Y90.442 E.01226
G1 X80.809 Y90.474 E.02153
G1 X36.691 Y90.191 E.29847
G1 X34.627 Y90.085 E.01398
G1 X32.631 Y89.802 E.01363
G1 X31.296 Y89.521 E.00923
G1 X29.611 Y89.037 E.01186
G1 X27.927 Y88.392 E.0122
G1 X25.947 Y87.397 E.01499
G1 X24.849 Y86.705 E.00878
G1 X23.168 Y85.389 E.01444
G1 X22.348 Y84.603 E.00768
G1 X20.792 Y82.739 E.01643
G1 X20.158 Y81.784 E.00776
G1 X19.131 Y79.853 E.0148
G1 X17.864 Y76.446 E.02459
G1 X17.238 Y74.263 E.01537
G1 X16.855 Y72.602 E.01153
G1 X16.355 Y69.26 E.02286
G1 X16.244 Y67.371 E.0128
G1 X16.257 Y65.537 E.01241
G1 X16.364 Y64.097 E.00977
G1 X16.62 Y62.327 E.0121
G1 X16.992 Y60.669 E.01149
G1 X17.379 Y59.408 E.00892
G1 X29.084 Y31.545 E.20445
G1 X29.395 Y31.001 E.00424
G1 X29.821 Y30.543 E.00423
; printing object MakimaKeychainByPekole.stl id:0 copy 0
G1 E-.8
EXCLUDE_OBJECT_START NAME=MakimaKeychainByPekole.stl_id_0_copy_0
G1 Z.3 F21000
G1 X94.01 Y54.207 Z.3
G1 Z.1
G1 E.8 F1800
;TYPE:Outer wall
G1 F3000
G2 X92.828 Y51.827 I-16.547 J6.741 E.01799
G3 X92.374 Y51.002 I3.977 J-2.723 E.00638
G3 X92.518 Y50.866 I.192 J.059 E.0014
G3 X92.816 Y51.015 I-.326 J1.026 E.00226
G3 X97.319 Y55.98 I-6.613 J10.523 E.04592
G2 X98.156 Y56.833 I2.535 J-1.651 E.00814
G3 X100.343 Y60.027 I-4.695 J5.559 E.02651
M73 C46
G3 X101.506 Y66.839 I-18.188 J6.61 E.047
G3 X100.254 Y75.091 I-28.523 J-.104 E.05667
G3 X98.762 Y79.248 I-34.89 J-10.18 E.02989
G3 X92.433 Y85.967 I-13.025 J-5.928 E.06358
G3 X83.938 Y88.183 I-9.097 J-17.484 E.05989
G3 X81.917 Y88.192 I-1.298 J-61.58 E.01367
G3 X72.977 Y86.625 I-.987 J-20.652 E.06191
G3 X68.021 Y83.264 I5.884 J-14.011 E.04078
G3 X64.86 Y78.173 I10.858 J-10.269 E.04082
G3 X62.76 Y69.875 I32.129 J-12.545 E.05806
G3 X63.279 Y61.518 I22.532 J-2.796 E.05697
G3 X64.324 Y58.755 I14.423 J3.874 E.02002
G3 X66.397 Y56.475 I6.36 J3.702 E.021
G2 X66.855 Y55.833 I-1.113 J-1.279 E.00539
G3 X71.176 Y51.099 I11.274 J5.95 E.04383
G3 X71.565 Y50.903 I.68 J.871 E.00297
G3 X71.714 Y51.057 I.029 J.121 E.00174
G3 X71.306 Y51.766 I-2.828 J-1.158 E.00555
G2 X70.465 Y53.358 I7.805 J5.14 E.0122
G2 X70.553 Y53.594 I.386 J-.009 E.00174
G2 X71.462 Y53.197 I-39.731 J-92.195 E.00671
G3 X73.364 Y52.759 I3.187 J9.493 E.01322
G3 X75.73 Y52.414 I8.628 J50.831 E.01618
G2 X75.871 Y52.207 I-.086 J-.21 E.00179
G2 X74.938 Y50.944 I-24.944 J17.454 E.01063
G3 X72.836 Y47.058 I11.016 J-8.468 E.03001
G3 X72.437 Y45.104 I6.985 J-2.445 E.01354
G3 X72.536 Y44.61 I5.464 J.841 E.00341
G3 X73.866 Y42.768 I1.785 J-.112 E.01665
G3 X74.552 Y42.613 I1.875 J6.706 E.00476
G2 X74.606 Y42.33 I-.427 J-.227 E.00198
G3 X74.745 Y36.503 I29.881 J-2.202 E.03949
G1 X74.98 Y34.451 E.01398
G3 X75.147 Y34.083 I.853 J.166 E.00276
G2 X75.218 Y33.704 I-.882 J-.361 E.00262
G3 X75.264 Y32.708 I2.348 J-.392 E.0068
G3 X75.794 Y32.351 I.634 J.37 E.00447
G3 X76.624 Y32.225 I1.536 J7.282 E.00568
G3 X78.818 Y32.092 I2.826 J28.518 E.01487
G3 X79.653 Y32.457 I-.03 J1.208 E.00632
G3 X79.843 Y33.017 I-.904 J.618 E.00405
G1 X79.843 Y33.565 E.00371
G3 X80.201 Y33.916 I-.171 J.533 E.00351
G3 X81.804 Y37.619 I-32.22 J16.145 E.02732
G2 X82.096 Y37.761 I.264 J-.171 E.00231
G3 X83.827 Y33.784 I42.959 J16.333 E.02935
G3 X84.114 Y33.524 I.545 J.313 E.00266
G3 X84.14 Y32.801 I2.994 J-.254 E.00491
G3 X84.843 Y32.137 I.861 J.208 E.00692
G3 X85.711 Y32.084 I.576 J2.275 E.00592
G3 X88.116 Y32.303 I-1.136 J25.773 E.01634
G3 X88.669 Y32.623 I-.103 J.818 E.00444
G3 X88.743 Y33.565 I-1.605 J.599 E.00648
G2 X88.79 Y34.03 I.777 J.156 E.00321
G3 X88.976 Y34.361 I-.419 J.452 E.00261
G3 X89.306 Y37.264 I-446.216 J52.226 E.01976
G3 X89.377 Y41.758 I-28.994 J2.704 E.03044
G2 X89.386 Y42.587 I5.123 J.359 E.00561
G3 X90.353 Y42.873 I-6.463 J23.645 E.00683
G3 X91.429 Y44.611 I-.591 J1.568 E.01488
G2 X91.521 Y44.974 I1.686 J-.235 E.00253
G3 X91.307 Y46.449 I-5.262 J-.01 E.01012
G3 X89.399 Y50.404 I-12.041 J-3.372 E.02986
G2 X87.963 Y52.351 I338.204 J250.827 E.01637
G3 X93.678 Y54.092 I-5.269 J27.551 E.04049
G1 X93.996 Y54.202 E.00228
G1 X94.3 Y54.482 F21000
;TYPE:Inner wall
G1 F3000
G2 X93.874 Y53.472 I-7.957 J2.766 E.00742
G2 X92.767 Y51.43 I-13.404 J5.943 E.01573
G1 X92.644 Y51.19 E.00183
G1 X92.696 Y51.139 E.0005
G1 X92.731 Y51.158 E.00027
G3 X97.176 Y56.063 I-6.528 J10.381 E.04534
G2 X98.05 Y56.96 I2.66 J-1.718 E.00853
G3 X100.188 Y60.086 I-4.586 J5.431 E.02593
G3 X101.34 Y66.84 I-18.03 J6.551 E.0466
G3 X100.095 Y75.045 I-28.357 J-.105 E.05634
G3 X98.611 Y79.178 I-34.725 J-10.132 E.02973
G3 X92.355 Y85.821 I-12.875 J-5.859 E.06286
G3 X83.932 Y88.017 I-9.018 J-17.336 E.05939
G3 X81.914 Y88.026 I-1.294 J-61.721 E.01365
G3 X73.044 Y86.473 I-.983 J-20.487 E.06142
G3 X68.141 Y83.149 I5.819 J-13.861 E.04034
G3 X65.015 Y78.113 I10.74 J-10.156 E.04037
