; HEADER_BLOCK_START
; generated by OrcaSlicer 1.6.6 on 2023-09-05 at 20:36:32
; total layer number: 5
; HEADER_BLOCK_END

; THUMBNAIL_BLOCK_START
; THUMBNAIL_BLOCK_END

; external perimeters extrusion width = 0.15mm
; perimeters extrusion width = 0.17mm
; infill extrusion width = 0.24mm
; solid infill extrusion width = 0.21mm
; top infill extrusion width = 0.15mm
; first layer extrusion width = 0.19mm

; EXECUTABLE_BLOCK_START
EXCLUDE_OBJECT_DEFINE NAME=makimahair.stl_id_0_copy_0 CENTER=60,60 POLYGON=[[34.8049,55.7934],[34.8188,55.113],[34.8485,54.4334],[34.8945,53.7547],[34.9573,53.0771],[35.0376,52.4007],[35.1357,51.7257],[35.2524,51.0523],[35.3881,50.3806],[35.4687,50.0181],[35.5542,49.6576],[35.6449,49.2989],[35.7409,48.9421],[35.8425,48.5871],[35.95,48.234],[36.0635,47.8827],[36.1833,47.5334],[36.3096,47.1859],[36.4426,46.8402],[36.5827,46.4964],[36.8362,45.9052],[36.9534,45.6606],[37.0815,45.4204],[37.2203,45.1847],[37.3697,44.9533],[37.5295,44.7262],[37.6995,44.5033],[42.2027,38.8675],[42.4607,38.5597],[42.7265,38.2585],[43.0003,37.9644],[43.282,37.6775],[43.5719,37.398],[43.8698,37.1262],[44.1761,36.8624],[44.4906,36.6067],[44.519,36.5843],[44.5483,36.5619],[44.5783,36.5396],[44.609,36.5172],[44.6404,36.4948],[44.6723,36.4725],[44.7047,36.4501],[44.7374,36.4278],[44.7705,36.4054],[44.8038,36.383],[44.8372,36.3607],[44.8708,36.3383],[75.0858,36.2936],[75.1417,36.3383],[75.7008,36.7855],[75.7567,36.8303],[76.1416,37.1712],[76.5136,37.5231],[76.8729,37.8857],[77.2196,38.2588],[77.5538,38.6422],[77.8758,39.0355],[82.2649,44.5056],[82.4397,44.7346],[82.606,44.9694],[82.7639,45.2097],[82.9135,45.4555],[83.0547,45.7066],[83.1875,45.9628],[83.3119,46.2239],[83.4279,46.4899],[83.6698,47.1011],[83.8924,47.716],[84.0961,48.3346],[84.2811,48.9569],[84.4478,49.583],[84.5965,50.2128],[84.7274,50.8464],[84.841,51.4837],[84.9375,52.1246],[85.0173,52.7694],[85.0805,53.4178],[85.1276,54.07],[85.1649,54.7683],[85.1874,55.4657],[85.1951,56.1621],[85.1881,56.8576],[85.1665,57.5521],[85.1304,58.2458],[85.0799,58.9385],[85.015,59.6302],[84.9358,60.3211],[84.8424,61.011],[84.7348,61.7],[84.6132,62.388],[84.467,63.1403],[84.3079,63.8882],[84.1362,64.6317],[83.9522,65.371],[83.7561,66.1062],[83.5481,66.8376],[83.3285,67.5653],[83.0974,68.2894],[82.8551,69.0101],[82.6019,69.7275],[82.338,70.4418],[82.0636,71.1532],[81.6023,72.226],[81.0906,73.253],[80.5282,74.234],[79.915,75.1689],[79.2508,76.0575],[78.5356,76.8997],[77.7691,77.6954],[76.9512,78.4442],[76.0817,79.1462],[75.1606,79.8012],[74.1875,80.4089],[73.1624,80.9693],[72.3415,81.3705],[71.5114,81.7365],[70.6726,82.0681],[69.8251,82.3664],[68.9692,82.6324],[68.1052,82.8671],[67.2332,83.0715],[66.3535,83.2467],[65.4664,83.3936],[64.5721,83.5133],[63.6708,83.6067],[62.7627,83.6749],[62.4943,83.689],[62.226,83.6983],[61.9576,83.7035],[61.6892,83.7055],[58.6253,83.7064],[58.1671,83.7008],[57.7091,83.6882],[57.2514,83.6684],[56.7941,83.6414],[56.3372,83.6069],[55.881,83.5648],[55.4253,83.5149],[54.9703,83.4571],[54.5161,83.3912],[54.0628,83.3171],[53.4501,83.2052],[52.842,83.0815],[52.2386,82.9454],[51.6399,82.7962],[51.0458,82.6334],[50.4564,82.4563],[49.8717,82.2642],[49.2916,82.0567],[48.7162,81.8329],[48.1454,81.5925],[47.5793,81.3346],[47.0178,81.0588],[46.0818,80.5584],[45.1861,80.0187],[44.3309,79.4394],[43.5165,78.8202],[42.743,78.161],[42.0109,77.4616],[41.3202,76.7215],[40.6712,75.9407],[40.0641,75.119],[39.4992,74.2559],[38.9767,73.3515],[38.4968,72.4054],[38.3812,72.1585],[38.2691,71.9099],[38.1603,71.6598],[38.0544,71.4083],[37.9514,71.1555],[37.851,70.9016],[37.7529,70.6468],[37.6569,70.3913],[37.5627,70.1351],[37.4702,69.8784],[37.379,69.6215],[37.2891,69.3643],[36.9844,68.4848],[36.6971,67.6014],[36.4277,66.714],[36.1766,65.8223],[35.9445,64.9263],[35.7319,64.0259],[35.5394,63.1207],[35.3674,62.2108],[35.2165,61.2958],[35.0873,60.3758],[34.9803,59.4504],[34.896,58.5197],[34.8523,57.8377],[34.8222,57.1559],[34.8062,56.4744],[34.8049,55.7934]]
M73 P0 R9
;TYPE:Custom
START_PRINT T_BED=60 T_EXTRUDER=220
G90
G21
M83 ; use relative distances for extrusion
; filament start gcode

    PRESSURE_ADVANCE_SELECT FILAMENT=PLA
M106 S0
;LAYER_CHANGE
;Z:0.1
;HEIGHT:0.1
;BEFORE_LAYER_CHANGE
;0.1
G92 E0

;AFTER_LAYER_CHANGE
;0.1
SET_VELOCITY_LIMIT ACCEL=500 ACCEL_TO_DECEL=250
SET_VELOCITY_LIMIT SQUARE_CORNER_VELOCITY=9
G1 E-.8 F3000
G1 Z.2 F21000
G1 X40.827 Y36.918
G1 Z.2
G1 Z.1
G1 E.8 F1800
;TYPE:Skirt
;WIDTH:0.1875
G1 F3000
G1 X41.618 Y36.044 E.00798
G1 X42.654 Y35.096 E.0095
G1 X43.565 Y34.406 E.00773
G1 X44.867 Y34.006 E.00922
G1 X75.082 Y33.962 E.20441
G1 X76.542 Y34.472 E.01046
G1 X78.116 Y35.829 E.01406
G1 X79.312 Y37.11 E.01185
G1 X84.084 Y43.046 E.05153
G1 X84.756 Y43.997 E.00788
G1 X85.566 Y45.558 E.01189
G1 X86.311 Y47.605 E.01474
G1 X86.866 Y49.677 E.01451
G1 X87.252 Y51.838 E.01485
G1 X87.518 Y55.391 E.0241
G1 X87.459 Y58.367 E.02014
G1 X87.153 Y61.324 E.02011
G1 X86.589 Y64.373 E.02098
G1 X85.561 Y68.239 E.02706
G1 X84.239 Y71.992 E.02692
G1 X83.114 Y74.413 E.01806
G1 X81.783 Y76.565 E.01712
G1 X80.215 Y78.518 E.01694
G1 X78.526 Y80.164 E.01596
G1 X77.433 Y81.047 E.0095
G1 X75.306 Y82.455 E.01726
G1 X73.282 Y83.504 E.01542
G1 X70.517 Y84.593 E.0201
G1 X67.766 Y85.342 E.01929
G1 X64.881 Y85.825 E.01978
G1 X62.272 Y86.03 E.01771
G1 X57.609 Y86.018 E.03155
G1 X55.131 Y85.828 E.01681
G1 X52.377 Y85.367 E.01889
G1 X49.729 Y84.672 E.01852
G1 X47.24 Y83.742 E.01797
G1 X44.982 Y82.615 E.01707
G1 X43.023 Y81.37 E.01571
G1 X41.23 Y79.936 E.01553
G1 X39.615 Y78.313 E.01549
G1 X38.188 Y76.505 E.01558
G1 X36.957 Y74.518 E.01581
G1 X35.89 Y72.277 E.01679
G1 X34.781 Y69.25 E.02181
G1 X33.919 Y66.407 E.0201
G1 X33.248 Y63.554 E.01983
G1 X32.778 Y60.7 E.01957
G1 X32.525 Y57.987 E.01843
G1 X32.487 Y55.065 E.01977
G1 X32.641 Y52.802 E.01534
G1 X33.102 Y49.919 E.01975
G1 X33.731 Y47.517 E.0168
G1 X34.733 Y44.897 E.01897
G1 X35.622 Y43.384 E.01187
G1 X40.381 Y37.412 E.05166
G1 X40.817 Y36.93 E.0044
G1 X40.936 Y37.034 F21000
G1 F3000
G1 X41.455 Y36.447 E.0053
G1 X42.456 Y35.485 E.00939
G1 X43.658 Y34.544 E.01033
G1 X44.868 Y34.172 E.00856
G1 X75.083 Y34.128 E.20441
G1 X76.439 Y34.602 E.00972
G1 X78.002 Y35.95 E.01396
G1 X79.186 Y37.219 E.01174
G1 X83.954 Y43.15 E.05148
G1 X84.614 Y44.084 E.00773
G1 X85.413 Y45.624 E.01174
G1 X86.153 Y47.657 E.01464
G1 X86.705 Y49.715 E.01441
G1 X87.087 Y51.859 E.01473
G1 X87.352 Y55.396 E.024
M73 P1 R9
G1 X87.294 Y58.358 E.02004
G1 X86.989 Y61.302 E.02002
G1 X86.427 Y64.339 E.0209
G1 X85.402 Y68.191 E.02697
G1 X84.085 Y71.933 E.02683
G1 X82.97 Y74.33 E.01789
G1 X81.65 Y76.466 E.01698
G1 X80.095 Y78.403 E.0168
G1 X78.414 Y80.042 E.01589
G1 X77.337 Y80.912 E.00937
G1 X75.226 Y82.309 E.01712
G1 X73.215 Y83.353 E.01533
G1 X70.468 Y84.435 E.01998
G1 X67.728 Y85.18 E.01921
G1 X64.859 Y85.66 E.01967
G1 X62.268 Y85.864 E.01758
G1 X57.616 Y85.852 E.03148
G1 X55.152 Y85.664 E.01671
G1 X52.41 Y85.204 E.01881
G1 X49.781 Y84.514 E.01839
G1 X47.304 Y83.589 E.01788
G1 X45.061 Y82.469 E.01697
G1 X43.116 Y81.233 E.01559
G1 X41.338 Y79.81 E.01541
G1 X39.737 Y78.199 E.01536
G1 X38.322 Y76.406 E.01545
G1 X37.101 Y74.435 E.01568
G1 X36.044 Y72.215 E.01663
G1 X34.938 Y69.195 E.02176
G1 X34.08 Y66.366 E.02
G1 X33.411 Y63.523 E.01975
G1 X32.942 Y60.677 E.01951
G1 X32.691 Y57.976 E.01835
G1 X32.653 Y55.069 E.01967
G1 X32.806 Y52.822 E.01523
G1 X33.265 Y49.952 E.01966
G1 X33.889 Y47.568 E.01667
G1 X34.883 Y44.969 E.01882
G1 X35.758 Y43.48 E.01169
G1 X40.511 Y37.515 E.05159
G1 X40.926 Y37.046 E.00424
; printing object makimahair.stl id:0 copy 0
G1 E-.8
EXCLUDE_OBJECT_START NAME=makimahair.stl_id_0_copy_0
G1 Z.3 F21000
G1 X60.907 Y51.849 Z.3
G1 Z.1
G1 E.8 F1800
;TYPE:Outer wall
;WIDTH:0.187499
G1 F3000
G2 X60.221 Y53.249 I6.686 J4.145 E.01057
G2 X59.864 Y55.458 I8.786 J2.554 E.01517
G2 X59.898 Y58.249 I17.29 J1.185 E.0189
G1 X60.046 Y58.893 E.00447
G1 X60.16 Y59.043 E.00127
G1 X60.339 Y59.114 E.0013
G1 X60.566 Y59.083 E.00155
G1 X60.737 Y58.942 E.0015
G1 X60.797 Y58.713 E.00161
G3 X60.684 Y57.59 I5.249 J-1.096 E.00765
G1 X60.787 Y57.105 E.00336
G3 X61.295 Y55.997 I23.603 J10.145 E.00824
G3 X66.84 Y51.996 I6.756 J3.52 E.04797
G1 X66.812 Y52.045 E.00038
G2 X66.003 Y53.706 I8.839 J5.338 E.01252
G1 X65.732 Y54.626 E.00649
G2 X65.637 Y57.602 I7.791 J1.74 E.02026
G1 X65.759 Y58.107 E.00352
G1 X65.888 Y58.353 E.00188
G1 X66.033 Y58.457 E.00121
G1 X66.288 Y58.497 E.00174
G1 X66.516 Y58.403 E.00167
G2 X70.375 Y53.538 I-8.188 J-10.457 E.04239
G1 X70.753 Y52.685 E.00631
G1 X70.907 Y53.008 E.00242
G3 X70.985 Y58.053 I-8.696 J2.658 E.03459
G1 X70.902 Y58.578 E.0036
G1 X71.018 Y58.807 E.00174
G1 X71.182 Y58.886 E.00123
G1 X71.464 Y58.834 E.00194
G1 X71.611 Y58.696 E.00136
G2 X73.383 Y55.662 I-72.096 J-44.158 E.02377
G2 X74.324 Y52.86 I-9.487 J-4.745 E.02006
G1 X74.444 Y52.26 E.00414
G3 X75.221 Y54.024 I-9.382 J5.188 E.01306
G3 X75.92 Y57.948 I-12.445 J4.242 E.02707
G1 X75.927 Y58.604 E.00443
G1 X75.822 Y59.394 E.00539
G3 X74.566 Y63.608 I-40.661 J-9.825 E.02976
G1 X74.499 Y63.977 E.00254
G1 X74.554 Y64.165 E.00132
G1 X74.744 Y64.318 E.00165
G1 X74.976 Y64.338 E.00158
G1 X75.231 Y64.15 E.00214
G1 X75.443 Y63.648 E.00369
G2 X76.878 Y41.116 I-40.169 J-13.871 E.15459
G2 X75.122 Y36.443 I-16.657 J3.595 E.0339
G3 X79.839 Y42.338 I-10.308 J13.082 E.05153
G3 X81.925 Y50.587 I-19.31 J9.272 E.05795
G3 X81.306 Y59.011 I-34.372 J1.707 E.05728
M73 P2 R9
G3 X80.159 Y63.789 I-40.972 J-7.306 E.03326
G3 X79.005 Y66.372 I-12.969 J-4.245 E.01917
G1 X78.963 Y66.626 E.00174
G1 X79.074 Y66.844 E.00165
G1 X79.27 Y66.954 E.00152
G1 X79.545 Y66.909 E.00189
G1 X79.801 Y66.606 E.00268
G2 X81.145 Y63.32 I-13.192 J-7.313 E.02407
G2 X82.751 Y53.856 I-42.201 J-12.029 E.06507
G2 X82.555 Y48.678 I-31.375 J-1.405 E.03509
G2 X81.522 Y44.309 I-23.422 J3.23 E.03042
G1 X81.31 Y43.632 E.0048
G3 X83.347 Y46.54 I-5.47 J5.999 E.02421
G3 X85.072 Y54.785 I-22.022 J8.909 E.05728
G3 X85.101 Y56.175 I-32.864 J1.394 E.00941
G3 X83.861 Y65.348 I-36.098 J-.209 E.06279
G3 X81.517 Y72.186 I-43.82 J-11.199 E.04896
G3 X74.14 Y80.328 I-16.493 J-7.532 E.07551
G3 X64.561 Y83.42 I-12.249 J-21.562 E.06857
G3 X61.956 Y83.61 I-3.455 J-29.482 E.01767
G3 X57.712 Y83.594 I-.666 J-403.468 E.02871
G3 X48.183 Y81.507 I.789 J-26.393 E.06638
G3 X42.806 Y78.091 I8.201 J-18.853 E.04327
G3 X38.141 Y71.372 I12.607 J-13.731 E.05579
G3 X35.457 Y62.178 I44.084 J-17.858 E.06491
G3 X35.052 Y53.073 I32.5 J-6.006 E.06185
G3 X36.928 Y45.931 I23.786 J2.43 E.05016
G3 X38.623 Y43.647 I6.769 J3.251 E.01936
G2 X37.136 Y52.358 I23.462 J8.488 E.0601
G2 X38.121 Y60.787 I39.318 J-.322 E.05752
G2 X39.3 Y64.895 I23.091 J-4.405 E.02895
G2 X40.062 Y66.532 I26.034 J-11.135 E.01222
G1 X40.325 Y66.894 E.00303
G1 X40.5 Y66.983 E.00133
G1 X40.699 Y66.967 E.00135
G1 X40.873 Y66.853 E.00141
G1 X40.951 Y66.633 E.00158
G1 X40.833 Y66.282 E.00251
G3 X39.444 Y62.753 I12.756 J-7.059 E.02573
G3 X37.956 Y51.578 I37.611 J-10.695 E.07653
G3 X39.994 Y42.578 I22.114 J.277 E.06289
G3 X43.932 Y37.197 I15.287 J7.055 E.04541
G3 X44.767 Y36.524 I10.952 J12.749 E.00725
G2 X43.907 Y38.379 I41.035 J20.155 E.01383
G2 X42.831 Y42.292 I19.296 J7.411 E.0275
G2 X43.03 Y58.14 I41.529 J7.402 E.10786
G2 X44.602 Y63.887 I42.226 J-8.46 E.04033
G1 X44.789 Y64.241 E.00271
G1 X45.041 Y64.35 E.00186
G1 X45.302 Y64.287 E.00181
G1 X45.445 Y64.094 E.00162
G1 X45.371 Y63.624 E.00322
G3 X43.651 Y57.1 I41.265 J-14.367 E.04569
G1 X43.539 Y56.277 E.00562
G1 X43.577 Y55.793 E.00328
G1 X43.828 Y55.054 E.00528
G3 X46.061 Y52.32 I5.627 J2.316 E.02423
G2 X45.964 Y55.519 I10.261 J1.913 E.02174
G1 X46.152 Y56.268 E.00522
G3 X46.008 Y57.289 I-5.039 J-.186 E.00699
G1 X45.894 Y58.185 E.00611
G1 X45.927 Y58.697 E.00347
G1 X46.053 Y58.886 E.00154
G1 X46.296 Y58.989 E.00178
G1 X46.514 Y58.923 E.00154
G1 X46.667 Y58.697 E.00185
G3 X46.855 Y57.228 I15.637 J1.255 E.01002
G1 X47.098 Y56.326 E.00632
M73 P3 R9
G1 X47.451 Y55.493 E.00612
G1 X47.914 Y54.728 E.00605
G1 X48.487 Y54.027 E.00612
G1 X49.161 Y53.4 E.00623
G1 X49.568 Y53.091 E.00345
G1 X49.691 Y53.05 E.00088
G1 X49.687 Y53.161 E.00075
G2 X50.012 Y56.952 I7.325 J1.282 E.02603
G1 X50.348 Y57.895 E.00677
G2 X50.301 Y59.889 I41.129 J1.97 E.01349
G2 X50.469 Y61.688 I20.962 J-1.04 E.01223
G2 X50.857 Y63.391 I17.435 J-3.085 E.01182
G1 X51.053 Y63.935 E.00391
G1 X51.21 Y64.166 E.00189
G1 X51.439 Y64.244 E.00164
G1 X51.648 Y64.193 E.00145
G1 X51.797 Y64.019 E.00155
G1 X51.823 Y63.773 E.00168
G3 X51.408 Y62.182 I35.222 J-10.031 E.01112
G3 X51.296 Y57.535 I12.704 J-2.632 E.03162
G3 X53.076 Y53.694 I7.886 J1.323 E.02898
G3 X54.228 Y52.618 I6.048 J5.319 E.01068
G2 X53.49 Y56.361 I9.986 J3.915 E.02595
G2 X53.516 Y57.651 I10.739 J.422 E.00874
G1 X53.616 Y57.897 E.0018
G1 X53.822 Y58.023 E.00163
G1 X54.046 Y58.006 E.00152
G1 X54.261 Y57.774 E.00214
G3 X54.664 Y56.631 I10.814 J3.169 E.0082
G3 X57.821 Y52.914 I8.861 J4.326 E.03334
G3 X60.383 Y51.871 I3.823 J5.724 E.01884
G1 X60.893 Y51.85 E.00345
G1 X60.611 Y52.028 F21000
;TYPE:Inner wall
G1 F3000
G2 X59.89 Y53.854 I4.705 J2.914 E.01335
G2 X59.698 Y55.451 I8.401 J1.817 E.0109
G2 X59.683 Y57.591 I21 J1.218 E.01448
G1 X59.736 Y58.286 E.00472
G1 X59.884 Y58.93 E.00447
G1 X60.036 Y59.153 E.00182
G1 X60.288 Y59.272 E.00188
G1 X60.612 Y59.243 E.0022
G1 X60.871 Y59.042 E.00222
G1 X60.96 Y58.744 E.00211
G3 X60.851 Y57.607 I6.618 J-1.214 E.00774
G1 X60.946 Y57.155 E.00312
G1 X61.325 Y56.286 E.00642
G3 X66.522 Y52.221 I6.742 J3.264 E.04622
G2 X65.845 Y53.654 I8.539 J4.909 E.01073
G1 X65.57 Y54.593 E.00662
G2 X65.475 Y57.641 I7.922 J1.771 E.02075
G1 X65.598 Y58.146 E.00352
G1 X65.742 Y58.431 E.00216
G1 X65.973 Y58.615 E.002
G1 X66.279 Y58.663 E.0021
G1 X66.585 Y58.554 E.0022
G2 X70.758 Y53.09 I-8.078 J-10.495 E.04704
G3 X70.782 Y58.197 I-8.708 J2.594 E.03502
G1 X70.751 Y58.677 E.00325
G1 X70.945 Y58.967 E.00236
G1 X71.212 Y59.057 E.00191
G1 X71.597 Y58.951 E.0027
G1 X71.752 Y58.784 E.00154
G2 X73.533 Y55.733 I-71.563 J-43.842 E.0239
G2 X74.515 Y52.744 I-9.696 J-4.84 E.02136
G3 X75.754 Y57.953 I-11.581 J5.507 E.03649
G1 X75.761 Y58.59 E.00431
G1 X75.659 Y59.358 E.00524
G3 X74.409 Y63.552 I-40.479 J-9.783 E.02962
G1 X74.333 Y63.962 E.00282
G1 X74.419 Y64.266 E.00214
G1 X74.692 Y64.479 E.00234
G1 X75.02 Y64.499 E.00222
G1 X75.304 Y64.317 E.00228
G1 X75.384 Y64.215 E.00088
G1 X75.622 Y63.636 E.00423
G2 X77.039 Y41.071 I-40.358 J-13.861 E.1548
G2 X75.642 Y37.076 I-17.22 J3.777 E.0287
G3 X80.019 Y43.116 I-11.269 J12.772 E.05087
G3 X81.798 Y51.638 I-20.148 J8.653 E.05929
G3 X81.143 Y58.98 I-34.963 J.578 E.04996
G3 X80.002 Y63.737 I-40.814 J-7.277 E.03311
G3 X78.86 Y66.291 I-12.818 J-4.196 E.01896
G1 X78.798 Y66.67 E.0026
G1 X78.938 Y66.94 E.00206
G1 X79.197 Y67.103 E.00207
G1 X79.355 Y67.123 E.00108
G1 X79.694 Y67.012 E.00242
G1 X79.947 Y66.686 E.00279
G2 X81.358 Y63.168 I-13.616 J-7.505 E.02571
G2 X82.904 Y54.092 I-42.833 J-11.963 E.0624
G2 X82.72 Y48.658 I-33.028 J-1.602 E.03683
G2 X81.662 Y44.206 I-23.574 J3.248 E.031
G3 X83.429 Y47.2 I-6.312 J5.743 E.02368
G3 X84.928 Y55.483 I-23.015 J8.441 E.05723
G1 X84.935 Y56.174 E.00468
G3 X83.701 Y65.306 I-35.932 J-.208 E.06251
G3 X81.367 Y72.117 I-43.656 J-11.157 E.04876
G3 X74.056 Y80.185 I-16.343 J-7.462 E.07483
M73 P4 R9
G3 X64.541 Y83.255 I-12.165 J-21.417 E.06811
G3 X61.954 Y83.444 I-3.434 J-29.298 E.01756
G3 X57.718 Y83.429 I-.663 J-405.114 E.02865
G3 X48.25 Y81.355 I.783 J-26.227 E.06595
G3 X42.917 Y77.968 I8.133 J-18.698 E.04291
G3 X38.294 Y71.309 I12.495 J-13.607 E.05529
G3 X35.623 Y62.165 I43.958 J-17.805 E.06455
G3 X35.216 Y53.104 I32.114 J-5.984 E.06156
G3 X37.072 Y46.015 I23.579 J2.386 E.04977
G3 X38.235 Y44.276 I6.156 J2.86 E.01421
G2 X36.972 Y52.532 I23.663 J7.844 E.05677
G2 X37.776 Y59.937 I38.427 J-.424 E.05047
G2 X38.89 Y64.291 I31.985 J-5.865 E.03043
G2 X39.913 Y66.604 I20.569 J-7.714 E.01712
G1 X40.191 Y66.992 E.00323
G1 X40.469 Y67.148 E.00216
G1 X40.776 Y67.117 E.00209
G1 X41.028 Y66.928 E.00213
G1 X41.119 Y66.594 E.00235
G1 X40.979 Y66.202 E.00282
G3 X39.604 Y62.708 I12.611 J-6.98 E.02547
G3 X38.122 Y51.582 I37.452 J-10.651 E.0762
G3 X40.144 Y42.649 I21.948 J.273 E.06242
