; HEADER_BLOCK_START
; generated by OrcaSlicer 1.6.6 on 2023-09-05 at 20:48:28
; total layer number: 37
; HEADER_BLOCK_END

; THUMBNAIL_BLOCK_START
; THUMBNAIL_BLOCK_END

; external perimeters extrusion width = 0.15mm
; perimeters extrusion width = 0.17mm
; infill extrusion width = 0.24mm
; solid infill extrusion width = 0.21mm
; top infill extrusion width = 0.15mm
; first layer extrusion width = 0.19mm

; EXECUTABLE_BLOCK_START
EXCLUDE_OBJECT_DEFINE NAME=MakimaKeychainByPekole.stl_id_0_copy_0 CENTER=60,60 POLYGON=[[33.9333,68.7939],[33.9423,68.2321],[33.9617,67.6703],[33.9919,67.1087],[34.0334,66.5474],[34.0866,65.9865],[34.1521,65.4263],[34.2303,64.8668],[34.3085,64.3488],[34.3964,63.8336],[34.4944,63.3214],[34.6026,62.8123],[34.7216,62.3063],[34.8516,61.8036],[34.9928,61.3041],[35.1457,60.808],[35.3104,60.3154],[35.4875,59.8263],[35.677,59.3407],[35.8795,58.8589],[50.8388,23.3704],[50.8865,23.2801],[50.9447,23.1984],[51.0137,23.1247],[51.094,23.0584],[51.1858,22.999],[51.2896,22.946],[51.4059,22.8987],[51.5801,22.8407],[51.6253,22.8264],[51.6704,22.8137],[51.7156,22.8024],[51.7608,22.7923],[51.806,22.7834],[51.8512,22.7753],[51.8964,22.7681],[52.2465,22.7138],[52.303,22.7053],[52.3595,22.6975],[52.4159,22.6902],[52.4724,22.6833],[52.5289,22.6769],[52.5854,22.6708],[52.6418,22.6649],[52.6983,22.6591],[52.7548,22.6535],[52.9746,22.6366],[53.1936,22.6197],[53.412,22.603],[53.63,22.5866],[53.8476,22.5704],[54.0651,22.5547],[54.2825,22.5394],[54.5001,22.5247],[54.7181,22.5106],[54.9365,22.4972],[55.1555,22.4845],[55.4384,22.4685],[55.5029,22.4669],[64.3327,22.4445],[64.406,22.446],[64.6832,22.4568],[64.8879,22.4651],[65.0933,22.4749],[65.2994,22.4862],[65.5062,22.4987],[65.7135,22.5123],[65.9212,22.5269],[66.1294,22.5422],[66.3379,22.5582],[66.5466,22.5746],[67.043,22.6144],[67.1209,22.6214],[67.1981,22.6291],[67.2748,22.6376],[67.3513,22.6467],[67.4275,22.6563],[67.5038,22.6664],[67.5802,22.6769],[67.657,22.6877],[67.7342,22.6988],[67.8907,22.7212],[68.114,22.7596],[68.3104,22.8078],[68.4812,22.8674],[68.6278,22.9396],[68.7515,23.0259],[68.8536,23.1278],[68.9355,23.2466],[68.9984,23.3838],[84.269,59.1977],[84.5081,59.8038],[84.7288,60.4136],[84.9312,61.0272],[85.1157,61.6445],[85.2827,62.2657],[85.4324,62.8905],[85.5652,63.5192],[85.6813,64.1516],[85.7812,64.7878],[85.865,65.4277],[85.9331,66.0714],[85.9859,66.7189],[86.0288,67.4577],[86.0557,68.1947],[86.0667,68.9302],[86.0667,68.9302],[86.062,69.6643],[86.0417,70.3971],[86.0057,71.1288],[85.9541,71.8596],[85.8872,72.5896],[85.8048,73.3189],[85.7072,74.0478],[85.5943,74.7764],[85.4663,75.5048],[85.3186,76.2592],[85.158,77.009],[84.9848,77.7546],[84.7995,78.4962],[84.6022,79.2341],[84.3933,79.9684],[84.173,80.6994],[83.9419,81.4274],[83.7,82.1526],[83.4478,82.8751],[83.1855,83.5953],[82.9136,84.3134],[82.3973,85.5274],[81.82,86.6849],[81.1818,87.7857],[80.4829,88.8298],[79.7235,89.8171],[78.9037,90.7476],[78.0236,91.6212],[77.0834,92.4377],[76.0834,93.1971],[75.0235,93.8994],[73.904,94.5444],[72.7251,95.1321],[71.7434,95.561],[70.7525,95.9447],[69.7526,96.2844],[68.7441,96.581],[67.7271,96.8356],[66.7018,97.0491],[65.6686,97.2227],[64.6275,97.3573],[63.579,97.4539],[62.5231,97.5136],[61.4602,97.5374],[58.8335,97.5544],[58.3386,97.5555],[57.8444,97.548],[57.3509,97.5317],[56.8579,97.5065],[56.3653,97.4724],[55.8732,97.4292],[55.3813,97.377],[54.8897,97.3156],[54.3983,97.2449],[53.9069,97.1649],[53.3836,97.0755],[52.8639,96.9765],[52.3478,96.8677],[51.8353,96.7491],[51.3262,96.6205],[50.8205,96.4817],[50.318,96.3325],[49.8188,96.1728],[49.3228,96.0024],[48.8298,95.8212],[48.3397,95.6291],[47.8526,95.4258],[46.5805,94.8348],[45.3737,94.1797],[44.2324,93.4604],[43.157,92.677],[42.1479,91.8292],[41.2052,90.917],[40.3294,89.9404],[39.5208,88.8992],[38.7796,87.7934],[38.1061,86.623],[37.5008,85.3877],[36.9638,84.0876],[36.8344,83.737],[36.7062,83.3855],[36.5794,83.0331],[36.4543,82.6797],[36.331,82.3254],[36.2098,81.9701],[36.091,81.6139],[35.9748,81.2568],[35.8615,80.8987],[35.7511,80.5397],[35.6441,80.1797],[35.5406,79.8188],[35.3533,79.1459],[35.1759,78.471],[35.0087,77.7942],[34.852,77.1152],[34.7063,76.4339],[34.572,75.7505],[34.4495,75.0646],[34.3391,74.3764],[34.2413,73.6856],[34.1564,72.9923],[34.0848,72.2962],[34.027,71.5975],[33.9913,71.038],[33.9636,70.4778],[33.9444,69.9169],[33.9341,69.3556],[33.9333,68.7939]]
M73 P0 R46
M73 C38
;TYPE:Custom
START_PRINT T_BED=60 T_EXTRUDER=220
G90
G21
M83 ; use relative distances for extrusion
; filament start gcode

    PRESSURE_ADVANCE_SELECT FILAMENT=PLA
M106 S0
;LAYER_CHANGE
;Z:0.1
;HEIGHT:0.1
;BEFORE_LAYER_CHANGE
;0.1
G92 E0

;AFTER_LAYER_CHANGE
;0.1
SET_VELOCITY_LIMIT ACCEL=500 ACCEL_TO_DECEL=250
SET_VELOCITY_LIMIT SQUARE_CORNER_VELOCITY=9
G1 E-.8 F3000
G1 Z.2 F21000
G1 X48.69 Y22.465
G1 Z.2
G1 Z.1
G1 E.8 F1800
;TYPE:Skirt
;WIDTH:0.1875
G1 F3000
G1 X49.045 Y21.846 E.00483
G1 X49.609 Y21.26 E.0055
G1 X50.229 Y20.869 E.00496
G1 X51.084 Y20.558 E.00616
G1 X52.102 Y20.38 E.00699
G1 X55.426 Y20.136 E.02255
G1 X64.421 Y20.114 E.06085
G1 X67.507 Y20.317 E.02092
G1 X69.078 Y20.606 E.01081
G1 X69.659 Y20.848 E.00426
G1 X70.399 Y21.375 E.00615
G1 X70.774 Y21.805 E.00386
G1 X71.118 Y22.411 E.00471
G1 X86.414 Y58.283 E.26382
G1 X86.943 Y59.683 E.01012
G1 X87.714 Y62.409 E.01916
G1 X88.085 Y64.426 E.01388
G1 X88.258 Y65.882 E.00992
G1 X88.386 Y68.11 E.01509
G1 X88.393 Y69.729 E.01096
G1 X88.122 Y73.581 E.02612
G1 X87.607 Y76.707 E.02144
G1 X86.845 Y79.872 E.02202
G1 X85.65 Y83.644 E.02677
G1 X84.484 Y86.568 E.0213
G1 X83.199 Y88.955 E.01834
G1 X81.572 Y91.239 E.01897
G1 X80.547 Y92.403 E.01049
G1 X78.494 Y94.295 E.01889
G1 X76.188 Y95.92 E.01908
G1 X73.766 Y97.219 E.01859
G1 X71.503 Y98.153 E.01656
G1 X68.293 Y99.098 E.02263
G1 X65.968 Y99.536 E.01601
G1 X62.655 Y99.842 E.02251
G1 X57.809 Y99.88 E.03278
G1 X55.092 Y99.691 E.01842
G1 X52.427 Y99.267 E.01825
G1 X50.157 Y98.717 E.01581
G1 X47.978 Y97.992 E.01553
G1 X45.468 Y96.884 E.01856
G1 X42.859 Y95.345 E.02049
G1 X40.648 Y93.615 E.019
G1 X39.584 Y92.593 E.00998
G1 X38.593 Y91.497 E.00999
G1 X37.584 Y90.198 E.01113
G1 X36.758 Y88.956 E.01008
G1 X36.012 Y87.649 E.01018
G1 X34.808 Y84.978 E.01982
M73 P0 R45
G1 X33.525 Y81.234 E.02677
M73 C37
G1 X32.58 Y77.639 E.02515
G1 X32.03 Y74.703 E.02021
G1 X31.664 Y71.186 E.02392
G1 X31.612 Y68.152 E.02053
G1 X31.836 Y65.155 E.02033
G1 X32.106 Y63.396 E.01205
G1 X32.464 Y61.723 E.01157
G1 X32.934 Y60.068 E.01164
G1 X33.505 Y58.493 E.01134
G1 X48.684 Y22.478 E.2644
G1 X48.837 Y22.543 F21000
G1 F3000
G1 X48.843 Y22.529 E.0001
G1 X49.18 Y21.942 E.00458
G1 X49.714 Y21.388 E.0052
G1 X50.474 Y20.939 E.00597
G1 X51.304 Y20.676 E.00589
G1 X52.515 Y20.501 E.00828
G1 X55.427 Y20.303 E.01974
G1 X64.415 Y20.28 E.0608
G1 X67.49 Y20.482 E.02085
G1 X69.023 Y20.762 E.01054
G1 X69.585 Y20.997 E.00412
G1 X70.281 Y21.492 E.00578
G1 X70.719 Y22.018 E.00462
G1 X70.991 Y22.534 E.00395
G1 X86.261 Y58.348 E.26339
G1 X86.786 Y59.735 E.01003
G1 X87.552 Y62.443 E.01904
G1 X87.921 Y64.452 E.01382
G1 X88.092 Y65.895 E.00983
G1 X88.227 Y69.724 E.02592
G1 X87.957 Y73.562 E.02602
G1 X87.444 Y76.675 E.02135
G1 X86.686 Y79.827 E.02193
G1 X85.493 Y83.589 E.0267
G1 X84.336 Y86.494 E.02116
G1 X83.056 Y88.872 E.01827
G1 X81.44 Y91.138 E.01882
G1 X80.43 Y92.285 E.01034
G1 X78.393 Y94.163 E.01874
G1 X76.105 Y95.776 E.01894
G1 X73.691 Y97.071 E.01853
G1 X71.449 Y97.996 E.01641
G1 X68.253 Y98.937 E.02254
G1 X65.946 Y99.371 E.01588
G1 X62.645 Y99.676 E.02243
G1 X57.811 Y99.714 E.0327
G1 X55.113 Y99.526 E.0183
G1 X52.459 Y99.104 E.01818
G1 X50.204 Y98.558 E.01569
G1 X48.039 Y97.838 E.01544
G1 X45.547 Y96.738 E.01843
G1 X42.957 Y95.211 E.02034
G1 X40.755 Y93.488 E.01892
G1 X39.699 Y92.474 E.0099
G1 X38.717 Y91.386 E.00991
G1 X37.722 Y90.105 E.01098
G1 X36.902 Y88.874 E.01001
G1 X36.161 Y87.576 E.01011
G1 X34.962 Y84.914 E.01975
G1 X33.683 Y81.185 E.02667
G1 X32.741 Y77.602 E.02506
G1 X32.194 Y74.68 E.02011
G1 X31.83 Y71.176 E.02383
G1 X31.778 Y68.158 E.02042
G1 X32.001 Y65.175 E.02024
G1 X32.269 Y63.427 E.01196
G1 X32.624 Y61.764 E.0115
G1 X33.091 Y60.121 E.01156
G1 X33.659 Y58.553 E.01128
G1 X48.831 Y22.557 E.26426
; printing object MakimaKeychainByPekole.stl id:0 copy 0
G1 E-.8
EXCLUDE_OBJECT_START NAME=MakimaKeychainByPekole.stl_id_0_copy_0
G1 Z.3 F21000
G1 X75.825 Y51.866 Z.3
G1 Z.1
G1 E.8 F1800
;TYPE:Outer wall
;WIDTH:0.187499
G1 F3000
G2 X74.925 Y49.944 I-32.452 J14.028 E.01436
G2 X74.071 Y48.512 I-14.039 J7.402 E.01128
G1 X73.776 Y47.939 E.00436
G1 X73.751 Y47.768 E.00117
G3 X73.97 Y47.607 I.273 J.14 E.00191
G1 X74.373 Y47.805 E.00304
G3 X79.978 Y53.683 I-8.707 J13.915 E.05552
G1 X80.386 Y54.434 E.00579
G2 X80.976 Y55.145 I2.39 J-1.383 E.00628
G3 X83.628 Y58.096 I-6.086 J8.138 E.02701
G3 X84.332 Y59.621 I-8.482 J4.837 E.01138
G3 X85.942 Y67.655 I-22.878 J8.764 E.0557
G3 X85.972 Y69.135 I-34.192 J1.422 E.01001
G3 X84.512 Y79.209 I-37.626 J-.31 E.06908
G3 X82.312 Y85.488 I-45.826 J-12.529 E.04505
G3 X77.024 Y92.365 I-17.57 J-8.039 E.05919
G3 X71.708 Y95.474 I-13.651 J-17.241 E.0418
G3 X61.459 Y97.444 I-10.179 J-25.321 E.07104
G1 X60.828 Y97.439 E.00427
G2 X58.832 Y97.461 I-.694 J28.439 E.0135
G3 X48.375 Y95.542 I-.3 J-27.826 E.07237
G3 X43.215 Y92.603 I8.302 J-20.574 E.04029
G3 X38.189 Y86.579 I11.709 J-14.878 E.05346
G3 X37.051 Y84.054 I19.134 J-10.139 E.01875
G3 X34.432 Y74.362 I44.902 J-17.336 E.06804
G3 X34.18 Y65.996 I33.906 J-5.208 E.05676
G3 X35.764 Y59.376 I24.724 J2.416 E.0462
G3 X38.528 Y55.537 I8.625 J3.294 E.03236
G1 X39.097 Y55.098 E.00486
G1 X39.441 Y54.728 E.00341
G3 X40.589 Y52.782 I30.219 J16.514 E.01529
G3 X45.484 Y47.917 I14.002 J9.195 E.04702
G1 X45.954 Y47.661 E.00362
G1 X46.163 Y47.697 E.00144
G1 X46.259 Y47.814 E.00102
G1 X46.207 Y47.987 E.00122
G3 X45.7 Y48.852 I-4.069 J-1.804 E.00679
G2 X44.606 Y50.878 I12.823 J8.233 E.01559
G2 X44.661 Y51.181 I.33 J.097 E.00216
G1 X44.757 Y51.204 E.00066
G3 X46.38 Y50.539 I5.795 J11.826 E.01187
G1 X47.081 Y50.368 E.00489
G3 X51.579 Y49.66 I12.552 J65.146 E.03081
G1 X51.71 Y49.478 E.00152
G1 X51.704 Y49.389 E.0006
G3 X49.57 Y46.416 I59.656 J-45.058 E.02476
G3 X47.418 Y41.634 I14.027 J-9.189 E.03562
G3 X47.187 Y40.417 I9.774 J-2.486 E.00839
G3 X47.243 Y39.461 I2.571 J-.329 E.00652
G3 X47.408 Y38.388 I8.783 J.8 E.00735
G1 X47.564 Y38.004 E.0028
G1 X47.891 Y37.528 E.00391
G1 X48.381 Y37.125 E.00429
G1 X48.824 Y36.895 E.00337
G3 X49.965 Y36.597 I3.142 J9.706 E.00799
G1 X50.044 Y36.253 E.00239
G3 X50.069 Y30.185 I37.482 J-2.878 E.0411
G3 X50.519 Y25.947 I99.935 J8.485 E.02883
G1 X50.61 Y25.554 E.00272
G1 X50.808 Y25.156 E.00301
G1 X50.86 Y24.75 E.00277
G3 X50.856 Y23.714 I5.433 J-.539 E.00702
G1 X50.967 Y23.331 E.0027
G1 X51.151 Y23.134 E.00182
G1 X51.36 Y23.028 E.00158
G1 X51.906 Y22.863 E.00386
G1 X52.763 Y22.747 E.00586
G3 X55.311 Y22.57 I7.631 J91.518 E.01728
G1 X55.804 Y22.596 E.00334
G1 X56.424 Y22.758 E.00434
G1 X56.747 Y22.978 E.00264
G1 X56.959 Y23.28 E.0025
G1 X57.072 Y23.678 E.0028
G2 X57.091 Y24.51 I113.716 J-2.186 E.00563
G1 X57.371 Y24.721 E.00237
G1 X57.564 Y25.021 E.00241
G3 X59.648 Y29.802 I-44.984 J22.449 E.0353
G1 X59.762 Y30.04 E.00179
G1 X59.98 Y30.109 E.00155
G1 X60.068 Y30.058 E.00069
G3 X62.249 Y25.021 I51.036 J19.107 E.03715
G1 X62.512 Y24.632 E.00318
G1 X62.685 Y24.512 E.00142
G1 X62.72 Y24.451 E.00048
G3 X62.793 Y23.41 I3.956 J-.249 E.00708
G1 X62.97 Y23.076 E.00255
G1 X63.252 Y22.825 E.00256
G1 X63.715 Y22.632 E.00339
G1 X64.266 Y22.54 E.00377
G3 X67.8 Y22.804 I-.73 J33.573 E.02399
G1 X68.324 Y22.925 E.00364
G1 X68.69 Y23.098 E.00274
G1 X68.853 Y23.294 E.00172
G1 X68.951 Y23.561 E.00192
G3 X68.95 Y24.753 I-4.103 J.593 E.00809
G1 X68.97 Y25.059 E.00207
G1 X69.214 Y25.479 E.00329
G1 X69.266 Y25.622 E.00103
G3 X69.707 Y29.494 I-594.88 J69.626 E.02636
G3 X69.867 Y33.831 I-39.763 J3.641 E.02938
G1 X69.785 Y36.044 E.01498
G1 X69.809 Y36.511 E.00317
G1 X69.868 Y36.587 E.00065
G3 X71.498 Y37.177 I-1.381 J6.352 E.01176
G3 X72.356 Y38.184 I-1.134 J1.837 E.00909
G1 X72.491 Y38.666 E.00339
G1 X72.54 Y39.286 E.00421
G1 X72.666 Y39.829 E.00377
G3 X72.334 Y41.885 I-9.265 J-.442 E.01412
G3 X70.08 Y46.655 I-16.293 J-4.783 E.03583
G3 X68.301 Y49.072 I-36.185 J-24.763 E.02031
G1 X67.994 Y49.539 E.00378
G1 X68.059 Y49.619 E.0007
G3 X75.167 Y51.775 I-6.68 J34.825 E.05034
G1 X75.709 Y51.972 E.0039
G1 X75.796 Y51.966 E.00059
G1 X75.821 Y51.88 E.0006
G1 X75.977 Y51.863 F21000
;TYPE:Inner wall
G1 F3000
G1 X75.978 Y51.802 E.00041
G2 X75.07 Y49.864 I-32.537 J14.061 E.01448
G2 X74.215 Y48.429 I-13.941 J7.338 E.0113
G1 X73.924 Y47.863 E.00431
G1 X73.953 Y47.784 E.00057
G1 X74.29 Y47.95 E.00254
G3 X79.833 Y53.765 I-8.622 J13.769 E.05492
G1 X80.24 Y54.514 E.00576
G2 X80.87 Y55.273 I2.53 J-1.457 E.00671
G3 X83.484 Y58.179 I-5.982 J8.011 E.02661
G3 X84.178 Y59.684 I-8.373 J4.773 E.01123
G3 X85.776 Y67.662 I-22.725 J8.701 E.0553
G3 X85.806 Y69.134 I-34.025 J1.416 E.00996
G3 X84.352 Y79.165 I-37.46 J-.309 E.06878
G3 X82.161 Y85.419 I-45.662 J-12.484 E.04486
G3 X76.92 Y92.236 I-17.416 J-7.967 E.05868
G3 X71.644 Y95.321 I-13.543 J-17.107 E.04148
G3 X61.458 Y97.278 I-10.116 J-25.168 E.0706
G1 X60.829 Y97.273 E.00426
G2 X58.831 Y97.295 I-.695 J28.562 E.01352
G3 X48.437 Y95.388 I-.299 J-27.658 E.07193
G3 X43.317 Y92.472 I8.241 J-20.423 E.03998
G3 X38.336 Y86.501 I11.607 J-14.747 E.05299
G3 X37.206 Y83.993 I18.999 J-10.067 E.01862
G3 X34.596 Y74.338 I44.741 J-17.274 E.06779
G3 X34.345 Y66.014 I33.742 J-5.183 E.05648
G3 X35.918 Y59.439 I24.555 J2.398 E.04588
G3 X38.634 Y55.664 I8.47 J3.23 E.03182
G1 X39.239 Y55.193 E.00519
G1 X39.585 Y54.809 E.0035
G3 X40.727 Y52.873 I30.089 J16.442 E.01521
G3 X45.162 Y48.326 I14.156 J9.371 E.04323
G1 X45.99 Y47.83 E.00653
G1 X46.083 Y47.861 E.00066
G3 X45.558 Y48.765 I-4.088 J-1.768 E.00709
G2 X44.456 Y50.807 I12.986 J8.331 E.01571
G1 X44.435 Y51.058 E.00171
G1 X44.535 Y51.289 E.0017
G1 X44.662 Y51.368 E.00101
G1 X44.828 Y51.354 E.00113
G3 X46.426 Y50.698 I5.719 J11.665 E.0117
G1 X47.116 Y50.53 E.0048
G3 X51.592 Y49.826 I12.773 J66.63 E.03066
G1 X51.737 Y49.757 E.00109
G1 X51.884 Y49.47 E.00218
G1 X51.837 Y49.29 E.00125
G3 X49.71 Y46.327 I59.567 J-44.994 E.02467
G3 X47.579 Y41.596 I13.891 J-9.103 E.03525
G3 X47.351 Y40.396 I9.612 J-2.448 E.00827
G1 X47.336 Y39.945 E.00306
G2 X47.51 Y38.624 I-7.454 J-1.655 E.00902
G1 X47.712 Y38.08 E.00393
G1 X48.011 Y37.644 E.00358
G1 X48.473 Y37.264 E.00405
G1 X48.887 Y37.05 E.00315
G3 X49.996 Y36.767 I2.583 J7.809 E.00775
G1 X50.13 Y36.658 E.00117
G1 X50.209 Y36.243 E.00286
G3 X50.235 Y30.195 I37.327 J-2.869 E.04096
G3 X50.676 Y26.036 I98.597 J8.372 E.0283
G1 X50.767 Y25.61 E.00295
G1 X50.949 Y25.242 E.00278
G1 X51.026 Y24.742 E.00342
G1 X50.995 Y24.069 E.00456
G1 X51.061 Y23.551 E.00353
G1 X51.186 Y23.34 E.00166
G1 X51.435 Y23.175 E.00202
G1 X51.931 Y23.027 E.0035
G1 X52.779 Y22.912 E.00579
G3 X55.321 Y22.736 I7.614 J91.315 E.01724
G1 X55.789 Y22.761 E.00317
G1 X56.351 Y22.909 E.00393
G1 X56.628 Y23.098 E.00227
G1 X56.807 Y23.352 E.0021
G1 X56.907 Y23.703 E.00247
G1 X56.923 Y24.495 E.00536
G1 X56.96 Y24.621 E.00089
G1 X57.251 Y24.841 E.00246
G1 X57.419 Y25.102 E.0021
G3 X59.493 Y29.862 I-44.831 J22.365 E.03514
G1 X59.668 Y30.182 E.00247
G1 X59.943 Y30.271 E.00196
G1 X60.094 Y30.254 E.00102
G1 X60.222 Y30.121 E.00125
G3 X62.448 Y24.992 I51.203 J19.176 E.03784
G1 X62.86 Y24.555 E.00406
G3 X62.952 Y23.464 I6.502 J-.005 E.00742
G1 X63.103 Y23.181 E.00217
G1 X63.342 Y22.968 E.00217
G1 X63.762 Y22.793 E.00308
G1 X64.277 Y22.706 E.00353
G3 X67.842 Y22.977 I-.728 J33.191 E.0242
G1 X68.382 Y23.11 E.00376
G1 X68.644 Y23.303 E.0022
G1 X68.788 Y23.596 E.00221
G3 X68.785 Y24.741 I-3.941 J.563 E.00777
G1 X68.83 Y25.163 E.00287
G1 X69.093 Y25.599 E.00344
G3 X69.541 Y29.508 I-478.199 J56.84 E.02662
G3 X69.646 Y35.321 I-39.563 J3.618 E.03937
G1 X69.619 Y36.06 E.005
G1 X69.678 Y36.635 E.00391
G1 X69.826 Y36.747 E.00126
G3 X71.448 Y37.343 I-1.265 J5.952 E.01173
G1 X71.898 Y37.724 E.00399
G3 X72.36 Y38.862 I-1.774 J1.382 E.00841
G1 X72.379 Y39.409 E.0037
G1 X72.499 Y39.851 E.0031
G3 X72.175 Y41.838 I-9.113 J-.468 E.01365
G3 X69.942 Y46.562 I-16.131 J-4.734 E.03549
