; generated by SuperSlicer 2.5.59 on 2023-08-01 at 16:15:28 UTC


;
;

;
;
; 

; external perimeters extrusion width = 0.40mm
; perimeters extrusion width = 0.46mm
; infill extrusion width = 0.64mm
; solid infill extrusion width = 0.56mm
; top infill extrusion width = 0.40mm
; first layer extrusion width = 0.50mm

; object:{"name":"Medium Box","id":"Medium Box.stl id:0 copy 0","object_center":[60.000000,60.000000,0.000000],"boundingbox_center":[60.000000,60.000000,50.375563],"boundingbox_size":[84.360706,56.099998,100.751125]}
EXCLUDE_OBJECT_DEFINE NAME=Medium_Box_stl_id_0_copy_0 CENTER=60.000000,60.000000 POLYGON=[[17.819648,35.950000],[17.820808,35.853844],[17.823616,35.771680],[17.824318,35.756812],[17.830254,35.658976],[17.835824,35.590584],[17.838662,35.560420],[17.848870,35.467424],[17.856636,35.407220],[17.861352,35.373932],[17.876152,35.280032],[17.886422,35.222148],[17.893318,35.185800],[17.912896,35.091312],[17.925468,35.035980],[17.934914,34.996660],[17.959388,34.901928],[17.974052,34.849364],[17.986366,34.807212],[18.015846,34.712600],[18.032342,34.663004],[18.047874,34.618188],[18.082436,34.524076],[18.100486,34.477624],[18.119546,34.430360],[18.159020,34.337596],[18.178550,34.293968],[18.201026,34.245428],[18.245552,34.153948],[18.266502,34.112820],[18.292580,34.063264],[18.340966,33.975480],[18.364266,33.934960],[18.391700,33.888644],[18.444770,33.802848],[18.471656,33.761160],[18.500160,33.718188],[18.557808,33.634752],[18.588432,33.592192],[18.617668,33.552632],[18.679726,33.471908],[18.714226,33.428806],[18.743920,33.392678],[18.810188,33.315022],[18.848656,33.271710],[18.878472,33.239014],[18.948708,33.164738],[18.991218,33.121574],[19.020836,33.092266],[19.094780,33.021672],[19.141350,32.979012],[19.170464,32.953022],[19.247826,32.886380],[19.298454,32.844586],[19.326774,32.821804],[19.407234,32.759350],[19.461846,32.718784],[19.489098,32.699070],[19.572288,32.641010],[19.630806,32.602016],[19.656730,32.585208],[19.742332,32.531704],[19.804604,32.494626],[19.828972,32.480526],[19.916588,32.431706],[19.982460,32.396862],[20.005074,32.385266],[20.094338,32.341218],[20.163612,32.308906],[20.184288,32.299576],[20.274818,32.260350],[20.347268,32.230846],[20.365852,32.223546],[20.457284,32.189156],[20.532646,32.162700],[20.549018,32.157174],[20.640984,32.127598],[20.719018,32.104404],[20.733086,32.100402],[20.825234,32.075576],[20.905632,32.055828],[20.917350,32.053096],[21.009346,32.032932],[21.091790,32.016778],[21.101128,32.015060],[21.198234,31.998566],[21.276864,31.986996],[21.294930,31.984566],[21.391152,31.973018],[21.460228,31.966178],[21.486808,31.963872],[21.570900,31.957740],[21.641320,31.953976],[21.654426,31.953414],[21.737358,31.950848],[21.819648,31.950000],[98.180360,31.950000],[98.276504,31.951156],[98.358672,31.953976],[98.373544,31.954666],[98.471376,31.960602],[98.539776,31.966178],[98.569928,31.969018],[98.662936,31.979218],[98.723136,31.986996],[98.756424,31.991700],[98.850328,32.006508],[98.908200,32.016778],[98.944560,32.023678],[99.039048,32.043254],[99.094376,32.055828],[99.133696,32.065270],[99.228424,32.089748],[99.280992,32.104404],[99.323144,32.116718],[99.417752,32.146206],[99.467344,32.162700],[99.512160,32.178226],[99.606280,32.212792],[99.652736,32.230846],[99.700000,32.249908],[99.792752,32.289380],[99.836384,32.308906],[99.884928,32.331380],[99.976408,32.375900],[100.017536,32.396862],[100.067096,32.422932],[100.154880,32.471314],[100.195400,32.494626],[100.241712,32.522052],[100.327496,32.575130],[100.369192,32.602016],[100.412168,32.630508],[100.495608,32.688156],[100.538160,32.718784],[100.577728,32.748028],[100.658448,32.810086],[100.701544,32.844586],[100.737672,32.874272],[100.815336,32.940536],[100.858640,32.979012],[100.891344,33.008820],[100.965624,33.079056],[101.008784,33.121574],[101.038088,33.151184],[101.108680,33.225132],[101.151336,33.271710],[101.177328,33.300824],[101.243976,33.378186],[101.285768,33.428806],[101.308552,33.457130],[101.371000,33.537582],[101.411576,33.592192],[101.431280,33.619448],[101.489352,33.702652],[101.528336,33.761160],[101.545152,33.787092],[101.598648,33.872684],[101.635728,33.934960],[101.649824,33.959332],[101.698648,34.046948],[101.733488,34.112820],[101.745088,34.135432],[101.789136,34.224692],[101.821440,34.293968],[101.830784,34.314640],[101.870000,34.405176],[101.899504,34.477624],[101.906816,34.496200],[101.941200,34.587636],[101.967648,34.663004],[101.973176,34.679380],[102.002760,34.771344],[102.025952,34.849364],[102.029952,34.863444],[102.054776,34.955592],[102.074528,35.035980],[102.077256,35.047704],[102.097416,35.139696],[102.113568,35.222148],[102.115296,35.231488],[102.131792,35.328588],[102.143360,35.407220],[102.145792,35.425288],[102.157336,35.521508],[102.164168,35.590584],[102.166480,35.617156],[102.172608,35.701248],[102.176376,35.771680],[102.176944,35.784788],[102.179504,35.867716],[102.180360,35.950000],[102.180360,87.050000],[102.175896,87.144320],[102.163656,87.231968],[102.161936,87.241048],[102.138672,87.335696],[102.110136,87.418088],[102.105376,87.429912],[102.062672,87.520672],[102.017352,87.597216],[102.010224,87.607960],[101.949288,87.689328],[101.887456,87.757112],[101.880056,87.764432],[101.803576,87.832048],[101.727560,87.886992],[101.721088,87.891200],[101.633992,87.941184],[101.548448,87.979792],[101.543808,87.981616],[101.452000,88.012400],[101.362320,88.033312],[101.359984,88.033736],[101.269056,88.046056],[101.180360,88.050000],[18.819648,88.050000],[18.730934,88.046056],[18.725334,88.045544],[18.640022,88.033736],[18.637688,88.033312],[18.628594,88.031584],[18.548012,88.012400],[18.533944,88.008320],[18.456200,87.981616],[18.451546,87.979792],[18.439736,87.975024],[18.366004,87.941184],[18.348976,87.932312],[18.278924,87.891200],[18.272438,87.886992],[18.261696,87.879864],[18.196434,87.832048],[18.180320,87.818928],[18.119942,87.764432],[18.112542,87.757112],[18.105218,87.749704],[18.050712,87.689328],[18.037590,87.673216],[17.989770,87.607960],[17.982644,87.597216],[17.978448,87.590728],[17.937340,87.520672],[17.928460,87.503648],[17.894616,87.429912],[17.889854,87.418088],[17.888038,87.413456],[17.861320,87.335696],[17.857246,87.321640],[17.838066,87.241048],[17.836342,87.231968],[17.835914,87.229632],[17.824104,87.144320],[17.823586,87.138712],[17.819648,87.050000],[17.819648,35.950000]]
; plater:{"center":[60.000000,60.000000,0.000000],"boundingbox_center":[60.000000,60.000000,50.375563],"boundingbox_size":[84.360706,56.099998,100.751125]}

M73 P0 R138
;TYPE:Custom
; custom gcode: start_gcode
START_PRINT T_BED=110 T_EXTRUDER=260
; custom gcode end: start_gcode
M107
G21 ; set units to millimeters
G90 ; use absolute coordinates
M82 ; use absolute distances for extrusion
G92 E0
; custom gcode: start_filament_gcode
; filament start gcode

    PRESSURE_ADVANCE_SELECT FILAMENT=ABS
; custom gcode end: start_filament_gcode
;_TOOLCHANGE 0
M109 S260 ; set temperature and wait for it to be reached
M190 S110 ; set bed temperature and wait for it to be reached
;LAYER_CHANGE
;Z:0.2
;HEIGHT:0.2
G1 Z0.2 F12000
M73 P0 R138
G1 E-0.5 F2400
M204 S2000
G1 X19.205 Y32.065 F12000
G1 E0 F1800
;TYPE:Skirt
;WIDTH:0.52
G1 X18.901 Y32.281 E0.01371
G1 X17.859 Y33.413 E0.07022
G1 X17.665 Y33.74 E0.08419
G1 X17.17 Y35.203 E0.14093
G1 X17.122 Y35.835 E0.16419
G1 X17.122 Y84.196 E1.9407
G1 X17.244 Y85.15 E1.97602
G1 X17.864 Y86.594 E2.03372
G1 X18.08 Y86.898 E2.04743
G1 X19.212 Y87.94 E2.10394
G1 X19.539 Y88.134 E2.11791
G1 X21.002 Y88.629 E2.17465
G1 X21.621 Y88.677 E2.19745
G1 X98.377 Y88.677 E5.01701
G1 X99.16 Y88.598 E5.04592
G1 X100.492 Y88.116 E5.09793
G1 X100.824 Y87.917 E5.11217
G1 X101.651 Y87.246 E5.15128
G1 X102.327 Y86.289 E5.19434
G1 X102.708 Y85.315 E5.23274
G1 X102.878 Y84.16 E5.27564
G1 X102.878 Y35.805 E7.05187
G1 X102.711 Y34.697 E7.09306
G1 X102.339 Y33.734 E7.13096
G1 X101.676 Y32.779 E7.17367
G1 X100.387 Y31.835 E7.23237
G1 X99.041 Y31.38 E7.28457
G1 X97.829 Y31.321 E7.32914
G1 X21.636 Y31.323 E10.12801
G1 X20.648 Y31.446 E10.16455
G1 X19.205 Y32.065 E10.22224
G1 X19.482 Y32.454 F12000
G1 F1800
G1 X19.177 Y32.67 E10.23596
G1 X18.269 Y33.656 E10.28521
G1 X18.075 Y33.984 E10.29918
G1 X17.644 Y35.259 E10.34864
G1 X17.599 Y35.835 E10.36985
G1 X17.599 Y84.192 E12.14619
G1 X17.713 Y85.059 E12.17832
G1 X18.252 Y86.317 E12.22861
G1 X18.469 Y86.621 E12.24232
G1 X19.455 Y87.529 E12.29157
G1 X19.782 Y87.723 E12.30554
G1 X21.058 Y88.155 E12.35499
G1 X21.622 Y88.2 E12.37581
G1 X98.376 Y88.2 E15.19525
G1 X99.087 Y88.126 E15.2215
G1 X100.247 Y87.707 E15.26683
G1 X100.58 Y87.508 E15.28107
G1 X101.36 Y86.858 E15.31837
G1 X101.912 Y86.054 E15.35419
G1 X102.244 Y85.205 E15.38766
G1 X102.401 Y84.16 E15.42651
G1 X102.401 Y35.81 E17.20258
G1 X102.247 Y34.805 E17.23992
G1 X101.922 Y33.967 E17.27295
G1 X101.323 Y33.1 E17.31165
G1 X100.151 Y32.249 E17.36485
G1 X98.977 Y31.853 E17.41035
G1 X97.827 Y31.798 E17.45265
G1 X21.636 Y31.8 E20.25145
G1 X20.74 Y31.914 E20.28464
G1 X19.482 Y32.454 E20.33492
G92 E0
G1 E-0.5 F2400
; printing object Medium Box.stl id:0 copy 0
EXCLUDE_OBJECT_START NAME=Medium_Box_stl_id_0_copy_0
G1 X22.462 Y83.337 F12000
G1 E0 F1800
;TYPE:Internal perimeter
;WIDTH:0.5
G1 X46.124 Y83.323 E0.83277
G1 X49.543 Y83.341 E0.95311
G1 X50.572 Y83.323 E0.9893
G1 X51.661 Y83.341 E1.02764
G1 X55.282 Y83.323 E1.15507
G1 X64.718 Y83.323 E1.48719
G1 X68.339 Y83.341 E1.61462
G1 X69.428 Y83.323 E1.65296
G1 X70.457 Y83.341 E1.68915
G1 X73.876 Y83.323 E1.80949
G1 X97.54 Y83.337 E2.64233
G1 X97.525 Y70.561 E3.09195
G1 X97.543 Y67.078 E3.21455
G1 X97.524 Y66.033 E3.25134
G1 X97.539 Y65.014 E3.2872
G1 X97.525 Y40.361 E4.15484
G1 X97.539 Y36.663 E4.28498
G1 X93.923 Y36.677 E4.41223
G1 X68.467 Y36.665 E5.30811
G1 X68.47 Y36.208 E5.3242
G1 X69.431 Y36.22 E5.35801
G1 X70.225 Y36.206 E5.38598
G1 X70.222 Y35.748 E5.40206
G1 X69.43 Y35.763 E5.42997
G1 X68.244 Y35.748 E5.47169
G1 X55.285 Y35.761 E5.92777
G1 X51.755 Y35.748 E6.05203
G1 X50.57 Y35.763 E6.09371
G1 X49.549 Y35.744 E6.12965
G1 X46.122 Y35.763 E6.25028
G1 X26.079 Y35.763 E6.95566
G1 X21.544 Y35.745 E7.11527
G1 X21.561 Y40.362 E7.27777
G1 X21.561 Y49.437 E7.59713
G1 X21.543 Y52.928 E7.71999
G1 X21.561 Y53.971 E7.7567
G1 X21.543 Y54.896 E7.78928
G1 X21.561 Y62.011 E8.03969
G1 X21.543 Y65.105 E8.14858
G1 X21.561 Y66.029 E8.1811
G1 X21.543 Y67.072 E8.21782
G1 X21.561 Y70.563 E8.34068
G1 X21.561 Y79.637 E8.66004
G1 X21.543 Y84.026 E8.8145
;WIDTH:0.477886
G1 X21.148 Y84.37 E8.8321
;TYPE:External perimeter
;WIDTH:0.5
G1 X21.126 Y84.339 E8.83343
G1 X21.087 Y84.135 E8.84073
G1 X21.086 Y84.026 E8.8446
G1 X21.104 Y79.636 E8.99907
G1 X21.104 Y70.564 E9.31835
G1 X21.086 Y67.069 E9.44135
G1 X21.104 Y66.03 E9.47795
G1 X21.086 Y65.108 E9.51038
G1 X21.104 Y62.01 E9.61941
G1 X21.086 Y54.892 E9.86993
G1 X21.104 Y53.97 E9.90238
G1 X21.086 Y52.931 E9.93898
G1 X21.104 Y49.436 E10.06198
G1 X21.104 Y40.364 E10.38126
G1 X21.087 Y35.849 E10.54015
G1 X21.103 Y35.718 E10.54479
G1 X21.243 Y35.482 E10.55444
G1 X21.46 Y35.328 E10.56381
G1 X21.661 Y35.289 E10.57104
G1 X26.08 Y35.306 E10.72656
G1 X46.12 Y35.306 E11.43186
G1 X49.552 Y35.287 E11.55263
G1 X50.572 Y35.306 E11.58852
G1 X51.752 Y35.291 E11.63008
G1 X55.286 Y35.303 E11.75444
G1 X68.247 Y35.291 E12.21059
G1 X69.428 Y35.306 E12.25217
G1 X70.448 Y35.287 E12.28806
G1 X73.88 Y35.306 E12.40884
G1 X93.92 Y35.306 E13.11413
G1 X98.349 Y35.289 E13.27001
G1 X98.466 Y35.304 E13.27417
G1 X98.771 Y35.478 E13.28651
G1 X98.858 Y35.634 E13.29279
G1 X98.913 Y35.87 E13.30132
G1 X98.896 Y40.364 E13.45948
G1 X98.896 Y49.436 E13.77876
G1 X98.914 Y52.931 E13.90176
G1 X98.896 Y53.969 E13.93833
G1 X98.911 Y54.977 E13.97378
G1 X98.898 Y57.99 E14.07982
G1 X98.911 Y65.023 E14.32735
G1 X98.896 Y66.031 E14.36282
G1 X98.914 Y67.069 E14.39938
G1 X98.896 Y70.564 E14.52239
G1 X98.896 Y79.636 E14.84166
G1 X98.913 Y84.131 E14.99984
G1 X98.856 Y84.37 E15.00849
G1 X98.759 Y84.532 E15.01515
G1 X98.499 Y84.687 E15.02581
G1 X98.344 Y84.712 E15.03131
G1 X97.816 Y84.713 E15.04991
G1 X93.92 Y84.694 E15.18702
G1 X73.88 Y84.694 E15.89232
G1 X70.448 Y84.713 E16.01309
G1 X69.428 Y84.694 E16.04901
G1 X68.347 Y84.713 E16.08703
G1 X64.715 Y84.694 E16.21489
G1 X55.285 Y84.694 E16.54674
G1 X51.653 Y84.713 E16.67459
G1 X50.572 Y84.694 E16.71262
G1 X49.552 Y84.713 E16.74853
G1 X46.12 Y84.694 E16.86931
G1 X26.08 Y84.694 E17.5746
G1 X21.648 Y84.711 E17.73059
G1 X21.517 Y84.696 E17.73523
G1 X21.477 Y84.673 E17.73685
;TYPE:Internal perimeter
;WIDTH:0.487056
G1 X21.774 Y84.254 E17.75444
;WIDTH:0.5
G1 X26.079 Y84.237 E17.90595
G1 X46.122 Y84.237 E18.61133
G1 X49.549 Y84.256 E18.73195
G1 X50.572 Y84.237 E18.76796
G1 X51.655 Y84.256 E18.80609
G1 X55.284 Y84.237 E18.9338
G1 X64.716 Y84.237 E19.26575
G1 X68.345 Y84.256 E19.39346
G1 X69.428 Y84.237 E19.43159
G1 X70.451 Y84.256 E19.4676
G1 X73.878 Y84.237 E19.58822
G1 X93.921 Y84.237 E20.29361
G1 X98.414 Y84.254 E20.45173
G1 X98.455 Y84.078 E20.45809
G1 X98.439 Y70.563 E20.93374
G1 X98.457 Y67.072 E21.0566
G1 X98.439 Y66.031 E21.09324
G1 X98.453 Y65.02 E21.12884
G1 X98.441 Y57.989 E21.37628
G1 X98.453 Y54.979 E21.48222
G1 X98.439 Y53.969 E21.51778
G1 X98.457 Y52.928 E21.55442
G1 X98.439 Y49.437 E21.67728
G1 X98.439 Y40.363 E21.99664
G1 X98.456 Y35.921 E22.15294
G1 X98.414 Y35.745 E22.15931
G1 X93.921 Y35.763 E22.31745
G1 X73.878 Y35.763 E23.02283
G1 X70.679 Y35.746 E23.13541
G1 X70.682 Y36.203 E23.1515
G1 X73.877 Y36.22 E23.26394
G1 X93.922 Y36.22 E23.96939
G1 X97.997 Y36.204 E24.11283
G1 X97.982 Y40.362 E24.25915
G1 X97.996 Y65.017 E25.12687
G1 X97.981 Y66.032 E25.1626
G1 X98 Y67.075 E25.19931
G1 X97.982 Y70.562 E25.32204
G1 X97.998 Y83.796 E25.78777
G1 X93.922 Y83.78 E25.93121
G1 X73.877 Y83.78 E26.63668
G1 X70.454 Y83.799 E26.75716
G1 X69.428 Y83.78 E26.79327
G1 X68.342 Y83.799 E26.8315
G1 X64.717 Y83.78 E26.95907
G1 X55.283 Y83.78 E27.2911
G1 X51.658 Y83.799 E27.41867
G1 X50.572 Y83.78 E27.4569
G1 X49.546 Y83.799 E27.49301
G1 X46.123 Y83.78 E27.61349
G1 X26.078 Y83.78 E28.31894
G1 X22.004 Y83.796 E28.46232
G1 X22.018 Y70.562 E28.92808
G1 X22 Y67.075 E29.05079
G1 X22.019 Y66.029 E29.08763
G1 X22 Y65.102 E29.12025
G1 X22.018 Y62.012 E29.22899
G1 X22 Y54.9 E29.47929
G1 X22.019 Y53.971 E29.51199
G1 X22 Y52.925 E29.54882
G1 X22.018 Y49.438 E29.67153
G1 X22.018 Y40.361 E29.99098
G1 X22.003 Y36.204 E30.13729
G1 X26.078 Y36.22 E30.28072
G1 X68.013 Y36.205 E31.75658
G1 X68.01 Y36.662 E31.77266
G1 X26.077 Y36.677 E33.24846
G1 X22.462 Y36.663 E33.3757
G1 X22.475 Y49.439 E33.82536
G1 X22.457 Y52.922 E33.94793
G1 X22.476 Y53.972 E33.98488
G1 X22.457 Y54.904 E34.01769
G1 X22.475 Y62.013 E34.26788
G1 X22.457 Y65.099 E34.37649
G1 X22.476 Y66.028 E34.4092
G1 X22.457 Y67.078 E34.44615
G1 X22.475 Y70.561 E34.56873
G1 X22.462 Y83.337 E35.01838
G92 E0
G1 E-0.5 F2400
G1 X96.478 Y36.801 F12000
G1 E0 F1800
;TYPE:Solid infill
;WIDTH:0.500581
G1 F2400
G1 X97.402 Y37.724 E0.04602
G1 X97.402 Y38.37 F12000
G1 F2400
G1 X95.832 Y36.801 E0.12422
G1 X95.186 Y36.801 F12000
G1 F2400
G1 X97.402 Y39.017 E0.23462
G1 X97.402 Y39.663 F12000
G1 F2400
G1 X94.54 Y36.802 E0.37721
G1 X93.894 Y36.802 F12000
G1 F2400
G1 X97.402 Y40.31 E0.552
G1 X97.402 Y40.956 F12000
G1 F2400
G1 X93.248 Y36.803 E0.75898
G1 X92.602 Y36.803 F12000
G1 F2400
G1 X97.402 Y41.603 E0.99815
G1 X97.402 Y42.249 F12000
G1 F2400
G1 X91.956 Y36.803 E1.26951
G1 X91.31 Y36.804 F12000
G1 F2400
G1 X97.402 Y42.896 E1.57306
G1 X97.402 Y43.542 F12000
G1 F2400
G1 X90.664 Y36.804 E1.90881
G1 X90.018 Y36.804 F12000
G1 F2400
G1 X97.402 Y44.188 E2.27675
G1 X97.402 Y44.835 F12000
G1 F2400
G1 X89.372 Y36.805 E2.67688
M73 P1 R137
G1 X88.726 Y36.805 F12000
G1 F2400
G1 X97.402 Y45.481 E3.1092
G1 X97.402 Y46.128 F12000
G1 F2400
G1 X88.08 Y36.806 E3.57372
G1 X87.434 Y36.806 F12000
G1 F2400
G1 X97.402 Y46.774 E4.07042
G1 X97.402 Y47.421 F12000
G1 F2400
G1 X86.788 Y36.806 E4.59932
G1 X86.142 Y36.807 F12000
G1 F2400
G1 X97.402 Y48.067 E5.16042
G1 X97.402 Y48.713 F12000
G1 F2400
G1 X85.496 Y36.807 E5.7537
G1 X84.85 Y36.807 F12000
G1 F2400
G1 X97.402 Y49.36 E6.37918
G1 X97.402 Y50.006 F12000
G1 F2400
