; generated by SuperSlicer 2.5.59 on 2023-02-17 at 03:06:41 UTC


;
;

;
;
; 

; external perimeters extrusion width = 0.40mm
; perimeters extrusion width = 0.46mm
; infill extrusion width = 0.64mm
; solid infill extrusion width = 0.56mm
; top infill extrusion width = 0.40mm
; first layer extrusion width = 0.50mm

; external perimeters extrusion width = 0.40mm
; perimeters extrusion width = 0.46mm
; infill extrusion width = 0.64mm
; solid infill extrusion width = 0.56mm
; top infill extrusion width = 0.40mm
; first layer extrusion width = 0.50mm

; object:{"name":"mickey","id":"mickey.stl id:0 copy 0","object_center":[59.266987,42.321001,0.000000],"boundingbox_center":[59.266987,42.321001,0.400000],"boundingbox_size":[77.760086,38.848770,0.800000]}
; object:{"name":"mickey_thin","id":"mickey_thin.stl id:1 copy 0","object_center":[63.796602,82.166693,0.000000],"boundingbox_center":[63.796602,82.166693,0.400000],"boundingbox_size":[71.632942,29.873110,0.800000]}
; plater:{"center":[60.000009,59.999932,0.000000],"boundingbox_center":[60.000009,59.999932,0.400000],"boundingbox_size":[79.226129,74.206632,0.800000]}

M73 P0 R11
;TYPE:Custom
; custom gcode: start_gcode
START_PRINT T_BED=60 T_EXTRUDER=200
; custom gcode end: start_gcode
M107
G21 ; set units to millimeters
G90 ; use absolute coordinates
M82 ; use absolute distances for extrusion
G92 E0
; custom gcode: start_filament_gcode
; Filament gcode

    PRESSURE_ADVANCE_SELECT FILAMENT=PLA
; custom gcode end: start_filament_gcode
;_TOOLCHANGE 0
M104 S200 ; set temperature
M109 S200 ; set temperature and wait for it to be reached
M190 S60 ; set bed temperature and wait for it to be reached
;LAYER_CHANGE
;Z:0.1
;HEIGHT:0.1
G1 Z0.1 F12000
M73 P0 R11
G1 E-0.8 F3000
M204 S2000
G1 X20.503 Y22.815 F12000
G1 E0 F1800
;TYPE:Skirt
;WIDTH:0.52
G1 X18.996 Y24.555 E0.04581
G1 X18.091 Y25.996 E0.07967
G1 X17.66 Y26.895 E0.09949
G1 X17.042 Y28.794 E0.13924
G1 X16.862 Y29.782 E0.15922
G1 X16.758 Y31.072 E0.18497
G1 X16.739 Y53.199 E0.62526
G1 X16.935 Y55.29 E0.66704
G1 X24.623 Y92.874 E1.43036
G1 X24.927 Y93.872 E1.45113
G1 X25.628 Y95.399 E1.48456
G1 X26.378 Y96.55 E1.51189
G1 X27.47 Y97.795 E1.54486
G1 X28.497 Y98.679 E1.57181
G1 X29.331 Y99.249 E1.59191
G1 X31.169 Y100.144 E1.6326
G1 X32.165 Y100.454 E1.65335
G1 X33.204 Y100.66 E1.67442
G1 X34.277 Y100.751 E1.69584
G1 X35.33 Y100.724 E1.7168
G1 X93.704 Y94.201 E2.88555
G1 X95.169 Y93.834 E2.9156
G1 X96.939 Y93.1 E2.95373
G1 X98.235 Y92.324 E2.98377
G1 X99.716 Y91.108 E3.02191
M73 P1 R11
G1 X100.73 Y89.99 E3.05195
G1 X101.396 Y89.061 E3.07469
G1 X101.968 Y88.072 E3.09743
G1 X102.44 Y87.031 E3.12017
G1 X102.808 Y85.949 E3.1429
G1 X103.068 Y84.837 E3.16564
G1 X103.218 Y83.704 E3.18838
G1 X103.259 Y81.623 E3.22979
G1 X101.752 Y36.817 E4.12183
G1 X101.602 Y35.684 E4.14457
G1 X101.342 Y34.572 E4.1673
G1 X100.834 Y33.15 E4.19735
G1 X100.329 Y32.125 E4.22009
G1 X99.726 Y31.154 E4.24282
G1 X98.51 Y29.673 E4.28096
G1 X97.391 Y28.659 E4.311
G1 X95.798 Y27.594 E4.34913
G1 X94.433 Y26.948 E4.37918
G1 X93.351 Y26.58 E4.40192
G1 X92.238 Y26.32 E4.42465
G1 X29.346 Y19.253 E5.68395
G1 X27.643 Y19.312 E5.71786
G1 X26.655 Y19.46 E5.73774
G1 X24.726 Y20.019 E5.77769
G1 X23.802 Y20.428 E5.7978
G1 X22.651 Y21.083 E5.82415
G1 X21.833 Y21.658 E5.84404
G1 X20.503 Y22.815 E5.87912
G1 X20.844 Y23.179 F12000
G1 F1800
G1 X19.407 Y24.837 E5.92276
G1 X18.524 Y26.243 E5.95581
G1 X18.113 Y27.104 E5.97479
G1 X17.524 Y28.92 E6.01277
G1 X17.353 Y29.864 E6.03186
G1 X17.256 Y31.072 E6.05598
G1 X17.238 Y53.2 E6.49627
G1 X17.428 Y55.215 E6.53655
G1 X25.102 Y92.738 E7.29863
M73 P2 R11
G1 X25.39 Y93.687 E7.31836
G1 X26.07 Y95.168 E7.35079
G1 X26.767 Y96.239 E7.37622
G1 X27.829 Y97.449 E7.40826
G1 X28.785 Y98.272 E7.43335
G1 X29.579 Y98.816 E7.4525
G1 X31.327 Y99.671 E7.49122
G1 X32.272 Y99.967 E7.51093
G1 X33.257 Y100.164 E7.53092
G1 X34.274 Y100.252 E7.55122
G1 X35.275 Y100.229 E7.57114
G1 X92.864 Y93.821 E8.72411
G1 X93.944 Y93.645 E8.74588
G1 X95.001 Y93.364 E8.76764
G1 X96.726 Y92.65 E8.8048
G1 X97.938 Y91.924 E8.8329
G1 X99.381 Y90.739 E8.87006
G1 X100.33 Y89.693 E8.89816
G1 X100.969 Y88.805 E8.91993
G1 X101.517 Y87.859 E8.94169
G1 X101.971 Y86.863 E8.96346
G1 X102.325 Y85.828 E8.98522
G1 X102.575 Y84.763 E9.00699
G1 X102.72 Y83.679 E9.02875
G1 X102.761 Y81.64 E9.06935
G1 X101.254 Y36.842 E9.96123
M73 P3 R11
G1 X101.109 Y35.758 E9.98299
G1 X100.859 Y34.693 E10.00476
G1 X100.383 Y33.363 E10.03286
G1 X99.901 Y32.381 E10.05462
G1 X99.325 Y31.451 E10.07639
G1 X98.141 Y30.007 E10.11355
G1 X97.094 Y29.059 E10.14165
G1 X95.541 Y28.021 E10.17881
G1 X94.265 Y27.418 E10.20691
G1 X93.23 Y27.064 E10.22867
G1 X92.165 Y26.813 E10.25044
G1 X29.343 Y19.752 E11.50833
M73 P3 R11
G1 X27.681 Y19.809 E11.54142
G1 X26.735 Y19.952 E11.56045
G1 X24.893 Y20.489 E11.59863
G1 X24.01 Y20.881 E11.61784
G1 X22.933 Y21.494 E11.64252
G1 X22.146 Y22.045 E11.66163
G1 X20.844 Y23.179 E11.69599
G92 E0
G1 E-0.8 F3000
; printing object mickey.stl id:0 copy 0
; acceleration to travel
M204 S4000
G1 X40.841 Y29.372 F12000
; decel to extrusion
M204 S2000
G1 X50.84 Y32.468
; end travel
G1 E0 F1800
;TYPE:Internal perimeter
;WIDTH:0.5
G1 X50.84 Y37.583 E0.09768
G1 X86.608 Y37.583 E0.78082
G1 X87.092 Y37.612 E0.79009
G1 X87.53 Y37.692 E0.7986
G1 X87.956 Y37.825 E0.80711
G1 X88.362 Y38.008 E0.81563
G1 X88.743 Y38.238 E0.82414
G1 X89.094 Y38.513 E0.83265
G1 X89.409 Y38.828 E0.84116
G1 X89.684 Y39.179 E0.84967
G1 X89.915 Y39.56 E0.85819
G1 X90.098 Y39.967 E0.8667
G1 X90.23 Y40.392 E0.87521
G1 X90.311 Y40.831 E0.88372
G1 X90.34 Y41.315 E0.89299
G1 X90.34 Y43.236 E0.92968
G1 X90.311 Y43.72 E0.93895
G1 X90.23 Y44.159 E0.94746
G1 X90.098 Y44.584 E0.95597
G1 X89.915 Y44.991 E0.96448
G1 X89.684 Y45.372 E0.97299
G1 X89.409 Y45.723 E0.98151
G1 X89.094 Y46.038 E0.99002
G1 X88.743 Y46.313 E0.99853
G1 X88.362 Y46.543 E1.00704
G1 X87.956 Y46.726 E1.01555
G1 X87.53 Y46.859 E1.02407
G1 X87.092 Y46.939 E1.03258
G1 X86.608 Y46.968 E1.04184
G1 X50.84 Y46.968 E1.72499
G1 X50.84 Y52.083 E1.82267
G1 X89.187 Y52.083 E2.55507
M73 P4 R10
G1 X89.908 Y52.039 E2.56887
G1 X90.657 Y51.902 E2.58342
G1 X91.384 Y51.675 E2.59797
G1 X92.079 Y51.362 E2.61252
G1 X92.731 Y50.968 E2.62708
G1 X93.331 Y50.498 E2.64163
G1 X93.87 Y49.96 E2.65618
G1 X94.34 Y49.36 E2.67073
G1 X94.734 Y48.708 E2.68528
G1 X95.046 Y48.013 E2.69984
G1 X95.273 Y47.286 E2.71439
G1 X95.41 Y46.536 E2.72894
G1 X95.454 Y45.815 E2.74274
G1 X95.454 Y38.736 E2.87794
G1 X95.41 Y38.015 E2.89174
G1 X95.273 Y37.266 E2.90629
G1 X95.046 Y36.538 E2.92084
G1 X94.734 Y35.843 E2.9354
G1 X94.34 Y35.191 E2.94995
G1 X93.87 Y34.592 E2.9645
G1 X93.331 Y34.053 E2.97905
G1 X92.731 Y33.583 E2.9936
G1 X92.079 Y33.189 E3.00816
G1 X91.384 Y32.876 E3.02271
G1 X90.657 Y32.649 E3.03726
G1 X89.908 Y32.512 E3.05181
G1 X89.187 Y32.468 E3.06561
G1 X50.84 Y32.468 E3.79801
G1 X51.318 Y32.947 F12000
G1 F1800
G1 X51.318 Y37.104 E3.87741
G1 X86.622 Y37.104 E4.55169
G1 X87.15 Y37.136 E4.56179
G1 X87.645 Y37.227 E4.57141
G1 X88.126 Y37.377 E4.58102
G1 X88.585 Y37.583 E4.59064
G1 X89.016 Y37.844 E4.60026
G1 X89.412 Y38.154 E4.60988
G1 X89.768 Y38.51 E4.61949
G1 X90.079 Y38.907 E4.62911
G1 X90.339 Y39.338 E4.63873
G1 X90.546 Y39.797 E4.64835
G1 X90.696 Y40.278 E4.65797
G1 X90.787 Y40.773 E4.66758
G1 X90.818 Y41.301 E4.67768
G1 X90.818 Y43.251 E4.71492
G1 X90.787 Y43.778 E4.72502
G1 X90.696 Y44.273 E4.73464
G1 X90.546 Y44.754 E4.74425
G1 X90.339 Y45.213 E4.75387
G1 X90.079 Y45.644 E4.76349
G1 X89.768 Y46.041 E4.77311
G1 X89.412 Y46.397 E4.78272
G1 X89.016 Y46.707 E4.79234
G1 X88.585 Y46.968 E4.80196
G1 X88.126 Y47.175 E4.81158
G1 X87.645 Y47.324 E4.82119
G1 X87.15 Y47.415 E4.83081
G1 X86.622 Y47.447 E4.84091
G1 X51.318 Y47.447 E5.51519
G1 X51.318 Y51.604 E5.59459
G1 X89.172 Y51.604 E6.31758
M73 P5 R10
G1 X89.85 Y51.563 E6.33054
G1 X90.542 Y51.436 E6.34399
G1 X91.214 Y51.227 E6.35744
G1 X91.856 Y50.938 E6.37088
G1 X92.459 Y50.574 E6.38433
G1 X93.013 Y50.139 E6.39777
G1 X93.511 Y49.642 E6.41122
G1 X93.945 Y49.087 E6.42467
G1 X94.309 Y48.485 E6.43811
G1 X94.598 Y47.843 E6.45156
G1 X94.808 Y47.171 E6.46501
G1 X94.935 Y46.478 E6.47845
G1 X94.976 Y45.801 E6.49142
G1 X94.976 Y38.751 E6.62607
G1 X94.935 Y38.073 E6.63904
G1 X94.808 Y37.38 E6.65249
G1 X94.598 Y36.708 E6.66593
G1 X94.309 Y36.066 E6.67938
G1 X93.945 Y35.464 E6.69283
G1 X93.511 Y34.91 E6.70627
G1 X93.013 Y34.412 E6.71972
G1 X92.459 Y33.978 E6.73317
G1 X91.856 Y33.613 E6.74661
G1 X91.214 Y33.324 E6.76006
G1 X90.542 Y33.115 E6.77351
G1 X89.85 Y32.988 E6.78695
G1 X89.172 Y32.947 E6.79992
G1 X51.318 Y32.947 E7.52291
G1 X51.797 Y33.426 F12000
;TYPE:External perimeter
G1 F1800
G1 X51.797 Y36.626 E7.58403
G1 X86.636 Y36.626 E8.24944
G1 X87.207 Y36.66 E8.26037
G1 X87.76 Y36.761 E8.27109
G1 X88.296 Y36.928 E8.28182
G1 X88.808 Y37.159 E8.29254
G1 X89.288 Y37.449 E8.30326
G1 X89.73 Y37.795 E8.31399
G1 X90.127 Y38.192 E8.32471
G1 X90.473 Y38.634 E8.33543
G1 X90.764 Y39.115 E8.34616
G1 X90.994 Y39.627 E8.35688
G1 X91.161 Y40.163 E8.3676
G1 X91.262 Y40.715 E8.37833
G1 X91.297 Y41.286 E8.38925
G1 X91.297 Y43.265 E8.42705
G1 X91.262 Y43.836 E8.43797
G1 X91.161 Y44.388 E8.4487
G1 X90.994 Y44.924 E8.45942
G1 X90.764 Y45.436 E8.47014
G1 X90.473 Y45.917 E8.48086
G1 X90.127 Y46.359 E8.49159
G1 X89.73 Y46.756 E8.50231
G1 X89.288 Y47.102 E8.51303
G1 X88.808 Y47.392 E8.52376
G1 X88.296 Y47.623 E8.53448
G1 X87.76 Y47.79 E8.5452
G1 X87.207 Y47.891 E8.55593
G1 X86.636 Y47.926 E8.56685
G1 X51.797 Y47.926 E9.23227
G1 X51.797 Y51.126 E9.29339
G1 X89.158 Y51.126 E10.00696
M73 P6 R10
G1 X89.792 Y51.087 E10.0191
G1 X90.428 Y50.971 E10.03144
G1 X91.044 Y50.778 E10.04378
G1 X91.634 Y50.513 E10.05612
G1 X92.187 Y50.179 E10.06846
G1 X92.695 Y49.781 E10.0808
G1 X93.152 Y49.324 E10.09314
G1 X93.551 Y48.815 E10.10548
G1 X93.885 Y48.262 E10.11782
G1 X94.15 Y47.673 E10.13017
G1 X94.342 Y47.056 E10.14251
G1 X94.459 Y46.421 E10.15485
G1 X94.497 Y45.786 E10.16699
G1 X94.497 Y38.765 E10.30109
G1 X94.459 Y38.131 E10.31322
G1 X94.342 Y37.495 E10.32557
G1 X94.15 Y36.878 E10.33791
G1 X93.885 Y36.289 E10.35025
G1 X93.551 Y35.736 E10.36259
G1 X93.152 Y35.227 E10.37493
G1 X92.695 Y34.771 E10.38727
G1 X92.187 Y34.372 E10.39961
G1 X91.634 Y34.038 E10.41195
G1 X91.044 Y33.773 E10.42429
G1 X90.428 Y33.58 E10.43663
G1 X89.792 Y33.464 E10.44897
G1 X89.158 Y33.426 E10.46111
G1 X51.797 Y33.426 E11.17468
;WIPE_START
M204 S4000
G1 X51.397 Y33.426 F12000
;WIPE_END
; acceleration to travel
G1 X50.707 Y32.697
; decel to extrusion
M204 S2000
G1 X50.361 Y32.333
; end travel
;TYPE:Internal perimeter
G1 F1800
G1 X50.361 Y38.061 E11.28409
G1 X86.593 Y38.061 E11.9761
G1 X87.034 Y38.088 E11.98454
G1 X87.416 Y38.158 E11.99195
G1 X87.786 Y38.273 E11.99935
G1 X88.139 Y38.432 E12.00676
G1 X88.471 Y38.633 E12.01417
G1 X88.776 Y38.872 E12.02157
G1 X89.051 Y39.146 E12.02898
G1 X89.29 Y39.451 E12.03638
G1 X89.49 Y39.783 E12.04379
G1 X89.649 Y40.137 E12.0512
G1 X89.765 Y40.507 E12.0586
G1 X89.835 Y40.888 E12.06601
G1 X89.861 Y41.33 E12.07445
G1 X89.861 Y43.222 E12.11059
G1 X89.835 Y43.663 E12.11902
G1 X89.765 Y44.044 E12.12643
G1 X89.649 Y44.414 E12.13384
G1 X89.49 Y44.768 E12.14124
G1 X89.29 Y45.1 E12.14865
G1 X89.051 Y45.405 E12.15606
G1 X88.776 Y45.679 E12.16346
G1 X88.471 Y45.918 E12.17087
G1 X88.139 Y46.119 E12.17827
G1 X87.786 Y46.278 E12.18568
G1 X87.416 Y46.393 E12.19309
G1 X87.034 Y46.463 E12.20049
G1 X86.593 Y46.49 E12.20893
G1 X50.361 Y46.49 E12.90094
G1 X50.361 Y52.218 E13.01035
G1 X50.024 Y52.258 E13.01685
G1 X49.953 Y51.965 E13.02262
G1 X49.933 Y51.705 E13.02759
G1 X49.933 Y49.969 E13.06076
G1 X47.788 Y49.034 E13.10545
G1 X46.289 Y50.428 E13.14454
G1 X45.719 Y50.883 E13.15846
G1 X45.134 Y51.279 E13.17196
G1 X44.532 Y51.62 E13.18517
G1 X43.91 Y51.906 E13.19824
M73 P7 R10
G1 X43.267 Y52.139 E13.21132
G1 X42.598 Y52.321 E13.22456
G1 X41.906 Y52.45 E13.23799
G1 X41.453 Y52.496 E13.2467
G1 X40.9 Y52.512 E13.25726
G1 X40.296 Y52.497 E13.2688
G1 X39.695 Y52.451 E13.28031
G1 X39.153 Y52.379 E13.29075
G1 X38.728 Y52.291 E13.29905
G1 X38.394 Y52.186 E13.30573
G1 X37.908 Y52.001 E13.31566
G1 X36.752 Y51.486 E13.33983
G1 X36.299 Y51.253 E13.34956
G1 X34.574 Y50.199 E13.38817
G1 X32.633 Y51.675 E13.43474
G1 X33.224 Y53.752 E13.47598
G1 X33.363 Y54.362 E13.48794
G1 X33.446 Y54.892 E13.49819
G1 X33.481 Y55.364 E13.50722
G1 X33.472 Y55.799 E13.51554
G1 X33.424 Y56.222 E13.52366
G1 X33.31 Y56.763 E13.53423
G1 X33.156 Y57.238 E13.54376
G1 X32.95 Y57.687 E13.5532
G1 X32.862 Y57.841 E13.55658
G1 X32.562 Y58.272 E13.56662
G1 X32.433 Y58.426 E13.57045
G1 X32.043 Y58.825 E13.58112
G1 X31.636 Y59.162 E13.59121
G1 X31.386 Y59.332 E13.59698
G1 X31.115 Y59.485 E13.60293
G1 X30.824 Y59.62 E13.60905
G1 X30.64 Y59.689 E13.6128
G1 X30.112 Y59.838 E13.62329
G1 X29.892 Y59.88 E13.62756
G1 X29.295 Y59.947 E13.63902
G1 X28.707 Y59.954 E13.65027
G1 X28.113 Y59.901 E13.66165
G1 X27.53 Y59.791 E13.67298
G1 X26.957 Y59.626 E13.68437
G1 X26.397 Y59.407 E13.69586
G1 X25.854 Y59.137 E13.70744
G1 X25.332 Y58.819 E13.71912
G1 X24.836 Y58.455 E13.73086
G1 X24.37 Y58.05 E13.74265
G1 X23.94 Y57.608 E13.75444
G1 X23.548 Y57.132 E13.76622
G1 X23.198 Y56.627 E13.77795
G1 X22.896 Y56.096 E13.78961
G1 X22.642 Y55.545 E13.80119
G1 X22.441 Y54.978 E13.8127
G1 X22.295 Y54.396 E13.82415
G1 X22.205 Y53.804 E13.83558
G1 X22.175 Y53.198 E13.84717
G1 X22.199 Y52.659 E13.85749
G1 X22.271 Y52.15 E13.8673
G1 X22.385 Y51.677 E13.8766
G1 X22.539 Y51.239 E13.88545
G1 X22.728 Y50.836 E13.89396
G1 X22.952 Y50.468 E13.9022
G1 X23.209 Y50.132 E13.91027
G1 X23.497 Y49.828 E13.91826
G1 X23.817 Y49.557 E13.92627
G1 X24.168 Y49.319 E13.93438
G1 X24.552 Y49.115 E13.94268
G1 X24.968 Y48.946 E13.95126
G1 X25.418 Y48.814 E13.96022
G1 X25.902 Y48.724 E13.96962
G1 X26.42 Y48.679 E13.97955
G1 X26.97 Y48.682 E13.99005
G1 X27.689 Y48.751 E14.00384
G1 X28.293 Y48.876 E14.01563
G1 X28.899 Y49.075 E14.02782
G1 X29.192 Y49.198 E14.03387
G1 X31.51 Y50.351 E14.08333
G1 X33.322 Y48.635 E14.13099
G1 X32.464 Y46.646 E14.17235
G1 X32.23 Y46.043 E14.18472
G1 X32.04 Y45.436 E14.19687
G1 X31.885 Y44.8 E14.20937
G1 X31.766 Y44.141 E14.22217
G1 X31.666 Y43.243 E14.23942
G1 X31.633 Y42.315 E14.25714
G1 X31.668 Y41.379 E14.27505
G1 X31.709 Y40.939 E14.28348
G1 X31.767 Y40.498 E14.29198
G1 X31.889 Y39.828 E14.30497
G1 X32.045 Y39.19 E14.31752
G1 X32.233 Y38.587 E14.32959
G1 X32.75 Y37.29 E14.35626
G1 X33.22 Y35.865 E14.38491
G1 X31.42 Y34.307 E14.43038
G1 X29.693 Y35.168 E14.46724
G1 X29.04 Y35.458 E14.48088
G1 X28.268 Y35.753 E14.49667
G1 X28.092 Y35.806 E14.50018
G1 X27.718 Y35.875 E14.50743
G1 X27.232 Y35.922 E14.51677
G1 X26.687 Y35.938 E14.52717
G1 X26.155 Y35.92 E14.53735
G1 X25.708 Y35.873 E14.54594
G1 X25.401 Y35.809 E14.55192
G1 X24.946 Y35.656 E14.56109
G1 X24.51 Y35.457 E14.57025
G1 X24.111 Y35.222 E14.57909
G1 X23.749 Y34.954 E14.58769
G1 X23.423 Y34.653 E14.59616
G1 X23.133 Y34.321 E14.60458
G1 X22.878 Y33.959 E14.61304
G1 X22.661 Y33.566 E14.62162
G1 X22.482 Y33.142 E14.63041
G1 X22.343 Y32.687 E14.6395
G1 X22.246 Y32.201 E14.64896
G1 X22.196 Y31.679 E14.65898
G1 X22.192 Y31.134 E14.66938
G1 X22.233 Y30.604 E14.67954
G1 X22.319 Y30.092 E14.68945
G1 X22.448 Y29.595 E14.69926
G1 X22.623 Y29.108 E14.70914
G1 X22.845 Y28.629 E14.71922
G1 X23.116 Y28.154 E14.72967
G1 X23.44 Y27.682 E14.7406
G1 X23.819 Y27.212 E14.75213
G1 X24.255 Y26.745 E14.76433
G1 X24.725 Y26.306 E14.77662
G1 X25.196 Y25.926 E14.78817
G1 X25.667 Y25.603 E14.79909
G1 X26.14 Y25.333 E14.8095
G1 X26.619 Y25.112 E14.81956
G1 X27.107 Y24.939 E14.82945
G1 X27.608 Y24.81 E14.83935
G1 X28.13 Y24.724 E14.84943
G1 X28.675 Y24.683 E14.85989
G1 X28.96 Y24.684 E14.86533
G1 X29.25 Y24.686 E14.87086
G1 X29.736 Y24.726 E14.88017
G1 X30.173 Y24.798 E14.88864
G1 X30.566 Y24.9 E14.89639
G1 X30.924 Y25.032 E14.90368
G1 X31.259 Y25.195 E14.9108
G1 X31.582 Y25.396 E14.91806
G1 X31.902 Y25.641 E14.92576
G1 X32.223 Y25.935 E14.93408
G1 X32.504 Y26.241 E14.94201
G1 X32.742 Y26.554 E14.94951
G1 X32.943 Y26.876 E14.95676
G1 X33.11 Y27.211 E14.96392
G1 X33.246 Y27.566 E14.97118
G1 X33.352 Y27.947 E14.97873
G1 X33.428 Y28.359 E14.98673
