; generated by SuperSlicer 2.5.59 on 2023-03-18 at 03:32:31 UTC


;
;

;
;
; 

; external perimeters extrusion width = 0.40mm
; perimeters extrusion width = 0.46mm
; infill extrusion width = 0.64mm
; solid infill extrusion width = 0.56mm
; top infill extrusion width = 0.40mm
; support material extrusion width = 0.46mm
; first layer extrusion width = 0.50mm

; object:{"name":"Middle ash tray insert V2_ v2","id":"Middle ash tray insert V2_ v2.stl id:0 copy 0","object_center":[60.000000,60.000000,0.000000],"boundingbox_center":[60.000000,60.000000,13.500000],"boundingbox_size":[78.599998,30.500000,27.000000]}
EXCLUDE_OBJECT_DEFINE NAME=Middle_ash_tray_insert_V2__v2_stl_id_0_copy_0 CENTER=60.000000,60.000000 POLYGON=[[20.700000,44.750000],[99.300000,44.750000],[99.300000,67.250664],[99.261480,68.034768],[99.146304,68.811320],[98.955552,69.572824],[98.691096,70.311960],[98.355456,71.021616],[97.951872,71.694936],[97.484248,72.325472],[96.957056,72.907120],[96.375392,73.434288],[95.744848,73.901920],[95.071504,74.305480],[94.361832,74.641104],[93.622680,74.905560],[92.861144,75.096296],[92.084576,75.211480],[91.300456,75.250000],[28.699546,75.250000],[27.915416,75.211480],[27.138852,75.096296],[26.377324,74.905560],[25.638168,74.641104],[24.928498,74.305480],[24.255150,73.901920],[23.624610,73.434288],[23.042946,72.907120],[22.515754,72.325472],[22.048122,71.694936],[21.644542,71.021616],[21.308906,70.311960],[21.044446,69.572824],[20.853702,68.811320],[20.738518,68.034768],[20.700000,67.250664],[20.700000,44.750000]]
; plater:{"center":[60.000000,60.000000,0.000000],"boundingbox_center":[60.000000,60.000000,13.500000],"boundingbox_size":[78.599998,30.500000,27.000000]}

M73 P0 R51
;TYPE:Custom
; custom gcode: start_gcode
START_PRINT T_BED=110 T_EXTRUDER=240
; custom gcode end: start_gcode
M107
G21 ; set units to millimeters
G90 ; use absolute coordinates
M82 ; use absolute distances for extrusion
G92 E0
; custom gcode: start_filament_gcode
; Filament gcode

    PRESSURE_ADVANCE_SELECT FILAMENT=ABS
; custom gcode end: start_filament_gcode
;_TOOLCHANGE 0
M104 S240 ; set temperature
M109 S240 ; set temperature and wait for it to be reached
M190 S110 ; set bed temperature and wait for it to be reached
;LAYER_CHANGE
;Z:0.2
;HEIGHT:0.2
G1 Z0.2 F12000
M73 P0 R51
G1 E-0.5 F3000
M204 S2000
G1 X18.879 Y42.121 F12000
G1 E0 F1800
;TYPE:Skirt
;WIDTH:0.52
G1 X17.779 Y43.434 E0.06521
G1 X17.384 Y45.1 E0.13043
G1 X17.384 Y66.998 E0.96434
G1 X17.577 Y69.086 E1.04423
G1 X17.942 Y70.545 E1.10149
G1 X18.343 Y71.612 E1.14489
G1 X18.846 Y72.634 E1.18829
G1 X19.447 Y73.602 E1.23168
G1 X20.14 Y74.507 E1.27508
G1 X20.919 Y75.339 E1.31848
G1 X22.398 Y76.553 E1.39134
G1 X23.366 Y77.154 E1.43474
G1 X24.388 Y77.657 E1.47814
G1 X25.799 Y78.163 E1.5352
G1 X46.186 Y83.3 E2.33587
G1 X47.094 Y83.413 E2.37072
G1 X72.906 Y83.413 E3.3537
G1 X73.814 Y83.3 E3.38855
G1 X94.545 Y78.058 E4.20288
G1 X95.597 Y77.664 E4.24566
G1 X97.638 Y76.624 E4.33291
G1 X98.57 Y75.937 E4.377
G1 X99.937 Y74.571 E4.45061
G1 X100.399 Y73.938 E4.48042
G1 X101.657 Y71.612 E4.58116
G1 X102.164 Y70.196 E4.63841
G1 X102.423 Y69.087 E4.68182
G1 X102.616 Y66.998 E4.7617
G1 X102.616 Y45.1 E5.59562
G1 X101.879 Y42.879 E5.68473
G1 X100.566 Y41.779 E5.74995
G1 X98.9 Y41.384 E5.81516
G1 X21.1 Y41.384 E8.77798
G1 X18.879 Y42.121 E8.8671
G1 X19.257 Y42.471 F12000
G1 F1800
G1 X18.255 Y43.552 E8.92321
G1 X17.861 Y45.1 E8.98404
G1 X17.861 Y66.998 E9.81795
G1 X18.048 Y69.016 E9.89516
G1 X18.391 Y70.384 E9.94886
G1 X18.774 Y71.408 E9.99048
G1 X19.255 Y72.389 E10.03209
G1 X19.83 Y73.318 E10.07371
G1 X20.494 Y74.186 E10.11532
G1 X21.239 Y74.986 E10.15694
G1 X22.682 Y76.17 E10.22802
M73 P0 R50
G1 X23.611 Y76.745 E10.26963
G1 X24.592 Y77.226 E10.31125
G1 X25.915 Y77.7 E10.36478
G1 X46.303 Y82.838 E11.16545
G1 X47.094 Y82.936 E11.19582
G1 X72.906 Y82.936 E12.17881
G1 X73.697 Y82.838 E12.20918
G1 X94.384 Y77.609 E13.02176
G1 X95.395 Y77.232 E13.06284
G1 X97.397 Y76.212 E13.1484
G1 X98.25 Y75.584 E13.18875
G1 X99.584 Y74.25 E13.26058
G1 X100.769 Y72.348 E13.34593
G1 X101.226 Y71.408 E13.38575
G1 X101.701 Y70.08 E13.43944
G1 X101.952 Y69.017 E13.48106
G1 X102.139 Y66.998 E13.55828
G1 X102.139 Y45.1 E14.39219
G1 X101.619 Y43.341 E14.46204
G1 X100.448 Y42.255 E14.52286
G1 X98.9 Y41.861 E14.58368
G1 X21.1 Y41.861 E17.54651
G1 X19.341 Y42.381 E17.61635
G1 X19.257 Y42.471 E17.62106
G92 E0
G1 E-0.5 F3000
; printing object Middle ash tray insert V2_ v2.stl id:0 copy 0
EXCLUDE_OBJECT_START NAME=Middle_ash_tray_insert_V2__v2_stl_id_0_copy_0
; acceleration to travel
M204 S4000
G1 X38.551 Y45.553 F12000
; decel to extrusion
M204 S2000
G1 X48.199 Y47.094
; end travel
G1 E0 F1800
;TYPE:Support material
;WIDTH:0.5
G1 X71.801 Y47.094 E0.86118
G1 X71.801 Y51.011 E1.00411
G1 X69.971 Y51.011 E1.07088
G1 X69.558 Y51.061 E1.08606
G1 X69.422 Y51.098 E1.09123
G1 X69.07 Y51.243 E1.10511
G1 X68.945 Y51.315 E1.11037
G1 X68.646 Y51.548 E1.1242
G1 X68.548 Y51.646 E1.12927
G1 X68.324 Y51.938 E1.1427
G1 X68.253 Y52.06 E1.14782
G1 X68.11 Y52.405 E1.16146
G1 X68.073 Y52.541 E1.16659
G1 X68.022 Y52.956 E1.18185
G1 X68.021 Y74.029 E1.95072
G1 X68.071 Y74.444 E1.96597
G1 X68.108 Y74.58 E1.97113
G1 X68.252 Y74.928 E1.98485
G1 X68.323 Y75.05 E1.99001
G1 X68.552 Y75.348 E2.00373
G1 X68.652 Y75.448 E2.00889
G1 X68.95 Y75.677 E2.02261
G1 X69.072 Y75.748 E2.02777
G1 X69.42 Y75.892 E2.04149
G1 X69.556 Y75.929 E2.04665
G1 X69.971 Y75.979 E2.06189
G1 X72.906 Y75.979 E2.16897
G1 X72.906 Y79.697 E2.30465
G1 X47.094 Y79.697 E3.24643
G1 X47.094 Y75.979 E3.38211
G1 X50.029 Y75.979 E3.48919
G1 X50.444 Y75.929 E3.50444
G1 X50.58 Y75.892 E3.5096
G1 X50.928 Y75.748 E3.52332
G1 X51.05 Y75.677 E3.52848
G1 X51.348 Y75.448 E3.5422
G1 X51.448 Y75.348 E3.54736
G1 X51.677 Y75.05 E3.56108
G1 X51.748 Y74.928 E3.56624
G1 X51.892 Y74.58 E3.57996
G1 X51.929 Y74.444 E3.58512
G1 X51.979 Y74.029 E3.60036
G1 X51.979 Y52.961 E4.36903
G1 X51.929 Y52.548 E4.3842
G1 X51.892 Y52.412 E4.38937
G1 X51.747 Y52.061 E4.40322
G1 X51.676 Y51.938 E4.4084
G1 X51.448 Y51.641 E4.42205
G1 X51.349 Y51.542 E4.42719
G1 X51.052 Y51.314 E4.44085
G1 X50.929 Y51.243 E4.44602
G1 X50.578 Y51.098 E4.45987
G1 X50.442 Y51.061 E4.46504
G1 X50.029 Y51.011 E4.48021
G1 X48.199 Y51.011 E4.54698
G1 X48.199 Y47.094 E4.68992
; acceleration to travel
M204 S4000
G1 X64.192 Y68.753 F12000
; decel to extrusion
M204 S2000
G1 X72.189 Y79.583
; end travel
G1 F1800
G1 X72.189 Y76.289 E4.81009
G1 X71.681 Y76.289 E4.82862
G1 X71.681 Y79.386 E4.94162
G1 X71.173 Y79.386 E4.96015
G1 X71.173 Y76.289 E5.07315
G1 X70.665 Y76.289 E5.09168
G1 X70.665 Y79.386 E5.20468
G1 X70.157 Y79.386 E5.22321
G1 X70.157 Y76.289 E5.33621
G1 X69.87 Y76.283 E5.34668
G1 X69.649 Y76.254 E5.35481
G1 X69.649 Y79.386 E5.46909
G1 X69.142 Y79.386 E5.48762
G1 X69.142 Y76.113 E5.60705
G1 X68.935 Y76.027 E5.61522
G1 X68.634 Y75.827 E5.62842
G1 X68.634 Y79.386 E5.75831
G1 X68.126 Y79.386 E5.77684
G1 X68.126 Y75.304 E5.92578
G1 X67.973 Y75.065 E5.93614
G1 X67.813 Y74.68 E5.95135
G1 X67.766 Y74.504 E5.95799
G1 X67.711 Y74.039 E5.97509
G1 X67.711 Y52.945 E6.74472
G1 X67.768 Y52.479 E6.76185
G1 X67.815 Y52.304 E6.76847
G1 X67.974 Y51.922 E6.78358
G1 X68.126 Y51.686 E6.79382
G1 X68.126 Y47.405 E6.95001
G1 X68.634 Y47.405 E6.96854
G1 X68.634 Y51.164 E7.10569
G1 X68.932 Y50.964 E7.11879
G1 X69.142 Y50.877 E7.12707
G1 X69.142 Y47.405 E7.25376
G1 X69.649 Y47.405 E7.27229
G1 X69.649 Y50.736 E7.39382
G1 X69.871 Y50.707 E7.40197
G1 X70.157 Y50.701 E7.41242
G1 X70.157 Y47.405 E7.53267
G1 X70.665 Y47.405 E7.5512
G1 X70.665 Y50.701 E7.67146
G1 X71.173 Y50.701 E7.68999
G1 X71.173 Y47.208 E7.81741
G92 E0
G1 E-0.5 F3000
; acceleration to travel
M204 S4000
G1 X68.803 Y68.791 F12000
; decel to extrusion
M204 S2000
G1 X67.618 Y79.583
; end travel
G1 E0 F1800
G1 X67.618 Y47.405 E1.17406
G1 X67.11 Y47.405 E1.19259
G1 X67.11 Y79.386 E2.35947
G1 X66.602 Y79.386 E2.378
G1 X66.602 Y47.405 E3.54489
G1 X66.094 Y47.405 E3.56342
G1 X66.094 Y79.386 E4.7303
G1 X65.587 Y79.386 E4.74883
G1 X65.587 Y47.405 E5.91571
G1 X65.079 Y47.405 E5.93424
G1 X65.079 Y79.386 E7.10113
G1 X64.571 Y79.386 E7.11966
G1 X64.571 Y47.405 E8.28654
G1 X64.063 Y47.405 E8.30507
G1 X64.063 Y79.386 E9.47196
G1 X63.555 Y79.386 E9.49049
G1 X63.555 Y47.405 E10.65737
G1 X63.047 Y47.405 E10.6759
G1 X63.047 Y79.386 E11.84279
G1 X62.539 Y79.386 E11.86132
G1 X62.539 Y47.405 E13.0282
G1 X62.031 Y47.405 E13.04673
G1 X62.031 Y79.386 E14.21362
G1 X61.524 Y79.386 E14.23215
G1 X61.524 Y47.405 E15.39903
G1 X61.016 Y47.405 E15.41756
G1 X61.016 Y79.386 E16.58445
M73 P1 R50
G1 X60.508 Y79.386 E16.60298
G1 X60.508 Y47.405 E17.76986
G1 X60 Y47.405 E17.78839
G1 X60 Y79.386 E18.95528
G1 X59.492 Y79.386 E18.97381
G1 X59.492 Y47.405 E20.14069
M73 P1 R50
G1 X58.984 Y47.405 E20.15922
G1 X58.984 Y79.386 E21.3261
G1 X58.476 Y79.386 E21.34463
G1 X58.476 Y47.405 E22.51152
G1 X57.969 Y47.405 E22.53005
G1 X57.969 Y79.386 E23.69693
G1 X57.461 Y79.386 E23.71546
G1 X57.461 Y47.405 E24.88235
G1 X56.953 Y47.405 E24.90088
G1 X56.953 Y79.386 E26.06776
G1 X56.445 Y79.386 E26.08629
G1 X56.445 Y47.405 E27.25318
G1 X55.937 Y47.405 E27.27171
G1 X55.937 Y79.386 E28.43859
G1 X55.429 Y79.386 E28.45712
G1 X55.429 Y47.405 E29.62401
G1 X54.921 Y47.405 E29.64254
G1 X54.921 Y79.386 E30.80942
G1 X54.413 Y79.386 E30.82795
G1 X54.413 Y47.405 E31.99484
G1 X53.906 Y47.405 E32.01337
G1 X53.906 Y79.386 E33.18025
G1 X53.398 Y79.386 E33.19878
G1 X53.398 Y47.405 E34.36567
G1 X52.89 Y47.405 E34.3842
G1 X52.89 Y79.386 E35.55108
G1 X52.382 Y79.386 E35.56961
G1 X52.382 Y47.405 E36.73649
G1 X51.874 Y47.405 E36.75502
G1 X51.874 Y51.686 E36.91121
G1 X51.682 Y51.436 E36.9227
G1 X51.554 Y51.308 E36.92932
G1 X51.366 Y51.163 E36.93796
G1 X51.366 Y47.405 E37.0751
G1 X50.858 Y47.405 E37.09363
G1 X50.858 Y50.877 E37.22032
G1 X50.679 Y50.803 E37.22742
G1 X50.351 Y50.736 E37.23964
G1 X50.351 Y47.405 E37.36116
G1 X49.843 Y47.405 E37.37969
G1 X49.843 Y50.701 E37.49995
G1 X49.335 Y50.701 E37.51848
G1 X49.335 Y47.405 E37.63873
G1 X48.827 Y47.405 E37.65726
G1 X48.827 Y50.897 E37.78468
G92 E0
G1 E-0.5 F3000
; acceleration to travel
M204 S4000
G1 X50.858 Y70.021 F12000
; decel to extrusion
M204 S2000
G1 X51.874 Y79.583
; end travel
G1 E0 F1800
G1 X51.874 Y75.304 E0.15612
G1 X51.683 Y75.554 E0.1676
G1 X51.554 Y75.683 E0.17424
G1 X51.366 Y75.827 E0.18287
G1 X51.366 Y79.386 E0.31275
G1 X50.858 Y79.386 E0.33128
G1 X50.858 Y76.113 E0.45071
G1 X50.68 Y76.187 E0.45775
G1 X50.351 Y76.254 E0.47003
G1 X50.351 Y79.386 E0.5843
G1 X49.843 Y79.386 E0.60283
G1 X49.843 Y76.289 E0.71583
G1 X49.335 Y76.289 E0.73436
G1 X49.335 Y79.386 E0.84736
G1 X48.827 Y79.386 E0.86589
G1 X48.827 Y76.289 E0.97889
G1 X48.319 Y76.289 E0.99742
G1 X48.319 Y79.386 E1.11042
G1 X47.811 Y79.386 E1.12895
G1 X47.811 Y76.093 E1.24913
G92 E0
G1 E-0.5 F3000
; acceleration to travel
M204 S4000
G1 X47.224 Y60.846 F12000
; decel to extrusion
M204 S2000
G1 X46.93 Y53.223
; end travel
G1 E0 F1800
;TYPE:Internal perimeter
;WIDTH:0.499999
G1 X47.099 Y53.254 E0.00624
G1 X49.736 Y53.254 E0.10247
G1 X49.736 Y73.736 E0.84976
G1 X29.031 Y73.736 E1.6052
G1 X28.34 Y73.702 E1.63044
G1 X27.686 Y73.605 E1.65456
G1 X27.045 Y73.444 E1.67867
G1 X26.423 Y73.222 E1.70279
G1 X25.825 Y72.939 E1.7269
G1 X25.259 Y72.599 E1.75101
G1 X24.728 Y72.206 E1.77512
G1 X24.238 Y71.762 E1.79923
G1 X23.794 Y71.272 E1.82335
G1 X23.401 Y70.741 E1.84746
G1 X23.061 Y70.175 E1.87157
G1 X22.778 Y69.577 E1.89568
G1 X22.556 Y68.955 E1.9198
G1 X22.395 Y68.314 E1.94391
G1 X22.298 Y67.66 E1.96802
G1 X22.264 Y66.969 E1.99327
G1 X22.264 Y46.264 E2.7487
G1 X45.956 Y46.265 E3.61312
G1 X45.956 Y52.111 E3.82644
G1 X46 Y52.427 E3.83809
G1 X46.202 Y52.819 E3.85416
G1 X46.36 Y52.984 E3.8625
G1 X46.691 Y53.179 E3.87651
G1 X46.93 Y53.223 E3.88539
G1 X47 Y52.773 F12000
G1 F1800
G1 X47.099 Y52.797 E3.88908
G1 X50.022 Y52.807 E3.99576
G1 X50.146 Y52.877 E4.00094
G1 X50.193 Y53.06 E4.00782
G1 X50.193 Y73.947 E4.76992
G1 X50.131 Y74.131 E4.77701
G1 X49.947 Y74.193 E4.7841
G1 X29.02 Y74.193 E5.54766
G1 X28.295 Y74.157 E5.57413
G1 X27.597 Y74.054 E5.59988
G1 X26.912 Y73.882 E5.62564
G1 X26.248 Y73.644 E5.65139
G1 X25.61 Y73.343 E5.67714
G1 X25.004 Y72.98 E5.70289
G1 X24.437 Y72.559 E5.72864
G1 X23.914 Y72.085 E5.75439
G1 X23.44 Y71.562 E5.78014
G1 X23.02 Y70.996 E5.80589
G1 X22.657 Y70.39 E5.83164
G1 X22.355 Y69.752 E5.8574
G1 X22.118 Y69.088 E5.88315
G1 X21.946 Y68.403 E5.9089
G1 X21.843 Y67.705 E5.93465
G1 X21.807 Y66.98 E5.96112
G1 X21.807 Y45.807 E6.73365
G1 X46.153 Y45.808 E7.62194
G1 X46.349 Y45.867 E7.62941
G1 X46.413 Y46.053 E7.63658
G1 X46.413 Y51.018 E7.81775
G1 X46.435 Y52.283 E7.8639
G1 X46.56 Y52.536 E7.87422
G1 X46.783 Y52.72 E7.88477
G1 X47 Y52.773 E7.89292
G1 X47.099 Y52.34 F12000
;TYPE:External perimeter
G1 F1800
G1 X49.93 Y52.34 E7.99624
M73 P2 R49
G1 X50.166 Y52.365 E8.00489
G1 X50.458 Y52.533 E8.01716
G1 X50.592 Y52.743 E8.02626
G1 X50.65 Y53.06 E8.03802
G1 X50.65 Y73.977 E8.80121
G1 X50.56 Y74.323 E8.81427
G1 X50.323 Y74.56 E8.82649
G1 X49.977 Y74.65 E8.83954
G1 X29.009 Y74.65 E9.6046
G1 X28.25 Y74.613 E9.6323
G1 X27.508 Y74.503 E9.6597
G1 X26.779 Y74.32 E9.68709
G1 X26.073 Y74.067 E9.71448
G1 X25.394 Y73.746 E9.74187
G1 X24.75 Y73.36 E9.76926
G1 X24.147 Y72.913 E9.79664
G1 X23.591 Y72.409 E9.82403
G1 X23.087 Y71.853 E9.85142
G1 X22.64 Y71.25 E9.87881
G1 X22.254 Y70.606 E9.9062
G1 X21.933 Y69.927 E9.93359
G1 X21.68 Y69.221 E9.96098
G1 X21.497 Y68.492 E9.98837
G1 X21.387 Y67.75 E10.01576
G1 X21.35 Y66.991 E10.04346
G1 X21.35 Y45.35 E10.83307
G1 X46.201 Y45.35 E11.7398
G1 X46.545 Y45.44 E11.75275
G1 X46.78 Y45.676 E11.76489
G1 X46.87 Y46.023 E11.77797
G1 X46.87 Y52.111 E12.00012
G1 X46.936 Y52.272 E12.00646
G1 X47.099 Y52.34 E12.01288
;WIPE_START
M204 S4000
G1 X47.251 Y52.71 F12000
;WIPE_END
G92 E0
G1 E-0.5 F3000
; acceleration to travel
G1 X43.007 Y52.216 F12000
; decel to extrusion
M204 S2000
G1 X40.885 Y51.968
; end travel
G1 E0 F1800
;TYPE:Internal perimeter
G1 X40.568 Y51.621 E0.01714
G1 X40.058 Y51.267 E0.0398
G1 X39.481 Y51.037 E0.06247
G1 X38.753 Y50.936 E0.08928
G1 X32.199 Y50.936 E0.32839
G1 X31.468 Y51.04 E0.35535
G1 X30.894 Y51.271 E0.3779
G1 X30.387 Y51.624 E0.40046
G1 X29.97 Y52.081 E0.42302
G1 X29.666 Y52.619 E0.44557
G1 X29.489 Y53.212 E0.46813
G1 X29.442 Y53.694 E0.4858
G1 X29.449 Y54.575 E0.51797
G1 X29.546 Y55.179 E0.54027
G1 X29.777 Y55.752 E0.56283
G1 X30.13 Y56.26 E0.58538
G1 X30.587 Y56.676 E0.60794
G1 X31.125 Y56.981 E0.6305
G1 X31.701 Y57.156 E0.65247
G1 X32.199 Y57.205 E0.67073
G1 X38.715 Y57.205 E0.90844
G1 X38.881 Y57.197 E0.91452
G1 X39.485 Y57.101 E0.93683
G1 X40.058 Y56.87 E0.95939
G1 X40.566 Y56.517 E0.98194
G1 X40.982 Y56.06 E1.0045
G1 X41.27 Y55.565 E1.02539
G1 X41.44 Y55.065 E1.04464
G1 X41.51 Y54.447 E1.06734
G1 X41.51 Y53.694 E1.09482
G1 X41.466 Y53.218 E1.11227
G1 X41.291 Y52.622 E1.13494
G1 X40.986 Y52.08 E1.1576
G1 X40.885 Y51.968 E1.16313
G1 X40.544 Y52.264 F12000
G1 F1800
G1 X40.245 Y51.944 E1.17909
G1 X39.815 Y51.655 E1.198
G1 X39.331 Y51.469 E1.21691
G1 X38.753 Y51.393 E1.2382
G1 X32.199 Y51.393 E1.4773
G1 X31.619 Y51.472 E1.49868
G1 X31.138 Y51.658 E1.51751
G1 X30.71 Y51.947 E1.53634
G1 X30.357 Y52.324 E1.55517
G1 X30.098 Y52.77 E1.574
G1 X29.943 Y53.263 E1.59284
G1 X29.899 Y53.694 E1.60864
G1 X29.899 Y54.447 E1.63614
G1 X29.943 Y54.878 E1.65194
G1 X30.098 Y55.371 E1.67077
G1 X30.388 Y55.861 E1.69155
G1 X30.759 Y56.238 E1.71087
G1 X31.197 Y56.516 E1.72981
G1 X31.686 Y56.689 E1.74873
G1 X32.199 Y56.748 E1.76757
G1 X38.715 Y56.748 E2.00528
G1 X39.184 Y56.703 E2.02249
G1 X39.677 Y56.549 E2.04132
G1 X40.123 Y56.289 E2.06015
G1 X40.499 Y55.937 E2.07898
G1 X40.788 Y55.509 E2.09781
G1 X40.995 Y54.96 E2.11922
G1 X41.053 Y54.447 E2.13804
G1 X41.053 Y53.694 E2.16553
G1 X41.012 Y53.266 E2.1812
G1 X40.859 Y52.771 E2.20011
G1 X40.599 Y52.323 E2.21902
G1 X40.544 Y52.264 E2.22196
G1 X40.211 Y52.565 F12000
;TYPE:External perimeter
G1 F1800
G1 X39.937 Y52.283 E2.23632
G1 X39.573 Y52.042 E2.25226
G1 X39.182 Y51.901 E2.26742
G1 X38.753 Y51.851 E2.28319
G1 X32.199 Y51.851 E2.5223
G1 X31.82 Y51.892 E2.53624
G1 X31.427 Y52.023 E2.55135
