; generated by SuperSlicer 2.5.59 on 2023-02-10 at 03:13:19 UTC


;
;

;
;
; 

; external perimeters extrusion width = 0.40mm
; perimeters extrusion width = 0.46mm
; infill extrusion width = 0.64mm
; solid infill extrusion width = 0.56mm
; top infill extrusion width = 0.40mm
; support material extrusion width = 0.46mm
; first layer extrusion width = 0.50mm

; external perimeters extrusion width = 0.40mm
; perimeters extrusion width = 0.46mm
; infill extrusion width = 0.64mm
; solid infill extrusion width = 0.56mm
; top infill extrusion width = 0.40mm
; support material extrusion width = 0.46mm
; first layer extrusion width = 0.50mm

; object:{"name":"mosquito_t_mount_v2","id":"mosquito_t_mount_v2.stl id:0 copy 0","object_center":[60.000000,49.250000,0.000000],"boundingbox_center":[60.000000,49.250000,3.650000],"boundingbox_size":[18.500000,15.500000,7.300000]}
; object:{"name":"mosquito_t_mount_v2","id":"mosquito_t_mount_v2.stl id:1 copy 0","object_center":[60.000001,70.750000,0.000000],"boundingbox_center":[60.000001,70.750000,3.650000],"boundingbox_size":[18.500000,15.500000,7.300000]}
; plater:{"center":[60.000000,60.000000,0.000000],"boundingbox_center":[60.000000,60.000000,3.650000],"boundingbox_size":[18.500001,37.000000,7.300000]}

M73 P0 R15
;TYPE:Custom
; custom gcode: start_gcode
START_PRINT T_BED=110 T_EXTRUDER=250
; custom gcode end: start_gcode
M107
G21 ; set units to millimeters
G90 ; use absolute coordinates
M82 ; use absolute distances for extrusion
G92 E0
; custom gcode: start_filament_gcode
; Filament gcode

    PRESSURE_ADVANCE_SELECT FILAMENT=ABS
; custom gcode end: start_filament_gcode
;_TOOLCHANGE 0
M104 S250 ; set temperature
M109 S250 ; set temperature and wait for it to be reached
M190 S110 ; set bed temperature and wait for it to be reached
;LAYER_CHANGE
;Z:0.2
;HEIGHT:0.2
G1 Z0.2 F12000
M73 P0 R15
G1 E-0.5 F3000
M204 S2000
G1 X44.873 Y40.156 F12000
G1 E0 F1800
;TYPE:Skirt
;WIDTH:0.52
G1 X43.773 Y41.469 E0.06589
G1 X43.378 Y43.135 E0.13179
G1 X43.378 Y76.865 E1.42968
G1 X43.578 Y78.065 E1.47649
G1 X44.489 Y79.515 E1.54238
G1 X45.954 Y80.401 E1.60828
G1 X50.036 Y81.717 E1.77328
G1 X51.26 Y81.913 E1.82099
G1 X68.74 Y81.913 E2.49362
G1 X69.964 Y81.717 E2.54132
G1 X74.046 Y80.401 E2.70633
G1 X75.127 Y79.844 E2.75314
G1 X76.227 Y78.531 E2.81903
G1 X76.622 Y76.865 E2.88493
G1 X76.622 Y43.135 E4.18282
G1 X76.422 Y41.933 E4.2297
G1 X75.509 Y40.484 E4.2956
G1 X74.044 Y39.598 E4.36149
G1 X69.921 Y38.272 E4.52816
G1 X68.784 Y38.093 E4.57243
G1 X67.834 Y38.093 E4.609
G1 X51.261 Y38.087 E5.2467
M73 P1 R15
G1 X50.535 Y38.159 E5.27478
G1 X45.954 Y39.599 E5.45954
G1 X44.873 Y40.156 E5.50636
G1 X45.251 Y40.507 F12000
G1 F1800
G1 X44.249 Y41.587 E5.56306
G1 X43.855 Y43.135 E5.62451
G1 X43.855 Y76.865 E6.9224
G1 X43.966 Y77.705 E6.95501
G1 X44.748 Y79.098 E7.01647
G1 X46.101 Y79.947 E7.07792
G1 X50.182 Y81.263 E7.24293
G1 X51.26 Y81.435 E7.28493
G1 X68.74 Y81.435 E7.95756
G1 X69.818 Y81.263 E7.99957
G1 X73.899 Y79.947 E8.16457
G1 X74.665 Y79.584 E8.19718
G1 X75.751 Y78.413 E8.25864
G1 X76.145 Y76.865 E8.32009
G1 X76.145 Y43.135 E9.61798
G1 X76.033 Y42.293 E9.65065
G1 X75.251 Y40.901 E9.71211
G1 X73.898 Y40.052 E9.77357
G1 X69.775 Y38.726 E9.94023
G1 X68.784 Y38.57 E9.97882
G1 X67.834 Y38.57 E10.01539
G1 X51.261 Y38.565 E10.65309
G1 X50.628 Y38.627 E10.67757
G1 X46.101 Y40.053 E10.86022
G1 X45.335 Y40.416 E10.89282
G1 X45.251 Y40.507 E10.89758
G92 E0
G1 E-0.5 F3000
; printing object mosquito_t_mount_v2.stl id:0 copy 0
; acceleration to travel
M204 S4000
G1 X46.48 Y42.259 F12000
; decel to extrusion
M204 S2000
G1 X47.094 Y43.135
; end travel
G1 E0 F1800
;TYPE:Support material
;WIDTH:0.5
G1 X49.975 Y43.135 E0.10619
G1 X49.975 Y45.5 E0.19337
G1 X49.974 Y45.999 E0.21177
G1 X49.974 Y46.492 E0.22995
G1 X49.967 Y46.961 E0.24725
G1 X49.942 Y47.401 E0.26348
G1 X49.886 Y47.841 E0.27983
G1 X49.879 Y47.898 E0.28197
G1 X49.875 Y47.966 E0.28447
G1 X49.875 Y50.534 E0.37914
G1 X49.879 Y50.602 E0.38164
G1 X49.942 Y51.099 E0.40013
G1 X49.967 Y51.539 E0.41636
G1 X49.974 Y52.008 E0.43366
G1 X49.974 Y52.5 E0.45181
G1 X49.975 Y53 E0.47023
G1 X49.975 Y55.365 E0.55741
G1 X47.094 Y55.365 E0.66361
G1 X47.094 Y43.135 E1.11446
; acceleration to travel
M204 S4000
G1 X48.588 Y51.212 F12000
; decel to extrusion
M204 S2000
G1 X49.335 Y55.251
; end travel
G1 F1800
G1 X49.335 Y43.446 E1.54965
G1 X48.827 Y43.446 E1.56837
G1 X48.827 Y55.054 E1.99631
G1 X48.319 Y55.054 E2.01504
G1 X48.319 Y43.446 E2.44298
G1 X47.811 Y43.446 E2.4617
G1 X47.811 Y55.251 E2.89689
G92 E0
M73 P2 R15
G1 E-0.5 F3000
; acceleration to travel
M204 S4000
G1 X62.621 Y55.251 F12000
; decel to extrusion
M204 S2000
G1 X70.025 Y55.251
; end travel
G1 E0 F1800
G1 X70.025 Y53 E0.08297
G1 X70.026 Y52.501 E0.10137
G1 X70.026 Y52.008 E0.11954
G1 X70.033 Y51.539 E0.13684
G1 X70.058 Y51.099 E0.15307
G1 X70.121 Y50.602 E0.17156
G1 X70.125 Y50.534 E0.17406
G1 X70.125 Y47.966 E0.26873
G1 X70.121 Y47.898 E0.27123
G1 X70.1 Y47.734 E0.27733
G1 X70.058 Y47.401 E0.28972
G1 X70.033 Y46.961 E0.30595
G1 X70.026 Y46.492 E0.32325
G1 X70.026 Y45.999 E0.34143
G1 X70.025 Y45.5 E0.35982
G1 X70.025 Y43.135 E0.44701
G1 X72.906 Y43.135 E0.5532
G1 X72.906 Y55.365 E1.00406
G1 X70.025 Y55.365 E1.11025
G1 X70.025 Y55.251 E1.11446
; acceleration to travel
M204 S4000
G1 X71.468 Y55.251 F12000
; decel to extrusion
M204 S2000
G1 X72.189 Y55.251
; end travel
G1 F1800
G1 X72.189 Y43.446 E1.54965
G1 X71.681 Y43.446 E1.56837
G1 X71.681 Y55.054 E1.99631
G1 X71.173 Y55.054 E2.01503
G1 X71.173 Y43.446 E2.44297
G1 X70.665 Y43.446 E2.4617
G1 X70.665 Y55.251 E2.89688
G92 E0
G1 E-0.5 F3000
; acceleration to travel
M204 S4000
G1 X68.129 Y51.975 F12000
; decel to extrusion
M204 S2000
G1 X66.861 Y50.337
; end travel
G1 E0 F1800
G1 X66.714 Y50.442 E0.00667
G1 X66.689 Y50.46 E0.0078
G1 X66.474 Y50.559 E0.01651
G1 X66.241 Y50.622 E0.02542
G1 X66.002 Y50.643 E0.03425
G1 X65.749 Y50.619 E0.04365
G1 X65.526 Y50.559 E0.05216
G1 X65.306 Y50.457 E0.06109
G1 X65.107 Y50.319 E0.07001
G1 X64.937 Y50.149 E0.07889
G1 X64.792 Y49.942 E0.08819
G1 X64.691 Y49.724 E0.09705
G1 X64.628 Y49.491 E0.10597
G1 X64.607 Y49.252 E0.1148
G1 X64.63 Y49 E0.12415
G1 X64.69 Y48.776 E0.13268
G1 X64.792 Y48.556 E0.14161
G1 X64.93 Y48.359 E0.15047
G1 X65.019 Y48.27 E0.15512
G1 X65.109 Y48.18 E0.15979
G1 X65.174 Y48.134 E0.16275
G1 X65.306 Y48.043 E0.16866
G1 X65.523 Y47.942 E0.17748
G1 X65.77 Y47.877 E0.18689
G1 X66 Y47.857 E0.19542
G1 X66.207 Y47.875 E0.20306
G1 X66.241 Y47.878 E0.20433
G1 X66.474 Y47.941 E0.21324
G1 X66.689 Y48.04 E0.22196
G1 X66.861 Y48.163 E0.22977
G1 X66.962 Y48.275 E0.23531
G1 X66.977 Y48.292 E0.23616
G1 X67.012 Y48.359 E0.23894
G1 X67.096 Y48.518 E0.24557
G1 X67.112 Y48.556 E0.24708
G1 X67.21 Y48.79 E0.25644
G1 X67.266 Y49 E0.26443
G1 X67.273 Y49.027 E0.26545
G1 X67.292 Y49.248 E0.27364
G1 X67.271 Y49.483 E0.28234
G1 X67.21 Y49.709 E0.29098
G1 X67.094 Y49.985 E0.30201
G1 X66.983 Y50.201 E0.31095
G1 X66.936 Y50.254 E0.31357
G1 X66.861 Y50.337 E0.3177
G1 X66.602 Y50.374 F12000
G1 F1800
G1 X66.602 Y48.36 E0.39192
G1 X66.532 Y48.31 E0.39511
G1 X66.368 Y48.234 E0.40177
G1 X66.187 Y48.186 E0.40867
G1 X66.094 Y48.177 E0.4121
G1 X66.094 Y50.323 E0.49118
G1 X66.003 Y50.33 E0.49456
G1 X65.803 Y50.312 E0.50195
G1 X65.632 Y50.266 E0.50849
G1 X65.587 Y50.245 E0.51034
G1 X65.587 Y48.255 E0.58371
G1 X65.461 Y48.313 E0.58879
G1 X65.352 Y48.389 E0.59371
G1 X65.309 Y48.419 E0.59565
G1 X65.239 Y48.49 E0.5993
G1 X65.169 Y48.559 E0.60294
G1 X65.079 Y48.689 E0.60877
G1 X65.079 Y50.129 E0.66185
G92 E0
G1 E-0.5 F3000
; acceleration to travel
M204 S4000
G1 X58.621 Y49.542 F12000
; decel to extrusion
M204 S2000
G1 X55.393 Y49.248
; end travel
G1 E0 F1800
G1 X55.37 Y49.5 E0.00934
G1 X55.31 Y49.724 E0.01788
G1 X55.208 Y49.944 E0.02681
G1 X55.079 Y50.129 E0.03512
G1 X55.07 Y50.141 E0.03567
G1 X55.003 Y50.208 E0.03916
G1 X54.891 Y50.32 E0.04499
G1 X54.867 Y50.337 E0.04608
G1 X54.694 Y50.457 E0.05386
G1 X54.475 Y50.559 E0.06278
G1 X54.241 Y50.622 E0.0717
G1 X54.215 Y50.624 E0.07265
G1 X54.002 Y50.643 E0.08053
G1 X53.749 Y50.619 E0.08993
G1 X53.526 Y50.56 E0.09842
G1 X53.311 Y50.46 E0.10715
G1 X53.282 Y50.439 E0.10847
G1 X53.139 Y50.337 E0.11497
G1 X53.023 Y50.208 E0.12136
G1 X52.966 Y50.1 E0.12585
G1 X52.904 Y49.982 E0.13077
G1 X52.796 Y49.724 E0.14106
G1 X52.79 Y49.71 E0.14164
G1 X52.727 Y49.473 E0.15065
G1 X52.708 Y49.252 E0.15884
G1 X52.729 Y49.017 E0.16754
G1 X52.79 Y48.791 E0.17618
G1 X52.798 Y48.773 E0.1769
G1 X52.906 Y48.515 E0.18721
G1 X53.017 Y48.299 E0.19615
G1 X53.081 Y48.228 E0.19967
G1 X53.139 Y48.163 E0.20289
G1 X53.311 Y48.04 E0.21069
G1 X53.523 Y47.942 E0.21931
G1 X53.77 Y47.877 E0.2287
G1 X53.803 Y47.875 E0.22992
G1 X54 Y47.857 E0.23723
G1 X54.241 Y47.878 E0.24615
G1 X54.475 Y47.941 E0.25507
G1 X54.694 Y48.043 E0.26399
G1 X54.893 Y48.181 E0.27291
G1 X55.063 Y48.351 E0.28178
G1 X55.178 Y48.515 E0.28917
G1 X55.208 Y48.558 E0.29108
G1 X55.309 Y48.776 E0.29995
G1 X55.372 Y49.009 E0.30886
G1 X55.393 Y49.248 E0.3177
; acceleration to travel
M204 S4000
G1 X55.078 Y49.835 F12000
; decel to extrusion
M204 S2000
G1 X54.921 Y50.128
; end travel
G1 F1800
G1 X54.921 Y48.69 E0.37071
G1 X54.825 Y48.552 E0.37693
G1 X54.693 Y48.421 E0.3838
G1 X54.539 Y48.313 E0.39072
G1 X54.413 Y48.255 E0.3958
G1 X54.413 Y50.245 E0.46917
G1 X54.368 Y50.266 E0.471
G1 X54.187 Y50.314 E0.47792
G1 X54.003 Y50.33 E0.48473
G1 X53.906 Y50.322 E0.48834
G1 X53.906 Y48.178 E0.56738
G1 X53.823 Y48.185 E0.57044
G1 X53.629 Y48.235 E0.57784
G1 X53.468 Y48.31 E0.58436
G1 X53.398 Y48.36 E0.58755
G1 X53.398 Y50.374 E0.66178
G92 E0
G1 E-0.5 F3000
; acceleration to travel
M204 S4000
G1 X55.818 Y50.96 F12000
; decel to extrusion
M204 S2000
G1 X57.029 Y51.253
; end travel
G1 E0 F1800
;TYPE:Internal perimeter
G1 X57.475 Y51.775 E0.02532
G1 X57.901 Y52.139 E0.04598
G1 X58.379 Y52.432 E0.06664
G1 X58.896 Y52.646 E0.0873
G1 X59.441 Y52.777 E0.10796
G1 X60 Y52.821 E0.12862
G1 X60.559 Y52.777 E0.14927
G1 X61.104 Y52.646 E0.16993
G1 X61.621 Y52.432 E0.19059
G1 X62.099 Y52.139 E0.21125
G1 X62.525 Y51.775 E0.23191
G1 X62.971 Y51.253 E0.25724
G1 X63.214 Y51.599 E0.27283
G1 X63.664 Y52.046 E0.29622
G1 X64.183 Y52.409 E0.31956
G1 X64.757 Y52.675 E0.34289
G1 X65.353 Y52.835 E0.36563
G1 X65.997 Y52.894 E0.38948
G1 X66.631 Y52.839 E0.41294
G1 X67.243 Y52.675 E0.43629
G1 X67.789 Y52.421 E0.45849
G1 X67.784 Y55.533 E0.57321
G1 X52.216 Y55.533 E1.14716
G1 X52.211 Y52.421 E1.26187
G1 X52.757 Y52.675 E1.28405
G1 X53.353 Y52.835 E1.3068
G1 X53.997 Y52.894 E1.33065
G1 X54.631 Y52.839 E1.35411
G1 X55.243 Y52.676 E1.37745
G1 X55.817 Y52.409 E1.4008
G1 X56.338 Y52.045 E1.42421
G1 X56.797 Y51.586 E1.44816
G1 X57.029 Y51.253 E1.46312
; acceleration to travel
M204 S4000
G1 X57.04 Y50.568 F12000
; decel to extrusion
M204 S2000
G1 X57.045 Y50.226
; end travel
G1 F1800
G1 X57.227 Y50.663 E1.48057
G1 X57.482 Y51.08 E1.49858
G1 X57.799 Y51.451 E1.51658
G1 X58.17 Y51.768 E1.53459
G1 X58.587 Y52.023 E1.5526
G1 X59.038 Y52.21 E1.5706
G1 X59.513 Y52.324 E1.58861
G1 X60 Y52.363 E1.60662
G1 X60.487 Y52.324 E1.62462
G1 X60.962 Y52.21 E1.64263
G1 X61.413 Y52.023 E1.66064
G1 X61.83 Y51.768 E1.67864
G1 X62.201 Y51.451 E1.69665
G1 X62.518 Y51.08 E1.71466
G1 X62.773 Y50.663 E1.73266
G1 X62.955 Y50.226 E1.75012
G1 X63.239 Y50.838 E1.77502
G1 X63.565 Y51.303 E1.79596
G1 X63.958 Y51.694 E1.81639
G1 X64.412 Y52.011 E1.8368
G1 X64.914 Y52.244 E1.85719
G1 X65.433 Y52.383 E1.87703
G1 X65.998 Y52.435 E1.89793
G1 X66.551 Y52.387 E1.91841
G1 X67.086 Y52.244 E1.93882
G1 X67.591 Y52.009 E1.95936
G1 X68.247 Y51.542 E1.98905
G1 X68.241 Y55.99 E2.15304
G1 X51.759 Y55.99 E2.76064
G1 X51.753 Y51.542 E2.92463
M73 P2 R14
G1 X52.409 Y52.009 E2.95432
G1 X52.913 Y52.244 E2.97485
G1 X53.433 Y52.383 E2.99469
G1 X53.998 Y52.435 E3.0156
G1 X54.551 Y52.387 E3.03607
G1 X55.086 Y52.244 E3.05648
G1 X55.588 Y52.011 E3.07688
G1 X56.043 Y51.694 E3.09733
G1 X56.445 Y51.291 E3.1183
G1 X56.761 Y50.837 E3.13871
G1 X57.045 Y50.226 E3.16356
G92 E0
G1 E-0.5 F3000
; acceleration to travel
M204 S4000
G1 X53.827 Y45.387 F12000
; decel to extrusion
M204 S2000
G1 X52.217 Y42.968
; end travel
G1 E0 F1800
G1 X67.783 Y42.973 E0.57386
M73 P2 R14
G1 X67.783 Y46.076 E0.68828
G1 X67.243 Y45.825 E0.71026
G1 X66.631 Y45.661 E0.73362
G1 X66 Y45.606 E0.75697
G1 X65.386 Y45.66 E0.77968
G1 X64.761 Y45.823 E0.80351
G1 X64.183 Y46.091 E0.82698
G1 X63.662 Y46.455 E0.8504
G1 X63.203 Y46.914 E0.87435
G1 X62.971 Y47.247 E0.8893
G1 X62.525 Y46.725 E0.91463
G1 X62.099 Y46.361 E0.93528
G1 X61.621 Y46.068 E0.95594
G1 X61.104 Y45.854 E0.9766
G1 X60.559 Y45.723 E0.99726
G1 X60 Y45.679 E1.01792
G1 X59.441 Y45.723 E1.03858
G1 X58.896 Y45.854 E1.05924
G1 X58.379 Y46.068 E1.0799
G1 X57.901 Y46.361 E1.10055
G1 X57.475 Y46.725 E1.12121
G1 X57.029 Y47.247 E1.14655
G1 X56.786 Y46.901 E1.16213
G1 X56.336 Y46.454 E1.18552
G1 X55.817 Y46.091 E1.20887
G1 X55.243 Y45.824 E1.23221
G1 X54.631 Y45.661 E1.25556
G1 X54 Y45.606 E1.27891
G1 X53.386 Y45.66 E1.30162
G1 X52.76 Y45.823 E1.32546
G1 X52.217 Y46.076 E1.34758
G1 X52.217 Y42.968 E1.46218
G92 E0
G1 E-0.5 F3000
; acceleration to travel
M204 S4000
G1 X51.901 Y45.633 F12000
; decel to extrusion
M204 S2000
G1 X51.743 Y46.965
; end travel
G1 E0 F1800
G1 X51.759 Y46.513 E0.01669
G1 X51.76 Y42.51 E0.16425
G1 X68.24 Y42.516 E0.7718
G1 X68.241 Y46.513 E0.91916
G1 X68.257 Y46.965 E0.93585
G1 X67.591 Y46.491 E0.96598
G1 X67.086 Y46.256 E0.98651
G1 X66.551 Y46.113 E1.00692
G1 X66 Y46.065 E1.02733
G1 X65.464 Y46.112 E1.04716
G1 X64.916 Y46.255 E1.06804
G1 X64.412 Y46.489 E1.08853
G1 X63.957 Y46.806 E1.10898
G1 X63.555 Y47.209 E1.12995
G1 X63.239 Y47.663 E1.15036
G1 X62.955 Y48.274 E1.17521
G1 X62.773 Y47.837 E1.19267
G1 X62.518 Y47.42 E1.21068
G1 X62.201 Y47.049 E1.22868
G1 X61.83 Y46.732 E1.24669
G1 X61.413 Y46.477 E1.2647
G1 X60.962 Y46.29 E1.2827
G1 X60.487 Y46.176 E1.30071
G1 X60 Y46.137 E1.31871
G1 X59.513 Y46.176 E1.33672
G1 X59.038 Y46.29 E1.35473
G1 X58.587 Y46.477 E1.37273
G1 X58.17 Y46.732 E1.39074
G1 X57.799 Y47.049 E1.40875
G1 X57.482 Y47.42 E1.42675
G1 X57.227 Y47.837 E1.44476
G1 X57.045 Y48.274 E1.46222
G1 X56.761 Y47.662 E1.48711
G1 X56.435 Y47.197 E1.50806
G1 X56.042 Y46.806 E1.52849
G1 X55.588 Y46.489 E1.5489
G1 X55.086 Y46.256 E1.5693
G1 X54.551 Y46.113 E1.5897
G1 X54 Y46.065 E1.61011
G1 X53.464 Y46.112 E1.62994
G1 X52.916 Y46.255 E1.65083
G1 X52.409 Y46.491 E1.67145
G1 X51.743 Y46.965 E1.70158
G92 E0
G1 E-0.5 F3000
; acceleration to travel
M204 S4000
G1 X55.565 Y47.942 F12000
; decel to extrusion
M204 S2000
G1 X57.476 Y48.43
; end travel
G1 E0 F1800
;TYPE:External perimeter
G1 X57.379 Y48.835 E0.01535
G1 X57.346 Y49.25 E0.03071
G1 X57.379 Y49.665 E0.04606
G1 X57.476 Y50.07 E0.06142
G1 X57.635 Y50.455 E0.07677
G1 X57.853 Y50.81 E0.09212
G1 X58.123 Y51.127 E0.10748
G1 X58.44 Y51.397 E0.12283
G1 X58.795 Y51.615 E0.13819
G1 X59.18 Y51.774 E0.15354
G1 X59.585 Y51.871 E0.16889
G1 X60 Y51.904 E0.18425
G1 X60.415 Y51.871 E0.1996
G1 X60.82 Y51.774 E0.21496
G1 X61.205 Y51.615 E0.23031
G1 X61.56 Y51.397 E0.24566
G1 X61.877 Y51.127 E0.26102
G1 X62.147 Y50.81 E0.27637
G1 X62.365 Y50.455 E0.29173
G1 X62.524 Y50.07 E0.30708
G1 X62.621 Y49.665 E0.32243
G1 X62.654 Y49.25 E0.33779
G1 X62.621 Y48.835 E0.35314
G1 X62.524 Y48.43 E0.3685
G1 X62.365 Y48.045 E0.38385
G1 X62.147 Y47.69 E0.3992
G1 X61.877 Y47.373 E0.41456
G1 X61.56 Y47.103 E0.42991
G1 X61.205 Y46.885 E0.44527
G1 X60.82 Y46.726 E0.46062
G1 X60.415 Y46.629 E0.47597
G1 X60 Y46.596 E0.49133
G1 X59.585 Y46.629 E0.50668
G1 X59.18 Y46.726 E0.52204
G1 X58.795 Y46.885 E0.53739
G1 X58.44 Y47.103 E0.55275
G1 X58.123 Y47.373 E0.5681
G1 X57.853 Y47.69 E0.58345
G1 X57.635 Y48.045 E0.59881
G1 X57.476 Y48.43 E0.61416
;WIPE_START
M204 S4000
G1 X57.087 Y48.523 F12000
;WIPE_END
G92 E0
G1 E-0.5 F3000
; acceleration to travel
G1 X53.638 Y47.867 F12000
; decel to extrusion
M204 S2000
G1 X51.913 Y47.539
; end travel
G1 E0 F1800
G1 X51.701 Y47.953 E0.01715
G1 X51.53 Y48.36 E0.0334
G1 X51.417 Y48.783 E0.04957
G1 X51.374 Y49.249 E0.06683
G1 X51.414 Y49.704 E0.08366
G1 X51.53 Y50.14 E0.1003
G1 X51.701 Y50.548 E0.11658
