; HEADER_BLOCK_START
; generated by OrcaSlicer 1.6.3 on 2023-06-16 at 21:34:01
; total layer number: 10
; HEADER_BLOCK_END

; THUMBNAIL_BLOCK_START
; THUMBNAIL_BLOCK_END

; external perimeters extrusion width = 0.40mm
; perimeters extrusion width = 0.45mm
; infill extrusion width = 0.45mm
; solid infill extrusion width = 0.40mm
; top infill extrusion width = 0.40mm
; first layer extrusion width = 0.50mm

; external perimeters extrusion width = 0.40mm
; perimeters extrusion width = 0.45mm
; infill extrusion width = 0.45mm
; solid infill extrusion width = 0.40mm
; top infill extrusion width = 0.40mm
; first layer extrusion width = 0.50mm

; EXECUTABLE_BLOCK_START
EXCLUDE_OBJECT_DEFINE NAME=Motor_pully_gauge_17.25mm.stl_id_0_copy_0 CENTER=62.4697,69.9222 POLYGON=[[42.4697,75.11],[47.3976,57.8344],[79.4624,57.8344],[82.4624,60.8344],[82.4696,65.3029],[82.4696,79.01],[79.4696,82.01],[42.4697,82.01],[42.4697,75.11]]
EXCLUDE_OBJECT_DEFINE NAME=Motor_pully_gauge_8mm.stl_id_1_copy_0 CENTER=60,45.4122 POLYGON=[[37.5303,45.9344],[42.4697,37.99],[79.4697,37.99],[82.4697,40.99],[82.4697,49.8344],[79.4697,52.8344],[37.5303,52.8344],[37.5303,45.9344]]
M73 P0 R7
;TYPE:Custom
START_PRINT T_BED=110 T_EXTRUDER=260
G90
G21
M83 ; use relative distances for extrusion
; Filament gcode

    PRESSURE_ADVANCE_SELECT FILAMENT=ABS
M106 S0
;LAYER_CHANGE
;Z:0.2
;HEIGHT:0.2
;BEFORE_LAYER_CHANGE
;0.2
G92 E0

;AFTER_LAYER_CHANGE
;0.2
M204 S1000
; printing object Motor_pully_gauge_17.25mm.stl id:0 copy 0
EXCLUDE_OBJECT_START NAME=Motor_pully_gauge_17.25mm.stl_id_0_copy_0
G1 E-.5 F3000
G1 Z.2 F21000
G1 X48.298 Y75.853
G1 E.5 F1800
;TYPE:Inner wall
;WIDTH:0.499999
G1 F3000
G1 X48.331 Y75.817 E.00171
G1 X48.514 Y75.452 E.01439
G1 X48.56 Y75.132 E.01137
G1 X48.562 Y59.399 E.55371
G1 X78.814 Y59.399 E1.06471
G1 X80.898 Y61.482 E.10372
G1 X80.899 Y62.956 E.05185
G1 X80.905 Y78.362 E.54222
G1 X78.822 Y80.446 E.1037
G1 X43.634 Y80.446 E1.2384
G1 X43.634 Y76.274 E.14682
G1 X47.417 Y76.274 E.13314
G1 X47.614 Y76.257 E.00697
G1 X47.955 Y76.14 E.01267
G1 X48.168 Y75.993 E.00913
G1 X48.257 Y75.897 E.0046
G1 X47.949 Y75.542 F21000
G1 F3000
G1 X48.033 Y75.432 E.0049
G1 X48.103 Y75.132 E.01085
G1 X48.105 Y58.941 E.56979
G1 X79.004 Y58.941 E1.08746
G1 X81.355 Y61.293 E.11704
G1 X81.356 Y62.955 E.05851
G1 X81.362 Y78.552 E.54889
M73 P1 R7
G1 X79.011 Y80.903 E.11703
G1 X43.177 Y80.903 E1.26115
G1 X43.177 Y75.817 E.17899
G1 X47.417 Y75.817 E.14923
G1 X47.586 Y75.796 E.00599
G1 X47.868 Y75.648 E.01121
G1 X47.912 Y75.59 E.00257
G1 X47.6 Y75.269 F21000
;TYPE:Outer wall
G1 F3000
G1 X47.645 Y75.132 E.00509
G1 X47.648 Y58.484 E.58588
G1 X79.193 Y58.484 E1.11021
G1 X81.812 Y61.104 E.13037
G1 X81.813 Y62.955 E.06516
G1 X81.82 Y78.741 E.55556
G1 X79.2 Y81.36 E.13036
G1 X42.72 Y81.36 E1.2839
G1 X42.72 Y75.36 E.21116
G1 X47.417 Y75.36 E.16531
G1 X47.456 Y75.357 E.00139
G1 X47.549 Y75.3 E.00381
G1 X47.629 Y75.27
G1 E-.5
G1 Z.4 F21000
G1 X78.465 Y59.536
G1 Z.2
G1 E.5 F1800
;TYPE:Bottom surface
;WIDTH:0.502028
G1 F6300
G1 X80.556 Y61.626 E.1045
G1 X80.556 Y62.276 E.02296
G1 X78.022 Y59.741 E.12669
G1 X77.372 Y59.741 E.02295
G1 X80.556 Y62.925 E.15917
G1 X80.556 Y63.575 E.02296
M73 P2 R7
G1 X76.723 Y59.741 E.19164
G1 X76.074 Y59.741 E.02295
G1 X80.557 Y64.224 E.22411
G1 X80.557 Y64.874 E.02296
G1 X75.425 Y59.741 E.25658
G1 X74.775 Y59.741 E.02295
G1 X80.557 Y65.523 E.28905
G1 X80.558 Y66.173 E.02296
G1 X74.126 Y59.741 E.32153
G1 X73.477 Y59.741 E.02295
G1 X80.558 Y66.822 E.354
G1 X80.558 Y67.472 E.02296
G1 X72.827 Y59.741 E.38647
G1 X72.178 Y59.741 E.02295
G1 X80.558 Y68.121 E.41894
G1 X80.559 Y68.771 E.02296
G1 X71.529 Y59.741 E.45142
G1 X70.88 Y59.741 E.02295
G1 X80.559 Y69.421 E.48389
G1 X80.559 Y70.07 E.02296
G1 X70.23 Y59.741 E.51636
G1 X69.581 Y59.741 E.02295
G1 X80.559 Y70.72 E.54883
G1 X80.56 Y71.369 E.02296
G1 X68.932 Y59.741 E.5813
G1 X68.283 Y59.741 E.02295
G1 X80.56 Y72.019 E.61378
G1 X80.56 Y72.668 E.02296
G1 X67.633 Y59.741 E.64625
G1 X66.984 Y59.741 E.02295
G1 X80.56 Y73.318 E.67872
G1 X80.561 Y73.967 E.02296
G1 X66.335 Y59.741 E.71119
G1 X65.685 Y59.741 E.02295
G1 X80.561 Y74.617 E.74367
G1 X80.561 Y75.266 E.02296
G1 X65.036 Y59.741 E.77614
M73 P3 R7
G1 X64.387 Y59.741 E.02295
G1 X80.561 Y75.916 E.80861
G1 X80.562 Y76.566 E.02296
G1 X63.738 Y59.741 E.84108
G1 X63.088 Y59.741 E.02295
G1 X80.562 Y77.215 E.87355
G1 X80.562 Y77.865 E.02296
G1 X62.439 Y59.741 E.90603
G1 X61.79 Y59.741 E.02295
G1 X80.416 Y78.367 E.93115
G1 X80.091 Y78.692 E.01623
G1 X61.14 Y59.741 E.94738
G1 X60.491 Y59.741 E.02295
G1 X79.766 Y79.016 E.96361
G1 X79.442 Y79.341 E.01623
G1 X59.842 Y59.741 E.97984
G1 X59.193 Y59.741 E.02295
G1 X79.117 Y79.666 E.99607
G1 X78.792 Y79.99 E.01623
G1 X58.543 Y59.741 E1.0123
G1 X57.894 Y59.741 E.02295
G1 X78.256 Y80.103 E1.01793
G1 X77.607 Y80.103 E.02295
G1 X57.245 Y59.741 E1.01793
G1 X56.596 Y59.741 E.02295
G1 X76.957 Y80.103 E1.01793
M73 P4 R7
G1 X76.308 Y80.103 E.02295
G1 X55.946 Y59.741 E1.01793
G1 X55.297 Y59.741 E.02295
G1 X75.659 Y80.103 E1.01793
G1 X75.009 Y80.103 E.02295
G1 X54.648 Y59.741 E1.01793
G1 X53.998 Y59.741 E.02295
G1 X74.36 Y80.103 E1.01793
G1 X73.711 Y80.103 E.02295
G1 X53.349 Y59.741 E1.01793
G1 X52.7 Y59.741 E.02295
G1 X73.062 Y80.103 E1.01793
G1 X72.412 Y80.103 E.02295
G1 X52.051 Y59.741 E1.01793
G1 X51.401 Y59.741 E.02295
G1 X71.763 Y80.103 E1.01793
G1 X71.114 Y80.103 E.02295
G1 X50.752 Y59.741 E1.01793
G1 X50.103 Y59.741 E.02295
G1 X70.465 Y80.103 E1.01793
G1 X69.815 Y80.103 E.02295
G1 X49.454 Y59.741 E1.01793
G1 X48.904 Y59.741 E.01941
M73 P5 R7
G1 X48.904 Y59.841 E.00354
G1 X69.166 Y80.103 E1.01293
G1 X68.517 Y80.103 E.02295
G1 X48.904 Y60.491 E.98047
G1 X48.904 Y61.14 E.02295
G1 X67.867 Y80.103 E.94802
G1 X67.218 Y80.103 E.02295
G1 X48.904 Y61.789 E.91556
G1 X48.904 Y62.438 E.02295
G1 X66.569 Y80.103 E.88311
G1 X65.92 Y80.103 E.02295
G1 X48.904 Y63.087 E.85065
G1 X48.904 Y63.737 E.02295
G1 X65.27 Y80.103 E.8182
G1 X64.621 Y80.103 E.02295
G1 X48.904 Y64.386 E.78575
G1 X48.904 Y65.035 E.02295
G1 X63.972 Y80.103 E.75329
G1 X63.322 Y80.103 E.02295
G1 X48.904 Y65.684 E.72084
G1 X48.904 Y66.333 E.02295
G1 X62.673 Y80.103 E.68838
G1 X62.024 Y80.103 E.02295
G1 X48.903 Y66.983 E.65593
G1 X48.903 Y67.632 E.02295
G1 X61.375 Y80.103 E.62347
G1 X60.725 Y80.103 E.02295
G1 X48.903 Y68.281 E.59102
M73 P6 R7
G1 X48.903 Y68.93 E.02295
G1 X60.076 Y80.103 E.55856
G1 X59.427 Y80.103 E.02295
G1 X48.903 Y69.579 E.52611
G1 X48.903 Y70.229 E.02295
G1 X58.778 Y80.103 E.49365
G1 X58.128 Y80.103 E.02295
G1 X48.903 Y70.878 E.4612
G1 X48.903 Y71.527 E.02295
G1 X57.479 Y80.103 E.42874
G1 X56.83 Y80.103 E.02295
G1 X48.903 Y72.176 E.39629
G1 X48.903 Y72.825 E.02295
G1 X56.18 Y80.103 E.36383
G1 X55.531 Y80.103 E.02295
G1 X48.903 Y73.475 E.33138
G1 X48.903 Y74.124 E.02295
G1 X54.882 Y80.103 E.29892
G1 X54.233 Y80.103 E.02295
G1 X48.902 Y74.773 E.26647
G1 X48.902 Y75.135 E.01282
G1 X48.876 Y75.395 E.00923
G1 X53.583 Y80.103 E.23536
G1 X52.934 Y80.103 E.02295
G1 X48.7 Y75.869 E.21167
G1 X48.605 Y76.024 E.00641
G1 X48.413 Y76.231 E.01
G1 X52.285 Y80.103 E.19357
G1 X51.635 Y80.103 E.02295
G1 X48.015 Y76.482 E.18101
G1 X47.787 Y76.57 E.00862
G1 X47.494 Y76.611 E.01047
G1 X50.986 Y80.103 E.17459
G1 X50.337 Y80.103 E.02295
G1 X46.851 Y76.617 E.17428
G1 X46.202 Y76.617 E.02295
G1 X49.688 Y80.103 E.17428
G1 X49.038 Y80.103 E.02295
G1 X45.552 Y76.617 E.17428
G1 X44.903 Y76.617 E.02295
G1 X48.389 Y80.103 E.17428
G1 X47.74 Y80.103 E.02295
G1 X44.254 Y76.617 E.17428
G1 X43.977 Y76.617 E.0098
G1 X43.977 Y76.989 E.01316
G1 X47.091 Y80.103 E.15567
G1 X46.441 Y80.103 E.02295
G1 X43.977 Y77.638 E.12321
G1 X43.977 Y78.288 E.02295
G1 X45.792 Y80.103 E.09076
G1 X45.143 Y80.103 E.02295
G1 X43.977 Y78.937 E.0583
G1 X43.977 Y79.586 E.02295
G1 X44.699 Y80.309 E.03612
; stop printing object Motor_pully_gauge_17.25mm.stl id:0 copy 0
EXCLUDE_OBJECT_END NAME=Motor_pully_gauge_17.25mm.stl_id_0_copy_0
; printing object Motor_pully_gauge_8mm.stl id:1 copy 0
EXCLUDE_OBJECT_START NAME=Motor_pully_gauge_8mm.stl_id_1_copy_0
G1 E-.5 F3000
G1 Z.4 F21000
M73 P7 R7
G1 X43.384 Y46.676
G1 Z.2
G1 E.5 F1800
;TYPE:Inner wall
;WIDTH:0.499999
G1 F3000
G1 X43.417 Y46.64 E.00172
G1 X43.6 Y46.274 E.0144
G1 X43.645 Y45.954 E.01138
G1 X43.636 Y39.554 E.22524
G1 X78.822 Y39.554 E1.23834
G1 X80.906 Y41.638 E.10371
G1 X80.906 Y43.111 E.05186
G1 X80.906 Y49.186 E.21381
G1 X78.822 Y51.27 E.10371
G1 X38.694 Y51.27 E1.41223
G1 X38.694 Y47.099 E.14682
G1 X42.502 Y47.099 E.13402
G1 X42.7 Y47.081 E.00697
G1 X43.041 Y46.964 E.0127
G1 X43.255 Y46.816 E.00914
G1 X43.343 Y46.72 E.0046
G1 X43.035 Y46.366 F21000
G1 F3000
G1 X43.119 Y46.255 E.0049
G1 X43.188 Y45.955 E.01086
G1 X43.178 Y39.097 E.24135
G1 X79.011 Y39.097 E1.26111
G1 X81.363 Y41.449 E.11704
G1 X81.363 Y43.111 E.05852
G1 X81.363 Y49.376 E.22047
G1 X79.011 Y51.727 E.11704
G1 X38.237 Y51.727 E1.43498
M73 P8 R7
G1 X38.237 Y46.641 E.17899
G1 X42.502 Y46.641 E.1501
G1 X42.671 Y46.62 E.00599
G1 X42.954 Y46.472 E.01122
G1 X42.998 Y46.414 E.00257
G1 X42.685 Y46.093 F21000
;TYPE:Outer wall
G1 F3000
G1 X42.731 Y45.956 E.00509
G1 X42.72 Y38.64 E.25746
G1 X79.2 Y38.64 E1.28388
G1 X81.82 Y41.259 E.13036
G1 X81.82 Y43.111 E.06518
G1 X81.82 Y49.565 E.22714
G1 X79.2 Y52.184 E.13036
G1 X37.78 Y52.184 E1.45773
G1 X37.78 Y46.184 E.21116
G1 X42.502 Y46.184 E.16619
G1 X42.542 Y46.181 E.00139
G1 X42.634 Y46.124 E.00382
G1 X42.714 Y46.094
G1 E-.5
G1 Z.4 F21000
G1 X78.472 Y39.691
G1 Z.2
G1 E.5 F1800
;TYPE:Bottom surface
;WIDTH:0.503463
G1 F6300
G1 X80.563 Y41.782 E.10487
G1 X80.563 Y42.434 E.0231
G1 X78.026 Y39.897 E.12722
G1 X77.375 Y39.897 E.0231
G1 X80.563 Y43.085 E.15988
G1 X80.563 Y43.736 E.0231
G1 X76.723 Y39.897 E.19254
G1 X76.072 Y39.897 E.0231
G1 X80.563 Y44.388 E.2252
G1 X80.563 Y45.039 E.0231
G1 X75.421 Y39.897 E.25786
G1 X74.769 Y39.897 E.0231
G1 X80.563 Y45.69 E.29053
G1 X80.563 Y46.342 E.0231
M73 P9 R7
G1 X74.118 Y39.897 E.32319
G1 X73.467 Y39.897 E.0231
G1 X80.563 Y46.993 E.35585
G1 X80.563 Y47.644 E.0231
G1 X72.815 Y39.897 E.38851
G1 X72.164 Y39.897 E.0231
G1 X80.563 Y48.295 E.42118
G1 X80.563 Y48.947 E.0231
G1 X71.513 Y39.897 E.45384
G1 X70.862 Y39.897 E.0231
G1 X80.286 Y49.321 E.47262
G1 X79.96 Y49.647 E.01633
G1 X70.21 Y39.897 E.48895
G1 X69.559 Y39.897 E.0231
G1 X79.635 Y49.973 E.50528
G1 X79.309 Y50.298 E.01633
G1 X68.908 Y39.897 E.52161
G1 X68.256 Y39.897 E.0231
G1 X78.983 Y50.624 E.53794
G1 X78.68 Y50.927 E.01522
G1 X78.636 Y50.927 E.00157
G1 X67.605 Y39.897 E.55317
G1 X66.954 Y39.897 E.0231
G1 X77.984 Y50.927 E.55317
G1 X77.333 Y50.927 E.0231
G1 X66.302 Y39.897 E.55317
G1 X65.651 Y39.897 E.0231
G1 X76.682 Y50.927 E.55317
G1 X76.03 Y50.927 E.0231
G1 X65 Y39.897 E.55317
G1 X64.349 Y39.897 E.0231
G1 X75.379 Y50.927 E.55317
G1 X74.728 Y50.927 E.0231
G1 X63.697 Y39.897 E.55317
G1 X63.046 Y39.897 E.0231
G1 X74.076 Y50.927 E.55317
G1 X73.425 Y50.927 E.0231
G1 X62.395 Y39.897 E.55317
M73 P10 R7
G1 X61.743 Y39.897 E.0231
G1 X72.774 Y50.927 E.55317
G1 X72.123 Y50.927 E.0231
G1 X61.092 Y39.897 E.55317
G1 X60.441 Y39.897 E.0231
G1 X71.471 Y50.927 E.55317
G1 X70.82 Y50.927 E.0231
G1 X59.789 Y39.897 E.55317
G1 X59.138 Y39.897 E.0231
G1 X70.169 Y50.927 E.55317
G1 X69.517 Y50.927 E.0231
G1 X58.487 Y39.897 E.55317
G1 X57.835 Y39.897 E.0231
G1 X68.866 Y50.927 E.55317
G1 X68.215 Y50.927 E.0231
G1 X57.184 Y39.897 E.55317
G1 X56.533 Y39.897 E.0231
G1 X67.563 Y50.927 E.55317
G1 X66.912 Y50.927 E.0231
G1 X55.882 Y39.897 E.55317
G1 X55.23 Y39.897 E.0231
G1 X66.261 Y50.927 E.55317
G1 X65.609 Y50.927 E.0231
G1 X54.579 Y39.897 E.55317
G1 X53.928 Y39.897 E.0231
G1 X64.958 Y50.927 E.55317
G1 X64.307 Y50.927 E.0231
G1 X53.276 Y39.897 E.55317
G1 X52.625 Y39.897 E.0231
G1 X63.656 Y50.927 E.55317
G1 X63.004 Y50.927 E.0231
G1 X51.974 Y39.897 E.55317
G1 X51.322 Y39.897 E.0231
G1 X62.353 Y50.927 E.55317
M73 P11 R6
G1 X61.702 Y50.927 E.0231
G1 X50.671 Y39.897 E.55317
G1 X50.02 Y39.897 E.0231
G1 X61.05 Y50.927 E.55317
G1 X60.399 Y50.927 E.0231
G1 X49.368 Y39.897 E.55317
G1 X48.717 Y39.897 E.0231
G1 X59.748 Y50.927 E.55317
G1 X59.096 Y50.927 E.0231
G1 X48.066 Y39.897 E.55317
G1 X47.415 Y39.897 E.0231
G1 X58.445 Y50.927 E.55317
G1 X57.794 Y50.927 E.0231
G1 X46.763 Y39.897 E.55317
G1 X46.112 Y39.897 E.0231
G1 X57.142 Y50.927 E.55317
G1 X56.491 Y50.927 E.0231
G1 X45.461 Y39.897 E.55317
G1 X44.809 Y39.897 E.0231
G1 X55.84 Y50.927 E.55317
G1 X55.189 Y50.927 E.0231
G1 X44.158 Y39.897 E.55317
G1 X43.979 Y39.897 E.00635
G1 X43.98 Y40.37 E.01677
G1 X54.537 Y50.927 E.52945
G1 X53.886 Y50.927 E.0231
G1 X43.981 Y41.022 E.49674
G1 X43.982 Y41.674 E.02313
G1 X53.235 Y50.927 E.46403
G1 X52.583 Y50.927 E.0231
G1 X43.983 Y42.327 E.43132
G1 X43.983 Y42.979 E.02313
G1 X51.932 Y50.927 E.39861
G1 X51.281 Y50.927 E.0231
G1 X43.984 Y43.631 E.3659
G1 X43.985 Y44.283 E.02313
G1 X50.629 Y50.927 E.33319
M73 P12 R6
G1 X49.978 Y50.927 E.0231
G1 X43.986 Y44.936 E.30048
G1 X43.987 Y45.588 E.02313
G1 X49.327 Y50.927 E.26776
G1 X48.675 Y50.927 E.0231
G1 X43.962 Y46.214 E.23637
G1 X43.929 Y46.37 E.00566
G1 X43.839 Y46.606 E.00894
G1 X43.787 Y46.69 E.00352
G1 X48.024 Y50.927 E.21248
G1 X47.373 Y50.927 E.0231
G1 X43.5 Y47.054 E.19424
G1 X43.202 Y47.267 E.01296
G1 X43.101 Y47.306 E.00387
G1 X46.722 Y50.927 E.18159
G1 X46.07 Y50.927 E.0231
G1 X42.578 Y47.435 E.17513
G1 X41.933 Y47.441 E.02288
G1 X45.419 Y50.927 E.17482
G1 X44.768 Y50.927 E.0231
G1 X41.282 Y47.441 E.17482
G1 X40.63 Y47.441 E.0231
G1 X44.116 Y50.927 E.17482
G1 X43.465 Y50.927 E.0231
G1 X39.979 Y47.441 E.17482
G1 X39.328 Y47.441 E.0231
G1 X42.814 Y50.927 E.17482
G1 X42.162 Y50.927 E.0231
G1 X39.037 Y47.802 E.15672
G1 X39.037 Y48.454 E.0231
G1 X41.511 Y50.927 E.12406
G1 X40.86 Y50.927 E.0231
G1 X39.037 Y49.105 E.0914
G1 X39.037 Y49.756 E.0231
G1 X40.209 Y50.927 E.05873
G1 X39.557 Y50.927 E.0231
G1 X38.832 Y50.202 E.03639
; stop printing object Motor_pully_gauge_8mm.stl id:1 copy 0
EXCLUDE_OBJECT_END NAME=Motor_pully_gauge_8mm.stl_id_1_copy_0
;LAYER_CHANGE
;Z:0.4
;HEIGHT:0.2
;BEFORE_LAYER_CHANGE
;0.4
G92 E0

;AFTER_LAYER_CHANGE
;0.4
M204 S5000
M140 S110 ; set bed temperature
; printing object Motor_pully_gauge_17.25mm.stl id:0 copy 0
EXCLUDE_OBJECT_START NAME=Motor_pully_gauge_17.25mm.stl_id_0_copy_0
M204 S6000
G1 E-.5 F3000
G1 Z.4 F21000
G1 X47.115 Y76.099
G1 E.5 F1800
M204 S5000
;TYPE:Inner wall
;WIDTH:0.449999
G1 F8843.492
G1 X47.417 Y76.099 E.00947
G1 X47.584 Y76.085 E.00525
G1 X47.872 Y75.985 E.00956
G1 X48.191 Y75.712 E.01316
G1 X48.346 Y75.403 E.01084
G1 X48.385 Y75.132 E.00858
G1 X48.387 Y59.024 E.50489
G1 X78.97 Y59.024 E.95859
G1 X81.273 Y61.327 E.10209
G1 X81.274 Y62.956 E.05106
G1 X81.28 Y78.518 E.48777
G1 X78.977 Y80.821 E.10209
G1 X43.459 Y80.821 E1.11327
G1 X43.459 Y76.099 E.14801
G1 X47.055 Y76.099 E.11271
M204 S6000
G1 X47.328 Y75.684 F21000
M204 S5000
G1 F8843.492
G1 X47.514 Y75.684 E.00583
G1 X47.785 Y75.554 E.00942
G1 X47.921 Y75.377 E.007
G1 X47.978 Y75.132 E.00788
G1 X47.98 Y58.616 E.51768
G1 X79.138 Y58.616 E.97661
G1 X81.68 Y61.158 E.11268
G1 X81.681 Y62.955 E.05633
G1 X81.687 Y78.686 E.49307
G1 X79.146 Y81.228 E.11266
G1 X43.052 Y81.228 E1.13133
M73 P13 R6
G1 X43.052 Y75.692 E.17352
G1 X47.268 Y75.684 E.13215
M204 S6000
G1 X47.524 Y75.27 F21000
M204 S3000
;TYPE:Outer wall
;WIDTH:0.399999
G1 F7200
G1 X47.555 Y75.22 E.00164
G1 X47.595 Y75.132 E.00266
G1 X47.598 Y58.394 E.46017
G1 F6360.005
G1 X47.598 Y58.314 E.0022
G1 F3000
G1 X47.598 Y58.234 E.0022
G1 X48.198 Y58.234 E.0165
G1 F2999.958
G1 X78.697 Y58.234 E.83854
G1 X79.297 Y58.234 E.0165
G1 F2990.088
G1 X82.062 Y61 E.10753
G1 X82.063 Y62.955 E.05375
G1 F3000
G1 X82.064 Y65.303 E.06456
G1 X82.064 Y65.303
G1 F3011.591
G1 X82.064 Y65.903 E.0165
G1 F3000.06
G1 X82.069 Y78.244 E.3393
G1 X82.07 Y78.844 E.0165
G1 X79.304 Y81.61 E.10755
G1 X78.704 Y81.61 E.0165
G1 X43.27 Y81.61 E.97423
G1 X42.67 Y81.61 E.0165
G1 F6360.005
G1 X42.67 Y81.53 E.0022
G1 F7200
G1 X42.67 Y81.45 E.0022
G1 X42.67 Y75.31 E.16881
G1 X47.417 Y75.31 E.13052
G1 X47.467 Y75.291 E.00148
G1 X47.535 Y75.274
M204 S5000
M204 S6000
G1 E-.5 F3000
G1 Z.6 F21000
G1 X81.161 Y78.241 Z.4
G1 E.5 F1800
M204 S5000
;TYPE:Internal solid infill
