; HEADER_BLOCK_START
; generated by OrcaSlicer 1.6.3 on 2023-06-02 at 22:39:23
; total layer number: 169
; HEADER_BLOCK_END

; THUMBNAIL_BLOCK_START
; THUMBNAIL_BLOCK_END

; external perimeters extrusion width = 0.40mm
; perimeters extrusion width = 0.45mm
; infill extrusion width = 0.45mm
; solid infill extrusion width = 0.40mm
; top infill extrusion width = 0.40mm
; first layer extrusion width = 0.50mm

; EXECUTABLE_BLOCK_START
EXCLUDE_OBJECT_DEFINE NAME=Mount_VZBot_Low.stl_id_0_copy_0 CENTER=60,60 POLYGON=[[47.3379,32.9795],[47.3513,32.6744],[47.3529,32.6565],[47.3911,32.3717],[47.3975,32.3364],[47.4572,32.0736],[47.4715,32.0217],[47.549,31.7824],[47.5743,31.7151],[47.6659,31.5003],[47.7049,31.4194],[47.8068,31.2295],[47.8622,31.137],[47.9709,30.972],[48.0449,30.8703],[48.1568,30.7297],[48.2514,30.6215],[48.3631,30.5046],[48.48,30.3929],[48.5882,30.2983],[48.7287,30.1864],[48.8304,30.1124],[48.9954,30.0037],[49.0879,29.9484],[49.2779,29.8464],[49.3588,29.8074],[49.5736,29.7158],[49.6409,29.6906],[49.8801,29.6131],[49.9321,29.5987],[50.1948,29.5391],[50.2302,29.5327],[50.515,29.4944],[50.5329,29.4928],[50.8379,29.4795],[69.1621,29.4795],[69.4671,29.4928],[69.485,29.4944],[69.7698,29.5327],[69.8052,29.5391],[70.0679,29.5987],[70.1199,29.6131],[70.3591,29.6906],[70.4264,29.7158],[70.6412,29.8074],[70.7221,29.8464],[70.9121,29.9484],[71.0046,30.0037],[71.1696,30.1124],[71.2713,30.1864],[71.4118,30.2983],[71.52,30.3929],[71.6369,30.5046],[71.7486,30.6215],[71.8432,30.7297],[71.9551,30.8703],[72.0291,30.972],[72.1378,31.137],[72.1932,31.2295],[72.2951,31.4194],[72.3341,31.5003],[72.4257,31.7151],[72.451,31.7824],[72.5285,32.0217],[72.5428,32.0736],[72.6025,32.3364],[72.6089,32.3717],[72.6471,32.6565],[72.6487,32.6744],[72.6621,32.9795],[72.6621,90.0205],[72.6545,90.1073],[72.6319,90.1915],[72.5951,90.2705],[72.5451,90.3419],[72.4835,90.4035],[72.4121,90.4535],[72.3331,90.4904],[72.2489,90.5129],[72.1621,90.5205],[47.8379,90.5205],[47.7511,90.5129],[47.6669,90.4904],[47.5879,90.4535],[47.5165,90.4035],[47.4549,90.3419],[47.4049,90.2705],[47.3681,90.1915],[47.3455,90.1073],[47.3379,90.0205],[47.3379,32.9795]]
M73 P0 R37
;TYPE:Custom
START_PRINT T_BED=110 T_EXTRUDER=260
G90
G21
M83 ; use relative distances for extrusion
; Filament gcode

    PRESSURE_ADVANCE_SELECT FILAMENT=ABS
M106 S0
;LAYER_CHANGE
;Z:0.2
;HEIGHT:0.2
;BEFORE_LAYER_CHANGE
;0.2
G92 E0

;AFTER_LAYER_CHANGE
;0.2
SET_VELOCITY_LIMIT ACCEL_TO_DECEL=500
M204 S1000
G1 E-.5 F3000
G1 Z.2 F21000
G1 X45.803 Y29.346
G1 E.5 F1800
;TYPE:Skirt
;WIDTH:0.5
G1 F3000
G1 X46.341 Y28.698 E.02964
G1 X46.989 Y28.106 E.03089
G1 X48.191 Y27.362 E.04975
G1 X49.01 Y27.045 E.03089
G1 X49.829 Y26.852 E.02964
G1 X50.838 Y26.768 E.03562
G1 X69.297 Y26.771 E.64963
G1 X70.435 Y26.902 E.04033
G1 X71.53 Y27.239 E.04033
G1 X72.545 Y27.772 E.04033
G1 X73.444 Y28.482 E.04033
G1 X74.197 Y29.346 E.04033
G1 X74.659 Y30.092 E.03089
G1 X75.096 Y31.151 E.04033
G1 X75.331 Y32.273 E.04033
G1 X75.373 Y77.071 E1.57662
G1 X75.277 Y78.056 E.03484
G1 X75.013 Y78.898 E.03105
G1 X74.515 Y79.687 E.03283
G1 X73.34 Y80.557 E.05145
G1 X72.187 Y80.804 E.0415
G1 X48.312 Y80.81 E.84024
G1 X47.8 Y80.804 E.01804
G1 X46.66 Y80.557 E.04104
G1 X45.485 Y79.687 E.05145
G1 X45.024 Y78.978 E.02974
G1 X44.723 Y78.056 E.03415
G1 X44.632 Y77.252 E.02847
G1 X44.627 Y32.979 E1.55812
G1 X44.76 Y31.706 E.04505
G1 X45.098 Y30.611 E.04033
G1 X45.773 Y29.398 E.04888
G1 X46.155 Y29.659 F21000
G1 F3000
G1 X46.316 Y29.423 E.01008
G1 X47.281 Y28.458 E.04802
G1 X48.376 Y27.78 E.04531
G1 X49.155 Y27.478 E.0294
G1 X49.893 Y27.305 E.02668
G1 X50.838 Y27.225 E.03339
G1 X69.276 Y27.228 E.64889
G1 X70.33 Y27.347 E.03736
G1 X71.346 Y27.657 E.03736
G1 X72.286 Y28.149 E.03736
G1 X73.121 Y28.805 E.03736
G1 X73.82 Y29.604 E.03736
G1 X74.361 Y30.517 E.03736
G1 X74.725 Y31.515 E.03736
G1 X74.879 Y32.336 E.0294
G1 X74.916 Y77.071 E1.5744
G1 X74.827 Y77.972 E.03188
G1 X74.599 Y78.706 E.02704
G1 X74.16 Y79.4 E.0289
G1 X73.169 Y80.133 E.04338
G1 X72.183 Y80.347 E.0355
G1 X48.318 Y80.353 E.83989
G1 X47.806 Y80.347 E.01804
G1 X46.831 Y80.133 E.03511
G1 X45.84 Y79.4 E.04338
G1 X45.439 Y78.786 E.02581
G1 X45.173 Y77.972 E.03013
G1 X45.084 Y77.071 E.03188
G1 X45.084 Y32.979 E1.55174
G1 X45.205 Y31.811 E.04134
G1 X45.516 Y30.796 E.03736
G1 X45.888 Y30.048 E.0294
G1 X46.121 Y29.709 E.01448
; printing object Mount VZBot Low.stl id:0 copy 0
EXCLUDE_OBJECT_START NAME=Mount_VZBot_Low.stl_id_0_copy_0
G1 E-.5
G1 Z.4 F21000
G1 X70.309 Y33.301
G1 Z.2
G1 E.5 F1800
;TYPE:Inner wall
;WIDTH:0.358711
G1 F3000
G1 X70.222 Y33.098 E.00535
G1 X69.869 Y32.56 E.01564
G1 X69.528 Y32.154 E.0129
;WIDTH:0.344374
G1 X69.143 Y31.835 E.01162
G1 X69.672 Y31.955 E.01261
;WIDTH:0.359529
G1 X70.002 Y32.213 E.01022
G1 X70.226 Y32.581 E.01049
;WIDTH:0.358711
G1 X70.309 Y33.079 E.01227
G1 X70.309 Y33.241 E.00393
G1 E-.5
G1 Z.4 F21000
G1 X64.199 Y31.911
G1 Z.2
G1 E.5 F1800
;WIDTH:0.499999
G1 F3000
G1 X63.805 Y32.308 E.01969
G1 X63.519 Y32.682 E.01658
G1 X63.24 Y33.167 E.01968
G1 X63.06 Y33.602 E.01658
G1 X62.916 Y34.142 E.01966
G1 X62.837 Y34.887 E.02637
G1 X62.866 Y56.168 E.74895
G1 X62.885 Y56.448 E.00989
G1 X63.027 Y57.271 E.0294
G1 X63.273 Y57.887 E.02335
G1 X63.554 Y58.371 E.01969
G1 X64.095 Y59.021 E.02976
G1 X64.611 Y59.426 E.0231
G1 X65.034 Y59.678 E.01731
G1 X65.542 Y59.888 E.01935
G1 X66.08 Y60.03 E.01957
G1 X66.802 Y60.108 E.02556
G1 X67.566 Y60.027 E.02704
G1 X68.106 Y59.881 E.01969
G1 X68.541 Y59.7 E.01658
G1 X69.025 Y59.42 E.01969
G1 X69.399 Y59.133 E.01658
G1 X69.797 Y58.733 E.01986
G1 X70.238 Y58.088 E.0275
G1 X70.238 Y75.274 E.60485
G1 X69.686 Y74.974 E.02212
G1 X69.264 Y74.801 E.01604
G1 X68.459 Y74.565 E.02954
G1 X68.01 Y74.485 E.01604
G1 X67.173 Y74.426 E.02954
G1 X66.731 Y74.44 E.01557
G1 X65.606 Y74.626 E.04011
G1 X64.705 Y74.939 E.03358
G1 X63.914 Y75.362 E.03158
G1 X63.473 Y75.676 E.01905
G1 X55.853 Y75.677 E.26817
G1 X55.479 Y75.412 E.01615
G1 X54.998 Y75.13 E.01962
G1 X54.613 Y74.948 E.01499
G1 X53.848 Y74.671 E.02863
G1 X52.655 Y74.448 E.04269
G1 X51.719 Y74.449 E.03295
G1 X50.524 Y74.653 E.04269
G1 X49.762 Y74.922 E.02843
G1 X49.762 Y57.894 E.5993
G1 X49.743 Y57.269 E.02199
;WIDTH:0.462627
G1 X49.724 Y56.499 E.0249
;WIDTH:0.455969
G1 X49.74 Y35.066 E.68165
;WIDTH:0.498016
G1 X49.761 Y34.292 E.02715
;WIDTH:0.499999
G1 X49.785 Y32.827 E.05156
G1 X49.911 Y32.459 E.01368
G1 X50.162 Y32.158 E.01379
G1 X50.509 Y31.968 E.01392
G1 X50.889 Y31.904 E.01356
G1 X51.76 Y31.904 E.03067
G1 X51.15 Y32.441 E.0286
G1 X50.867 Y32.807 E.0163
G1 X50.572 Y33.277 E.01952
G1 X50.359 Y33.783 E.0193
G1 X50.214 Y34.322 E.01965
;WIDTH:0.498016
G1 X50.153 Y35.067 E.02618
;WIDTH:0.455969
G1 X50.104 Y56.5 E.68165
;WIDTH:0.423094
G1 X50.104 Y56.506 E.00019
;WIDTH:0.462627
G1 X50.161 Y57.243 E.02387
;WIDTH:0.499999
G1 X50.288 Y57.79 E.01976
G1 X50.47 Y58.23 E.01678
G1 X50.747 Y58.712 E.01957
G1 X51.03 Y59.082 E.01639
G1 X51.423 Y59.478 E.01963
G1 X51.796 Y59.766 E.01658
G1 X52.279 Y60.047 E.01968
G1 X52.714 Y60.228 E.01658
G1 X53.254 Y60.375 E.01969
G1 X54.019 Y60.457 E.02708
G1 X54.748 Y60.379 E.02579
G1 X55.212 Y60.266 E.01683
G1 X55.724 Y60.057 E.01946
G1 X56.21 Y59.779 E.01969
G1 X56.608 Y59.475 E.01764
G1 X56.981 Y59.099 E.01864
G1 X57.459 Y58.434 E.02884
G1 X57.732 Y57.808 E.02403
G1 X57.878 Y57.269 E.01966
G1 X57.96 Y56.524 E.02637
G1 X58.024 Y34.993 E.75775
G1 X57.949 Y34.346 E.02294
G1 X57.806 Y33.806 E.01966
G1 X57.627 Y33.37 E.01658
G1 X57.348 Y32.885 E.01969
G1 X57.063 Y32.51 E.01658
G1 X56.668 Y32.113 E.01969
G1 X56.401 Y31.906 E.01191
G1 X64.139 Y31.911 E.27236
G1 E-.5
G1 Z.4 F21000
G1 X55.7 Y76.134
G1 Z.2
G1 E.5 F1800
G1 F3000
G1 X55.248 Y75.806 E.01966
G1 X54.439 Y75.371 E.0323
G1 X53.752 Y75.118 E.02579
G1 X52.639 Y74.905 E.03986
G1 X51.784 Y74.901 E.03011
G1 X50.667 Y75.087 E.03986
G1 X49.916 Y75.352 E.02801
G1 X49.305 Y75.666 E.02419
G1 X49.305 Y33.663 E1.47823
G1 X49.338 Y32.699 E.03396
G1 X49.454 Y32.35 E.01294
G1 X49.71 Y31.952 E.01668
G1 X49.992 Y31.716 E.01293
G1 X50.42 Y31.512 E.01669
G1 X50.878 Y31.447 E.01628
G1 X52.907 Y31.448 E.0714
G1 X53.067 Y31.428 E.00567
;WIDTH:0.460158
G1 X53.227 Y31.408 E.00517
;WIDTH:0.420317
G1 X53.387 Y31.388 E.00468
;WIDTH:0.380475
G1 X54.31 Y31.374 E.024
;WIDTH:0.400403
G1 X54.629 Y31.399 E.00882
;WIDTH:0.450201
G1 X54.949 Y31.424 E.01005
;WIDTH:0.499999
G1 X55.268 Y31.449 E.01128
G1 X65.171 Y31.454 E.34851
;WIDTH:0.527008
G1 X66.023 Y31.468 E.03175
G1 X65.233 Y31.766 E.03146
;WIDTH:0.499999
G1 X64.852 Y31.986 E.01549
G1 X64.479 Y32.274 E.01659
G1 X64.168 Y32.585 E.01549
G1 X63.882 Y32.96 E.01658
G1 X63.662 Y33.341 E.01548
G1 X63.482 Y33.776 E.01658
G1 X63.369 Y34.201 E.01547
G1 X63.294 Y34.886 E.02426
G1 X63.323 Y56.167 E.74895
G1 X63.338 Y56.388 E.00778
G1 X63.463 Y57.134 E.02664
G1 X63.664 Y57.637 E.01905
G1 X63.916 Y58.092 E.01832
G1 X64.403 Y58.683 E.02694
G1 X64.889 Y59.063 E.02171
G1 X65.222 Y59.261 E.01362
G1 X65.716 Y59.465 E.0188
G1 X66.138 Y59.577 E.0154
G1 X66.805 Y59.65 E.0236
G1 X67.506 Y59.574 E.02481
G1 X67.931 Y59.459 E.01549
G1 X68.366 Y59.278 E.01658
G1 X68.747 Y59.058 E.01549
G1 X69.12 Y58.77 E.01658
G1 X69.433 Y58.456 E.01562
G1 X69.722 Y58.076 E.01678
G1 X69.94 Y57.697 E.0154
G1 X70.117 Y57.266 E.01638
;WIDTH:0.505213
G1 X70.232 Y56.843 E.01561
G1 X70.288 Y56.158 E.02449
;WIDTH:0.481312
G1 X70.266 Y34.877 E.71833
;WIDTH:0.520789
G1 X70.209 Y34.19 E.02535
G1 X69.903 Y33.332 E.03351
;WIDTH:0.499999
G1 X69.674 Y32.941 E.01597
G1 X69.354 Y32.526 E.01843
G1 X68.948 Y32.164 E.01914
G1 X68.328 Y31.762 E.02602
G1 X67.893 Y31.582 E.01658
;WIDTH:0.513266
G1 X67.464 Y31.461 E.01611
G1 X67.918 Y31.455 E.01642
;WIDTH:0.499999
G1 X68.888 Y31.456 E.03414
G1 X69.421 Y31.489 E.01882
G1 X69.799 Y31.597 E.01381
G1 X70.118 Y31.795 E.01322
G1 X70.459 Y32.176 E.01801
G1 X70.649 Y32.655 E.01812
G1 X70.695 Y33.079 E.01501
G1 X70.695 Y33.646 E.01994
;WIDTH:0.520789
G1 X70.685 Y34.159 E.01889
G1 X70.704 Y34.877 E.02642
;WIDTH:0.481312
G1 X70.712 Y56.157 E.71833
;WIDTH:0.466775
G1 X70.712 Y56.16 E.00008
;WIDTH:0.505213
G1 X70.695 Y57.381 E.04346
;WIDTH:0.499999
G1 X70.695 Y76.124 E.65965
G1 X70.206 Y75.776 E.02114
G1 X69.468 Y75.376 E.02954
G1 X69.136 Y75.239 E.01262
G1 X68.331 Y75.004 E.02954
G1 X67.978 Y74.941 E.01262
G1 X67.141 Y74.882 E.02954
G1 X66.793 Y74.893 E.01225
G1 X65.745 Y75.061 E.03735
G1 X64.909 Y75.348 E.03112
G1 X64.179 Y75.735 E.02906
G1 X63.619 Y76.134 E.02419
G1 X55.76 Y76.134 E.27661
G1 X55.526 Y76.576 F21000
G1 F3000
G1 X55.016 Y76.2 E.02231
G1 X54.266 Y75.794 E.03003
G1 X53.655 Y75.565 E.02295
G1 X52.623 Y75.362 E.03702
G1 X51.848 Y75.354 E.02727
G1 X50.81 Y75.521 E.03702
G1 X50.119 Y75.762 E.02574
G1 X49.453 Y76.108 E.02642
G1 X48.848 Y76.538 E.02612
G1 X48.848 Y33.663 E1.50891
G1 X48.875 Y32.743 E.03242
G1 X48.952 Y32.387 E.01279
G1 X49.15 Y31.935 E.01739
G1 X49.467 Y31.555 E.01741
G1 X49.845 Y31.27 E.01664
G1 X50.295 Y31.071 E.01732
G1 X50.868 Y30.989 E.02037
G1 X69.189 Y30.999 E.64478
G1 X69.623 Y31.059 E.01542
G1 X70.047 Y31.203 E.01576
G1 X70.487 Y31.513 E.01896
G1 X70.794 Y31.861 E.01631
G1 X70.972 Y32.181 E.01291
G1 X71.089 Y32.53 E.01295
G1 X71.152 Y33.079 E.01946
G1 X71.152 Y76.588 E1.53123
G1 X70.573 Y76.59 E.02039
G1 X69.988 Y76.178 E.0252
G1 X69.008 Y75.678 E.0387
G1 X67.945 Y75.397 E.03869
G1 X66.855 Y75.346 E.03843
G1 X65.884 Y75.497 E.03458
G1 X65.112 Y75.758 E.02866
G1 X64.444 Y76.107 E.02653
G1 X63.732 Y76.591 E.03029
G1 X56.059 Y76.591 E.27006
G1 X55.586 Y76.578 E.01664
G1 X55.395 Y77.001 F21000
G1 F3000
G1 X55.25 Y76.941 E.00552
G1 X54.785 Y76.594 E.02041
G1 X54.092 Y76.217 E.02776
G1 X53.559 Y76.011 E.02011
G1 X52.607 Y75.819 E.03419
G1 X51.913 Y75.806 E.02443
G1 X50.953 Y75.955 E.03419
G1 X50.322 Y76.171 E.02347
G1 X49.718 Y76.481 E.0239
G1 X49.105 Y76.916 E.02644
G1 X48.871 Y77.034 E.00922
G1 X48.391 Y77.029 E.01691
G1 X48.391 Y33.663 E1.5262
G1 X48.42 Y32.7 E.0339
G1 X48.512 Y32.262 E.01576
G1 X48.683 Y31.848 E.01579
G1 X48.928 Y31.471 E.01581
G1 X49.238 Y31.145 E.01584
G1 X49.749 Y30.792 E.02184
G1 X50.333 Y30.598 E.02167
G1 X50.857 Y30.532 E.0186
G1 X69.297 Y30.542 E.64896
G1 X69.838 Y30.632 E.0193
G1 X70.363 Y30.861 E.02017
G1 X70.798 Y31.178 E.01896
G1 X71.158 Y31.585 E.01912
G1 X71.381 Y31.977 E.01587
G1 X71.564 Y32.53 E.02051
G1 X71.609 Y33.079 E.01937
G1 X71.605 Y77.042 E1.54724
G1 X70.512 Y77.048 E.03845
G1 X70.26 Y76.942 E.00965
G1 X69.77 Y76.58 E.02144
G1 X68.88 Y76.117 E.03529
G1 X67.913 Y75.853 E.03528
G1 X66.917 Y75.799 E.03512
G1 X66.022 Y75.932 E.03182
G1 X65.316 Y76.167 E.0262
G1 X64.709 Y76.479 E.024
G1 X64.122 Y76.898 E.02539
G1 X63.836 Y77.048 E.01138
G1 X55.507 Y77.048 E.2931
G1 X55.45 Y77.024 E.00219
G1 X55.192 Y77.487 F21000
;TYPE:Outer wall
;WIDTH:0.585841
G1 F3000
G1 X54.948 Y77.339 E.01191
G1 X54.532 Y77.026 E.02178
G1 X54.017 Y76.726 E.02491
G1 X53.454 Y76.5 E.02535
G1 X52.589 Y76.318 E.03693
G1 X51.983 Y76.301 E.02534
G1 X51.109 Y76.43 E.03693
M73 P1 R37
G1 X50.544 Y76.619 E.02493
G1 X50.007 Y76.889 E.02512
G1 X49.394 Y77.323 E.0314
G1 X48.989 Y77.532 E.01903
G1 X47.976 Y77.527 E.04238
G1 X47.94 Y77.451 E.0035
G1 X47.891 Y77.055 E.01669
G1 X47.891 Y33.192 E1.8336
G1 X47.922 Y32.654 E.02252
G1 X48.031 Y32.125 E.02258
G1 X48.236 Y31.625 E.02261
G1 X48.529 Y31.169 E.02264
G1 X48.848 Y30.824 E.01964
G1 X49.248 Y30.514 E.02117
G1 X49.726 Y30.264 E.02256
G1 X50.241 Y30.107 E.02251
G1 X50.846 Y30.032 E.02547
G1 X69.339 Y30.042 E.77305
G1 X69.971 Y30.147 E.02679
G1 X70.475 Y30.342 E.02261
G1 X70.937 Y30.629 E.02272
G1 X71.339 Y30.995 E.02272
G1 X71.667 Y31.429 E.02273
G1 X71.909 Y31.915 E.02272
G1 X72.058 Y32.438 E.02272
G1 X72.109 Y33.079 E.02688
G1 X72.109 Y77.01 E1.83645
G1 X72.037 Y77.54 E.02239
G1 X70.577 Y77.547 E.06102
G1 X70.199 Y77.486 E.01604
G1 X69.956 Y77.339 E.01184
G1 X69.531 Y77.019 E.02225
G1 X68.74 Y76.597 E.03749
G1 X67.877 Y76.352 E.03748
G1 X66.984 Y76.294 E.03741
G1 X66.174 Y76.409 E.03422
G1 X65.538 Y76.614 E.02792
G1 X65 Y76.886 E.02523
G1 X64.319 Y77.371 E.03495
G1 X63.884 Y77.548 E.01961
G1 X55.57 Y77.548 E.34756
G1 X55.251 Y77.496 E.01353
G1 X55.183 Y77.43
G1 E-.5
G1 Z.4 F21000
G1 X55.332 Y77.18
G1 X64.453 Y34.263
G1 X64.554 Y33.964
G1 X64.693 Y33.68
G1 X64.864 Y33.423
G1 X65.075 Y33.181
G1 X65.313 Y32.971
G1 X66.655 Y31.865
G1 Z.2
G1 E.5 F1800
;TYPE:Inner wall
;WIDTH:0.499999
G1 F3000
G1 X66.777 Y31.851 E.00432
G1 X67.405 Y31.921 E.02225
G1 X67.718 Y32.004 E.01139
G1 X68.432 Y32.344 E.02781
G1 X68.863 Y32.677 E.01917
G1 X69.201 Y33.075 E.01837
G1 X69.481 Y33.508 E.01816
G1 X69.746 Y34.252 E.0278
G1 X69.818 Y34.878 E.02216
G1 X69.847 Y56.16 E.74901
G1 X69.776 Y56.784 E.0221
G1 X69.694 Y57.092 E.01124
G1 X69.358 Y57.799 E.02755
G1 X69.069 Y58.179 E.01678
G1 X68.841 Y58.408 E.01139
G1 X68.19 Y58.856 E.02781
G1 X67.445 Y59.121 E.02781
G1 X66.808 Y59.193 E.02258
G1 X66.197 Y59.124 E.02164
G1 X65.889 Y59.042 E.01122
G1 X65.409 Y58.845 E.01825
G1 X64.793 Y58.414 E.02647
G1 X64.556 Y58.174 E.01186
G1 X64.216 Y57.725 E.01983
G1 X63.937 Y57.101 E.02405
G1 X63.839 Y56.688 E.01495
G1 X63.781 Y56.167 E.01845
G1 X63.751 Y34.886 E.74895
G1 X63.822 Y34.26 E.02216
G1 X64.085 Y33.515 E.0278
G1 X64.531 Y32.863 E.02781
G1 X65.131 Y32.349 E.02782
G1 X65.844 Y32.007 E.02781
G1 X66.152 Y31.924 E.01125
G1 X66.596 Y31.872 E.01571
G1 X66.766 Y32.323 F21000
G1 F3000
G1 X67.347 Y32.375 E.02056
G1 X67.979 Y32.607 E.02369
G1 X68.393 Y32.89 E.01764
G1 X68.671 Y33.136 E.01306
G1 X68.993 Y33.559 E.01872
G1 X69.24 Y34.118 E.02153
G1 X69.354 Y34.777 E.02353
G1 X69.39 Y56.16 E.75254
G1 X69.323 Y56.725 E.02001
G1 X69.094 Y57.349 E.02339
G1 X68.706 Y57.902 E.02379
G1 X68.189 Y58.333 E.02369
G1 X67.58 Y58.615 E.02363
G1 X66.918 Y58.73 E.02363
G1 X66.256 Y58.67 E.0234
G1 X65.733 Y58.484 E.01952
G1 X65.445 Y58.337 E.01139
G1 X65.019 Y58.008 E.01893
G1 X64.641 Y57.535 E.02132
G1 X64.359 Y56.926 E.02363
G1 X64.244 Y56.267 E.02353
G1 X64.209 Y34.885 E.75251
G1 X64.276 Y34.319 E.02005
G1 X64.507 Y33.69 E.02362
G1 X64.894 Y33.141 E.02362
G1 X65.41 Y32.711 E.02364
G1 X66.019 Y32.429 E.02363
G1 X66.674 Y32.315 E.02341
G1 X66.706 Y32.318 E.00111
G1 X66.801 Y32.817 F21000
