; HEADER_BLOCK_START
; generated by OrcaSlicer 1.6.6 on 2023-09-05 at 18:14:38
; total layer number: 23
; HEADER_BLOCK_END

; THUMBNAIL_BLOCK_START
; THUMBNAIL_BLOCK_END

; external perimeters extrusion width = 0.40mm
; perimeters extrusion width = 0.46mm
; infill extrusion width = 0.64mm
; solid infill extrusion width = 0.56mm
; top infill extrusion width = 0.40mm
; first layer extrusion width = 0.50mm

; EXECUTABLE_BLOCK_START
EXCLUDE_OBJECT_DEFINE NAME=NahidaKC.stl_id_0_copy_0 CENTER=60,60 POLYGON=[[35.8417,54.148],[35.8435,54.1073],[35.8514,54.0677],[39.7944,44.4983],[39.9752,44.1332],[40.1753,43.8194],[46.1655,36.0357],[46.54,35.6424],[46.9652,35.3589],[47.42,35.169],[47.8831,35.0566],[48.3333,35.0056],[48.7493,35],[49.1099,35.0237],[76.1164,37.3489],[76.6921,37.4316],[77.1713,37.5935],[77.5624,37.814],[77.8738,38.0722],[78.1141,38.3475],[83.4718,45.824],[83.7541,46.2199],[83.9497,46.5998],[84.0726,46.9555],[84.1374,47.2789],[84.1583,47.5618],[84.1496,47.796],[83.3063,57.2362],[83.0046,59.0662],[82.4974,60.9522],[81.8404,62.8359],[81.0897,64.6584],[80.301,66.3613],[79.5304,67.886],[78.8337,69.1739],[78.2668,70.1663],[77.8857,70.8047],[77.7463,71.0306],[76.7016,72.6954],[75.6731,74.1306],[68.8469,83.2244],[68.8174,83.2589],[68.7831,83.2883],[68.7446,83.312],[68.703,83.3297],[68.6589,83.3411],[68.6133,83.3456],[52.1279,84.9899],[51.842,85],[51.2966,84.9629],[50.7729,84.855],[50.2756,84.6812],[49.8098,84.4465],[49.3803,84.1556],[48.992,83.8137],[48.65,83.4255],[48.3591,82.9961],[48.1243,82.5304],[35.8704,54.2688],[35.8555,54.2295],[35.8458,54.189],[35.8417,54.148]]
M73 P0 R14
M73 C9
;TYPE:Custom
START_PRINT T_BED=60 T_EXTRUDER=220
G90
G21
M83 ; use relative distances for extrusion
; filament start gcode

    PRESSURE_ADVANCE_SELECT FILAMENT=PLA
M106 S0
;LAYER_CHANGE
;Z:0.2
;HEIGHT:0.2
;BEFORE_LAYER_CHANGE
;0.2
G92 E0

;AFTER_LAYER_CHANGE
;0.2
SET_VELOCITY_LIMIT ACCEL=1000 ACCEL_TO_DECEL=500
SET_VELOCITY_LIMIT SQUARE_CORNER_VELOCITY=9
G1 E-.8 F3000
G1 Z.2 F21000
G1 X43.856 Y34.258
G1 Z.2
G1 E.8 F1800
;TYPE:Skirt
;WIDTH:0.5
G1 F3000
G1 X44.429 Y33.633 E.0316
G1 X45.348 Y32.934 E.043
G1 X46.297 Y32.48 E.03918
G1 X47.555 Y32.161 E.04835
G1 X48.952 Y32.093 E.05208
G1 X76.366 Y34.445 E1.02483
G1 X77.106 Y34.547 E.02783
G1 X78.104 Y34.833 E.03866
G1 X79.422 Y35.571 E.05627
G1 X80.31 Y36.431 E.04604
G1 X86.127 Y44.528 E.37132
G1 X86.704 Y45.648 E.04693
G1 X86.995 Y46.707 E.04091
G1 X87.062 Y47.904 E.04467
G1 X86.182 Y57.71 E.3667
G1 X85.819 Y59.823 E.07985
G1 X85.312 Y61.709 E.07275
G1 X84.592 Y63.796 E.0822
G1 X83.784 Y65.768 E.0794
G1 X82.902 Y67.676 E.07828
G1 X81.397 Y70.56 E.12118
G1 X79.07 Y74.393 E.16699
G1 X71.177 Y84.974 E.49167
G1 X70.676 Y85.504 E.0272
G1 X69.843 Y86.011 E.03629
G1 X68.949 Y86.241 E.0344
G1 X51.944 Y87.912 E.6364
G1 X50.709 Y87.817 E.04616
G1 X49.314 Y87.432 E.05388
G1 X48.498 Y87.049 E.03358
G1 X47.454 Y86.342 E.04695
G1 X46.806 Y85.74 E.03296
G1 X46.237 Y85.06 E.03302
G1 X45.451 Y83.69 E.05885
G1 X33.145 Y55.301 E1.15242
G1 X32.946 Y54.48 E.03149
G1 X32.93 Y54.023 E.01701
G1 X33.157 Y52.958 E.04058
G1 X37.1 Y43.388 E.38549
G1 X37.718 Y42.252 E.04817
G1 X43.832 Y34.29 E.37389
G1 X44.194 Y34.569 F21000
G1 F3000
G1 X44.218 Y34.537 E.00147
G1 X44.76 Y33.948 E.02981
G1 X45.602 Y33.315 E.03924
G1 X46.473 Y32.902 E.03591
G1 X47.607 Y32.615 E.04355
G1 X48.922 Y32.549 E.04905
G1 X76.327 Y34.901 E1.02448
G1 X77.041 Y34.999 E.02686
G1 X77.958 Y35.266 E.03554
G1 X79.131 Y35.923 E.05007
G1 X80.111 Y36.916 E.052
G1 X85.755 Y44.793 E.3609
G1 X86.272 Y45.797 E.04206
G1 X86.547 Y46.796 E.03861
G1 X86.605 Y47.887 E.04069
G1 X85.731 Y57.636 E.36456
G1 X85.377 Y59.704 E.07816
G1 X84.87 Y61.59 E.07275
G1 X84.16 Y63.645 E.08096
G1 X83.362 Y65.594 E.07846
G1 X82.494 Y67.47 E.07697
G1 X80.995 Y70.343 E.12071
G1 X78.699 Y74.127 E.16484
G1 X70.812 Y84.699 E.49129
G1 X70.379 Y85.157 E.02346
G1 X69.665 Y85.591 E.03113
G1 X68.903 Y85.786 E.02927
G1 X51.928 Y87.456 E.6353
G1 X50.801 Y87.369 E.04211
G1 X49.962 Y87.175 E.03207
G1 X48.704 Y86.641 E.05091
G1 X47.756 Y85.999 E.04262
G1 X47.149 Y85.438 E.03081
G1 X46.616 Y84.804 E.03086
G1 X45.87 Y83.508 E.05568
G1 X33.573 Y55.139 E1.15162
G1 X33.456 Y54.758 E.01485
G1 X33.387 Y54.043 E.02678
G1 X33.58 Y53.132 E.03468
G1 X37.523 Y43.562 E.38549
G1 X38.104 Y42.498 E.04516
G1 X44.17 Y34.6 E.37092
; printing object NahidaKC.stl id:0 copy 0
G1 E-.8
EXCLUDE_OBJECT_START NAME=NahidaKC.stl_id_0_copy_0
G1 Z.4 F21000
G1 X42.03 Y45.327 Z.4
G1 Z.2
G1 E.8 F1800
;TYPE:Outer wall
G1 F3000
G1 X43.921 Y45.327 E.07043
G1 X43.952 Y44.807 E.01937
G1 X44.008 Y44.481 E.01232
G1 X44.161 Y44.078 E.01606
G1 X44.312 Y43.812 E.01138
G1 X44.722 Y43.203 E.02736
G1 X45.204 Y42.592 E.02899
G1 X45.757 Y42.06 E.02859
G1 X46.166 Y41.75 E.01913
G1 X46.599 Y41.484 E.01889
G1 X47.538 Y41.036 E.03877
G1 X47.94 Y40.8 E.01737
G1 X48.27 Y40.558 E.01524
G1 X48.535 Y40.316 E.01337
G1 X48.74 Y40.076 E.01175
G1 X48.892 Y39.845 E.0103
G1 X48.997 Y39.629 E.00896
G1 X49.064 Y39.434 E.00768
G1 X49.1 Y39.259 E.00665
G1 X49.11 Y38.979 E.01044
G1 X48.964 Y38.55 E.01687
G1 X48.775 Y38.21 E.01446
G1 X48.542 Y37.929 E.01361
G1 X48.276 Y37.705 E.01296
G1 X47.987 Y37.536 E.01247
G1 X47.686 Y37.415 E.01207
G1 X47.377 Y37.333 E.01191
G1 X46.795 Y37.268 E.02179
G1 X46.511 Y37.269 E.01061
G1 X46.031 Y37.312 E.01792
G1 X46.006 Y37.265 E.00198
G1 X46.185 Y36.697 E.02217
G1 X46.447 Y36.247 E.0194
G1 X46.767 Y35.912 E.01724
G1 X47.131 Y35.669 E.01633
G1 X47.529 Y35.503 E.01607
G1 X47.944 Y35.402 E.0159
G1 X48.355 Y35.355 E.0154
G1 X48.752 Y35.351 E.01478
G1 X49.072 Y35.372 E.01196
G1 X49.542 Y35.447 E.01772
G1 X50.011 Y35.662 E.01921
G1 X50.401 Y35.921 E.01742
G1 X50.704 Y36.206 E.01551
G1 X50.934 Y36.513 E.01428
G1 X51.101 Y36.839 E.01362
G1 X51.214 Y37.179 E.01335
G1 X51.279 Y37.529 E.01326
G1 X51.304 Y37.882 E.01318
G1 X51.293 Y38.23 E.01299
G1 X51.255 Y38.562 E.01244
G1 X51.101 Y39.28 E.02734
G1 X51.098 Y39.426 E.00544
G1 X51.16 Y39.652 E.00872
G1 X51.234 Y39.777 E.00544
G1 X51.399 Y39.942 E.00869
G1 X51.611 Y40.048 E.0088
G1 X51.745 Y40.077 E.00513
G1 X51.878 Y40.082 E.00494
G1 X52.394 Y40.01 E.01942
G1 X52.73 Y40.011 E.01249
G1 X53.04 Y40.057 E.01167
G1 X52.46 Y41.516 E.05849
M73 P1 R14
G1 X54.002 Y42.245 E.06351
G1 X54.185 Y42.292 E.00707
G1 X54.339 Y42.283 E.00575
G1 X54.61 Y42.146 E.0113
G1 X54.767 Y41.876 E.01162
G1 X54.769 Y41.837 E.00146
G1 X56.174 Y42.533 E.05838
G1 X56.332 Y42.577 E.00613
G1 X56.547 Y42.572 E.00799
G1 X56.849 Y42.373 E.01348
G1 X57.048 Y42.192 E.01002
G1 X57.595 Y41.574 E.03074
G1 X57.964 Y41.931 E.01911
G1 X58.325 Y42.38 E.02148
G1 X58.461 Y42.474 E.00616
G1 X58.622 Y42.525 E.00628
G1 X58.794 Y42.525 E.00642
G1 X59.018 Y42.439 E.00891
G1 X59.224 Y42.229 E.01096
G1 X59.324 Y42.153 E.00467
G1 X59.439 Y42.09 E.00492
G1 X59.744 Y41.983 E.01202
G1 X60.27 Y41.9 E.01985
G1 X60.734 Y41.894 E.01727
G1 X60.721 Y42.029 E.00505
G1 X60.795 Y42.611 E.02186
G1 X60.879 Y42.793 E.00746
G1 X61.08 Y42.974 E.01005
G1 X61.344 Y43.037 E.01014
G1 X61.547 Y42.998 E.00767
G1 X61.884 Y42.795 E.01467
G1 X62.134 Y42.731 E.00962
G1 X62.447 Y42.705 E.01169
G1 X62.809 Y42.716 E.01346
G1 X62.918 Y42.748 E.00424
G1 X63.009 Y42.802 E.00393
G1 X63.075 Y42.873 E.00363
G1 X63.215 Y43.116 E.01045
G1 X63.462 Y43.32 E.01194
G1 X63.876 Y43.513 E.01701
G1 X64.123 Y43.587 E.00958
G1 X64.328 Y43.61 E.00771
G1 X64.527 Y43.588 E.00743
G1 X65.321 Y43.394 E.03045
G1 X65.715 Y43.338 E.01483
G1 X66.225 Y43.312 E.01903
G1 X66.869 Y43.356 E.02403
G1 X67.076 Y43.303 E.00797
G1 X67.25 Y43.176 E.00802
G1 X67.373 Y42.985 E.00847
G1 X67.401 Y42.682 E.01133
G1 X67.322 Y42.484 E.00795
G1 X67.038 Y42.04 E.01962
G1 X67.525 Y42.098 E.01825
G1 X68.067 Y42.217 E.0207
G1 X68.571 Y42.374 E.01963
G1 X69.035 Y42.561 E.01864
G1 X69.461 Y42.774 E.01773
G1 X69.849 Y43.006 E.01686
G1 X70.201 Y43.252 E.01599
G1 X70.514 Y43.504 E.01497
G1 X71.045 Y44.014 E.02742
G1 X71.515 Y44.569 E.02711
G1 X71.698 Y44.652 E.00746
G1 X71.851 Y44.661 E.00572
G1 X72.081 Y44.569 E.00923
G1 X72.217 Y44.407 E.00788
G1 X72.273 Y44.2 E.00797
G1 X72.003 Y42.877 E.05031
G1 X71.951 Y41.851 E.03827
G1 X72.056 Y40.973 E.03294
G1 X72.286 Y40.228 E.02901
G1 X72.606 Y39.604 E.02615
G1 X72.987 Y39.087 E.0239
G1 X73.398 Y38.671 E.0218
G1 X73.807 Y38.346 E.01945
G1 X74.182 Y38.108 E.01654
G1 X74.486 Y37.948 E.01279
G1 X74.738 Y37.842 E.0102
G1 X75.47 Y37.715 E.02767
G1 X76.096 Y37.7 E.02331
G1 X76.611 Y37.773 E.01937
G1 X77.028 Y37.915 E.01642
G1 X77.363 Y38.103 E.01433
G1 X77.629 Y38.324 E.01285
G1 X77.834 Y38.559 E.01165
G1 X77.988 Y38.794 E.01043
G1 X78.039 Y38.897 E.00432
G1 X77.721 Y38.92 E.0119
G1 X77.315 Y39.013 E.01551
G1 X77.18 Y39.101 E.00602
G1 X77.05 Y39.277 E.00812
G1 X77.008 Y39.413 E.00533
G1 X77.008 Y39.625 E.00789
G1 X77.096 Y39.838 E.00858
G1 X77.268 Y40.001 E.00883
G1 X77.773 Y40.209 E.02033
G1 X78.068 Y40.396 E.01303
G1 X78.295 Y40.608 E.01155
G1 X78.467 Y40.836 E.01065
G1 X78.593 Y41.076 E.01008
G1 X78.679 Y41.319 E.0096
G1 X78.733 Y41.555 E.00901
G1 X78.759 Y41.909 E.01324
G1 X78.298 Y41.893 E.01716
G1 X77.586 Y41.937 E.0266
G1 X76.977 Y42.048 E.02303
G1 X76.464 Y42.216 E.02011
G1 X76.04 Y42.435 E.01778
G1 X75.699 Y42.694 E.01595
G1 X75.437 Y42.981 E.01448
G1 X75.248 Y43.281 E.01322
G1 X75.121 Y43.579 E.01205
G1 X75.045 Y43.867 E.01108
G1 X74.998 Y44.351 E.0181
G1 X75.065 Y44.657 E.01168
G1 X75.218 Y44.908 E.01095
G1 X75.313 Y45.014 E.00531
G1 X76.535 Y45.937 E.05705
G1 X76.736 Y46.022 E.00812
G1 X77.028 Y46.052 E.01092
G1 X77.236 Y46.015 E.00787
G1 X77.43 Y45.931 E.0079
G1 X78.051 Y45.42 E.02992
G1 X78.525 Y45.135 E.02061
G1 X79.004 Y44.935 E.01935
G1 X79.481 Y44.808 E.01838
G1 X79.945 Y44.741 E.01745
G1 X80.384 Y44.723 E.01639
G1 X80.785 Y44.742 E.01492
G1 X81.44 Y44.842 E.02471
G1 X81.816 Y44.945 E.01452
G1 X82.385 Y45.302 E.02502
G1 X82.85 Y45.678 E.02227
G1 X83.201 Y46.047 E.01897
G1 X83.455 Y46.403 E.01626
G1 X83.627 Y46.738 E.01404
G1 X83.734 Y47.048 E.01221
G1 X83.79 Y47.327 E.01063
G1 X83.81 Y47.571 E.00912
G1 X83.774 Y48.018 E.01668
G1 X83.669 Y48.389 E.01437
G1 X83.613 Y48.416 E.00231
G1 X83.425 Y48.648 E.01112
G1 X83.261 Y48.752 E.00724
G1 X83.293 Y48.488 E.00988
G1 X83.209 Y48.257 E.00918
G1 X83.218 Y48.029 E.00851
G1 X83.09 Y47.795 E.00995
G1 X82.975 Y47.629 E.0075
G1 X82.835 Y47.484 E.00752
G1 X82.679 Y47.376 E.00707
G1 X82.423 Y47.257 E.0105
G1 X82.185 Y47.195 E.00919
G1 X81.671 Y47.247 E.01921
G1 X81.276 Y47.374 E.01548
G1 X80.963 Y47.586 E.01405
G1 X80.752 Y47.871 E.01321
G1 X80.652 Y48.192 E.01255
G1 X80.639 Y48.516 E.01207
G1 X80.687 Y48.831 E.01184
G1 X80.777 Y49.137 E.0119
G1 X81.023 Y49.685 E.02238
G1 X81.47 Y50.432 E.03242
G1 X81.718 Y50.913 E.02017
G1 X81.918 Y51.404 E.01973
G1 X82.156 Y52.087 E.02693
G1 X82.456 Y53.057 E.03781
G1 X82.727 Y54.056 E.03856
G1 X82.996 Y55.548 E.05648
G1 X82.957 Y57.203 E.06167
G1 X82.662 Y58.992 E.06752
G1 X82.163 Y60.849 E.07162
G1 X81.513 Y62.711 E.07347
G1 X80.769 Y64.518 E.07278
G1 X79.986 Y66.209 E.06939
G1 X79.22 Y67.724 E.06323
G1 X78.528 Y69.004 E.0542
G1 X77.965 Y69.989 E.04228
G1 X77.448 Y70.847 E.03729
G1 X76.411 Y72.5 E.0727
G1 X75.395 Y73.918 E.06495
G1 X74.411 Y75.122 E.05793
G1 X73.473 Y76.13 E.05129
G1 X72.595 Y76.958 E.04495
G1 X71.791 Y77.622 E.03884
G1 X71.075 Y78.138 E.03288
G1 X70.461 Y78.524 E.027
G1 X69.963 Y78.794 E.0211
G1 X69.597 Y78.965 E.01504
G1 X69.089 Y79.156 E.02021
G1 X68.563 Y82.954 E.14281
G1 X68.46 Y82.886 E.00459
G1 X68.289 Y82.727 E.0087
G1 X68.127 Y82.528 E.00955
G1 X67.977 Y82.296 E.0103
G1 X67.842 Y82.041 E.01073
G1 X67.611 Y81.478 E.02266
G1 X67.442 Y80.919 E.02175
G1 X67.267 Y80.117 E.03057
G1 X67.197 Y79.953 E.00663
G1 X67.095 Y79.801 E.00684
G1 X66.907 Y79.631 E.00943
G1 X66.74 Y79.54 E.00711
G1 X66.183 Y79.397 E.02138
G1 X65.952 Y79.303 E.0093
G1 X65.482 Y79.055 E.01981
G1 X65.156 Y79 E.0123
G1 X64.891 Y79.047 E.01004
G1 X64.663 Y79.166 E.00957
G1 X64.338 Y79.43 E.01559
G1 X63.632 Y80.12 E.03678
G1 X62.51 Y81.371 E.06257
G1 X61.407 Y82.708 E.06456
G1 X61.292 Y82.567 E.0068
G1 X61.159 Y82.282 E.01171
G1 X61.007 Y81.796 E.01896
G1 X60.861 Y81.564 E.01021
G1 X60.742 Y81.451 E.00611
G1 X60.506 Y81.317 E.0101
G1 X60.24 Y81.265 E.01011
G1 X60.077 Y81.272 E.00605
G1 X59.811 Y81.349 E.01033
G1 X59.007 Y81.846 E.03519
G1 X58.374 Y82.181 E.02669
G1 X57.75 Y82.468 E.02556
G1 X57.529 Y82.536 E.00861
G1 X57.294 Y82.639 E.00957
G1 X57.066 Y82.766 E.00974
G1 X56.843 Y82.915 E.00997
G1 X56.43 Y83.247 E.01975
G1 X55.884 Y83.789 E.02864
G1 X55.423 Y84.301 E.02568
G1 X55.393 Y84.277 E.00143
G1 X55.278 Y84.06 E.00914
G1 X54.9 Y83.114 E.03798
G1 X54.345 Y83.664 E.02913
G1 X53.963 Y83.975 E.01833
G1 X53.541 Y84.233 E.01843
G1 X53.326 Y84.337 E.00888
G1 X52.85 Y84.509 E.01885
G1 X52.614 Y84.568 E.00906
G1 X52.099 Y84.641 E.01939
G1 X51.848 Y84.65 E.00936
G1 X51.344 Y84.615 E.0188
G1 X50.866 Y84.517 E.01817
G1 X50.413 Y84.358 E.0179
G1 X49.987 Y84.144 E.01774
G1 X49.595 Y83.878 E.01765
G1 X49.24 Y83.566 E.01762
G1 X48.927 Y83.211 E.01762
G1 X48.662 Y82.818 E.01765
G1 X48.447 Y82.393 E.01774
G1 X48.289 Y81.94 E.0179
G1 X48.19 Y81.462 E.01816
G1 X48.156 Y80.96 E.01873
G1 X48.172 Y80.618 E.01276
G1 X48.218 Y80.282 E.01265
G1 X48.294 Y79.956 E.01246
G1 X48.398 Y79.642 E.01231
G1 X48.529 Y79.342 E.01221
G1 X48.685 Y79.056 E.01213
G1 X48.865 Y78.786 E.01209
G1 X49.068 Y78.533 E.01207
G1 X49.292 Y78.299 E.01207
G1 X49.536 Y78.085 E.01209
G1 X49.799 Y77.893 E.01213
G1 X50.608 Y77.406 E.03515
G1 X48.438 Y76.185 E.09273
G1 X47.027 Y75.048 E.06749
G1 X45.809 Y73.73 E.06685
G1 X44.769 Y72.277 E.06655
G1 X43.896 Y70.735 E.06599
G1 X43.175 Y69.154 E.06473
G1 X42.594 Y67.581 E.06244
G1 X42.138 Y66.067 E.05891
G1 X41.793 Y64.659 E.05398
G1 X41.544 Y63.408 E.04753
G1 X41.378 Y62.361 E.03949
G1 X41.262 Y61.456 E.03395
G1 X41.185 Y61.242 E.00849
G1 X41.054 Y61.048 E.00871
G1 X40.805 Y60.844 E.01198
G1 X40.589 Y60.755 E.00874
G1 X40.062 Y60.677 E.01983
G1 X39.81 Y60.542 E.01062
G1 X39.574 Y60.312 E.01228
G1 X39.359 Y59.997 E.01422
G1 X39.172 Y59.62 E.01569
G1 X39.017 Y59.207 E.01643
G1 X38.801 Y58.388 E.03152
G1 X38.658 Y57.465 E.03481
G1 X38.526 Y56.858 E.02311
G1 X38.365 Y56.326 E.02071
G1 X38.179 Y55.863 E.01859
G1 X37.971 Y55.465 E.01673
G1 X37.746 Y55.127 E.01511
G1 X37.508 Y54.846 E.0137
G1 X37.264 Y54.618 E.01246
G1 X37.019 Y54.437 E.01134
G1 X36.779 Y54.301 E.01029
G1 X36.545 Y54.2 E.00947
G1 X36.213 Y54.113 E.01279
G1 X36.35 Y53.796 E.01284
G1 X36.558 Y53.465 E.01457
G1 X36.801 Y53.181 E.01392
G1 X37.076 Y52.94 E.01361
G1 X37.376 Y52.738 E.01349
G1 X37.696 Y52.57 E.01344
G1 X38.028 Y52.435 E.01335
G1 X38.361 Y52.33 E.01301
G1 X39.022 Y52.193 E.02514
G1 X39.629 Y52.13 E.02275
G1 X39.864 Y52.077 E.00898
G1 X40.09 Y51.946 E.00973
G1 X40.26 Y51.765 E.00924
G1 X40.335 Y51.638 E.00551
G1 X40.413 Y51.396 E.00946
G1 X40.413 Y51.13 E.00988
G1 X40.195 Y50.315 E.03145
G1 X39.988 Y49.201 E.04218
G1 X39.818 Y47.769 E.0537
G1 X39.75 Y46.932 E.03128
G1 X39.742 Y46.567 E.0136
G1 X39.764 Y46.072 E.01845
G1 X39.809 Y45.709 E.01365
G1 X39.972 Y45.025 E.02619
G1 X40.116 Y44.637 E.0154
G1 X40.28 Y44.305 E.0138
G1 X40.46 Y44.024 E.01244
G1 X40.65 Y43.788 E.0113
G1 X40.848 Y43.592 E.01035
G1 X41.048 Y43.432 E.00954
G1 X41.242 Y43.306 E.00863
G1 X41.629 Y43.127 E.01586
G1 X41.741 Y43.095 E.00436
G1 X41.721 Y43.587 E.01831
G1 X41.762 Y44.068 E.018
G1 X41.835 Y44.507 E.01657
G1 X42.021 Y45.288 E.02988
G1 X41.685 Y45.827 F21000
;TYPE:Inner wall
G1 F3000
G1 X44.393 Y45.827 E.10086
G1 X44.45 Y44.865 E.03589
G1 X44.519 Y44.518 E.01317
G1 X44.611 Y44.299 E.00883
G1 X44.737 Y44.076 E.00957
G1 X45.269 Y43.298 E.0351
G1 X45.575 Y42.928 E.01786
G1 X46.073 Y42.448 E.02578
G1 X46.449 Y42.163 E.01756
G1 X46.838 Y41.924 E.01701
G1 X47.773 Y41.478 E.03858
G1 X48.215 Y41.219 E.0191
G1 X48.588 Y40.946 E.01722
G1 X48.895 Y40.664 E.01553
G1 X49.14 Y40.377 E.01404
G1 X49.327 Y40.093 E.01267
G1 X49.461 Y39.819 E.01134
G1 X49.547 Y39.566 E.00998
G1 X49.599 Y39.319 E.00938
G1 X49.613 Y38.904 E.01547
G1 X49.422 Y38.346 E.02195
G1 X49.19 Y37.927 E.01784
G1 X48.898 Y37.575 E.01703
G1 X48.565 Y37.295 E.01623
G1 X48.208 Y37.086 E.01541
