; HEADER_BLOCK_START
; generated by OrcaSlicer 1.6.3 on 2023-06-08 at 14:16:07
; total layer number: 50
; HEADER_BLOCK_END

; THUMBNAIL_BLOCK_START
; THUMBNAIL_BLOCK_END

; external perimeters extrusion width = 0.40mm
; perimeters extrusion width = 0.45mm
; infill extrusion width = 0.45mm
; solid infill extrusion width = 0.40mm
; top infill extrusion width = 0.40mm
; support material extrusion width = 0.40mm
; first layer extrusion width = 0.50mm

; EXECUTABLE_BLOCK_START
EXCLUDE_OBJECT_DEFINE NAME=Oldham_middle.stl_id_0_copy_0 CENTER=59.699,60.0042 POLYGON=[[48.699,60.0042],[48.7006,59.8188],[48.7054,59.6292],[48.7056,59.6245],[48.7131,59.4482],[48.7246,59.2547],[48.7252,59.2453],[48.7381,59.0782],[48.7565,58.881],[48.758,58.867],[48.7755,58.7092],[48.8012,58.5087],[48.8037,58.49],[48.8254,58.3418],[48.8585,58.1381],[48.8625,58.1149],[48.8876,57.9762],[48.9284,57.7696],[48.9342,57.7419],[48.9621,57.6129],[49.0108,57.4038],[49.0187,57.3717],[49.0488,57.2524],[49.1057,57.0409],[49.1159,57.0047],[49.1476,56.8949],[49.2128,56.6816],[49.2257,56.6412],[49.2584,56.5411],[49.3322,56.326],[49.348,56.2817],[49.3811,56.1911],[49.4636,55.9748],[49.4827,55.9266],[49.5155,55.8455],[49.6069,55.6282],[49.6295,55.5764],[49.6614,55.5046],[49.7619,55.2867],[49.7884,55.2315],[49.8188,55.1688],[49.9285,54.9507],[49.959,54.8922],[49.9874,54.8385],[50.1065,54.6206],[50.1413,54.5591],[50.167,54.5141],[50.2956,54.2968],[50.3095,54.2738],[50.3349,54.2325],[50.3575,54.1959],[50.3888,54.1459],[50.4698,54.0191],[50.4956,53.9795],[50.5103,53.9571],[50.5397,53.9127],[50.5526,53.8933],[50.5586,53.8843],[50.637,53.7688],[50.7063,53.6693],[50.7218,53.6474],[50.7232,53.6454],[50.7554,53.6002],[50.7701,53.5797],[50.811,53.5232],[50.9005,53.4022],[50.9275,53.3664],[50.9437,53.345],[50.9818,53.2953],[50.9917,53.2824],[51.1588,53.0713],[51.1758,53.0505],[51.2185,52.9984],[51.4001,52.7842],[51.4178,52.764],[51.4654,52.7099],[51.6511,52.5055],[51.6694,52.4859],[51.7221,52.43],[51.9114,52.2355],[51.9304,52.2165],[51.9883,52.1592],[52.1807,51.9746],[52.2003,51.9562],[52.2636,51.8977],[52.4588,51.723],[52.479,51.7053],[52.5479,51.6459],[52.7453,51.481],[52.7661,51.464],[52.8406,51.4041],[52.9772,51.2969],[53.0399,51.2489],[53.0613,51.2326],[53.097,51.2057],[53.1416,51.1725],[53.218,51.1162],[53.2745,51.0753],[53.3402,51.0284],[53.3422,51.027],[53.3641,51.0115],[53.4503,50.9514],[53.4636,50.9422],[53.5792,50.8638],[53.5882,50.8578],[53.6519,50.8155],[53.6744,50.8008],[53.7139,50.775],[53.7665,50.7411],[53.8407,50.694],[53.8907,50.6627],[53.9686,50.6147],[53.9916,50.6007],[54.0898,50.5418],[54.2089,50.4722],[54.3154,50.4116],[54.4197,50.3539],[54.5333,50.2926],[54.6456,50.2337],[54.7559,50.1774],[54.8636,50.124],[54.9816,50.0671],[55.0981,50.0126],[55.1994,49.9666],[55.323,49.9121],[55.4457,49.8598],[55.5403,49.8206],[55.6696,49.7688],[55.7984,49.719],[55.8859,49.6862],[56.0208,49.6374],[56.1557,49.5905],[56.2359,49.5636],[56.3764,49.518],[56.5172,49.4744],[56.5898,49.4528],[56.7358,49.4109],[56.8826,49.3709],[56.9472,49.354],[57.0986,49.316],[57.2513,49.28],[57.3077,49.2673],[57.4644,49.2336],[57.6229,49.2019],[57.671,49.1928],[57.8329,49.1637],[57.997,49.1367],[58.0366,49.1305],[58.2035,49.1063],[58.3731,49.0844],[58.4041,49.0807],[58.5759,49.0617],[58.7508,49.0451],[58.773,49.0433],[58.9495,49.0298],[59.1296,49.0189],[59.143,49.0183],[59.3241,49.0106],[59.5092,49.0058],[59.5136,49.0058],[59.699,49.0042],[59.8844,49.0058],[59.8889,49.0058],[60.074,49.0106],[60.2551,49.0183],[60.2684,49.0189],[60.4485,49.0298],[60.625,49.0433],[60.6472,49.0451],[60.8222,49.0617],[60.994,49.0807],[61.0249,49.0844],[61.1945,49.1063],[61.3614,49.1305],[61.401,49.1367],[61.5652,49.1637],[61.727,49.1928],[61.7751,49.2019],[61.9336,49.2336],[62.0903,49.2673],[62.1468,49.28],[62.2995,49.316],[62.4508,49.354],[62.5155,49.3709],[62.6623,49.4109],[62.8083,49.4528],[62.8808,49.4744],[63.0217,49.518],[63.1622,49.5636],[63.2423,49.5905],[63.3772,49.6374],[63.5121,49.6862],[63.5997,49.719],[63.7284,49.7688],[63.8577,49.8206],[63.9524,49.8598],[64.075,49.9121],[64.1986,49.9666],[64.3,50.0126],[64.4165,50.0671],[64.5344,50.124],[64.6421,50.1774],[64.7525,50.2337],[64.8647,50.2926],[64.9783,50.3539],[65.0826,50.4116],[65.1891,50.4722],[65.3083,50.5418],[65.4065,50.6007],[65.4294,50.6147],[65.5073,50.6627],[65.5573,50.694],[65.6315,50.7411],[65.6842,50.775],[65.7237,50.8008],[65.7461,50.8155],[65.8099,50.8578],[65.8189,50.8638],[65.9344,50.9422],[65.9477,50.9514],[66.0339,51.0115],[66.0559,51.027],[66.0578,51.0284],[66.1235,51.0753],[66.1801,51.1162],[66.2565,51.1725],[66.3011,51.2057],[66.3368,51.2326],[66.3582,51.2489],[66.4208,51.2969],[66.5574,51.4041],[66.6319,51.464],[66.6528,51.481],[66.8502,51.6459],[66.919,51.7053],[66.9393,51.723],[67.1344,51.8977],[67.1977,51.9562],[67.2173,51.9746],[67.4098,52.1592],[67.4677,52.2165],[67.4867,52.2355],[67.676,52.43],[67.7286,52.4859],[67.747,52.5055],[67.9326,52.7099],[67.9803,52.764],[67.9979,52.7842],[68.1795,52.9984],[68.2223,53.0505],[68.2392,53.0713],[68.4063,53.2824],[68.4163,53.2953],[68.4543,53.345],[68.4706,53.3664],[68.4975,53.4022],[68.587,53.5232],[68.628,53.5797],[68.6426,53.6002],[68.6748,53.6454],[68.6763,53.6474],[68.6917,53.6693],[68.761,53.7688],[68.8394,53.8843],[68.8455,53.8933],[68.8584,53.9127],[68.8877,53.9571],[68.9025,53.9795],[68.9282,54.0191],[69.0092,54.1459],[69.0405,54.1959],[69.0632,54.2325],[69.0885,54.2738],[69.1025,54.2968],[69.231,54.5141],[69.2568,54.5591],[69.2916,54.6206],[69.4106,54.8385],[69.439,54.8922],[69.4695,54.9507],[69.5792,55.1688],[69.6097,55.2315],[69.6361,55.2867],[69.7366,55.5046],[69.7685,55.5764],[69.7911,55.6282],[69.8826,55.8455],[69.9153,55.9266],[69.9344,55.9748],[70.017,56.1911],[70.05,56.2817],[70.0658,56.326],[70.1396,56.5411],[70.1723,56.6412],[70.1852,56.6816],[70.2504,56.8949],[70.2822,57.0047],[70.2924,57.0409],[70.3493,57.2524],[70.3794,57.3717],[70.3872,57.4038],[70.436,57.6129],[70.4639,57.7419],[70.4697,57.7696],[70.5105,57.9762],[70.5356,58.1149],[70.5396,58.1381],[70.5727,58.3418],[70.5943,58.49],[70.5969,58.5087],[70.6225,58.7092],[70.6401,58.867],[70.6415,58.881],[70.66,59.0782],[70.6728,59.2453],[70.6735,59.2547],[70.685,59.4482],[70.6925,59.6245],[70.6926,59.6292],[70.6975,59.8188],[70.699,60.0042],[70.6975,60.1896],[70.6926,60.3792],[70.6925,60.3839],[70.685,60.5602],[70.6735,60.7537],[70.6728,60.7631],[70.66,60.9302],[70.6415,61.1274],[70.6401,61.1414],[70.6225,61.2992],[70.5969,61.4997],[70.5943,61.5184],[70.5727,61.6666],[70.5396,61.8703],[70.5356,61.8936],[70.5105,62.0322],[70.4697,62.2388],[70.4639,62.2665],[70.436,62.3955],[70.3872,62.6046],[70.3794,62.6367],[70.3493,62.756],[70.2924,62.9675],[70.2822,63.0037],[70.2504,63.1135],[70.1852,63.3269],[70.1723,63.3673],[70.1396,63.4673],[70.0658,63.6824],[70.05,63.7267],[70.017,63.8173],[69.9344,64.0336],[69.9153,64.0818],[69.8826,64.1629],[69.7911,64.3802],[69.7685,64.432],[69.7366,64.5038],[69.6361,64.7217],[69.6097,64.7769],[69.5792,64.8396],[69.4695,65.0577],[69.439,65.1162],[69.4106,65.1699],[69.2916,65.3878],[69.2568,65.4493],[69.231,65.4943],[69.1025,65.7116],[69.0885,65.7346],[69.0632,65.776],[69.0405,65.8125],[69.0092,65.8625],[68.9282,65.9893],[68.9025,66.0289],[68.8877,66.0513],[68.8584,66.0957],[68.8455,66.1151],[68.8394,66.1241],[68.761,66.2396],[68.6917,66.3391],[68.6763,66.361],[68.6748,66.363],[68.6426,66.4082],[68.628,66.4287],[68.587,66.4852],[68.4975,66.6062],[68.4706,66.642],[68.4543,66.6634],[68.4163,66.7131],[68.4063,66.726],[68.2392,66.9371],[68.2223,66.9579],[68.1795,67.01],[67.9979,67.2242],[67.9803,67.2444],[67.9326,67.2986],[67.747,67.5029],[67.7286,67.5225],[67.676,67.5784],[67.4867,67.7729],[67.4677,67.7919],[67.4098,67.8492],[67.2173,68.0338],[67.1977,68.0522],[67.1344,68.1107],[66.9393,68.2854],[66.919,68.3031],[66.8502,68.3625],[66.6528,68.5274],[66.6319,68.5444],[66.5574,68.6043],[66.4208,68.7115],[66.3582,68.7595],[66.3368,68.7758],[66.3011,68.8027],[66.2565,68.8359],[66.1801,68.8922],[66.1235,68.9331],[66.0578,68.98],[66.0559,68.9814],[66.0339,68.9969],[65.9477,69.057],[65.9344,69.0662],[65.8189,69.1446],[65.8099,69.1506],[65.7461,69.1929],[65.7237,69.2076],[65.6842,69.2334],[65.6315,69.2673],[65.5573,69.3144],[65.5073,69.3457],[65.4294,69.3937],[65.4065,69.4077],[65.3083,69.4666],[65.1891,69.5362],[65.0826,69.5968],[64.9783,69.6545],[64.8647,69.7158],[64.7525,69.7747],[64.6421,69.831],[64.5344,69.8844],[64.4165,69.9413],[64.3,69.9958],[64.1986,70.0418],[64.075,70.0963],[63.9524,70.1486],[63.8577,70.1878],[63.7284,70.2396],[63.5997,70.2894],[63.5121,70.3222],[63.3772,70.371],[63.2423,70.4179],[63.1622,70.4448],[63.0217,70.4904],[62.8808,70.534],[62.8083,70.5556],[62.6623,70.5976],[62.5155,70.6375],[62.4508,70.6544],[62.2995,70.6924],[62.1468,70.7284],[62.0903,70.7411],[61.9336,70.7748],[61.7751,70.8065],[61.727,70.8156],[61.5652,70.8448],[61.401,70.8717],[61.3614,70.8779],[61.1945,70.9021],[61.0249,70.924],[60.994,70.9277],[60.8222,70.9467],[60.6472,70.9633],[60.625,70.9652],[60.4485,70.9786],[60.2684,70.9895],[60.2551,70.9901],[60.074,70.9978],[59.8889,71.0026],[59.8844,71.0026],[59.699,71.0042],[59.5136,71.0026],[59.5092,71.0026],[59.3241,70.9978],[59.143,70.9901],[59.1296,70.9895],[58.9495,70.9786],[58.773,70.9652],[58.7508,70.9633],[58.5759,70.9467],[58.4041,70.9277],[58.3731,70.924],[58.2035,70.9021],[58.0366,70.8779],[57.997,70.8717],[57.8329,70.8448],[57.671,70.8156],[57.6229,70.8065],[57.4644,70.7748],[57.3077,70.7411],[57.2513,70.7284],[57.0986,70.6924],[56.9472,70.6544],[56.8826,70.6375],[56.7358,70.5976],[56.5898,70.5556],[56.5172,70.534],[56.3764,70.4904],[56.2359,70.4448],[56.1557,70.4179],[56.0208,70.371],[55.8859,70.3222],[55.7984,70.2894],[55.6696,70.2396],[55.5403,70.1878],[55.4457,70.1486],[55.323,70.0963],[55.1994,70.0418],[55.0981,69.9958],[54.9816,69.9413],[54.8636,69.8844],[54.7559,69.831],[54.6456,69.7747],[54.5333,69.7158],[54.4197,69.6545],[54.3154,69.5968],[54.2089,69.5362],[54.0898,69.4666],[53.9916,69.4077],[53.9686,69.3937],[53.8907,69.3457],[53.8407,69.3144],[53.7665,69.2673],[53.7139,69.2334],[53.6744,69.2076],[53.6519,69.1929],[53.5882,69.1506],[53.5792,69.1446],[53.4636,69.0662],[53.4503,69.057],[53.3641,68.9969],[53.3422,68.9814],[53.3402,68.98],[53.2745,68.9331],[53.218,68.8922],[53.1416,68.8359],[53.097,68.8027],[53.0613,68.7758],[53.0399,68.7595],[52.9772,68.7115],[52.8406,68.6043],[52.7661,68.5444],[52.7453,68.5274],[52.5479,68.3625],[52.479,68.3031],[52.4588,68.2854],[52.2636,68.1107],[52.2003,68.0522],[52.1807,68.0338],[51.9883,67.8492],[51.9304,67.7919],[51.9114,67.7729],[51.7221,67.5784],[51.6694,67.5225],[51.6511,67.5029],[51.4654,67.2986],[51.4178,67.2444],[51.4001,67.2242],[51.2185,67.01],[51.1758,66.9579],[51.1588,66.9371],[50.9917,66.726],[50.9818,66.7131],[50.9437,66.6634],[50.9275,66.642],[50.9005,66.6062],[50.811,66.4852],[50.7701,66.4287],[50.7554,66.4082],[50.7232,66.363],[50.7218,66.361],[50.7063,66.3391],[50.637,66.2396],[50.5586,66.1241],[50.5526,66.1151],[50.5397,66.0957],[50.5103,66.0513],[50.4956,66.0289],[50.4698,65.9893],[50.3888,65.8625],[50.3575,65.8125],[50.3349,65.776],[50.3095,65.7346],[50.2956,65.7116],[50.167,65.4943],[50.1413,65.4493],[50.1065,65.3878],[49.9874,65.1699],[49.959,65.1162],[49.9285,65.0577],[49.8188,64.8396],[49.7884,64.7769],[49.7619,64.7217],[49.6614,64.5038],[49.6295,64.432],[49.6069,64.3802],[49.5155,64.1629],[49.4827,64.0818],[49.4636,64.0336],[49.3811,63.8173],[49.348,63.7267],[49.3322,63.6824],[49.2584,63.4673],[49.2257,63.3673],[49.2128,63.3269],[49.1476,63.1135],[49.1159,63.0037],[49.1057,62.9675],[49.0488,62.756],[49.0187,62.6367],[49.0108,62.6046],[48.9621,62.3955],[48.9342,62.2665],[48.9284,62.2388],[48.8876,62.0322],[48.8625,61.8936],[48.8585,61.8703],[48.8254,61.6666],[48.8037,61.5184],[48.8012,61.4997],[48.7755,61.2992],[48.758,61.1414],[48.7565,61.1274],[48.7381,60.9302],[48.7252,60.7631],[48.7246,60.7537],[48.7131,60.5602],[48.7056,60.3839],[48.7054,60.3792],[48.7006,60.1896],[48.699,60.0042]]
M73 P0 R7
;TYPE:Custom
START_PRINT T_BED=110 T_EXTRUDER=260
G90
G21
M83 ; use relative distances for extrusion
; Filament gcode

    PRESSURE_ADVANCE_SELECT FILAMENT=ABS
M106 S0
;LAYER_CHANGE
;Z:0.2
;HEIGHT:0.2
;BEFORE_LAYER_CHANGE
;0.2
G92 E0

;AFTER_LAYER_CHANGE
;0.2
SET_VELOCITY_LIMIT ACCEL_TO_DECEL=500
M204 S1000
G1 E-.5 F3000
G1 Z.2 F21000
G1 X46.207 Y46.751
G1 E.5 F1800
;TYPE:Skirt
;WIDTH:0.5
G1 F3000
G1 X47.994 Y45.182 E.08369
G1 X49.501 Y44.186 E.06355
G1 X52.045 Y43.008 E.0987
G1 X55.452 Y42.221 E.12304
G1 X56.055 Y42.156 E.02135
G1 X62.282 Y42.145 E.21916
G1 X65.333 Y42.447 E.10789
G1 X67.156 Y42.948 E.06654
G1 X68.658 Y43.54 E.05682
G1 X71.097 Y44.977 E.09962
G1 X72.988 Y46.551 E.08659
G1 X74.179 Y47.854 E.06212
G1 X74.907 Y49.793 E.0729
G1 X74.885 Y54.684 E.17215
G1 X74.569 Y65.089 E.36633
G1 X74.324 Y66.173 E.03911
G1 X73.255 Y68.603 E.09344
G1 X72.933 Y69.181 E.02329
G1 X72.053 Y70.389 E.05258
G1 X71.292 Y71.244 E.0403
G1 X69.942 Y72.479 E.06442
G1 X68.781 Y73.306 E.05016
G1 X67.411 Y74.07 E.05519
G1 X66.365 Y74.531 E.04024
G1 X65.025 Y74.973 E.04964
G1 X64.003 Y75.21 E.03693
G1 X62.681 Y75.401 E.04702
G1 X61.417 Y75.464 E.04452
G1 X57.539 Y75.443 E.13649
G1 X55.236 Y75.164 E.08164
G1 X53.562 Y74.707 E.06109
G1 X52.115 Y74.123 E.0549
G1 X50.524 Y73.235 E.06413
G1 X49.101 Y72.177 E.0624
G1 X47.968 Y71.099 E.05505
G1 X47.082 Y70.04 E.04859
G1 X44.171 Y65.71 E.18362
G1 X43.682 Y64.081 E.05985
G1 X43.702 Y59.433 E.16358
G1 X44.528 Y49.507 E.35056
G1 X45.223 Y47.852 E.06318
G1 X46.167 Y46.795 E.04986
G1 X46.506 Y47.097 F21000
G1 F3000
G1 X46.509 Y47.094 E.00014
G1 X48.296 Y45.525 E.08369
G1 X49.702 Y44.597 E.05931
G1 X52.224 Y43.428 E.09781
G1 X55.548 Y42.668 E.12002
G1 X56.056 Y42.613 E.018
G1 X62.244 Y42.6 E.21776
G1 X65.237 Y42.894 E.10585
G1 X67.034 Y43.388 E.06558
G1 X68.458 Y43.952 E.05391
G1 X70.807 Y45.33 E.09584
G1 X72.693 Y46.901 E.08639
G1 X73.836 Y48.156 E.05974
G1 X74.45 Y49.791 E.06147
G1 X74.428 Y54.671 E.17173
G1 X74.112 Y65.075 E.36633
G1 X73.905 Y65.989 E.03298
G1 X72.837 Y68.419 E.09344
G1 X71.693 Y70.108 E.07179
G1 X70.97 Y70.919 E.03823
G1 X69.661 Y72.118 E.06248
G1 X68.541 Y72.917 E.04841
G1 X67.199 Y73.664 E.05405
G1 X66.212 Y74.1 E.03796
G1 X64.897 Y74.534 E.04876
G1 X62.641 Y74.946 E.08068
G1 X61.409 Y75.007 E.04341
G1 X57.559 Y74.986 E.13552
G1 X55.341 Y74.719 E.07863
G1 X53.705 Y74.273 E.05965
G1 X52.305 Y73.707 E.05316
G1 X50.778 Y72.855 E.06156
G1 X49.391 Y71.824 E.0608
G1 X48.306 Y70.792 E.05271
G1 X47.445 Y69.763 E.0472
G1 X44.552 Y65.457 E.1826
G1 X44.139 Y64.083 E.05046
G1 X44.159 Y59.435 E.16358
G1 X44.984 Y49.545 E.34928
M73 P1 R7
G1 X45.569 Y48.15 E.05327
G1 X46.466 Y47.142 E.04748
; printing object Oldham_middle.stl id:0 copy 0
EXCLUDE_OBJECT_START NAME=Oldham_middle.stl_id_0_copy_0
G1 E-.5
G1 Z.4 F21000
G1 X48.369 Y49.363
G1 Z.2
G1 E.5 F1800
;TYPE:Support
G1 F3000
G1 X49.328 Y49.199 E.03424
G1 X48.925 Y49.931 E.02942
G1 X47.885 Y50.817 E.04809
G1 X47.889 Y49.922 E.03151
G1 X48.33 Y49.409 E.02382
G1 E-.5
G1 Z.4 F21000
G1 X48.457 Y49.494
G1 X50.271 Y50.42
G1 Z.2
G1 E.5 F1800
;TYPE:Support interface
;WIDTH:0.4
G1 F3000
G1 X50.271 Y52.958 E.06979
G1 X51.128 Y51.942 E.03654
G1 X51.128 Y49.965 E.05436
G1 X51.251 Y49.966 E.00337
G1 X51.252 Y49.733 E.0064
G1 X51.286 Y49.733 E.00093
G1 X51.286 Y49.706 E.00074
G1 X51.32 Y49.706 E.00093
G1 X51.32 Y49.68 E.00074
G1 X51.428 Y49.68 E.00297
G1 X51.429 Y49.595 E.00235
G1 X51.614 Y49.595 E.0051
G1 X51.615 Y49.459 E.00376
G1 X51.654 Y49.459 E.00108
G1 X51.654 Y49.43 E.0008
G1 X51.689 Y49.404 E.00117
G1 X51.731 Y49.405 E.00117
G1 X51.731 Y49.373 E.00086
G1 X51.926 Y49.374 E.00536
G1 X51.927 Y49.24 E.00368
G1 X51.984 Y49.241 E.00157
G1 X51.985 Y49.202 E.00108
G1 X51.985 Y51.074 E.05148
G1 X52.842 Y50.48 E.02867
G1 X52.842 Y48.615 E.05127
G1 X52.856 Y48.615 E.00037
G1 X52.856 Y48.531 E.00231
G1 X52.912 Y48.531 E.00153
G1 X52.912 Y48.501 E.00083
G1 X53.131 Y48.502 E.00602
G1 X53.131 Y48.392 E.00303
G1 X53.228 Y48.368 E.00272
G1 X53.228 Y48.344 E.00066
G1 X53.251 Y48.332 E.00073
