
; ### Ellis' Pressure Advance / Linear Advance Calibration Tool ###
;
; Original Marlin linear advance calibration tool by Sineos [https://github.com/Sineos]
; Heavily modified/rewritten by Andrew Ellis [https://github.com/AndrewEllis93]
;
; -------------------------------------------
; Generated: Mon Dec 26 2022 16:07:54 GMT-0800 (Pacific Standard Time)
; -------------------------------------------
;
; Advanced mode: false
;
; Printer:
;  - Firmware: klipper
;  - Bed Shape: Rect
;  - Bed Size X: 120 mm
;  - Bed Size Y: 120 mm
;  - Origin Bed Center: false
;  - Travel Speed: 200 mm/s
;  - Nozzle Diameter: 0.2 mm
;  - Filament Diameter: 1.75 mm
;  - Extrusion Multiplier: 1
;
; Retraction / Z Hop:
;  - Retraction Distance: 0.5 mm
;  - Retract Speed: 35 mm/s
;  - Unretract Speed: 35 mm/s
;  - Z Hop Enable: true
;  - Z Hop Height: 0.1mm
;
; First Layer Settings:
;  - First Layer Height: 0.1 mm
;  - First Layer Printing Speed: 30 mm/s
;  - First Layer Fan Speed: 0%
;  - Anchor Option: anchor_layer
;
; Print Settings:
;  - Layer Height: 0.1 mm
;  - Print Speed: 80 mm/s
;  - Acceleration: Disabled
;  - Fan Speed: 100%
;
; Pressure Advance Stepping:
;  - PA Start Value: 0
;  - PA End Value: 0.08
;  - PA Increment: 0.005
;
; Start / End G-code:
;  - Start G-code Type: standalone
;  - Hotend Temp: 200C
;  - Bed Temp: 60C
;
; Calculated Values:
;  - Print Size X: 69.45 mm
;  - Print Size Y: 53.71 mm
;  - Number of Patterns to Print: 17
;  - PA Values: 0, 0.005, 0.01, 0.015, 0.02, 0.025, 0.03, 0.035, 0.04, 0.045, 0.05, 0.055, 0.06, 0.065, 0.07, 0.075, 0.08
;
; Prepare printing
;
M190 S60    ; Set & wait for bed temp. !Don't modify/delete, only move!
M109 S200 ; Set & wait for hotend temp. !Don't modify/delete, only move!
START_PRINT T_BED=60 T_EXTRUDER=200
;
; Make sure this macro name matches your own!
; (For example, some may use START_PRINT instead.)
G21 ; Millimeter units
G90 ; Absolute XYZ
M83 ; Relative E
G92 E0 ; Reset extruder distance
;
;  Begin printing
;
M106 S0 ; Set fan speed
G1 E-0.5 F2100 ; Retract
G0 Z5 F12000 ; Z raise
G0 X25.2739 Y33.1468 F12000 ; Move to start position
G0 Z0.1 F12000 ; Move to start layer height
G1 E0.5 F2100 ; Un-retract
SET_PRESSURE_ADVANCE ADVANCE=0 ; Set pressure advance to start value
M117 PA 0
G1 X25.2739 Y75.5732 E0.45603 F1800 ; Draw perimeter (up)
G1 X94.7261 Y75.5732 E0.74653 F1800 ; Draw perimeter (right)
G1 X94.7261 Y33.1468 E0.45603 F1800 ; Draw perimeter (down)
G1 X25.2739 Y33.1468 E0.74653 F1800 ; Draw perimeter (left)
G0 X25.5324 Y33.4053 F12000 ; Step inwards to print next perimeter
G1 X25.5324 Y75.3147 E0.45048 F1800 ; Draw perimeter (up)
G1 X94.4676 Y75.3147 E0.74097 F1800 ; Draw perimeter (right)
G1 X94.4676 Y33.4053 E0.45048 F1800 ; Draw perimeter (down)
G1 X25.5324 Y33.4053 E0.74097 F1800 ; Draw perimeter (left)
G0 X25.791 Y33.6639 F12000 ; Step inwards to print next perimeter
G1 X25.791 Y75.0561 E0.44492 F1800 ; Draw perimeter (up)
G1 X94.209 Y75.0561 E0.73541 F1800 ; Draw perimeter (right)
G1 X94.209 Y33.6639 E0.44492 F1800 ; Draw perimeter (down)
G1 X25.791 Y33.6639 E0.73541 F1800 ; Draw perimeter (left)
G0 X26.0495 Y33.9224 F12000 ; Step inwards to print next perimeter
G1 X26.0495 Y74.7976 E0.43936 F1800 ; Draw perimeter (up)
G1 X93.9505 Y74.7976 E0.72986 F1800 ; Draw perimeter (right)
G1 X93.9505 Y33.9224 E0.43936 F1800 ; Draw perimeter (down)
G1 X26.0495 Y33.9224 E0.72986 F1800 ; Draw perimeter (left)
G0 X26.2362 Y34.1091 F12000 ; Move to fill start
G0 X26.6018 Y34.1091 F12000 ; Move
G1 X26.2362 Y34.4747 E0.00556 F1800 ; Fill
G0 X26.2362 Y34.8403 F12000 ; Move
G1 X26.9674 Y34.1091 E0.01112 F1800 ; Fill
G0 X27.3331 Y34.1091 F12000 ; Move
G1 X26.2362 Y35.206 E0.01667 F1800 ; Fill
G0 X26.2362 Y35.5716 F12000 ; Move
G1 X27.6987 Y34.1091 E0.02223 F1800 ; Fill
G0 X28.0643 Y34.1091 F12000 ; Move
G1 X26.2362 Y35.9372 E0.02779 F1800 ; Fill
G0 X26.2362 Y36.3029 F12000 ; Move
G1 X28.4299 Y34.1091 E0.03335 F1800 ; Fill
G0 X28.7956 Y34.1091 F12000 ; Move
G1 X26.2362 Y36.6685 E0.03891 F1800 ; Fill
G0 X26.2362 Y37.0341 F12000 ; Move
G1 X29.1612 Y34.1091 E0.04446 F1800 ; Fill
G0 X29.5268 Y34.1091 F12000 ; Move
G1 X26.2362 Y37.3998 E0.05002 F1800 ; Fill
G0 X26.2362 Y37.7654 F12000 ; Move
G1 X29.8925 Y34.1091 E0.05558 F1800 ; Fill
G0 X30.2581 Y34.1091 F12000 ; Move
G1 X26.2362 Y38.131 E0.06114 F1800 ; Fill
G0 X26.2362 Y38.4967 F12000 ; Move
G1 X30.6237 Y34.1091 E0.0667 F1800 ; Fill
G0 X30.9894 Y34.1091 F12000 ; Move
G1 X26.2362 Y38.8623 E0.07225 F1800 ; Fill
G0 X26.2362 Y39.2279 F12000 ; Move
G1 X31.355 Y34.1091 E0.07781 F1800 ; Fill
G0 X31.7206 Y34.1091 F12000 ; Move
G1 X26.2362 Y39.5935 E0.08337 F1800 ; Fill
G0 X26.2362 Y39.9592 F12000 ; Move
G1 X32.0862 Y34.1091 E0.08893 F1800 ; Fill
G0 X32.4519 Y34.1091 F12000 ; Move
G1 X26.2362 Y40.3248 E0.09449 F1800 ; Fill
G0 X26.2362 Y40.6904 F12000 ; Move
G1 X32.8175 Y34.1091 E0.10004 F1800 ; Fill
G0 X33.1831 Y34.1091 F12000 ; Move
G1 X26.2362 Y41.0561 E0.1056 F1800 ; Fill
G0 X26.2362 Y41.4217 F12000 ; Move
G1 X33.5488 Y34.1091 E0.11116 F1800 ; Fill
G0 X33.9144 Y34.1091 F12000 ; Move
G1 X26.2362 Y41.7873 E0.11672 F1800 ; Fill
G0 X26.2362 Y42.153 F12000 ; Move
G1 X34.28 Y34.1091 E0.12228 F1800 ; Fill
G0 X34.6457 Y34.1091 F12000 ; Move
G1 X26.2362 Y42.5186 E0.12783 F1800 ; Fill
G0 X26.2362 Y42.8842 F12000 ; Move
G1 X35.0113 Y34.1091 E0.13339 F1800 ; Fill
G0 X35.3769 Y34.1091 F12000 ; Move
G1 X26.2362 Y43.2498 E0.13895 F1800 ; Fill
G0 X26.2362 Y43.6155 F12000 ; Move
G1 X35.7426 Y34.1091 E0.14451 F1800 ; Fill
G0 X36.1082 Y34.1091 F12000 ; Move
G1 X26.2362 Y43.9811 E0.15007 F1800 ; Fill
G0 X26.2362 Y44.3467 F12000 ; Move
G1 X36.4738 Y34.1091 E0.15562 F1800 ; Fill
G0 X36.8394 Y34.1091 F12000 ; Move
G1 X26.2362 Y44.7124 E0.16118 F1800 ; Fill
G0 X26.2362 Y45.078 F12000 ; Move
G1 X37.2051 Y34.1091 E0.16674 F1800 ; Fill
G0 X37.5707 Y34.1091 F12000 ; Move
G1 X26.2362 Y45.4436 E0.1723 F1800 ; Fill
G0 X26.2362 Y45.8093 F12000 ; Move
G1 X37.9363 Y34.1091 E0.17786 F1800 ; Fill
G0 X38.302 Y34.1091 F12000 ; Move
G1 X26.2362 Y46.1749 E0.18341 F1800 ; Fill
G0 X26.2362 Y46.5405 F12000 ; Move
G1 X38.6676 Y34.1091 E0.18897 F1800 ; Fill
G0 X39.0332 Y34.1091 F12000 ; Move
G1 X26.2362 Y46.9062 E0.19453 F1800 ; Fill
G0 X26.2362 Y47.2718 F12000 ; Move
G1 X39.3989 Y34.1091 E0.20009 F1800 ; Fill
G0 X39.7645 Y34.1091 F12000 ; Move
G1 X26.2362 Y47.6374 E0.20565 F1800 ; Fill
G0 X26.2362 Y48.003 F12000 ; Move
G1 X40.1301 Y34.1091 E0.2112 F1800 ; Fill
G0 X40.4958 Y34.1091 F12000 ; Move
G1 X26.2362 Y48.3687 E0.21676 F1800 ; Fill
G0 X26.2362 Y48.7343 F12000 ; Move
G1 X40.8614 Y34.1091 E0.22232 F1800 ; Fill
G0 X41.227 Y34.1091 F12000 ; Move
G1 X26.2362 Y49.0999 E0.22788 F1800 ; Fill
G0 X26.2362 Y49.4656 F12000 ; Move
G1 X41.5926 Y34.1091 E0.23344 F1800 ; Fill
G0 X41.9583 Y34.1091 F12000 ; Move
G1 X26.2362 Y49.8312 E0.23899 F1800 ; Fill
G0 X26.2362 Y50.1968 F12000 ; Move
G1 X42.3239 Y34.1091 E0.24455 F1800 ; Fill
G0 X42.6895 Y34.1091 F12000 ; Move
G1 X26.2362 Y50.5625 E0.25011 F1800 ; Fill
G0 X26.2362 Y50.9281 F12000 ; Move
G1 X43.0552 Y34.1091 E0.25567 F1800 ; Fill
G0 X43.4208 Y34.1091 F12000 ; Move
G1 X26.2362 Y51.2937 E0.26123 F1800 ; Fill
G0 X26.2362 Y51.6594 F12000 ; Move
G1 X43.7864 Y34.1091 E0.26678 F1800 ; Fill
G0 X44.1521 Y34.1091 F12000 ; Move
G1 X26.2362 Y52.025 E0.27234 F1800 ; Fill
G0 X26.2362 Y52.3906 F12000 ; Move
G1 X44.5177 Y34.1091 E0.2779 F1800 ; Fill
G0 X44.8833 Y34.1091 F12000 ; Move
G1 X26.2362 Y52.7562 E0.28346 F1800 ; Fill
G0 X26.2362 Y53.1219 F12000 ; Move
G1 X45.2489 Y34.1091 E0.28902 F1800 ; Fill
G0 X45.6146 Y34.1091 F12000 ; Move
G1 X26.2362 Y53.4875 E0.29457 F1800 ; Fill
G0 X26.2362 Y53.8531 F12000 ; Move
G1 X45.9802 Y34.1091 E0.30013 F1800 ; Fill
G0 X46.3458 Y34.1091 F12000 ; Move
G1 X26.2362 Y54.2188 E0.30569 F1800 ; Fill
G0 X26.2362 Y54.5844 F12000 ; Move
G1 X46.7115 Y34.1091 E0.31125 F1800 ; Fill
G0 X47.0771 Y34.1091 F12000 ; Move
G1 X26.2362 Y54.95 E0.31681 F1800 ; Fill
G0 X26.2362 Y55.3157 F12000 ; Move
G1 X47.4427 Y34.1091 E0.32236 F1800 ; Fill
G0 X47.8084 Y34.1091 F12000 ; Move
G1 X26.2362 Y55.6813 E0.32792 F1800 ; Fill
G0 X26.2362 Y56.0469 F12000 ; Move
G1 X48.174 Y34.1091 E0.33348 F1800 ; Fill
G0 X48.5396 Y34.1091 F12000 ; Move
G1 X26.2362 Y56.4125 E0.33904 F1800 ; Fill
G0 X26.2362 Y56.7782 F12000 ; Move
G1 X48.9053 Y34.1091 E0.3446 F1800 ; Fill
G0 X49.2709 Y34.1091 F12000 ; Move
G1 X26.2362 Y57.1438 E0.35015 F1800 ; Fill
G0 X26.2362 Y57.5094 F12000 ; Move
G1 X49.6365 Y34.1091 E0.35571 F1800 ; Fill
G0 X50.0021 Y34.1091 F12000 ; Move
G1 X26.2362 Y57.8751 E0.36127 F1800 ; Fill
G0 X26.2362 Y58.2407 F12000 ; Move
G1 X50.3678 Y34.1091 E0.36683 F1800 ; Fill
G0 X50.7334 Y34.1091 F12000 ; Move
G1 X26.2362 Y58.6063 E0.37239 F1800 ; Fill
G0 X26.2362 Y58.972 F12000 ; Move
G1 X51.099 Y34.1091 E0.37794 F1800 ; Fill
G0 X51.4647 Y34.1091 F12000 ; Move
G1 X26.2362 Y59.3376 E0.3835 F1800 ; Fill
G0 X26.2362 Y59.7032 F12000 ; Move
G1 X51.8303 Y34.1091 E0.38906 F1800 ; Fill
G0 X52.1959 Y34.1091 F12000 ; Move
G1 X26.2362 Y60.0689 E0.39462 F1800 ; Fill
G0 X26.2362 Y60.4345 F12000 ; Move
G1 X52.5616 Y34.1091 E0.40018 F1800 ; Fill
G0 X52.9272 Y34.1091 F12000 ; Move
G1 X26.2362 Y60.8001 E0.40573 F1800 ; Fill
G0 X26.2362 Y61.1657 F12000 ; Move
G1 X53.2928 Y34.1091 E0.41129 F1800 ; Fill
G0 X53.6584 Y34.1091 F12000 ; Move
G1 X26.2362 Y61.5314 E0.41685 F1800 ; Fill
G0 X26.2362 Y61.897 F12000 ; Move
G1 X54.0241 Y34.1091 E0.42241 F1800 ; Fill
G0 X54.3897 Y34.1091 F12000 ; Move
G1 X26.2362 Y62.2626 E0.42797 F1800 ; Fill
G0 X26.2362 Y62.6283 F12000 ; Move
G1 X54.7553 Y34.1091 E0.43352 F1800 ; Fill
G0 X55.121 Y34.1091 F12000 ; Move
G1 X26.2362 Y62.9939 E0.43908 F1800 ; Fill
G0 X26.2362 Y63.3595 F12000 ; Move
G1 X55.4866 Y34.1091 E0.44464 F1800 ; Fill
G0 X55.8522 Y34.1091 F12000 ; Move
G1 X26.2362 Y63.7252 E0.4502 F1800 ; Fill
G0 X26.2362 Y64.0908 F12000 ; Move
G1 X56.2179 Y34.1091 E0.45576 F1800 ; Fill
G0 X56.5835 Y34.1091 F12000 ; Move
G1 X26.2362 Y64.4564 E0.46131 F1800 ; Fill
G0 X26.2362 Y64.822 F12000 ; Move
G1 X56.9491 Y34.1091 E0.46687 F1800 ; Fill
G0 X57.3148 Y34.1091 F12000 ; Move
G1 X26.2362 Y65.1877 E0.47243 F1800 ; Fill
G0 X26.2362 Y65.5533 F12000 ; Move
G1 X57.6804 Y34.1091 E0.47799 F1800 ; Fill
G0 X58.046 Y34.1091 F12000 ; Move
G1 X26.2362 Y65.9189 E0.48355 F1800 ; Fill
G0 X26.2362 Y66.2846 F12000 ; Move
G1 X58.4116 Y34.1091 E0.4891 F1800 ; Fill
G0 X58.7773 Y34.1091 F12000 ; Move
G1 X26.2362 Y66.6502 E0.49466 F1800 ; Fill
G0 X26.2362 Y67.0158 F12000 ; Move
G1 X59.1429 Y34.1091 E0.50022 F1800 ; Fill
G0 X59.5085 Y34.1091 F12000 ; Move
G1 X26.2362 Y67.3815 E0.50578 F1800 ; Fill
G0 X26.2362 Y67.7471 F12000 ; Move
G1 X59.8742 Y34.1091 E0.51134 F1800 ; Fill
G0 X60.2398 Y34.1091 F12000 ; Move
G1 X26.2362 Y68.1127 E0.51689 F1800 ; Fill
G0 X26.2362 Y68.4784 F12000 ; Move
G1 X60.6054 Y34.1091 E0.52245 F1800 ; Fill
G0 X60.9711 Y34.1091 F12000 ; Move
G1 X26.2362 Y68.844 E0.52801 F1800 ; Fill
G0 X26.2362 Y69.2096 F12000 ; Move
G1 X61.3367 Y34.1091 E0.53357 F1800 ; Fill
G0 X61.7023 Y34.1091 F12000 ; Move
G1 X26.2362 Y69.5752 E0.53913 F1800 ; Fill
G0 X26.2362 Y69.9409 F12000 ; Move
G1 X62.068 Y34.1091 E0.54468 F1800 ; Fill
G0 X62.4336 Y34.1091 F12000 ; Move
G1 X26.2362 Y70.3065 E0.55024 F1800 ; Fill
G0 X26.2362 Y70.6721 F12000 ; Move
G1 X62.7992 Y34.1091 E0.5558 F1800 ; Fill
G0 X63.1648 Y34.1091 F12000 ; Move
G1 X26.2362 Y71.0378 E0.56136 F1800 ; Fill
G0 X26.2362 Y71.4034 F12000 ; Move
G1 X63.5305 Y34.1091 E0.56692 F1800 ; Fill
G0 X63.8961 Y34.1091 F12000 ; Move
G1 X26.2362 Y71.769 E0.57247 F1800 ; Fill
G0 X26.2362 Y72.1347 F12000 ; Move
G1 X64.2617 Y34.1091 E0.57803 F1800 ; Fill
G0 X64.6274 Y34.1091 F12000 ; Move
G1 X26.2362 Y72.5003 E0.58359 F1800 ; Fill
G0 X26.2362 Y72.8659 F12000 ; Move
G1 X64.993 Y34.1091 E0.58915 F1800 ; Fill
G0 X65.3586 Y34.1091 F12000 ; Move
G1 X26.2362 Y73.2316 E0.59471 F1800 ; Fill
G0 X26.2362 Y73.5972 F12000 ; Move
G1 X65.7243 Y34.1091 E0.60026 F1800 ; Fill
G0 X66.0899 Y34.1091 F12000 ; Move
G1 X26.2362 Y73.9628 E0.60582 F1800 ; Fill
G0 X26.2362 Y74.3284 F12000 ; Move
G1 X66.4555 Y34.1091 E0.61138 F1800 ; Fill
G0 X66.8211 Y34.1091 F12000 ; Move
G1 X26.3193 Y74.6109 E0.61567 F1800 ; Fill
G0 X26.6849 Y74.6109 F12000 ; Move
G1 X67.1868 Y34.1091 E0.61567 F1800 ; Fill
G0 X67.5524 Y34.1091 F12000 ; Move
G1 X27.0506 Y74.6109 E0.61567 F1800 ; Fill
G0 X27.4162 Y74.6109 F12000 ; Move
G1 X67.918 Y34.1091 E0.61567 F1800 ; Fill
G0 X68.2837 Y34.1091 F12000 ; Move
G1 X27.7818 Y74.6109 E0.61567 F1800 ; Fill
G0 X28.1475 Y74.6109 F12000 ; Move
G1 X68.6493 Y34.1091 E0.61567 F1800 ; Fill
G0 X69.0149 Y34.1091 F12000 ; Move
G1 X28.5131 Y74.6109 E0.61567 F1800 ; Fill
G0 X28.8787 Y74.6109 F12000 ; Move
G1 X69.3806 Y34.1091 E0.61567 F1800 ; Fill
G0 X69.7462 Y34.1091 F12000 ; Move
G1 X29.2444 Y74.6109 E0.61567 F1800 ; Fill
G0 X29.61 Y74.6109 F12000 ; Move
G1 X70.1118 Y34.1091 E0.61567 F1800 ; Fill
G0 X70.4775 Y34.1091 F12000 ; Move
G1 X29.9756 Y74.6109 E0.61567 F1800 ; Fill
G0 X30.3412 Y74.6109 F12000 ; Move
G1 X70.8431 Y34.1091 E0.61567 F1800 ; Fill
G0 X71.2087 Y34.1091 F12000 ; Move
G1 X30.7069 Y74.6109 E0.61567 F1800 ; Fill
G0 X31.0725 Y74.6109 F12000 ; Move
G1 X71.5743 Y34.1091 E0.61567 F1800 ; Fill
G0 X71.94 Y34.1091 F12000 ; Move
G1 X31.4381 Y74.6109 E0.61567 F1800 ; Fill
G0 X31.8038 Y74.6109 F12000 ; Move
G1 X72.3056 Y34.1091 E0.61567 F1800 ; Fill
G0 X72.6712 Y34.1091 F12000 ; Move
G1 X32.1694 Y74.6109 E0.61567 F1800 ; Fill
G0 X32.535 Y74.6109 F12000 ; Move
G1 X73.0369 Y34.1091 E0.61567 F1800 ; Fill
G0 X73.4025 Y34.1091 F12000 ; Move
G1 X32.9007 Y74.6109 E0.61567 F1800 ; Fill
G0 X33.2663 Y74.6109 F12000 ; Move
G1 X73.7681 Y34.1091 E0.61567 F1800 ; Fill
G0 X74.1338 Y34.1091 F12000 ; Move
G1 X33.6319 Y74.6109 E0.61567 F1800 ; Fill
G0 X33.9976 Y74.6109 F12000 ; Move
G1 X74.4994 Y34.1091 E0.61567 F1800 ; Fill
G0 X74.865 Y34.1091 F12000 ; Move
G1 X34.3632 Y74.6109 E0.61567 F1800 ; Fill
G0 X34.7288 Y74.6109 F12000 ; Move
G1 X75.2306 Y34.1091 E0.61567 F1800 ; Fill
G0 X75.5963 Y34.1091 F12000 ; Move
G1 X35.0944 Y74.6109 E0.61567 F1800 ; Fill
G0 X35.4601 Y74.6109 F12000 ; Move
G1 X75.9619 Y34.1091 E0.61567 F1800 ; Fill
G0 X76.3275 Y34.1091 F12000 ; Move
G1 X35.8257 Y74.6109 E0.61567 F1800 ; Fill
G0 X36.1913 Y74.6109 F12000 ; Move
G1 X76.6932 Y34.1091 E0.61567 F1800 ; Fill
G0 X77.0588 Y34.1091 F12000 ; Move
G1 X36.557 Y74.6109 E0.61567 F1800 ; Fill
G0 X36.9226 Y74.6109 F12000 ; Move
G1 X77.4244 Y34.1091 E0.61567 F1800 ; Fill
G0 X77.7901 Y34.1091 F12000 ; Move
G1 X37.2882 Y74.6109 E0.61567 F1800 ; Fill
G0 X37.6539 Y74.6109 F12000 ; Move
G1 X78.1557 Y34.1091 E0.61567 F1800 ; Fill
G0 X78.5213 Y34.1091 F12000 ; Move
G1 X38.0195 Y74.6109 E0.61567 F1800 ; Fill
G0 X38.3851 Y74.6109 F12000 ; Move
G1 X78.887 Y34.1091 E0.61567 F1800 ; Fill
G0 X79.2526 Y34.1091 F12000 ; Move
G1 X38.7508 Y74.6109 E0.61567 F1800 ; Fill
G0 X39.1164 Y74.6109 F12000 ; Move
G1 X79.6182 Y34.1091 E0.61567 F1800 ; Fill
G0 X79.9838 Y34.1091 F12000 ; Move
G1 X39.482 Y74.6109 E0.61567 F1800 ; Fill
G0 X39.8476 Y74.6109 F12000 ; Move
G1 X80.3495 Y34.1091 E0.61567 F1800 ; Fill
G0 X80.7151 Y34.1091 F12000 ; Move
G1 X40.2133 Y74.6109 E0.61567 F1800 ; Fill
G0 X40.5789 Y74.6109 F12000 ; Move
G1 X81.0807 Y34.1091 E0.61567 F1800 ; Fill
G0 X81.4464 Y34.1091 F12000 ; Move
G1 X40.9445 Y74.6109 E0.61567 F1800 ; Fill
G0 X41.3102 Y74.6109 F12000 ; Move
G1 X81.812 Y34.1091 E0.61567 F1800 ; Fill
G0 X82.1776 Y34.1091 F12000 ; Move
G1 X41.6758 Y74.6109 E0.61567 F1800 ; Fill
G0 X42.0414 Y74.6109 F12000 ; Move
G1 X82.5433 Y34.1091 E0.61567 F1800 ; Fill
G0 X82.9089 Y34.1091 F12000 ; Move
G1 X42.4071 Y74.6109 E0.61567 F1800 ; Fill
G0 X42.7727 Y74.6109 F12000 ; Move
G1 X83.2745 Y34.1091 E0.61567 F1800 ; Fill
G0 X83.6402 Y34.1091 F12000 ; Move
G1 X43.1383 Y74.6109 E0.61567 F1800 ; Fill
G0 X43.5039 Y74.6109 F12000 ; Move
G1 X84.0058 Y34.1091 E0.61567 F1800 ; Fill
G0 X84.3714 Y34.1091 F12000 ; Move
G1 X43.8696 Y74.6109 E0.61567 F1800 ; Fill
G0 X44.2352 Y74.6109 F12000 ; Move
G1 X84.737 Y34.1091 E0.61567 F1800 ; Fill
G0 X85.1027 Y34.1091 F12000 ; Move
G1 X44.6008 Y74.6109 E0.61567 F1800 ; Fill
G0 X44.9665 Y74.6109 F12000 ; Move
G1 X85.4683 Y34.1091 E0.61567 F1800 ; Fill
G0 X85.8339 Y34.1091 F12000 ; Move
G1 X45.3321 Y74.6109 E0.61567 F1800 ; Fill
G0 X45.6977 Y74.6109 F12000 ; Move
G1 X86.1996 Y34.1091 E0.61567 F1800 ; Fill
G0 X86.5652 Y34.1091 F12000 ; Move
G1 X46.0634 Y74.6109 E0.61567 F1800 ; Fill
G0 X46.429 Y74.6109 F12000 ; Move
G1 X86.9308 Y34.1091 E0.61567 F1800 ; Fill
G0 X87.2965 Y34.1091 F12000 ; Move
G1 X46.7946 Y74.6109 E0.61567 F1800 ; Fill
G0 X47.1603 Y74.6109 F12000 ; Move
G1 X87.6621 Y34.1091 E0.61567 F1800 ; Fill
G0 X88.0277 Y34.1091 F12000 ; Move
G1 X47.5259 Y74.6109 E0.61567 F1800 ; Fill
G0 X47.8915 Y74.6109 F12000 ; Move
G1 X88.3933 Y34.1091 E0.61567 F1800 ; Fill
G0 X88.759 Y34.1091 F12000 ; Move
G1 X48.2571 Y74.6109 E0.61567 F1800 ; Fill
G0 X48.6228 Y74.6109 F12000 ; Move
G1 X89.1246 Y34.1091 E0.61567 F1800 ; Fill
G0 X89.4902 Y34.1091 F12000 ; Move
G1 X48.9884 Y74.6109 E0.61567 F1800 ; Fill
G0 X49.354 Y74.6109 F12000 ; Move
G1 X89.8559 Y34.1091 E0.61567 F1800 ; Fill
G0 X90.2215 Y34.1091 F12000 ; Move
G1 X49.7197 Y74.6109 E0.61567 F1800 ; Fill
G0 X50.0853 Y74.6109 F12000 ; Move
G1 X90.5871 Y34.1091 E0.61567 F1800 ; Fill
G0 X90.9528 Y34.1091 F12000 ; Move
G1 X50.4509 Y74.6109 E0.61567 F1800 ; Fill
G0 X50.8166 Y74.6109 F12000 ; Move
G1 X91.3184 Y34.1091 E0.61567 F1800 ; Fill
G0 X91.684 Y34.1091 F12000 ; Move
G1 X51.1822 Y74.6109 E0.61567 F1800 ; Fill
G0 X51.5478 Y74.6109 F12000 ; Move
G1 X92.0497 Y34.1091 E0.61567 F1800 ; Fill
G0 X92.4153 Y34.1091 F12000 ; Move
G1 X51.9134 Y74.6109 E0.61567 F1800 ; Fill
G0 X52.2791 Y74.6109 F12000 ; Move
G1 X92.7809 Y34.1091 E0.61567 F1800 ; Fill
G0 X93.1465 Y34.1091 F12000 ; Move
G1 X52.6447 Y74.6109 E0.61567 F1800 ; Fill
G0 X53.0103 Y74.6109 F12000 ; Move
G1 X93.5122 Y34.1091 E0.61567 F1800 ; Fill
G0 X93.7638 Y34.2231 F12000 ; Move
G1 X53.376 Y74.6109 E0.61394 F1800 ; Fill
G0 X53.7416 Y74.6109 F12000 ; Move
G1 X93.7638 Y34.5887 E0.60838 F1800 ; Fill
G0 X93.7638 Y34.9543 F12000 ; Move
G1 X54.1072 Y74.6109 E0.60283 F1800 ; Fill
G0 X54.4729 Y74.6109 F12000 ; Move
G1 X93.7638 Y35.3199 E0.59727 F1800 ; Fill
G0 X93.7638 Y35.6856 F12000 ; Move
G1 X54.8385 Y74.6109 E0.59171 F1800 ; Fill
G0 X55.2041 Y74.6109 F12000 ; Move
G1 X93.7638 Y36.0512 E0.58615 F1800 ; Fill
G0 X93.7638 Y36.4168 F12000 ; Move
G1 X55.5698 Y74.6109 E0.58059 F1800 ; Fill
G0 X55.9354 Y74.6109 F12000 ; Move
G1 X93.7638 Y36.7825 E0.57504 F1800 ; Fill
G0 X93.7638 Y37.1481 F12000 ; Move
G1 X56.301 Y74.6109 E0.56948 F1800 ; Fill
G0 X56.6666 Y74.6109 F12000 ; Move
G1 X93.7638 Y37.5137 E0.56392 F1800 ; Fill
G0 X93.7638 Y37.8794 F12000 ; Move
G1 X57.0323 Y74.6109 E0.55836 F1800 ; Fill
G0 X57.3979 Y74.6109 F12000 ; Move
G1 X93.7638 Y38.245 E0.5528 F1800 ; Fill
G0 X93.7638 Y38.6106 F12000 ; Move
G1 X57.7635 Y74.6109 E0.54725 F1800 ; Fill
G0 X58.1292 Y74.6109 F12000 ; Move
G1 X93.7638 Y38.9762 E0.54169 F1800 ; Fill
G0 X93.7638 Y39.3419 F12000 ; Move
G1 X58.4948 Y74.6109 E0.53613 F1800 ; Fill
G0 X58.8604 Y74.6109 F12000 ; Move
G1 X93.7638 Y39.7075 E0.53057 F1800 ; Fill
G0 X93.7638 Y40.0731 F12000 ; Move
G1 X59.2261 Y74.6109 E0.52501 F1800 ; Fill
G0 X59.5917 Y74.6109 F12000 ; Move
G1 X93.7638 Y40.4388 E0.51946 F1800 ; Fill
G0 X93.7638 Y40.8044 F12000 ; Move
G1 X59.9573 Y74.6109 E0.5139 F1800 ; Fill
G0 X60.323 Y74.6109 F12000 ; Move
G1 X93.7638 Y41.17 E0.50834 F1800 ; Fill
G0 X93.7638 Y41.5357 F12000 ; Move
G1 X60.6886 Y74.6109 E0.50278 F1800 ; Fill
G0 X61.0542 Y74.6109 F12000 ; Move
G1 X93.7638 Y41.9013 E0.49722 F1800 ; Fill
G0 X93.7638 Y42.2669 F12000 ; Move
G1 X61.4198 Y74.6109 E0.49167 F1800 ; Fill
G0 X61.7855 Y74.6109 F12000 ; Move
G1 X93.7638 Y42.6326 E0.48611 F1800 ; Fill
G0 X93.7638 Y42.9982 F12000 ; Move
G1 X62.1511 Y74.6109 E0.48055 F1800 ; Fill
G0 X62.5167 Y74.6109 F12000 ; Move
G1 X93.7638 Y43.3638 E0.47499 F1800 ; Fill
G0 X93.7638 Y43.7294 F12000 ; Move
G1 X62.8824 Y74.6109 E0.46943 F1800 ; Fill
G0 X63.248 Y74.6109 F12000 ; Move
G1 X93.7638 Y44.0951 E0.46388 F1800 ; Fill
G0 X93.7638 Y44.4607 F12000 ; Move
G1 X63.6136 Y74.6109 E0.45832 F1800 ; Fill
G0 X63.9793 Y74.6109 F12000 ; Move
G1 X93.7638 Y44.8263 E0.45276 F1800 ; Fill
G0 X93.7638 Y45.192 F12000 ; Move
G1 X64.3449 Y74.6109 E0.4472 F1800 ; Fill
G0 X64.7105 Y74.6109 F12000 ; Move
G1 X93.7638 Y45.5576 E0.44164 F1800 ; Fill
G0 X93.7638 Y45.9232 F12000 ; Move
G1 X65.0761 Y74.6109 E0.43609 F1800 ; Fill
G0 X65.4418 Y74.6109 F12000 ; Move
G1 X93.7638 Y46.2889 E0.43053 F1800 ; Fill
G0 X93.7638 Y46.6545 F12000 ; Move
G1 X65.8074 Y74.6109 E0.42497 F1800 ; Fill
G0 X66.173 Y74.6109 F12000 ; Move
G1 X93.7638 Y47.0201 E0.41941 F1800 ; Fill
G0 X93.7638 Y47.3858 F12000 ; Move
G1 X66.5387 Y74.6109 E0.41385 F1800 ; Fill
G0 X66.9043 Y74.6109 F12000 ; Move
G1 X93.7638 Y47.7514 E0.4083 F1800 ; Fill
G0 X93.7638 Y48.117 F12000 ; Move
G1 X67.2699 Y74.6109 E0.40274 F1800 ; Fill
G0 X67.6356 Y74.6109 F12000 ; Move
G1 X93.7638 Y48.4826 E0.39718 F1800 ; Fill
G0 X93.7638 Y48.8483 F12000 ; Move
G1 X68.0012 Y74.6109 E0.39162 F1800 ; Fill
G0 X68.3668 Y74.6109 F12000 ; Move
G1 X93.7638 Y49.2139 E0.38606 F1800 ; Fill
G0 X93.7638 Y49.5795 F12000 ; Move
G1 X68.7325 Y74.6109 E0.38051 F1800 ; Fill
G0 X69.0981 Y74.6109 F12000 ; Move
G1 X93.7638 Y49.9452 E0.37495 F1800 ; Fill
G0 X93.7638 Y50.3108 F12000 ; Move
G1 X69.4637 Y74.6109 E0.36939 F1800 ; Fill
G0 X69.8293 Y74.6109 F12000 ; Move
G1 X93.7638 Y50.6764 E0.36383 F1800 ; Fill
G0 X93.7638 Y51.0421 F12000 ; Move
G1 X70.195 Y74.6109 E0.35827 F1800 ; Fill
G0 X70.5606 Y74.6109 F12000 ; Move
G1 X93.7638 Y51.4077 E0.35272 F1800 ; Fill
G0 X93.7638 Y51.7733 F12000 ; Move
G1 X70.9262 Y74.6109 E0.34716 F1800 ; Fill
G0 X71.2919 Y74.6109 F12000 ; Move
G1 X93.7638 Y52.1389 E0.3416 F1800 ; Fill
G0 X93.7638 Y52.5046 F12000 ; Move
G1 X71.6575 Y74.6109 E0.33604 F1800 ; Fill
G0 X72.0231 Y74.6109 F12000 ; Move
G1 X93.7638 Y52.8702 E0.33048 F1800 ; Fill
G0 X93.7638 Y53.2358 F12000 ; Move
G1 X72.3888 Y74.6109 E0.32493 F1800 ; Fill
G0 X72.7544 Y74.6109 F12000 ; Move
G1 X93.7638 Y53.6015 E0.31937 F1800 ; Fill
G0 X93.7638 Y53.9671 F12000 ; Move
G1 X73.12 Y74.6109 E0.31381 F1800 ; Fill
G0 X73.4856 Y74.6109 F12000 ; Move
G1 X93.7638 Y54.3327 E0.30825 F1800 ; Fill
G0 X93.7638 Y54.6984 F12000 ; Move
G1 X73.8513 Y74.6109 E0.30269 F1800 ; Fill
G0 X74.2169 Y74.6109 F12000 ; Move
G1 X93.7638 Y55.064 E0.29714 F1800 ; Fill
G0 X93.7638 Y55.4296 F12000 ; Move
G1 X74.5825 Y74.6109 E0.29158 F1800 ; Fill
G0 X74.9482 Y74.6109 F12000 ; Move
G1 X93.7638 Y55.7953 E0.28602 F1800 ; Fill
G0 X93.7638 Y56.1609 F12000 ; Move
G1 X75.3138 Y74.6109 E0.28046 F1800 ; Fill
G0 X75.6794 Y74.6109 F12000 ; Move
G1 X93.7638 Y56.5265 E0.2749 F1800 ; Fill
G0 X93.7638 Y56.8921 F12000 ; Move
G1 X76.0451 Y74.6109 E0.26935 F1800 ; Fill
G0 X76.4107 Y74.6109 F12000 ; Move
G1 X93.7638 Y57.2578 E0.26379 F1800 ; Fill
G0 X93.7638 Y57.6234 F12000 ; Move
G1 X76.7763 Y74.6109 E0.25823 F1800 ; Fill
G0 X77.142 Y74.6109 F12000 ; Move
G1 X93.7638 Y57.989 E0.25267 F1800 ; Fill
G0 X93.7638 Y58.3547 F12000 ; Move
G1 X77.5076 Y74.6109 E0.24711 F1800 ; Fill
G0 X77.8732 Y74.6109 F12000 ; Move
G1 X93.7638 Y58.7203 E0.24156 F1800 ; Fill
G0 X93.7638 Y59.0859 F12000 ; Move
G1 X78.2388 Y74.6109 E0.236 F1800 ; Fill
G0 X78.6045 Y74.6109 F12000 ; Move
G1 X93.7638 Y59.4516 E0.23044 F1800 ; Fill
G0 X93.7638 Y59.8172 F12000 ; Move
G1 X78.9701 Y74.6109 E0.22488 F1800 ; Fill
G0 X79.3357 Y74.6109 F12000 ; Move
G1 X93.7638 Y60.1828 E0.21932 F1800 ; Fill
G0 X93.7638 Y60.5484 F12000 ; Move
G1 X79.7014 Y74.6109 E0.21377 F1800 ; Fill
G0 X80.067 Y74.6109 F12000 ; Move
G1 X93.7638 Y60.9141 E0.20821 F1800 ; Fill
G0 X93.7638 Y61.2797 F12000 ; Move
G1 X80.4326 Y74.6109 E0.20265 F1800 ; Fill
G0 X80.7983 Y74.6109 F12000 ; Move
G1 X93.7638 Y61.6453 E0.19709 F1800 ; Fill
G0 X93.7638 Y62.011 F12000 ; Move
G1 X81.1639 Y74.6109 E0.19153 F1800 ; Fill
G0 X81.5295 Y74.6109 F12000 ; Move
G1 X93.7638 Y62.3766 E0.18598 F1800 ; Fill
G0 X93.7638 Y62.7422 F12000 ; Move
G1 X81.8952 Y74.6109 E0.18042 F1800 ; Fill
G0 X82.2608 Y74.6109 F12000 ; Move
G1 X93.7638 Y63.1079 E0.17486 F1800 ; Fill
G0 X93.7638 Y63.4735 F12000 ; Move
G1 X82.6264 Y74.6109 E0.1693 F1800 ; Fill
G0 X82.992 Y74.6109 F12000 ; Move
G1 X93.7638 Y63.8391 E0.16374 F1800 ; Fill
G0 X93.7638 Y64.2048 F12000 ; Move
G1 X83.3577 Y74.6109 E0.15819 F1800 ; Fill
G0 X83.7233 Y74.6109 F12000 ; Move
G1 X93.7638 Y64.5704 E0.15263 F1800 ; Fill
G0 X93.7638 Y64.936 F12000 ; Move
G1 X84.0889 Y74.6109 E0.14707 F1800 ; Fill
G0 X84.4546 Y74.6109 F12000 ; Move
G1 X93.7638 Y65.3016 E0.14151 F1800 ; Fill
G0 X93.7638 Y65.6673 F12000 ; Move
G1 X84.8202 Y74.6109 E0.13595 F1800 ; Fill
G0 X85.1858 Y74.6109 F12000 ; Move
G1 X93.7638 Y66.0329 E0.1304 F1800 ; Fill
G0 X93.7638 Y66.3985 F12000 ; Move
G1 X85.5515 Y74.6109 E0.12484 F1800 ; Fill
G0 X85.9171 Y74.6109 F12000 ; Move
G1 X93.7638 Y66.7642 E0.11928 F1800 ; Fill
G0 X93.7638 Y67.1298 F12000 ; Move
G1 X86.2827 Y74.6109 E0.11372 F1800 ; Fill
G0 X86.6483 Y74.6109 F12000 ; Move
G1 X93.7638 Y67.4954 E0.10816 F1800 ; Fill
G0 X93.7638 Y67.8611 F12000 ; Move
G1 X87.014 Y74.6109 E0.10261 F1800 ; Fill
G0 X87.3796 Y74.6109 F12000 ; Move
G1 X93.7638 Y68.2267 E0.09705 F1800 ; Fill
G0 X93.7638 Y68.5923 F12000 ; Move
G1 X87.7452 Y74.6109 E0.09149 F1800 ; Fill
G0 X88.1109 Y74.6109 F12000 ; Move
G1 X93.7638 Y68.958 E0.08593 F1800 ; Fill
G0 X93.7638 Y69.3236 F12000 ; Move
G1 X88.4765 Y74.6109 E0.08037 F1800 ; Fill
G0 X88.8421 Y74.6109 F12000 ; Move
G1 X93.7638 Y69.6892 E0.07482 F1800 ; Fill
G0 X93.7638 Y70.0548 F12000 ; Move
G1 X89.2078 Y74.6109 E0.06926 F1800 ; Fill
G0 X89.5734 Y74.6109 F12000 ; Move
G1 X93.7638 Y70.4205 E0.0637 F1800 ; Fill
G0 X93.7638 Y70.7861 F12000 ; Move
G1 X89.939 Y74.6109 E0.05814 F1800 ; Fill
G0 X90.3047 Y74.6109 F12000 ; Move
G1 X93.7638 Y71.1517 E0.05258 F1800 ; Fill
G0 X93.7638 Y71.5174 F12000 ; Move
G1 X90.6703 Y74.6109 E0.04703 F1800 ; Fill
G0 X91.0359 Y74.6109 F12000 ; Move
G1 X93.7638 Y71.883 E0.04147 F1800 ; Fill
G0 X93.7638 Y72.2486 F12000 ; Move
G1 X91.4015 Y74.6109 E0.03591 F1800 ; Fill
G0 X91.7672 Y74.6109 F12000 ; Move
G1 X93.7638 Y72.6143 E0.03035 F1800 ; Fill
G0 X93.7638 Y72.9799 F12000 ; Move
G1 X92.1328 Y74.6109 E0.02479 F1800 ; Fill
G0 X92.4984 Y74.6109 F12000 ; Move
G1 X93.7638 Y73.3455 E0.01924 F1800 ; Fill
G0 X93.7638 Y73.7111 F12000 ; Move
G1 X92.8641 Y74.6109 E0.01368 F1800 ; Fill
G0 X93.2297 Y74.6109 F12000 ; Move
G1 X93.7638 Y74.0768 E0.00812 F1800 ; Fill
G0 X93.7638 Y74.4424 F12000 ; Move
G1 X93.5953 Y74.6109 E0.00256 F1800 ; Fill
G1 E-0.5 F2100 ; Retract
G1 Z0.2 F12000 ; Z hop
G0 X25.2739 Y75.8317 F12000 ; Move to box start
G1 Z0.1 F12000 ; Z hop return
G1 E0.5 F2100 ; Un-retract
G1 X25.2739 Y87.0903 E0.12102 F1800 ; Draw perimeter (up)
G1 X76.6511 Y87.0903 E0.55225 F1800 ; Draw perimeter (right)
G1 X76.6511 Y75.8317 E0.12102 F1800 ; Draw perimeter (down)
G1 X25.2739 Y75.8317 E0.55225 F1800 ; Draw perimeter (left)
G0 X25.5324 Y76.0903 F12000 ; Step inwards to print next perimeter
G1 X25.5324 Y86.8317 E0.11546 F1800 ; Draw perimeter (up)
G1 X76.3926 Y86.8317 E0.54669 F1800 ; Draw perimeter (right)
G1 X76.3926 Y76.0903 E0.11546 F1800 ; Draw perimeter (down)
G1 X25.5324 Y76.0903 E0.54669 F1800 ; Draw perimeter (left)
G0 X25.791 Y76.3488 F12000 ; Step inwards to print next perimeter
G1 X25.791 Y86.5732 E0.1099 F1800 ; Draw perimeter (up)
G1 X76.134 Y86.5732 E0.54113 F1800 ; Draw perimeter (right)
G1 X76.134 Y76.3488 E0.1099 F1800 ; Draw perimeter (down)
G1 X25.791 Y76.3488 E0.54113 F1800 ; Draw perimeter (left)
G0 X26.0495 Y76.6074 F12000 ; Step inwards to print next perimeter
G1 X26.0495 Y86.3147 E0.10434 F1800 ; Draw perimeter (up)
G1 X75.8755 Y86.3147 E0.53557 F1800 ; Draw perimeter (right)
G1 X75.8755 Y76.6074 E0.10434 F1800 ; Draw perimeter (down)
G1 X26.0495 Y76.6074 E0.53557 F1800 ; Draw perimeter (left)
G0 X26.2362 Y76.794 F12000 ; Move to fill start
G0 X26.6018 Y76.794 F12000 ; Move
G1 X26.2362 Y77.1597 E0.00556 F1800 ; Fill
G0 X26.2362 Y77.5253 F12000 ; Move
G1 X26.9674 Y76.794 E0.01112 F1800 ; Fill
G0 X27.3331 Y76.794 F12000 ; Move
G1 X26.2362 Y77.8909 E0.01667 F1800 ; Fill
G0 X26.2362 Y78.2566 F12000 ; Move
G1 X27.6987 Y76.794 E0.02223 F1800 ; Fill
G0 X28.0643 Y76.794 F12000 ; Move
G1 X26.2362 Y78.6222 E0.02779 F1800 ; Fill
G0 X26.2362 Y78.9878 F12000 ; Move
G1 X28.4299 Y76.794 E0.03335 F1800 ; Fill
G0 X28.7956 Y76.794 F12000 ; Move
G1 X26.2362 Y79.3534 E0.03891 F1800 ; Fill
G0 X26.2362 Y79.7191 F12000 ; Move
G1 X29.1612 Y76.794 E0.04446 F1800 ; Fill
G0 X29.5268 Y76.794 F12000 ; Move
G1 X26.2362 Y80.0847 E0.05002 F1800 ; Fill
G0 X26.2362 Y80.4503 F12000 ; Move
G1 X29.8925 Y76.794 E0.05558 F1800 ; Fill
G0 X30.2581 Y76.794 F12000 ; Move
G1 X26.2362 Y80.816 E0.06114 F1800 ; Fill
G0 X26.2362 Y81.1816 F12000 ; Move
G1 X30.6237 Y76.794 E0.0667 F1800 ; Fill
G0 X30.9894 Y76.794 F12000 ; Move
G1 X26.2362 Y81.5472 E0.07225 F1800 ; Fill
G0 X26.2362 Y81.9129 F12000 ; Move
G1 X31.355 Y76.794 E0.07781 F1800 ; Fill
G0 X31.7206 Y76.794 F12000 ; Move
G1 X26.2362 Y82.2785 E0.08337 F1800 ; Fill
G0 X26.2362 Y82.6441 F12000 ; Move
G1 X32.0862 Y76.794 E0.08893 F1800 ; Fill
G0 X32.4519 Y76.794 F12000 ; Move
G1 X26.2362 Y83.0098 E0.09449 F1800 ; Fill
G0 X26.2362 Y83.3754 F12000 ; Move
G1 X32.8175 Y76.794 E0.10004 F1800 ; Fill
G0 X33.1831 Y76.794 F12000 ; Move
G1 X26.2362 Y83.741 E0.1056 F1800 ; Fill
G0 X26.2362 Y84.1066 F12000 ; Move
G1 X33.5488 Y76.794 E0.11116 F1800 ; Fill
G0 X33.9144 Y76.794 F12000 ; Move
G1 X26.2362 Y84.4723 E0.11672 F1800 ; Fill
G0 X26.2362 Y84.8379 F12000 ; Move
G1 X34.28 Y76.794 E0.12228 F1800 ; Fill
G0 X34.6457 Y76.794 F12000 ; Move
G1 X26.2362 Y85.2035 E0.12783 F1800 ; Fill
G0 X26.2362 Y85.5692 F12000 ; Move
G1 X35.0113 Y76.794 E0.13339 F1800 ; Fill
G0 X35.3769 Y76.794 F12000 ; Move
G1 X26.2362 Y85.9348 E0.13895 F1800 ; Fill
G0 X26.4086 Y86.128 F12000 ; Move
G1 X35.7426 Y76.794 E0.14189 F1800 ; Fill
G0 X36.1082 Y76.794 F12000 ; Move
G1 X26.7742 Y86.128 E0.14189 F1800 ; Fill
G0 X27.1398 Y86.128 F12000 ; Move
G1 X36.4738 Y76.794 E0.14189 F1800 ; Fill
G0 X36.8394 Y76.794 F12000 ; Move
G1 X27.5055 Y86.128 E0.14189 F1800 ; Fill
G0 X27.8711 Y86.128 F12000 ; Move
G1 X37.2051 Y76.794 E0.14189 F1800 ; Fill
G0 X37.5707 Y76.794 F12000 ; Move
G1 X28.2367 Y86.128 E0.14189 F1800 ; Fill
G0 X28.6024 Y86.128 F12000 ; Move
G1 X37.9363 Y76.794 E0.14189 F1800 ; Fill
G0 X38.302 Y76.794 F12000 ; Move
G1 X28.968 Y86.128 E0.14189 F1800 ; Fill
G0 X29.3336 Y86.128 F12000 ; Move
G1 X38.6676 Y76.794 E0.14189 F1800 ; Fill
G0 X39.0332 Y76.794 F12000 ; Move
G1 X29.6993 Y86.128 E0.14189 F1800 ; Fill
G0 X30.0649 Y86.128 F12000 ; Move
G1 X39.3989 Y76.794 E0.14189 F1800 ; Fill
G0 X39.7645 Y76.794 F12000 ; Move
G1 X30.4305 Y86.128 E0.14189 F1800 ; Fill
G0 X30.7962 Y86.128 F12000 ; Move
G1 X40.1301 Y76.794 E0.14189 F1800 ; Fill
G0 X40.4958 Y76.794 F12000 ; Move
G1 X31.1618 Y86.128 E0.14189 F1800 ; Fill
G0 X31.5274 Y86.128 F12000 ; Move
G1 X40.8614 Y76.794 E0.14189 F1800 ; Fill
G0 X41.227 Y76.794 F12000 ; Move
G1 X31.893 Y86.128 E0.14189 F1800 ; Fill
G0 X32.2587 Y86.128 F12000 ; Move
G1 X41.5926 Y76.794 E0.14189 F1800 ; Fill
G0 X41.9583 Y76.794 F12000 ; Move
G1 X32.6243 Y86.128 E0.14189 F1800 ; Fill
G0 X32.9899 Y86.128 F12000 ; Move
G1 X42.3239 Y76.794 E0.14189 F1800 ; Fill
G0 X42.6895 Y76.794 F12000 ; Move
G1 X33.3556 Y86.128 E0.14189 F1800 ; Fill
G0 X33.7212 Y86.128 F12000 ; Move
G1 X43.0552 Y76.794 E0.14189 F1800 ; Fill
G0 X43.4208 Y76.794 F12000 ; Move
G1 X34.0868 Y86.128 E0.14189 F1800 ; Fill
G0 X34.4525 Y86.128 F12000 ; Move
G1 X43.7864 Y76.794 E0.14189 F1800 ; Fill
G0 X44.1521 Y76.794 F12000 ; Move
G1 X34.8181 Y86.128 E0.14189 F1800 ; Fill
G0 X35.1837 Y86.128 F12000 ; Move
G1 X44.5177 Y76.794 E0.14189 F1800 ; Fill
G0 X44.8833 Y76.794 F12000 ; Move
G1 X35.5493 Y86.128 E0.14189 F1800 ; Fill
G0 X35.915 Y86.128 F12000 ; Move
G1 X45.2489 Y76.794 E0.14189 F1800 ; Fill
G0 X45.6146 Y76.794 F12000 ; Move
G1 X36.2806 Y86.128 E0.14189 F1800 ; Fill
G0 X36.6462 Y86.128 F12000 ; Move
G1 X45.9802 Y76.794 E0.14189 F1800 ; Fill
G0 X46.3458 Y76.794 F12000 ; Move
G1 X37.0119 Y86.128 E0.14189 F1800 ; Fill
G0 X37.3775 Y86.128 F12000 ; Move
G1 X46.7115 Y76.794 E0.14189 F1800 ; Fill
G0 X47.0771 Y76.794 F12000 ; Move
G1 X37.7431 Y86.128 E0.14189 F1800 ; Fill
G0 X38.1088 Y86.128 F12000 ; Move
G1 X47.4427 Y76.794 E0.14189 F1800 ; Fill
G0 X47.8084 Y76.794 F12000 ; Move
G1 X38.4744 Y86.128 E0.14189 F1800 ; Fill
G0 X38.84 Y86.128 F12000 ; Move
G1 X48.174 Y76.794 E0.14189 F1800 ; Fill
G0 X48.5396 Y76.794 F12000 ; Move
G1 X39.2057 Y86.128 E0.14189 F1800 ; Fill
G0 X39.5713 Y86.128 F12000 ; Move
G1 X48.9053 Y76.794 E0.14189 F1800 ; Fill
G0 X49.2709 Y76.794 F12000 ; Move
G1 X39.9369 Y86.128 E0.14189 F1800 ; Fill
G0 X40.3025 Y86.128 F12000 ; Move
G1 X49.6365 Y76.794 E0.14189 F1800 ; Fill
G0 X50.0021 Y76.794 F12000 ; Move
G1 X40.6682 Y86.128 E0.14189 F1800 ; Fill
G0 X41.0338 Y86.128 F12000 ; Move
G1 X50.3678 Y76.794 E0.14189 F1800 ; Fill
G0 X50.7334 Y76.794 F12000 ; Move
G1 X41.3994 Y86.128 E0.14189 F1800 ; Fill
G0 X41.7651 Y86.128 F12000 ; Move
G1 X51.099 Y76.794 E0.14189 F1800 ; Fill
G0 X51.4647 Y76.794 F12000 ; Move
G1 X42.1307 Y86.128 E0.14189 F1800 ; Fill
G0 X42.4963 Y86.128 F12000 ; Move
G1 X51.8303 Y76.794 E0.14189 F1800 ; Fill
G0 X52.1959 Y76.794 F12000 ; Move
G1 X42.862 Y86.128 E0.14189 F1800 ; Fill
G0 X43.2276 Y86.128 F12000 ; Move
G1 X52.5616 Y76.794 E0.14189 F1800 ; Fill
G0 X52.9272 Y76.794 F12000 ; Move
G1 X43.5932 Y86.128 E0.14189 F1800 ; Fill
G0 X43.9589 Y86.128 F12000 ; Move
G1 X53.2928 Y76.794 E0.14189 F1800 ; Fill
G0 X53.6584 Y76.794 F12000 ; Move
G1 X44.3245 Y86.128 E0.14189 F1800 ; Fill
G0 X44.6901 Y86.128 F12000 ; Move
G1 X54.0241 Y76.794 E0.14189 F1800 ; Fill
G0 X54.3897 Y76.794 F12000 ; Move
G1 X45.0557 Y86.128 E0.14189 F1800 ; Fill
G0 X45.4214 Y86.128 F12000 ; Move
G1 X54.7553 Y76.794 E0.14189 F1800 ; Fill
G0 X55.121 Y76.794 F12000 ; Move
G1 X45.787 Y86.128 E0.14189 F1800 ; Fill
G0 X46.1526 Y86.128 F12000 ; Move
G1 X55.4866 Y76.794 E0.14189 F1800 ; Fill
G0 X55.8522 Y76.794 F12000 ; Move
G1 X46.5183 Y86.128 E0.14189 F1800 ; Fill
G0 X46.8839 Y86.128 F12000 ; Move
G1 X56.2179 Y76.794 E0.14189 F1800 ; Fill
G0 X56.5835 Y76.794 F12000 ; Move
G1 X47.2495 Y86.128 E0.14189 F1800 ; Fill
G0 X47.6152 Y86.128 F12000 ; Move
G1 X56.9491 Y76.794 E0.14189 F1800 ; Fill
G0 X57.3148 Y76.794 F12000 ; Move
G1 X47.9808 Y86.128 E0.14189 F1800 ; Fill
G0 X48.3464 Y86.128 F12000 ; Move
G1 X57.6804 Y76.794 E0.14189 F1800 ; Fill
G0 X58.046 Y76.794 F12000 ; Move
G1 X48.712 Y86.128 E0.14189 F1800 ; Fill
G0 X49.0777 Y86.128 F12000 ; Move
G1 X58.4116 Y76.794 E0.14189 F1800 ; Fill
G0 X58.7773 Y76.794 F12000 ; Move
G1 X49.4433 Y86.128 E0.14189 F1800 ; Fill
G0 X49.8089 Y86.128 F12000 ; Move
G1 X59.1429 Y76.794 E0.14189 F1800 ; Fill
G0 X59.5085 Y76.794 F12000 ; Move
G1 X50.1746 Y86.128 E0.14189 F1800 ; Fill
G0 X50.5402 Y86.128 F12000 ; Move
G1 X59.8742 Y76.794 E0.14189 F1800 ; Fill
G0 X60.2398 Y76.794 F12000 ; Move
G1 X50.9058 Y86.128 E0.14189 F1800 ; Fill
G0 X51.2715 Y86.128 F12000 ; Move
G1 X60.6054 Y76.794 E0.14189 F1800 ; Fill
G0 X60.9711 Y76.794 F12000 ; Move
G1 X51.6371 Y86.128 E0.14189 F1800 ; Fill
G0 X52.0027 Y86.128 F12000 ; Move
G1 X61.3367 Y76.794 E0.14189 F1800 ; Fill
G0 X61.7023 Y76.794 F12000 ; Move
G1 X52.3684 Y86.128 E0.14189 F1800 ; Fill
G0 X52.734 Y86.128 F12000 ; Move
G1 X62.068 Y76.794 E0.14189 F1800 ; Fill
G0 X62.4336 Y76.794 F12000 ; Move
G1 X53.0996 Y86.128 E0.14189 F1800 ; Fill
G0 X53.4652 Y86.128 F12000 ; Move
G1 X62.7992 Y76.794 E0.14189 F1800 ; Fill
G0 X63.1648 Y76.794 F12000 ; Move
G1 X53.8309 Y86.128 E0.14189 F1800 ; Fill
G0 X54.1965 Y86.128 F12000 ; Move
G1 X63.5305 Y76.794 E0.14189 F1800 ; Fill
G0 X63.8961 Y76.794 F12000 ; Move
G1 X54.5621 Y86.128 E0.14189 F1800 ; Fill
G0 X54.9278 Y86.128 F12000 ; Move
G1 X64.2617 Y76.794 E0.14189 F1800 ; Fill
G0 X64.6274 Y76.794 F12000 ; Move
G1 X55.2934 Y86.128 E0.14189 F1800 ; Fill
G0 X55.659 Y86.128 F12000 ; Move
G1 X64.993 Y76.794 E0.14189 F1800 ; Fill
G0 X65.3586 Y76.794 F12000 ; Move
G1 X56.0247 Y86.128 E0.14189 F1800 ; Fill
G0 X56.3903 Y86.128 F12000 ; Move
G1 X65.7243 Y76.794 E0.14189 F1800 ; Fill
G0 X66.0899 Y76.794 F12000 ; Move
G1 X56.7559 Y86.128 E0.14189 F1800 ; Fill
G0 X57.1215 Y86.128 F12000 ; Move
G1 X66.4555 Y76.794 E0.14189 F1800 ; Fill
G0 X66.8211 Y76.794 F12000 ; Move
G1 X57.4872 Y86.128 E0.14189 F1800 ; Fill
G0 X57.8528 Y86.128 F12000 ; Move
G1 X67.1868 Y76.794 E0.14189 F1800 ; Fill
G0 X67.5524 Y76.794 F12000 ; Move
G1 X58.2184 Y86.128 E0.14189 F1800 ; Fill
G0 X58.5841 Y86.128 F12000 ; Move
G1 X67.918 Y76.794 E0.14189 F1800 ; Fill
G0 X68.2837 Y76.794 F12000 ; Move
G1 X58.9497 Y86.128 E0.14189 F1800 ; Fill
G0 X59.3153 Y86.128 F12000 ; Move
G1 X68.6493 Y76.794 E0.14189 F1800 ; Fill
G0 X69.0149 Y76.794 F12000 ; Move
G1 X59.681 Y86.128 E0.14189 F1800 ; Fill
G0 X60.0466 Y86.128 F12000 ; Move
G1 X69.3806 Y76.794 E0.14189 F1800 ; Fill
G0 X69.7462 Y76.794 F12000 ; Move
G1 X60.4122 Y86.128 E0.14189 F1800 ; Fill
G0 X60.7779 Y86.128 F12000 ; Move
G1 X70.1118 Y76.794 E0.14189 F1800 ; Fill
G0 X70.4775 Y76.794 F12000 ; Move
G1 X61.1435 Y86.128 E0.14189 F1800 ; Fill
G0 X61.5091 Y86.128 F12000 ; Move
G1 X70.8431 Y76.794 E0.14189 F1800 ; Fill
G0 X71.2087 Y76.794 F12000 ; Move
G1 X61.8747 Y86.128 E0.14189 F1800 ; Fill
G0 X62.2404 Y86.128 F12000 ; Move
G1 X71.5743 Y76.794 E0.14189 F1800 ; Fill
G0 X71.94 Y76.794 F12000 ; Move
G1 X62.606 Y86.128 E0.14189 F1800 ; Fill
G0 X62.9716 Y86.128 F12000 ; Move
G1 X72.3056 Y76.794 E0.14189 F1800 ; Fill
G0 X72.6712 Y76.794 F12000 ; Move
G1 X63.3373 Y86.128 E0.14189 F1800 ; Fill
G0 X63.7029 Y86.128 F12000 ; Move
G1 X73.0369 Y76.794 E0.14189 F1800 ; Fill
G0 X73.4025 Y76.794 F12000 ; Move
G1 X64.0685 Y86.128 E0.14189 F1800 ; Fill
G0 X64.4342 Y86.128 F12000 ; Move
G1 X73.7681 Y76.794 E0.14189 F1800 ; Fill
G0 X74.1338 Y76.794 F12000 ; Move
G1 X64.7998 Y86.128 E0.14189 F1800 ; Fill
G0 X65.1654 Y86.128 F12000 ; Move
G1 X74.4994 Y76.794 E0.14189 F1800 ; Fill
G0 X74.865 Y76.794 F12000 ; Move
G1 X65.5311 Y86.128 E0.14189 F1800 ; Fill
G0 X65.8967 Y86.128 F12000 ; Move
G1 X75.2306 Y76.794 E0.14189 F1800 ; Fill
G0 X75.5963 Y76.794 F12000 ; Move
G1 X66.2623 Y86.128 E0.14189 F1800 ; Fill
G0 X66.6279 Y86.128 F12000 ; Move
G1 X75.6888 Y77.0671 E0.13774 F1800 ; Fill
G0 X75.6888 Y77.4327 F12000 ; Move
G1 X66.9936 Y86.128 E0.13218 F1800 ; Fill
G0 X67.3592 Y86.128 F12000 ; Move
G1 X75.6888 Y77.7984 E0.12662 F1800 ; Fill
G0 X75.6888 Y78.164 F12000 ; Move
G1 X67.7248 Y86.128 E0.12106 F1800 ; Fill
G0 X68.0905 Y86.128 F12000 ; Move
G1 X75.6888 Y78.5296 E0.1155 F1800 ; Fill
G0 X75.6888 Y78.8953 F12000 ; Move
G1 X68.4561 Y86.128 E0.10995 F1800 ; Fill
G0 X68.8217 Y86.128 F12000 ; Move
G1 X75.6888 Y79.2609 E0.10439 F1800 ; Fill
G0 X75.6888 Y79.6265 F12000 ; Move
G1 X69.1874 Y86.128 E0.09883 F1800 ; Fill
G0 X69.553 Y86.128 F12000 ; Move
G1 X75.6888 Y79.9922 E0.09327 F1800 ; Fill
G0 X75.6888 Y80.3578 F12000 ; Move
G1 X69.9186 Y86.128 E0.08771 F1800 ; Fill
G0 X70.2842 Y86.128 F12000 ; Move
G1 X75.6888 Y80.7234 E0.08216 F1800 ; Fill
G0 X75.6888 Y81.0891 F12000 ; Move
G1 X70.6499 Y86.128 E0.0766 F1800 ; Fill
G0 X71.0155 Y86.128 F12000 ; Move
G1 X75.6888 Y81.4547 E0.07104 F1800 ; Fill
G0 X75.6888 Y81.8203 F12000 ; Move
G1 X71.3811 Y86.128 E0.06548 F1800 ; Fill
G0 X71.7468 Y86.128 F12000 ; Move
G1 X75.6888 Y82.1859 E0.05992 F1800 ; Fill
G0 X75.6888 Y82.5516 F12000 ; Move
G1 X72.1124 Y86.128 E0.05437 F1800 ; Fill
G0 X72.478 Y86.128 F12000 ; Move
G1 X75.6888 Y82.9172 E0.04881 F1800 ; Fill
G0 X75.6888 Y83.2828 F12000 ; Move
G1 X72.8437 Y86.128 E0.04325 F1800 ; Fill
G0 X73.2093 Y86.128 F12000 ; Move
G1 X75.6888 Y83.6485 E0.03769 F1800 ; Fill
G0 X75.6888 Y84.0141 F12000 ; Move
G1 X73.5749 Y86.128 E0.03213 F1800 ; Fill
G0 X73.9406 Y86.128 F12000 ; Move
G1 X75.6888 Y84.3797 E0.02658 F1800 ; Fill
G0 X75.6888 Y84.7454 F12000 ; Move
G1 X74.3062 Y86.128 E0.02102 F1800 ; Fill
G0 X74.6718 Y86.128 F12000 ; Move
G1 X75.6888 Y85.111 E0.01546 F1800 ; Fill
G0 X75.6888 Y85.4766 F12000 ; Move
G1 X75.0374 Y86.128 E0.0099 F1800 ; Fill
G0 X75.4031 Y86.128 F12000 ; Move
G1 X75.6888 Y85.8423 E0.00434 F1800 ; Fill
M106 S255 ; Set fan speed
G0 Z0.2 F12000 ; Move to layer height
G1 E-0.5 F2100 ; Retract
G1 Z0.3 F12000 ; Z hop
G0 X26.4139 Y76.7982 F12000 ; Move
G1 Z0.2 F12000 ; Z hop return
G1 E0.5 F2100 ; Un-retract
G1 X28.4139 Y76.7982 E0.01692 F1800 ; Glyph: 0
G1 X30.4139 Y76.7982 E0.01692 F1800 ; Glyph: 0
G1 X30.4139 Y78.7982 E0.01692 F1800 ; Glyph: 0
G1 X28.4139 Y78.7982 E0.01692 F1800 ; Glyph: 0
G1 X26.4139 Y78.7982 E0.01692 F1800 ; Glyph: 0
G1 X26.4139 Y76.7982 E0.01692 F1800 ; Glyph: 0
G1 E-0.5 F2100 ; Retract
G1 Z0.3 F12000 ; Z hop
G0 X32.0153 Y76.7982 F12000 ; Move
G1 Z0.2 F12000 ; Z hop return
G1 E0.5 F2100 ; Un-retract
G1 X34.0153 Y76.7982 E0.01692 F1800 ; Glyph: 0
G1 X36.0153 Y76.7982 E0.01692 F1800 ; Glyph: 0
G1 X36.0153 Y78.7982 E0.01692 F1800 ; Glyph: 0
G1 X34.0153 Y78.7982 E0.01692 F1800 ; Glyph: 0
G1 X32.0153 Y78.7982 E0.01692 F1800 ; Glyph: 0
G1 X32.0153 Y76.7982 E0.01692 F1800 ; Glyph: 0
G1 E-0.5 F2100 ; Retract
G1 Z0.3 F12000 ; Z hop
G0 X36.0153 Y79.7982 F12000 ; Move
G1 Z0.2 F12000 ; Z hop return
G1 E0.5 F2100 ; Un-retract
G1 X35.2653 Y79.7982 E0.00635 F1800 ; Glyph: .
G1 E-0.5 F2100 ; Retract
G1 Z0.3 F12000 ; Z hop
G0 X32.0153 Y80.7982 F12000 ; Move
G1 Z0.2 F12000 ; Z hop return
G1 E0.5 F2100 ; Un-retract
G1 X34.0153 Y80.7982 E0.01692 F1800 ; Glyph: 0
G1 X36.0153 Y80.7982 E0.01692 F1800 ; Glyph: 0
G1 X36.0153 Y82.7982 E0.01692 F1800 ; Glyph: 0
G1 X34.0153 Y82.7982 E0.01692 F1800 ; Glyph: 0
G1 X32.0153 Y82.7982 E0.01692 F1800 ; Glyph: 0
G1 X32.0153 Y80.7982 E0.01692 F1800 ; Glyph: 0
G1 E-0.5 F2100 ; Retract
G1 Z0.3 F12000 ; Z hop
G0 X32.0153 Y83.7982 F12000 ; Move
G1 Z0.2 F12000 ; Z hop return
G1 E0.5 F2100 ; Un-retract
G1 X34.0153 Y83.7982 E0.01692 F1800 ; Glyph: 1
G1 X36.0153 Y83.7982 E0.01692 F1800 ; Glyph: 1
G1 E-0.5 F2100 ; Retract
G1 Z0.3 F12000 ; Z hop
G0 X37.6167 Y76.7982 F12000 ; Move
G1 Z0.2 F12000 ; Z hop return
G1 E0.5 F2100 ; Un-retract
G1 X39.6167 Y76.7982 E0.01692 F1800 ; Glyph: 0
G1 X41.6167 Y76.7982 E0.01692 F1800 ; Glyph: 0
G1 X41.6167 Y78.7982 E0.01692 F1800 ; Glyph: 0
G1 X39.6167 Y78.7982 E0.01692 F1800 ; Glyph: 0
G1 X37.6167 Y78.7982 E0.01692 F1800 ; Glyph: 0
G1 X37.6167 Y76.7982 E0.01692 F1800 ; Glyph: 0
G1 E-0.5 F2100 ; Retract
G1 Z0.3 F12000 ; Z hop
G0 X41.6167 Y79.7982 F12000 ; Move
G1 Z0.2 F12000 ; Z hop return
G1 E0.5 F2100 ; Un-retract
G1 X40.8667 Y79.7982 E0.00635 F1800 ; Glyph: .
G1 E-0.5 F2100 ; Retract
G1 Z0.3 F12000 ; Z hop
G0 X37.6167 Y80.7982 F12000 ; Move
G1 Z0.2 F12000 ; Z hop return
G1 E0.5 F2100 ; Un-retract
G1 X39.6167 Y80.7982 E0.01692 F1800 ; Glyph: 0
G1 X41.6167 Y80.7982 E0.01692 F1800 ; Glyph: 0
G1 X41.6167 Y82.7982 E0.01692 F1800 ; Glyph: 0
G1 X39.6167 Y82.7982 E0.01692 F1800 ; Glyph: 0
G1 X37.6167 Y82.7982 E0.01692 F1800 ; Glyph: 0
G1 X37.6167 Y80.7982 E0.01692 F1800 ; Glyph: 0
G1 E-0.5 F2100 ; Retract
G1 Z0.3 F12000 ; Z hop
G0 X37.6167 Y83.7982 F12000 ; Move
G1 Z0.2 F12000 ; Z hop return
G1 E0.5 F2100 ; Un-retract
G1 X37.6167 Y85.7982 E0.01692 F1800 ; Glyph: 2
G1 X39.6167 Y85.7982 E0.01692 F1800 ; Glyph: 2
G1 X39.6167 Y83.7982 E0.01692 F1800 ; Glyph: 2
G1 X41.6167 Y83.7982 E0.01692 F1800 ; Glyph: 2
G1 X41.6167 Y85.7982 E0.01692 F1800 ; Glyph: 2
G1 E-0.5 F2100 ; Retract
G1 Z0.3 F12000 ; Z hop
G0 X43.2181 Y76.7982 F12000 ; Move
G1 Z0.2 F12000 ; Z hop return
G1 E0.5 F2100 ; Un-retract
G1 X45.2181 Y76.7982 E0.01692 F1800 ; Glyph: 0
G1 X47.2181 Y76.7982 E0.01692 F1800 ; Glyph: 0
G1 X47.2181 Y78.7982 E0.01692 F1800 ; Glyph: 0
G1 X45.2181 Y78.7982 E0.01692 F1800 ; Glyph: 0
G1 X43.2181 Y78.7982 E0.01692 F1800 ; Glyph: 0
G1 X43.2181 Y76.7982 E0.01692 F1800 ; Glyph: 0
G1 E-0.5 F2100 ; Retract
G1 Z0.3 F12000 ; Z hop
G0 X47.2181 Y79.7982 F12000 ; Move
G1 Z0.2 F12000 ; Z hop return
G1 E0.5 F2100 ; Un-retract
G1 X46.4681 Y79.7982 E0.00635 F1800 ; Glyph: .
G1 E-0.5 F2100 ; Retract
G1 Z0.3 F12000 ; Z hop
G0 X43.2181 Y80.7982 F12000 ; Move
G1 Z0.2 F12000 ; Z hop return
G1 E0.5 F2100 ; Un-retract
G1 X45.2181 Y80.7982 E0.01692 F1800 ; Glyph: 0
G1 X47.2181 Y80.7982 E0.01692 F1800 ; Glyph: 0
G1 X47.2181 Y82.7982 E0.01692 F1800 ; Glyph: 0
G1 X45.2181 Y82.7982 E0.01692 F1800 ; Glyph: 0
G1 X43.2181 Y82.7982 E0.01692 F1800 ; Glyph: 0
G1 X43.2181 Y80.7982 E0.01692 F1800 ; Glyph: 0
G1 E-0.5 F2100 ; Retract
G1 Z0.3 F12000 ; Z hop
G0 X43.2181 Y83.7982 F12000 ; Move
G1 Z0.2 F12000 ; Z hop return
G1 E0.5 F2100 ; Un-retract
G1 X43.2181 Y85.7982 E0.01692 F1800 ; Glyph: 3
G1 X45.2181 Y85.7982 E0.01692 F1800 ; Glyph: 3
G1 X45.2181 Y83.7982 E0.01692 F1800 ; Glyph: 3
G0 X45.2181 Y85.7982 F12000 ; Move
G1 X47.2181 Y85.7982 E0.01692 F1800 ; Glyph: 3
G1 X47.2181 Y83.7982 E0.01692 F1800 ; Glyph: 3
G1 E-0.5 F2100 ; Retract
G1 Z0.3 F12000 ; Z hop
G0 X48.8195 Y76.7982 F12000 ; Move
G1 Z0.2 F12000 ; Z hop return
G1 E0.5 F2100 ; Un-retract
G1 X50.8195 Y76.7982 E0.01692 F1800 ; Glyph: 0
G1 X52.8195 Y76.7982 E0.01692 F1800 ; Glyph: 0
G1 X52.8195 Y78.7982 E0.01692 F1800 ; Glyph: 0
G1 X50.8195 Y78.7982 E0.01692 F1800 ; Glyph: 0
G1 X48.8195 Y78.7982 E0.01692 F1800 ; Glyph: 0
G1 X48.8195 Y76.7982 E0.01692 F1800 ; Glyph: 0
G1 E-0.5 F2100 ; Retract
G1 Z0.3 F12000 ; Z hop
G0 X52.8195 Y79.7982 F12000 ; Move
G1 Z0.2 F12000 ; Z hop return
G1 E0.5 F2100 ; Un-retract
G1 X52.0695 Y79.7982 E0.00635 F1800 ; Glyph: .
G1 E-0.5 F2100 ; Retract
G1 Z0.3 F12000 ; Z hop
G0 X48.8195 Y80.7982 F12000 ; Move
G1 Z0.2 F12000 ; Z hop return
G1 E0.5 F2100 ; Un-retract
G1 X50.8195 Y80.7982 E0.01692 F1800 ; Glyph: 0
G1 X52.8195 Y80.7982 E0.01692 F1800 ; Glyph: 0
G1 X52.8195 Y82.7982 E0.01692 F1800 ; Glyph: 0
G1 X50.8195 Y82.7982 E0.01692 F1800 ; Glyph: 0
G1 X48.8195 Y82.7982 E0.01692 F1800 ; Glyph: 0
G1 X48.8195 Y80.7982 E0.01692 F1800 ; Glyph: 0
G1 E-0.5 F2100 ; Retract
G1 Z0.3 F12000 ; Z hop
G0 X48.8195 Y85.7982 F12000 ; Move
G1 Z0.2 F12000 ; Z hop return
G1 E0.5 F2100 ; Un-retract
G1 X50.8195 Y85.7982 E0.01692 F1800 ; Glyph: 4
G1 X52.8195 Y85.7982 E0.01692 F1800 ; Glyph: 4
G0 X50.8195 Y85.7982 F12000 ; Move
G1 X50.8195 Y83.7982 E0.01692 F1800 ; Glyph: 4
G1 X48.8195 Y83.7982 E0.01692 F1800 ; Glyph: 4
G1 E-0.5 F2100 ; Retract
G1 Z0.3 F12000 ; Z hop
G0 X54.4208 Y76.7982 F12000 ; Move
G1 Z0.2 F12000 ; Z hop return
G1 E0.5 F2100 ; Un-retract
G1 X56.4208 Y76.7982 E0.01692 F1800 ; Glyph: 0
G1 X58.4208 Y76.7982 E0.01692 F1800 ; Glyph: 0
G1 X58.4208 Y78.7982 E0.01692 F1800 ; Glyph: 0
G1 X56.4208 Y78.7982 E0.01692 F1800 ; Glyph: 0
G1 X54.4208 Y78.7982 E0.01692 F1800 ; Glyph: 0
G1 X54.4208 Y76.7982 E0.01692 F1800 ; Glyph: 0
G1 E-0.5 F2100 ; Retract
G1 Z0.3 F12000 ; Z hop
G0 X58.4208 Y79.7982 F12000 ; Move
G1 Z0.2 F12000 ; Z hop return
G1 E0.5 F2100 ; Un-retract
G1 X57.6708 Y79.7982 E0.00635 F1800 ; Glyph: .
G1 E-0.5 F2100 ; Retract
G1 Z0.3 F12000 ; Z hop
G0 X54.4208 Y80.7982 F12000 ; Move
G1 Z0.2 F12000 ; Z hop return
G1 E0.5 F2100 ; Un-retract
G1 X56.4208 Y80.7982 E0.01692 F1800 ; Glyph: 0
G1 X58.4208 Y80.7982 E0.01692 F1800 ; Glyph: 0
G1 X58.4208 Y82.7982 E0.01692 F1800 ; Glyph: 0
G1 X56.4208 Y82.7982 E0.01692 F1800 ; Glyph: 0
G1 X54.4208 Y82.7982 E0.01692 F1800 ; Glyph: 0
G1 X54.4208 Y80.7982 E0.01692 F1800 ; Glyph: 0
G1 E-0.5 F2100 ; Retract
G1 Z0.3 F12000 ; Z hop
G0 X54.4208 Y85.7982 F12000 ; Move
G1 Z0.2 F12000 ; Z hop return
G1 E0.5 F2100 ; Un-retract
G1 X54.4208 Y83.7982 E0.01692 F1800 ; Glyph: 5
G1 X56.4208 Y83.7982 E0.01692 F1800 ; Glyph: 5
G1 X56.4208 Y85.7982 E0.01692 F1800 ; Glyph: 5
G1 X58.4208 Y85.7982 E0.01692 F1800 ; Glyph: 5
G1 X58.4208 Y83.7982 E0.01692 F1800 ; Glyph: 5
G1 E-0.5 F2100 ; Retract
G1 Z0.3 F12000 ; Z hop
G0 X60.0222 Y76.7982 F12000 ; Move
G1 Z0.2 F12000 ; Z hop return
G1 E0.5 F2100 ; Un-retract
G1 X62.0222 Y76.7982 E0.01692 F1800 ; Glyph: 0
G1 X64.0222 Y76.7982 E0.01692 F1800 ; Glyph: 0
G1 X64.0222 Y78.7982 E0.01692 F1800 ; Glyph: 0
G1 X62.0222 Y78.7982 E0.01692 F1800 ; Glyph: 0
G1 X60.0222 Y78.7982 E0.01692 F1800 ; Glyph: 0
G1 X60.0222 Y76.7982 E0.01692 F1800 ; Glyph: 0
G1 E-0.5 F2100 ; Retract
G1 Z0.3 F12000 ; Z hop
G0 X64.0222 Y79.7982 F12000 ; Move
G1 Z0.2 F12000 ; Z hop return
G1 E0.5 F2100 ; Un-retract
G1 X63.2722 Y79.7982 E0.00635 F1800 ; Glyph: .
G1 E-0.5 F2100 ; Retract
G1 Z0.3 F12000 ; Z hop
G0 X60.0222 Y80.7982 F12000 ; Move
G1 Z0.2 F12000 ; Z hop return
G1 E0.5 F2100 ; Un-retract
G1 X62.0222 Y80.7982 E0.01692 F1800 ; Glyph: 0
G1 X64.0222 Y80.7982 E0.01692 F1800 ; Glyph: 0
G1 X64.0222 Y82.7982 E0.01692 F1800 ; Glyph: 0
G1 X62.0222 Y82.7982 E0.01692 F1800 ; Glyph: 0
G1 X60.0222 Y82.7982 E0.01692 F1800 ; Glyph: 0
G1 X60.0222 Y80.7982 E0.01692 F1800 ; Glyph: 0
G1 E-0.5 F2100 ; Retract
G1 Z0.3 F12000 ; Z hop
G0 X60.0222 Y85.7982 F12000 ; Move
G1 Z0.2 F12000 ; Z hop return
G1 E0.5 F2100 ; Un-retract
G1 X60.0222 Y83.7982 E0.01692 F1800 ; Glyph: 6
G1 X62.0222 Y83.7982 E0.01692 F1800 ; Glyph: 6
G1 X64.0222 Y83.7982 E0.01692 F1800 ; Glyph: 6
G1 X64.0222 Y85.7982 E0.01692 F1800 ; Glyph: 6
G1 X62.0222 Y85.7982 E0.01692 F1800 ; Glyph: 6
G1 X62.0222 Y83.7982 E0.01692 F1800 ; Glyph: 6
G1 E-0.5 F2100 ; Retract
G1 Z0.3 F12000 ; Z hop
G0 X65.6236 Y76.7982 F12000 ; Move
G1 Z0.2 F12000 ; Z hop return
G1 E0.5 F2100 ; Un-retract
G1 X67.6236 Y76.7982 E0.01692 F1800 ; Glyph: 0
G1 X69.6236 Y76.7982 E0.01692 F1800 ; Glyph: 0
G1 X69.6236 Y78.7982 E0.01692 F1800 ; Glyph: 0
G1 X67.6236 Y78.7982 E0.01692 F1800 ; Glyph: 0
G1 X65.6236 Y78.7982 E0.01692 F1800 ; Glyph: 0
G1 X65.6236 Y76.7982 E0.01692 F1800 ; Glyph: 0
G1 E-0.5 F2100 ; Retract
G1 Z0.3 F12000 ; Z hop
G0 X69.6236 Y79.7982 F12000 ; Move
G1 Z0.2 F12000 ; Z hop return
G1 E0.5 F2100 ; Un-retract
G1 X68.8736 Y79.7982 E0.00635 F1800 ; Glyph: .
G1 E-0.5 F2100 ; Retract
G1 Z0.3 F12000 ; Z hop
G0 X65.6236 Y80.7982 F12000 ; Move
G1 Z0.2 F12000 ; Z hop return
G1 E0.5 F2100 ; Un-retract
G1 X67.6236 Y80.7982 E0.01692 F1800 ; Glyph: 0
G1 X69.6236 Y80.7982 E0.01692 F1800 ; Glyph: 0
G1 X69.6236 Y82.7982 E0.01692 F1800 ; Glyph: 0
G1 X67.6236 Y82.7982 E0.01692 F1800 ; Glyph: 0
G1 X65.6236 Y82.7982 E0.01692 F1800 ; Glyph: 0
G1 X65.6236 Y80.7982 E0.01692 F1800 ; Glyph: 0
G1 E-0.5 F2100 ; Retract
G1 Z0.3 F12000 ; Z hop
G0 X65.6236 Y83.7982 F12000 ; Move
G1 Z0.2 F12000 ; Z hop return
G1 E0.5 F2100 ; Un-retract
G1 X65.6236 Y85.7982 E0.01692 F1800 ; Glyph: 7
G1 X67.6236 Y85.7982 E0.01692 F1800 ; Glyph: 7
G1 X69.6236 Y85.7982 E0.01692 F1800 ; Glyph: 7
G1 E-0.5 F2100 ; Retract
G1 Z0.3 F12000 ; Z hop
G0 X71.225 Y76.7982 F12000 ; Move
G1 Z0.2 F12000 ; Z hop return
G1 E0.5 F2100 ; Un-retract
G1 X73.225 Y76.7982 E0.01692 F1800 ; Glyph: 0
G1 X75.225 Y76.7982 E0.01692 F1800 ; Glyph: 0
G1 X75.225 Y78.7982 E0.01692 F1800 ; Glyph: 0
G1 X73.225 Y78.7982 E0.01692 F1800 ; Glyph: 0
G1 X71.225 Y78.7982 E0.01692 F1800 ; Glyph: 0
G1 X71.225 Y76.7982 E0.01692 F1800 ; Glyph: 0
G1 E-0.5 F2100 ; Retract
G1 Z0.3 F12000 ; Z hop
G0 X75.225 Y79.7982 F12000 ; Move
G1 Z0.2 F12000 ; Z hop return
G1 E0.5 F2100 ; Un-retract
G1 X74.475 Y79.7982 E0.00635 F1800 ; Glyph: .
G1 E-0.5 F2100 ; Retract
G1 Z0.3 F12000 ; Z hop
G0 X71.225 Y80.7982 F12000 ; Move
G1 Z0.2 F12000 ; Z hop return
G1 E0.5 F2100 ; Un-retract
G1 X73.225 Y80.7982 E0.01692 F1800 ; Glyph: 0
G1 X75.225 Y80.7982 E0.01692 F1800 ; Glyph: 0
G1 X75.225 Y82.7982 E0.01692 F1800 ; Glyph: 0
G1 X73.225 Y82.7982 E0.01692 F1800 ; Glyph: 0
G1 X71.225 Y82.7982 E0.01692 F1800 ; Glyph: 0
G1 X71.225 Y80.7982 E0.01692 F1800 ; Glyph: 0
G1 E-0.5 F2100 ; Retract
G1 Z0.3 F12000 ; Z hop
G0 X71.225 Y83.7982 F12000 ; Move
G1 Z0.2 F12000 ; Z hop return
G1 E0.5 F2100 ; Un-retract
G1 X73.225 Y83.7982 E0.01692 F1800 ; Glyph: 8
G1 X75.225 Y83.7982 E0.01692 F1800 ; Glyph: 8
G1 X75.225 Y85.7982 E0.01692 F1800 ; Glyph: 8
G1 X73.225 Y85.7982 E0.01692 F1800 ; Glyph: 8
G1 X71.225 Y85.7982 E0.01692 F1800 ; Glyph: 8
G1 X71.225 Y83.7982 E0.01692 F1800 ; Glyph: 8
G0 X73.225 Y83.7982 F12000 ; Move
G1 X73.225 Y85.7982 E0.01692 F1800 ; Glyph: 8
G1 E-0.5 F2100 ; Retract
G1 Z0.3 F12000 ; Z hop
G0 X28.126 Y33.1468 F12000 ; Move to pattern start

G1 Z0.2 F12000 ; Z hop return
G1 E0.5 F2100 ; Un-retract
SET_PRESSURE_ADVANCE ADVANCE=0 ; Set pressure advance
M117 PA 0
G1 X49.3392 Y54.36 E0.25387 F4800 ; Print pattern wall
G1 X28.126 Y75.5732 E0.25387 F4800 ; Print pattern wall
G1 E-0.5 F2100 ; Retract
G1 Z0.3 F12000 ; Z hop
G0 X28.4139 Y33.1468 F12000 ; Move to start next pattern wall
G1 Z0.2 F12000 ; Z hop return
G1 E0.5 F2100 ; Un-retract
G1 X49.6271 Y54.36 E0.25387 F4800 ; Print pattern wall
G1 X28.4139 Y75.5732 E0.25387 F4800 ; Print pattern wall
G1 E-0.5 F2100 ; Retract
G1 Z0.3 F12000 ; Z hop
G0 X28.7017 Y33.1468 F12000 ; Move to start next pattern wall
G1 Z0.2 F12000 ; Z hop return
G1 E0.5 F2100 ; Un-retract
G1 X49.9149 Y54.36 E0.25387 F4800 ; Print pattern wall
G1 X28.7017 Y75.5732 E0.25387 F4800 ; Print pattern wall
G1 E-0.5 F2100 ; Retract
G1 Z0.3 F12000 ; Z hop
G0 X30.9267 Y33.1468 F12000 ; Move to next pattern
G1 Z0.2 F12000 ; Z hop return
G1 E0.5 F2100 ; Un-retract
SET_PRESSURE_ADVANCE ADVANCE=0.005 ; Set pressure advance
M117 PA 0.005
G1 X52.1399 Y54.36 E0.25387 F4800 ; Print pattern wall
G1 X30.9267 Y75.5732 E0.25387 F4800 ; Print pattern wall
G1 E-0.5 F2100 ; Retract
G1 Z0.3 F12000 ; Z hop
G0 X31.2146 Y33.1468 F12000 ; Move to start next pattern wall
G1 Z0.2 F12000 ; Z hop return
G1 E0.5 F2100 ; Un-retract
G1 X52.4278 Y54.36 E0.25387 F4800 ; Print pattern wall
G1 X31.2146 Y75.5732 E0.25387 F4800 ; Print pattern wall
G1 E-0.5 F2100 ; Retract
G1 Z0.3 F12000 ; Z hop
G0 X31.5024 Y33.1468 F12000 ; Move to start next pattern wall
G1 Z0.2 F12000 ; Z hop return
G1 E0.5 F2100 ; Un-retract
G1 X52.7156 Y54.36 E0.25387 F4800 ; Print pattern wall
G1 X31.5024 Y75.5732 E0.25387 F4800 ; Print pattern wall
G1 E-0.5 F2100 ; Retract
G1 Z0.3 F12000 ; Z hop
G0 X33.7274 Y33.1468 F12000 ; Move to next pattern
G1 Z0.2 F12000 ; Z hop return
G1 E0.5 F2100 ; Un-retract
SET_PRESSURE_ADVANCE ADVANCE=0.01 ; Set pressure advance
M117 PA 0.01
G1 X54.9406 Y54.36 E0.25387 F4800 ; Print pattern wall
G1 X33.7274 Y75.5732 E0.25387 F4800 ; Print pattern wall
G1 E-0.5 F2100 ; Retract
G1 Z0.3 F12000 ; Z hop
G0 X34.0153 Y33.1468 F12000 ; Move to start next pattern wall
G1 Z0.2 F12000 ; Z hop return
G1 E0.5 F2100 ; Un-retract
G1 X55.2285 Y54.36 E0.25387 F4800 ; Print pattern wall
G1 X34.0153 Y75.5732 E0.25387 F4800 ; Print pattern wall
G1 E-0.5 F2100 ; Retract
G1 Z0.3 F12000 ; Z hop
G0 X34.3031 Y33.1468 F12000 ; Move to start next pattern wall
G1 Z0.2 F12000 ; Z hop return
G1 E0.5 F2100 ; Un-retract
G1 X55.5163 Y54.36 E0.25387 F4800 ; Print pattern wall
G1 X34.3031 Y75.5732 E0.25387 F4800 ; Print pattern wall
G1 E-0.5 F2100 ; Retract
G1 Z0.3 F12000 ; Z hop
G0 X36.5281 Y33.1468 F12000 ; Move to next pattern
G1 Z0.2 F12000 ; Z hop return
G1 E0.5 F2100 ; Un-retract
SET_PRESSURE_ADVANCE ADVANCE=0.015 ; Set pressure advance
M117 PA 0.015
G1 X57.7413 Y54.36 E0.25387 F4800 ; Print pattern wall
G1 X36.5281 Y75.5732 E0.25387 F4800 ; Print pattern wall
G1 E-0.5 F2100 ; Retract
G1 Z0.3 F12000 ; Z hop
G0 X36.816 Y33.1468 F12000 ; Move to start next pattern wall
G1 Z0.2 F12000 ; Z hop return
G1 E0.5 F2100 ; Un-retract
G1 X58.0292 Y54.36 E0.25387 F4800 ; Print pattern wall
G1 X36.816 Y75.5732 E0.25387 F4800 ; Print pattern wall
G1 E-0.5 F2100 ; Retract
G1 Z0.3 F12000 ; Z hop
G0 X37.1038 Y33.1468 F12000 ; Move to start next pattern wall
G1 Z0.2 F12000 ; Z hop return
G1 E0.5 F2100 ; Un-retract
G1 X58.317 Y54.36 E0.25387 F4800 ; Print pattern wall
G1 X37.1038 Y75.5732 E0.25387 F4800 ; Print pattern wall
G1 E-0.5 F2100 ; Retract
G1 Z0.3 F12000 ; Z hop
G0 X39.3288 Y33.1468 F12000 ; Move to next pattern
G1 Z0.2 F12000 ; Z hop return
G1 E0.5 F2100 ; Un-retract
SET_PRESSURE_ADVANCE ADVANCE=0.02 ; Set pressure advance
M117 PA 0.02
G1 X60.542 Y54.36 E0.25387 F4800 ; Print pattern wall
G1 X39.3288 Y75.5732 E0.25387 F4800 ; Print pattern wall
G1 E-0.5 F2100 ; Retract
G1 Z0.3 F12000 ; Z hop
G0 X39.6167 Y33.1468 F12000 ; Move to start next pattern wall
G1 Z0.2 F12000 ; Z hop return
G1 E0.5 F2100 ; Un-retract
G1 X60.8299 Y54.36 E0.25387 F4800 ; Print pattern wall
G1 X39.6167 Y75.5732 E0.25387 F4800 ; Print pattern wall
G1 E-0.5 F2100 ; Retract
G1 Z0.3 F12000 ; Z hop
G0 X39.9045 Y33.1468 F12000 ; Move to start next pattern wall
G1 Z0.2 F12000 ; Z hop return
G1 E0.5 F2100 ; Un-retract
G1 X61.1177 Y54.36 E0.25387 F4800 ; Print pattern wall
G1 X39.9045 Y75.5732 E0.25387 F4800 ; Print pattern wall
G1 E-0.5 F2100 ; Retract
G1 Z0.3 F12000 ; Z hop
G0 X42.1295 Y33.1468 F12000 ; Move to next pattern
G1 Z0.2 F12000 ; Z hop return
G1 E0.5 F2100 ; Un-retract
SET_PRESSURE_ADVANCE ADVANCE=0.025 ; Set pressure advance
M117 PA 0.025
G1 X63.3427 Y54.36 E0.25387 F4800 ; Print pattern wall
G1 X42.1295 Y75.5732 E0.25387 F4800 ; Print pattern wall
G1 E-0.5 F2100 ; Retract
G1 Z0.3 F12000 ; Z hop
G0 X42.4174 Y33.1468 F12000 ; Move to start next pattern wall
G1 Z0.2 F12000 ; Z hop return
G1 E0.5 F2100 ; Un-retract
G1 X63.6306 Y54.36 E0.25387 F4800 ; Print pattern wall
G1 X42.4174 Y75.5732 E0.25387 F4800 ; Print pattern wall
G1 E-0.5 F2100 ; Retract
G1 Z0.3 F12000 ; Z hop
G0 X42.7052 Y33.1468 F12000 ; Move to start next pattern wall
G1 Z0.2 F12000 ; Z hop return
G1 E0.5 F2100 ; Un-retract
G1 X63.9184 Y54.36 E0.25387 F4800 ; Print pattern wall
G1 X42.7052 Y75.5732 E0.25387 F4800 ; Print pattern wall
G1 E-0.5 F2100 ; Retract
G1 Z0.3 F12000 ; Z hop
G0 X44.9302 Y33.1468 F12000 ; Move to next pattern
G1 Z0.2 F12000 ; Z hop return
G1 E0.5 F2100 ; Un-retract
SET_PRESSURE_ADVANCE ADVANCE=0.03 ; Set pressure advance
M117 PA 0.03
G1 X66.1434 Y54.36 E0.25387 F4800 ; Print pattern wall
G1 X44.9302 Y75.5732 E0.25387 F4800 ; Print pattern wall
G1 E-0.5 F2100 ; Retract
G1 Z0.3 F12000 ; Z hop
G0 X45.2181 Y33.1468 F12000 ; Move to start next pattern wall
G1 Z0.2 F12000 ; Z hop return
G1 E0.5 F2100 ; Un-retract
G1 X66.4313 Y54.36 E0.25387 F4800 ; Print pattern wall
G1 X45.2181 Y75.5732 E0.25387 F4800 ; Print pattern wall
G1 E-0.5 F2100 ; Retract
G1 Z0.3 F12000 ; Z hop
G0 X45.5059 Y33.1468 F12000 ; Move to start next pattern wall
G1 Z0.2 F12000 ; Z hop return
G1 E0.5 F2100 ; Un-retract
G1 X66.7191 Y54.36 E0.25387 F4800 ; Print pattern wall
G1 X45.5059 Y75.5732 E0.25387 F4800 ; Print pattern wall
G1 E-0.5 F2100 ; Retract
G1 Z0.3 F12000 ; Z hop
G0 X47.7309 Y33.1468 F12000 ; Move to next pattern
G1 Z0.2 F12000 ; Z hop return
G1 E0.5 F2100 ; Un-retract
SET_PRESSURE_ADVANCE ADVANCE=0.035 ; Set pressure advance
M117 PA 0.035
G1 X68.9441 Y54.36 E0.25387 F4800 ; Print pattern wall
G1 X47.7309 Y75.5732 E0.25387 F4800 ; Print pattern wall
G1 E-0.5 F2100 ; Retract
G1 Z0.3 F12000 ; Z hop
G0 X48.0188 Y33.1468 F12000 ; Move to start next pattern wall
G1 Z0.2 F12000 ; Z hop return
G1 E0.5 F2100 ; Un-retract
G1 X69.232 Y54.36 E0.25387 F4800 ; Print pattern wall
G1 X48.0188 Y75.5732 E0.25387 F4800 ; Print pattern wall
G1 E-0.5 F2100 ; Retract
G1 Z0.3 F12000 ; Z hop
G0 X48.3066 Y33.1468 F12000 ; Move to start next pattern wall
G1 Z0.2 F12000 ; Z hop return
G1 E0.5 F2100 ; Un-retract
G1 X69.5198 Y54.36 E0.25387 F4800 ; Print pattern wall
G1 X48.3066 Y75.5732 E0.25387 F4800 ; Print pattern wall
G1 E-0.5 F2100 ; Retract
G1 Z0.3 F12000 ; Z hop
G0 X50.5316 Y33.1468 F12000 ; Move to next pattern
G1 Z0.2 F12000 ; Z hop return
G1 E0.5 F2100 ; Un-retract
SET_PRESSURE_ADVANCE ADVANCE=0.04 ; Set pressure advance
M117 PA 0.04
G1 X71.7448 Y54.36 E0.25387 F4800 ; Print pattern wall
G1 X50.5316 Y75.5732 E0.25387 F4800 ; Print pattern wall
G1 E-0.5 F2100 ; Retract
G1 Z0.3 F12000 ; Z hop
G0 X50.8195 Y33.1468 F12000 ; Move to start next pattern wall
G1 Z0.2 F12000 ; Z hop return
G1 E0.5 F2100 ; Un-retract
G1 X72.0327 Y54.36 E0.25387 F4800 ; Print pattern wall
G1 X50.8195 Y75.5732 E0.25387 F4800 ; Print pattern wall
G1 E-0.5 F2100 ; Retract
G1 Z0.3 F12000 ; Z hop
G0 X51.1073 Y33.1468 F12000 ; Move to start next pattern wall
G1 Z0.2 F12000 ; Z hop return
G1 E0.5 F2100 ; Un-retract
G1 X72.3205 Y54.36 E0.25387 F4800 ; Print pattern wall
G1 X51.1073 Y75.5732 E0.25387 F4800 ; Print pattern wall
G1 E-0.5 F2100 ; Retract
G1 Z0.3 F12000 ; Z hop
G0 X53.3323 Y33.1468 F12000 ; Move to next pattern
G1 Z0.2 F12000 ; Z hop return
G1 E0.5 F2100 ; Un-retract
SET_PRESSURE_ADVANCE ADVANCE=0.045 ; Set pressure advance
M117 PA 0.045
G1 X74.5455 Y54.36 E0.25387 F4800 ; Print pattern wall
G1 X53.3323 Y75.5732 E0.25387 F4800 ; Print pattern wall
G1 E-0.5 F2100 ; Retract
G1 Z0.3 F12000 ; Z hop
G0 X53.6202 Y33.1468 F12000 ; Move to start next pattern wall
G1 Z0.2 F12000 ; Z hop return
G1 E0.5 F2100 ; Un-retract
G1 X74.8334 Y54.36 E0.25387 F4800 ; Print pattern wall
G1 X53.6202 Y75.5732 E0.25387 F4800 ; Print pattern wall
G1 E-0.5 F2100 ; Retract
G1 Z0.3 F12000 ; Z hop
G0 X53.908 Y33.1468 F12000 ; Move to start next pattern wall
G1 Z0.2 F12000 ; Z hop return
G1 E0.5 F2100 ; Un-retract
G1 X75.1212 Y54.36 E0.25387 F4800 ; Print pattern wall
G1 X53.908 Y75.5732 E0.25387 F4800 ; Print pattern wall
G1 E-0.5 F2100 ; Retract
G1 Z0.3 F12000 ; Z hop
G0 X56.133 Y33.1468 F12000 ; Move to next pattern
G1 Z0.2 F12000 ; Z hop return
G1 E0.5 F2100 ; Un-retract
SET_PRESSURE_ADVANCE ADVANCE=0.05 ; Set pressure advance
M117 PA 0.05
G1 X77.3462 Y54.36 E0.25387 F4800 ; Print pattern wall
G1 X56.133 Y75.5732 E0.25387 F4800 ; Print pattern wall
G1 E-0.5 F2100 ; Retract
G1 Z0.3 F12000 ; Z hop
G0 X56.4208 Y33.1468 F12000 ; Move to start next pattern wall
G1 Z0.2 F12000 ; Z hop return
G1 E0.5 F2100 ; Un-retract
G1 X77.6341 Y54.36 E0.25387 F4800 ; Print pattern wall
G1 X56.4208 Y75.5732 E0.25387 F4800 ; Print pattern wall
G1 E-0.5 F2100 ; Retract
G1 Z0.3 F12000 ; Z hop
G0 X56.7087 Y33.1468 F12000 ; Move to start next pattern wall
G1 Z0.2 F12000 ; Z hop return
G1 E0.5 F2100 ; Un-retract
G1 X77.9219 Y54.36 E0.25387 F4800 ; Print pattern wall
G1 X56.7087 Y75.5732 E0.25387 F4800 ; Print pattern wall
G1 E-0.5 F2100 ; Retract
G1 Z0.3 F12000 ; Z hop
G0 X58.9337 Y33.1468 F12000 ; Move to next pattern
G1 Z0.2 F12000 ; Z hop return
G1 E0.5 F2100 ; Un-retract
SET_PRESSURE_ADVANCE ADVANCE=0.055 ; Set pressure advance
M117 PA 0.055
G1 X80.1469 Y54.36 E0.25387 F4800 ; Print pattern wall
G1 X58.9337 Y75.5732 E0.25387 F4800 ; Print pattern wall
G1 E-0.5 F2100 ; Retract
G1 Z0.3 F12000 ; Z hop
G0 X59.2215 Y33.1468 F12000 ; Move to start next pattern wall
G1 Z0.2 F12000 ; Z hop return
G1 E0.5 F2100 ; Un-retract
G1 X80.4348 Y54.36 E0.25387 F4800 ; Print pattern wall
G1 X59.2215 Y75.5732 E0.25387 F4800 ; Print pattern wall
G1 E-0.5 F2100 ; Retract
G1 Z0.3 F12000 ; Z hop
G0 X59.5094 Y33.1468 F12000 ; Move to start next pattern wall
G1 Z0.2 F12000 ; Z hop return
G1 E0.5 F2100 ; Un-retract
G1 X80.7226 Y54.36 E0.25387 F4800 ; Print pattern wall
G1 X59.5094 Y75.5732 E0.25387 F4800 ; Print pattern wall
G1 E-0.5 F2100 ; Retract
G1 Z0.3 F12000 ; Z hop
G0 X61.7344 Y33.1468 F12000 ; Move to next pattern
G1 Z0.2 F12000 ; Z hop return
G1 E0.5 F2100 ; Un-retract
SET_PRESSURE_ADVANCE ADVANCE=0.06 ; Set pressure advance
M117 PA 0.06
G1 X82.9476 Y54.36 E0.25387 F4800 ; Print pattern wall
G1 X61.7344 Y75.5732 E0.25387 F4800 ; Print pattern wall
G1 E-0.5 F2100 ; Retract
G1 Z0.3 F12000 ; Z hop
G0 X62.0222 Y33.1468 F12000 ; Move to start next pattern wall
G1 Z0.2 F12000 ; Z hop return
G1 E0.5 F2100 ; Un-retract
G1 X83.2354 Y54.36 E0.25387 F4800 ; Print pattern wall
G1 X62.0222 Y75.5732 E0.25387 F4800 ; Print pattern wall
G1 E-0.5 F2100 ; Retract
G1 Z0.3 F12000 ; Z hop
G0 X62.3101 Y33.1468 F12000 ; Move to start next pattern wall
G1 Z0.2 F12000 ; Z hop return
G1 E0.5 F2100 ; Un-retract
G1 X83.5233 Y54.36 E0.25387 F4800 ; Print pattern wall
G1 X62.3101 Y75.5732 E0.25387 F4800 ; Print pattern wall
G1 E-0.5 F2100 ; Retract
G1 Z0.3 F12000 ; Z hop
G0 X64.5351 Y33.1468 F12000 ; Move to next pattern
G1 Z0.2 F12000 ; Z hop return
G1 E0.5 F2100 ; Un-retract
SET_PRESSURE_ADVANCE ADVANCE=0.065 ; Set pressure advance
M117 PA 0.065
G1 X85.7483 Y54.36 E0.25387 F4800 ; Print pattern wall
G1 X64.5351 Y75.5732 E0.25387 F4800 ; Print pattern wall
G1 E-0.5 F2100 ; Retract
G1 Z0.3 F12000 ; Z hop
G0 X64.8229 Y33.1468 F12000 ; Move to start next pattern wall
G1 Z0.2 F12000 ; Z hop return
G1 E0.5 F2100 ; Un-retract
G1 X86.0361 Y54.36 E0.25387 F4800 ; Print pattern wall
G1 X64.8229 Y75.5732 E0.25387 F4800 ; Print pattern wall
G1 E-0.5 F2100 ; Retract
G1 Z0.3 F12000 ; Z hop
G0 X65.1108 Y33.1468 F12000 ; Move to start next pattern wall
G1 Z0.2 F12000 ; Z hop return
G1 E0.5 F2100 ; Un-retract
G1 X86.324 Y54.36 E0.25387 F4800 ; Print pattern wall
G1 X65.1108 Y75.5732 E0.25387 F4800 ; Print pattern wall
G1 E-0.5 F2100 ; Retract
G1 Z0.3 F12000 ; Z hop
G0 X67.3358 Y33.1468 F12000 ; Move to next pattern
G1 Z0.2 F12000 ; Z hop return
G1 E0.5 F2100 ; Un-retract
SET_PRESSURE_ADVANCE ADVANCE=0.07 ; Set pressure advance
M117 PA 0.07
G1 X88.549 Y54.36 E0.25387 F4800 ; Print pattern wall
G1 X67.3358 Y75.5732 E0.25387 F4800 ; Print pattern wall
G1 E-0.5 F2100 ; Retract
G1 Z0.3 F12000 ; Z hop
G0 X67.6236 Y33.1468 F12000 ; Move to start next pattern wall
G1 Z0.2 F12000 ; Z hop return
G1 E0.5 F2100 ; Un-retract
G1 X88.8368 Y54.36 E0.25387 F4800 ; Print pattern wall
G1 X67.6236 Y75.5732 E0.25387 F4800 ; Print pattern wall
G1 E-0.5 F2100 ; Retract
G1 Z0.3 F12000 ; Z hop
G0 X67.9115 Y33.1468 F12000 ; Move to start next pattern wall
G1 Z0.2 F12000 ; Z hop return
G1 E0.5 F2100 ; Un-retract
G1 X89.1247 Y54.36 E0.25387 F4800 ; Print pattern wall
G1 X67.9115 Y75.5732 E0.25387 F4800 ; Print pattern wall
G1 E-0.5 F2100 ; Retract
G1 Z0.3 F12000 ; Z hop
G0 X70.1365 Y33.1468 F12000 ; Move to next pattern
G1 Z0.2 F12000 ; Z hop return
G1 E0.5 F2100 ; Un-retract
SET_PRESSURE_ADVANCE ADVANCE=0.075 ; Set pressure advance
M117 PA 0.075
G1 X91.3497 Y54.36 E0.25387 F4800 ; Print pattern wall
G1 X70.1365 Y75.5732 E0.25387 F4800 ; Print pattern wall
G1 E-0.5 F2100 ; Retract
G1 Z0.3 F12000 ; Z hop
G0 X70.4243 Y33.1468 F12000 ; Move to start next pattern wall
G1 Z0.2 F12000 ; Z hop return
G1 E0.5 F2100 ; Un-retract
G1 X91.6375 Y54.36 E0.25387 F4800 ; Print pattern wall
G1 X70.4243 Y75.5732 E0.25387 F4800 ; Print pattern wall
G1 E-0.5 F2100 ; Retract
G1 Z0.3 F12000 ; Z hop
G0 X70.7122 Y33.1468 F12000 ; Move to start next pattern wall
G1 Z0.2 F12000 ; Z hop return
G1 E0.5 F2100 ; Un-retract
G1 X91.9254 Y54.36 E0.25387 F4800 ; Print pattern wall
G1 X70.7122 Y75.5732 E0.25387 F4800 ; Print pattern wall
G1 E-0.5 F2100 ; Retract
G1 Z0.3 F12000 ; Z hop
G0 X72.9372 Y33.1468 F12000 ; Move to next pattern
G1 Z0.2 F12000 ; Z hop return
G1 E0.5 F2100 ; Un-retract
SET_PRESSURE_ADVANCE ADVANCE=0.08 ; Set pressure advance
M117 PA 0.08
G1 X94.1504 Y54.36 E0.25387 F4800 ; Print pattern wall
G1 X72.9372 Y75.5732 E0.25387 F4800 ; Print pattern wall
G1 E-0.5 F2100 ; Retract
G1 Z0.3 F12000 ; Z hop
G0 X73.225 Y33.1468 F12000 ; Move to start next pattern wall
G1 Z0.2 F12000 ; Z hop return
G1 E0.5 F2100 ; Un-retract
G1 X94.4382 Y54.36 E0.25387 F4800 ; Print pattern wall
G1 X73.225 Y75.5732 E0.25387 F4800 ; Print pattern wall
G1 E-0.5 F2100 ; Retract
G1 Z0.3 F12000 ; Z hop
G0 X73.5129 Y33.1468 F12000 ; Move to start next pattern wall
G1 Z0.2 F12000 ; Z hop return
G1 E0.5 F2100 ; Un-retract
G1 X94.7261 Y54.36 E0.25387 F4800 ; Print pattern wall
G1 X73.5129 Y75.5732 E0.25387 F4800 ; Print pattern wall
G1 E-0.5 F2100 ; Retract
G1 Z0.3 F12000 ; Z hop
G0 X28.126 Y33.1468 F12000 ; Move back to start position
G1 Z0.2 F12000 ; Z hop return
G1 E0.5 F2100 ; Un-retract
G0 Z0.3 F12000 ; Move to layer height
SET_PRESSURE_ADVANCE ADVANCE=0 ; Set pressure advance
M117 PA 0
G1 X49.3392 Y54.36 E0.25387 F4800 ; Print pattern wall
G1 X28.126 Y75.5732 E0.25387 F4800 ; Print pattern wall
G1 E-0.5 F2100 ; Retract
G1 Z0.4 F12000 ; Z hop
G0 X28.4139 Y33.1468 F12000 ; Move to start next pattern wall
G1 Z0.3 F12000 ; Z hop return
G1 E0.5 F2100 ; Un-retract
G1 X49.6271 Y54.36 E0.25387 F4800 ; Print pattern wall
G1 X28.4139 Y75.5732 E0.25387 F4800 ; Print pattern wall
G1 E-0.5 F2100 ; Retract
G1 Z0.4 F12000 ; Z hop
G0 X28.7017 Y33.1468 F12000 ; Move to start next pattern wall
G1 Z0.3 F12000 ; Z hop return
G1 E0.5 F2100 ; Un-retract
G1 X49.9149 Y54.36 E0.25387 F4800 ; Print pattern wall
G1 X28.7017 Y75.5732 E0.25387 F4800 ; Print pattern wall
G1 E-0.5 F2100 ; Retract
G1 Z0.4 F12000 ; Z hop
G0 X30.9267 Y33.1468 F12000 ; Move to next pattern
G1 Z0.3 F12000 ; Z hop return
G1 E0.5 F2100 ; Un-retract
SET_PRESSURE_ADVANCE ADVANCE=0.005 ; Set pressure advance
M117 PA 0.005
G1 X52.1399 Y54.36 E0.25387 F4800 ; Print pattern wall
G1 X30.9267 Y75.5732 E0.25387 F4800 ; Print pattern wall
G1 E-0.5 F2100 ; Retract
G1 Z0.4 F12000 ; Z hop
G0 X31.2146 Y33.1468 F12000 ; Move to start next pattern wall
G1 Z0.3 F12000 ; Z hop return
G1 E0.5 F2100 ; Un-retract
G1 X52.4278 Y54.36 E0.25387 F4800 ; Print pattern wall
G1 X31.2146 Y75.5732 E0.25387 F4800 ; Print pattern wall
G1 E-0.5 F2100 ; Retract
G1 Z0.4 F12000 ; Z hop
G0 X31.5024 Y33.1468 F12000 ; Move to start next pattern wall
G1 Z0.3 F12000 ; Z hop return
G1 E0.5 F2100 ; Un-retract
G1 X52.7156 Y54.36 E0.25387 F4800 ; Print pattern wall
G1 X31.5024 Y75.5732 E0.25387 F4800 ; Print pattern wall
G1 E-0.5 F2100 ; Retract
G1 Z0.4 F12000 ; Z hop
G0 X33.7274 Y33.1468 F12000 ; Move to next pattern
G1 Z0.3 F12000 ; Z hop return
G1 E0.5 F2100 ; Un-retract
SET_PRESSURE_ADVANCE ADVANCE=0.01 ; Set pressure advance
M117 PA 0.01
G1 X54.9406 Y54.36 E0.25387 F4800 ; Print pattern wall
G1 X33.7274 Y75.5732 E0.25387 F4800 ; Print pattern wall
G1 E-0.5 F2100 ; Retract
G1 Z0.4 F12000 ; Z hop
G0 X34.0153 Y33.1468 F12000 ; Move to start next pattern wall
G1 Z0.3 F12000 ; Z hop return
G1 E0.5 F2100 ; Un-retract
G1 X55.2285 Y54.36 E0.25387 F4800 ; Print pattern wall
G1 X34.0153 Y75.5732 E0.25387 F4800 ; Print pattern wall
G1 E-0.5 F2100 ; Retract
G1 Z0.4 F12000 ; Z hop
G0 X34.3031 Y33.1468 F12000 ; Move to start next pattern wall
G1 Z0.3 F12000 ; Z hop return
G1 E0.5 F2100 ; Un-retract
G1 X55.5163 Y54.36 E0.25387 F4800 ; Print pattern wall
G1 X34.3031 Y75.5732 E0.25387 F4800 ; Print pattern wall
G1 E-0.5 F2100 ; Retract
G1 Z0.4 F12000 ; Z hop
G0 X36.5281 Y33.1468 F12000 ; Move to next pattern
G1 Z0.3 F12000 ; Z hop return
G1 E0.5 F2100 ; Un-retract
SET_PRESSURE_ADVANCE ADVANCE=0.015 ; Set pressure advance
M117 PA 0.015
G1 X57.7413 Y54.36 E0.25387 F4800 ; Print pattern wall
G1 X36.5281 Y75.5732 E0.25387 F4800 ; Print pattern wall
G1 E-0.5 F2100 ; Retract
G1 Z0.4 F12000 ; Z hop
G0 X36.816 Y33.1468 F12000 ; Move to start next pattern wall
G1 Z0.3 F12000 ; Z hop return
G1 E0.5 F2100 ; Un-retract
G1 X58.0292 Y54.36 E0.25387 F4800 ; Print pattern wall
G1 X36.816 Y75.5732 E0.25387 F4800 ; Print pattern wall
G1 E-0.5 F2100 ; Retract
G1 Z0.4 F12000 ; Z hop
G0 X37.1038 Y33.1468 F12000 ; Move to start next pattern wall
G1 Z0.3 F12000 ; Z hop return
G1 E0.5 F2100 ; Un-retract
G1 X58.317 Y54.36 E0.25387 F4800 ; Print pattern wall
G1 X37.1038 Y75.5732 E0.25387 F4800 ; Print pattern wall
G1 E-0.5 F2100 ; Retract
G1 Z0.4 F12000 ; Z hop
G0 X39.3288 Y33.1468 F12000 ; Move to next pattern
G1 Z0.3 F12000 ; Z hop return
G1 E0.5 F2100 ; Un-retract
SET_PRESSURE_ADVANCE ADVANCE=0.02 ; Set pressure advance
M117 PA 0.02
G1 X60.542 Y54.36 E0.25387 F4800 ; Print pattern wall
G1 X39.3288 Y75.5732 E0.25387 F4800 ; Print pattern wall
G1 E-0.5 F2100 ; Retract
G1 Z0.4 F12000 ; Z hop
G0 X39.6167 Y33.1468 F12000 ; Move to start next pattern wall
G1 Z0.3 F12000 ; Z hop return
G1 E0.5 F2100 ; Un-retract
G1 X60.8299 Y54.36 E0.25387 F4800 ; Print pattern wall
G1 X39.6167 Y75.5732 E0.25387 F4800 ; Print pattern wall
G1 E-0.5 F2100 ; Retract
G1 Z0.4 F12000 ; Z hop
G0 X39.9045 Y33.1468 F12000 ; Move to start next pattern wall
G1 Z0.3 F12000 ; Z hop return
G1 E0.5 F2100 ; Un-retract
G1 X61.1177 Y54.36 E0.25387 F4800 ; Print pattern wall
G1 X39.9045 Y75.5732 E0.25387 F4800 ; Print pattern wall
G1 E-0.5 F2100 ; Retract
G1 Z0.4 F12000 ; Z hop
G0 X42.1295 Y33.1468 F12000 ; Move to next pattern
G1 Z0.3 F12000 ; Z hop return
G1 E0.5 F2100 ; Un-retract
SET_PRESSURE_ADVANCE ADVANCE=0.025 ; Set pressure advance
M117 PA 0.025
G1 X63.3427 Y54.36 E0.25387 F4800 ; Print pattern wall
G1 X42.1295 Y75.5732 E0.25387 F4800 ; Print pattern wall
G1 E-0.5 F2100 ; Retract
G1 Z0.4 F12000 ; Z hop
G0 X42.4174 Y33.1468 F12000 ; Move to start next pattern wall
G1 Z0.3 F12000 ; Z hop return
G1 E0.5 F2100 ; Un-retract
G1 X63.6306 Y54.36 E0.25387 F4800 ; Print pattern wall
G1 X42.4174 Y75.5732 E0.25387 F4800 ; Print pattern wall
G1 E-0.5 F2100 ; Retract
G1 Z0.4 F12000 ; Z hop
G0 X42.7052 Y33.1468 F12000 ; Move to start next pattern wall
G1 Z0.3 F12000 ; Z hop return
G1 E0.5 F2100 ; Un-retract
G1 X63.9184 Y54.36 E0.25387 F4800 ; Print pattern wall
G1 X42.7052 Y75.5732 E0.25387 F4800 ; Print pattern wall
G1 E-0.5 F2100 ; Retract
G1 Z0.4 F12000 ; Z hop
G0 X44.9302 Y33.1468 F12000 ; Move to next pattern
G1 Z0.3 F12000 ; Z hop return
G1 E0.5 F2100 ; Un-retract
SET_PRESSURE_ADVANCE ADVANCE=0.03 ; Set pressure advance
M117 PA 0.03
G1 X66.1434 Y54.36 E0.25387 F4800 ; Print pattern wall
G1 X44.9302 Y75.5732 E0.25387 F4800 ; Print pattern wall
G1 E-0.5 F2100 ; Retract
G1 Z0.4 F12000 ; Z hop
G0 X45.2181 Y33.1468 F12000 ; Move to start next pattern wall
G1 Z0.3 F12000 ; Z hop return
G1 E0.5 F2100 ; Un-retract
G1 X66.4313 Y54.36 E0.25387 F4800 ; Print pattern wall
G1 X45.2181 Y75.5732 E0.25387 F4800 ; Print pattern wall
G1 E-0.5 F2100 ; Retract
G1 Z0.4 F12000 ; Z hop
G0 X45.5059 Y33.1468 F12000 ; Move to start next pattern wall
G1 Z0.3 F12000 ; Z hop return
G1 E0.5 F2100 ; Un-retract
G1 X66.7191 Y54.36 E0.25387 F4800 ; Print pattern wall
G1 X45.5059 Y75.5732 E0.25387 F4800 ; Print pattern wall
G1 E-0.5 F2100 ; Retract
G1 Z0.4 F12000 ; Z hop
G0 X47.7309 Y33.1468 F12000 ; Move to next pattern
G1 Z0.3 F12000 ; Z hop return
G1 E0.5 F2100 ; Un-retract
SET_PRESSURE_ADVANCE ADVANCE=0.035 ; Set pressure advance
M117 PA 0.035
G1 X68.9441 Y54.36 E0.25387 F4800 ; Print pattern wall
G1 X47.7309 Y75.5732 E0.25387 F4800 ; Print pattern wall
G1 E-0.5 F2100 ; Retract
G1 Z0.4 F12000 ; Z hop
G0 X48.0188 Y33.1468 F12000 ; Move to start next pattern wall
G1 Z0.3 F12000 ; Z hop return
G1 E0.5 F2100 ; Un-retract
G1 X69.232 Y54.36 E0.25387 F4800 ; Print pattern wall
G1 X48.0188 Y75.5732 E0.25387 F4800 ; Print pattern wall
G1 E-0.5 F2100 ; Retract
G1 Z0.4 F12000 ; Z hop
G0 X48.3066 Y33.1468 F12000 ; Move to start next pattern wall
G1 Z0.3 F12000 ; Z hop return
G1 E0.5 F2100 ; Un-retract
G1 X69.5198 Y54.36 E0.25387 F4800 ; Print pattern wall
G1 X48.3066 Y75.5732 E0.25387 F4800 ; Print pattern wall
G1 E-0.5 F2100 ; Retract
G1 Z0.4 F12000 ; Z hop
G0 X50.5316 Y33.1468 F12000 ; Move to next pattern
G1 Z0.3 F12000 ; Z hop return
G1 E0.5 F2100 ; Un-retract
SET_PRESSURE_ADVANCE ADVANCE=0.04 ; Set pressure advance
M117 PA 0.04
G1 X71.7448 Y54.36 E0.25387 F4800 ; Print pattern wall
G1 X50.5316 Y75.5732 E0.25387 F4800 ; Print pattern wall
G1 E-0.5 F2100 ; Retract
G1 Z0.4 F12000 ; Z hop
G0 X50.8195 Y33.1468 F12000 ; Move to start next pattern wall
G1 Z0.3 F12000 ; Z hop return
G1 E0.5 F2100 ; Un-retract
G1 X72.0327 Y54.36 E0.25387 F4800 ; Print pattern wall
G1 X50.8195 Y75.5732 E0.25387 F4800 ; Print pattern wall
G1 E-0.5 F2100 ; Retract
G1 Z0.4 F12000 ; Z hop
G0 X51.1073 Y33.1468 F12000 ; Move to start next pattern wall
G1 Z0.3 F12000 ; Z hop return
G1 E0.5 F2100 ; Un-retract
G1 X72.3205 Y54.36 E0.25387 F4800 ; Print pattern wall
G1 X51.1073 Y75.5732 E0.25387 F4800 ; Print pattern wall
G1 E-0.5 F2100 ; Retract
G1 Z0.4 F12000 ; Z hop
G0 X53.3323 Y33.1468 F12000 ; Move to next pattern
G1 Z0.3 F12000 ; Z hop return
G1 E0.5 F2100 ; Un-retract
SET_PRESSURE_ADVANCE ADVANCE=0.045 ; Set pressure advance
M117 PA 0.045
G1 X74.5455 Y54.36 E0.25387 F4800 ; Print pattern wall
G1 X53.3323 Y75.5732 E0.25387 F4800 ; Print pattern wall
G1 E-0.5 F2100 ; Retract
G1 Z0.4 F12000 ; Z hop
G0 X53.6202 Y33.1468 F12000 ; Move to start next pattern wall
G1 Z0.3 F12000 ; Z hop return
G1 E0.5 F2100 ; Un-retract
G1 X74.8334 Y54.36 E0.25387 F4800 ; Print pattern wall
G1 X53.6202 Y75.5732 E0.25387 F4800 ; Print pattern wall
G1 E-0.5 F2100 ; Retract
G1 Z0.4 F12000 ; Z hop
G0 X53.908 Y33.1468 F12000 ; Move to start next pattern wall
G1 Z0.3 F12000 ; Z hop return
G1 E0.5 F2100 ; Un-retract
G1 X75.1212 Y54.36 E0.25387 F4800 ; Print pattern wall
G1 X53.908 Y75.5732 E0.25387 F4800 ; Print pattern wall
G1 E-0.5 F2100 ; Retract
G1 Z0.4 F12000 ; Z hop
G0 X56.133 Y33.1468 F12000 ; Move to next pattern
G1 Z0.3 F12000 ; Z hop return
G1 E0.5 F2100 ; Un-retract
SET_PRESSURE_ADVANCE ADVANCE=0.05 ; Set pressure advance
M117 PA 0.05
G1 X77.3462 Y54.36 E0.25387 F4800 ; Print pattern wall
G1 X56.133 Y75.5732 E0.25387 F4800 ; Print pattern wall
G1 E-0.5 F2100 ; Retract
G1 Z0.4 F12000 ; Z hop
G0 X56.4208 Y33.1468 F12000 ; Move to start next pattern wall
G1 Z0.3 F12000 ; Z hop return
G1 E0.5 F2100 ; Un-retract
G1 X77.6341 Y54.36 E0.25387 F4800 ; Print pattern wall
G1 X56.4208 Y75.5732 E0.25387 F4800 ; Print pattern wall
G1 E-0.5 F2100 ; Retract
G1 Z0.4 F12000 ; Z hop
G0 X56.7087 Y33.1468 F12000 ; Move to start next pattern wall
G1 Z0.3 F12000 ; Z hop return
G1 E0.5 F2100 ; Un-retract
G1 X77.9219 Y54.36 E0.25387 F4800 ; Print pattern wall
G1 X56.7087 Y75.5732 E0.25387 F4800 ; Print pattern wall
G1 E-0.5 F2100 ; Retract
G1 Z0.4 F12000 ; Z hop
G0 X58.9337 Y33.1468 F12000 ; Move to next pattern
G1 Z0.3 F12000 ; Z hop return
G1 E0.5 F2100 ; Un-retract
SET_PRESSURE_ADVANCE ADVANCE=0.055 ; Set pressure advance
M117 PA 0.055
G1 X80.1469 Y54.36 E0.25387 F4800 ; Print pattern wall
G1 X58.9337 Y75.5732 E0.25387 F4800 ; Print pattern wall
G1 E-0.5 F2100 ; Retract
G1 Z0.4 F12000 ; Z hop
G0 X59.2215 Y33.1468 F12000 ; Move to start next pattern wall
G1 Z0.3 F12000 ; Z hop return
G1 E0.5 F2100 ; Un-retract
G1 X80.4348 Y54.36 E0.25387 F4800 ; Print pattern wall
G1 X59.2215 Y75.5732 E0.25387 F4800 ; Print pattern wall
G1 E-0.5 F2100 ; Retract
G1 Z0.4 F12000 ; Z hop
G0 X59.5094 Y33.1468 F12000 ; Move to start next pattern wall
G1 Z0.3 F12000 ; Z hop return
G1 E0.5 F2100 ; Un-retract
G1 X80.7226 Y54.36 E0.25387 F4800 ; Print pattern wall
G1 X59.5094 Y75.5732 E0.25387 F4800 ; Print pattern wall
G1 E-0.5 F2100 ; Retract
G1 Z0.4 F12000 ; Z hop
G0 X61.7344 Y33.1468 F12000 ; Move to next pattern
G1 Z0.3 F12000 ; Z hop return
G1 E0.5 F2100 ; Un-retract
SET_PRESSURE_ADVANCE ADVANCE=0.06 ; Set pressure advance
M117 PA 0.06
G1 X82.9476 Y54.36 E0.25387 F4800 ; Print pattern wall
G1 X61.7344 Y75.5732 E0.25387 F4800 ; Print pattern wall
G1 E-0.5 F2100 ; Retract
G1 Z0.4 F12000 ; Z hop
G0 X62.0222 Y33.1468 F12000 ; Move to start next pattern wall
G1 Z0.3 F12000 ; Z hop return
G1 E0.5 F2100 ; Un-retract
G1 X83.2354 Y54.36 E0.25387 F4800 ; Print pattern wall
G1 X62.0222 Y75.5732 E0.25387 F4800 ; Print pattern wall
G1 E-0.5 F2100 ; Retract
G1 Z0.4 F12000 ; Z hop
G0 X62.3101 Y33.1468 F12000 ; Move to start next pattern wall
G1 Z0.3 F12000 ; Z hop return
G1 E0.5 F2100 ; Un-retract
G1 X83.5233 Y54.36 E0.25387 F4800 ; Print pattern wall
G1 X62.3101 Y75.5732 E0.25387 F4800 ; Print pattern wall
G1 E-0.5 F2100 ; Retract
G1 Z0.4 F12000 ; Z hop
G0 X64.5351 Y33.1468 F12000 ; Move to next pattern
G1 Z0.3 F12000 ; Z hop return
G1 E0.5 F2100 ; Un-retract
SET_PRESSURE_ADVANCE ADVANCE=0.065 ; Set pressure advance
M117 PA 0.065
G1 X85.7483 Y54.36 E0.25387 F4800 ; Print pattern wall
G1 X64.5351 Y75.5732 E0.25387 F4800 ; Print pattern wall
G1 E-0.5 F2100 ; Retract
G1 Z0.4 F12000 ; Z hop
G0 X64.8229 Y33.1468 F12000 ; Move to start next pattern wall
G1 Z0.3 F12000 ; Z hop return
G1 E0.5 F2100 ; Un-retract
G1 X86.0361 Y54.36 E0.25387 F4800 ; Print pattern wall
G1 X64.8229 Y75.5732 E0.25387 F4800 ; Print pattern wall
G1 E-0.5 F2100 ; Retract
G1 Z0.4 F12000 ; Z hop
G0 X65.1108 Y33.1468 F12000 ; Move to start next pattern wall
G1 Z0.3 F12000 ; Z hop return
G1 E0.5 F2100 ; Un-retract
G1 X86.324 Y54.36 E0.25387 F4800 ; Print pattern wall
G1 X65.1108 Y75.5732 E0.25387 F4800 ; Print pattern wall
G1 E-0.5 F2100 ; Retract
G1 Z0.4 F12000 ; Z hop
G0 X67.3358 Y33.1468 F12000 ; Move to next pattern
G1 Z0.3 F12000 ; Z hop return
G1 E0.5 F2100 ; Un-retract
SET_PRESSURE_ADVANCE ADVANCE=0.07 ; Set pressure advance
M117 PA 0.07
G1 X88.549 Y54.36 E0.25387 F4800 ; Print pattern wall
G1 X67.3358 Y75.5732 E0.25387 F4800 ; Print pattern wall
G1 E-0.5 F2100 ; Retract
G1 Z0.4 F12000 ; Z hop
G0 X67.6236 Y33.1468 F12000 ; Move to start next pattern wall
G1 Z0.3 F12000 ; Z hop return
G1 E0.5 F2100 ; Un-retract
G1 X88.8368 Y54.36 E0.25387 F4800 ; Print pattern wall
G1 X67.6236 Y75.5732 E0.25387 F4800 ; Print pattern wall
G1 E-0.5 F2100 ; Retract
G1 Z0.4 F12000 ; Z hop
G0 X67.9115 Y33.1468 F12000 ; Move to start next pattern wall
G1 Z0.3 F12000 ; Z hop return
G1 E0.5 F2100 ; Un-retract
G1 X89.1247 Y54.36 E0.25387 F4800 ; Print pattern wall
G1 X67.9115 Y75.5732 E0.25387 F4800 ; Print pattern wall
G1 E-0.5 F2100 ; Retract
G1 Z0.4 F12000 ; Z hop
G0 X70.1365 Y33.1468 F12000 ; Move to next pattern
G1 Z0.3 F12000 ; Z hop return
G1 E0.5 F2100 ; Un-retract
SET_PRESSURE_ADVANCE ADVANCE=0.075 ; Set pressure advance
M117 PA 0.075
G1 X91.3497 Y54.36 E0.25387 F4800 ; Print pattern wall
G1 X70.1365 Y75.5732 E0.25387 F4800 ; Print pattern wall
G1 E-0.5 F2100 ; Retract
G1 Z0.4 F12000 ; Z hop
G0 X70.4243 Y33.1468 F12000 ; Move to start next pattern wall
G1 Z0.3 F12000 ; Z hop return
G1 E0.5 F2100 ; Un-retract
G1 X91.6375 Y54.36 E0.25387 F4800 ; Print pattern wall
G1 X70.4243 Y75.5732 E0.25387 F4800 ; Print pattern wall
G1 E-0.5 F2100 ; Retract
G1 Z0.4 F12000 ; Z hop
G0 X70.7122 Y33.1468 F12000 ; Move to start next pattern wall
G1 Z0.3 F12000 ; Z hop return
G1 E0.5 F2100 ; Un-retract
G1 X91.9254 Y54.36 E0.25387 F4800 ; Print pattern wall
G1 X70.7122 Y75.5732 E0.25387 F4800 ; Print pattern wall
G1 E-0.5 F2100 ; Retract
G1 Z0.4 F12000 ; Z hop
G0 X72.9372 Y33.1468 F12000 ; Move to next pattern
G1 Z0.3 F12000 ; Z hop return
G1 E0.5 F2100 ; Un-retract
SET_PRESSURE_ADVANCE ADVANCE=0.08 ; Set pressure advance
M117 PA 0.08
G1 X94.1504 Y54.36 E0.25387 F4800 ; Print pattern wall
G1 X72.9372 Y75.5732 E0.25387 F4800 ; Print pattern wall
G1 E-0.5 F2100 ; Retract
G1 Z0.4 F12000 ; Z hop
G0 X73.225 Y33.1468 F12000 ; Move to start next pattern wall
G1 Z0.3 F12000 ; Z hop return
G1 E0.5 F2100 ; Un-retract
G1 X94.4382 Y54.36 E0.25387 F4800 ; Print pattern wall
G1 X73.225 Y75.5732 E0.25387 F4800 ; Print pattern wall
G1 E-0.5 F2100 ; Retract
G1 Z0.4 F12000 ; Z hop
G0 X73.5129 Y33.1468 F12000 ; Move to start next pattern wall
G1 Z0.3 F12000 ; Z hop return
G1 E0.5 F2100 ; Un-retract
G1 X94.7261 Y54.36 E0.25387 F4800 ; Print pattern wall
G1 X73.5129 Y75.5732 E0.25387 F4800 ; Print pattern wall
G1 E-0.5 F2100 ; Retract
G1 Z0.4 F12000 ; Z hop
G0 X28.126 Y33.1468 F12000 ; Move back to start position
G1 Z0.3 F12000 ; Z hop return
G1 E0.5 F2100 ; Un-retract
G0 Z0.4 F12000 ; Move to layer height
SET_PRESSURE_ADVANCE ADVANCE=0 ; Set pressure advance
M117 PA 0
G1 X49.3392 Y54.36 E0.25387 F4800 ; Print pattern wall
G1 X28.126 Y75.5732 E0.25387 F4800 ; Print pattern wall
G1 E-0.5 F2100 ; Retract
G1 Z0.5 F12000 ; Z hop
G0 X28.4139 Y33.1468 F12000 ; Move to start next pattern wall
G1 Z0.4 F12000 ; Z hop return
G1 E0.5 F2100 ; Un-retract
G1 X49.6271 Y54.36 E0.25387 F4800 ; Print pattern wall
G1 X28.4139 Y75.5732 E0.25387 F4800 ; Print pattern wall
G1 E-0.5 F2100 ; Retract
G1 Z0.5 F12000 ; Z hop
G0 X28.7017 Y33.1468 F12000 ; Move to start next pattern wall
G1 Z0.4 F12000 ; Z hop return
G1 E0.5 F2100 ; Un-retract
G1 X49.9149 Y54.36 E0.25387 F4800 ; Print pattern wall
G1 X28.7017 Y75.5732 E0.25387 F4800 ; Print pattern wall
G1 E-0.5 F2100 ; Retract
G1 Z0.5 F12000 ; Z hop
G0 X30.9267 Y33.1468 F12000 ; Move to next pattern
G1 Z0.4 F12000 ; Z hop return
G1 E0.5 F2100 ; Un-retract
SET_PRESSURE_ADVANCE ADVANCE=0.005 ; Set pressure advance
M117 PA 0.005
G1 X52.1399 Y54.36 E0.25387 F4800 ; Print pattern wall
G1 X30.9267 Y75.5732 E0.25387 F4800 ; Print pattern wall
G1 E-0.5 F2100 ; Retract
G1 Z0.5 F12000 ; Z hop
G0 X31.2146 Y33.1468 F12000 ; Move to start next pattern wall
G1 Z0.4 F12000 ; Z hop return
G1 E0.5 F2100 ; Un-retract
G1 X52.4278 Y54.36 E0.25387 F4800 ; Print pattern wall
G1 X31.2146 Y75.5732 E0.25387 F4800 ; Print pattern wall
G1 E-0.5 F2100 ; Retract
G1 Z0.5 F12000 ; Z hop
G0 X31.5024 Y33.1468 F12000 ; Move to start next pattern wall
G1 Z0.4 F12000 ; Z hop return
G1 E0.5 F2100 ; Un-retract
G1 X52.7156 Y54.36 E0.25387 F4800 ; Print pattern wall
G1 X31.5024 Y75.5732 E0.25387 F4800 ; Print pattern wall
G1 E-0.5 F2100 ; Retract
G1 Z0.5 F12000 ; Z hop
G0 X33.7274 Y33.1468 F12000 ; Move to next pattern
G1 Z0.4 F12000 ; Z hop return
G1 E0.5 F2100 ; Un-retract
SET_PRESSURE_ADVANCE ADVANCE=0.01 ; Set pressure advance
M117 PA 0.01
G1 X54.9406 Y54.36 E0.25387 F4800 ; Print pattern wall
G1 X33.7274 Y75.5732 E0.25387 F4800 ; Print pattern wall
G1 E-0.5 F2100 ; Retract
G1 Z0.5 F12000 ; Z hop
G0 X34.0153 Y33.1468 F12000 ; Move to start next pattern wall
G1 Z0.4 F12000 ; Z hop return
G1 E0.5 F2100 ; Un-retract
G1 X55.2285 Y54.36 E0.25387 F4800 ; Print pattern wall
G1 X34.0153 Y75.5732 E0.25387 F4800 ; Print pattern wall
G1 E-0.5 F2100 ; Retract
G1 Z0.5 F12000 ; Z hop
G0 X34.3031 Y33.1468 F12000 ; Move to start next pattern wall
G1 Z0.4 F12000 ; Z hop return
G1 E0.5 F2100 ; Un-retract
G1 X55.5163 Y54.36 E0.25387 F4800 ; Print pattern wall
G1 X34.3031 Y75.5732 E0.25387 F4800 ; Print pattern wall
G1 E-0.5 F2100 ; Retract
G1 Z0.5 F12000 ; Z hop
G0 X36.5281 Y33.1468 F12000 ; Move to next pattern
G1 Z0.4 F12000 ; Z hop return
G1 E0.5 F2100 ; Un-retract
SET_PRESSURE_ADVANCE ADVANCE=0.015 ; Set pressure advance
M117 PA 0.015
G1 X57.7413 Y54.36 E0.25387 F4800 ; Print pattern wall
G1 X36.5281 Y75.5732 E0.25387 F4800 ; Print pattern wall
G1 E-0.5 F2100 ; Retract
G1 Z0.5 F12000 ; Z hop
G0 X36.816 Y33.1468 F12000 ; Move to start next pattern wall
G1 Z0.4 F12000 ; Z hop return
G1 E0.5 F2100 ; Un-retract
G1 X58.0292 Y54.36 E0.25387 F4800 ; Print pattern wall
G1 X36.816 Y75.5732 E0.25387 F4800 ; Print pattern wall
G1 E-0.5 F2100 ; Retract
G1 Z0.5 F12000 ; Z hop
G0 X37.1038 Y33.1468 F12000 ; Move to start next pattern wall
G1 Z0.4 F12000 ; Z hop return
G1 E0.5 F2100 ; Un-retract
G1 X58.317 Y54.36 E0.25387 F4800 ; Print pattern wall
G1 X37.1038 Y75.5732 E0.25387 F4800 ; Print pattern wall
G1 E-0.5 F2100 ; Retract
G1 Z0.5 F12000 ; Z hop
G0 X39.3288 Y33.1468 F12000 ; Move to next pattern
G1 Z0.4 F12000 ; Z hop return
G1 E0.5 F2100 ; Un-retract
SET_PRESSURE_ADVANCE ADVANCE=0.02 ; Set pressure advance
M117 PA 0.02
G1 X60.542 Y54.36 E0.25387 F4800 ; Print pattern wall
G1 X39.3288 Y75.5732 E0.25387 F4800 ; Print pattern wall
G1 E-0.5 F2100 ; Retract
G1 Z0.5 F12000 ; Z hop
G0 X39.6167 Y33.1468 F12000 ; Move to start next pattern wall
G1 Z0.4 F12000 ; Z hop return
G1 E0.5 F2100 ; Un-retract
G1 X60.8299 Y54.36 E0.25387 F4800 ; Print pattern wall
G1 X39.6167 Y75.5732 E0.25387 F4800 ; Print pattern wall
G1 E-0.5 F2100 ; Retract
G1 Z0.5 F12000 ; Z hop
G0 X39.9045 Y33.1468 F12000 ; Move to start next pattern wall
G1 Z0.4 F12000 ; Z hop return
G1 E0.5 F2100 ; Un-retract
G1 X61.1177 Y54.36 E0.25387 F4800 ; Print pattern wall
G1 X39.9045 Y75.5732 E0.25387 F4800 ; Print pattern wall
G1 E-0.5 F2100 ; Retract
G1 Z0.5 F12000 ; Z hop
G0 X42.1295 Y33.1468 F12000 ; Move to next pattern
G1 Z0.4 F12000 ; Z hop return
G1 E0.5 F2100 ; Un-retract
SET_PRESSURE_ADVANCE ADVANCE=0.025 ; Set pressure advance
M117 PA 0.025
G1 X63.3427 Y54.36 E0.25387 F4800 ; Print pattern wall
G1 X42.1295 Y75.5732 E0.25387 F4800 ; Print pattern wall
G1 E-0.5 F2100 ; Retract
G1 Z0.5 F12000 ; Z hop
G0 X42.4174 Y33.1468 F12000 ; Move to start next pattern wall
G1 Z0.4 F12000 ; Z hop return
G1 E0.5 F2100 ; Un-retract
G1 X63.6306 Y54.36 E0.25387 F4800 ; Print pattern wall
G1 X42.4174 Y75.5732 E0.25387 F4800 ; Print pattern wall
G1 E-0.5 F2100 ; Retract
G1 Z0.5 F12000 ; Z hop
G0 X42.7052 Y33.1468 F12000 ; Move to start next pattern wall
G1 Z0.4 F12000 ; Z hop return
G1 E0.5 F2100 ; Un-retract
G1 X63.9184 Y54.36 E0.25387 F4800 ; Print pattern wall
G1 X42.7052 Y75.5732 E0.25387 F4800 ; Print pattern wall
G1 E-0.5 F2100 ; Retract
G1 Z0.5 F12000 ; Z hop
G0 X44.9302 Y33.1468 F12000 ; Move to next pattern
G1 Z0.4 F12000 ; Z hop return
G1 E0.5 F2100 ; Un-retract
SET_PRESSURE_ADVANCE ADVANCE=0.03 ; Set pressure advance
M117 PA 0.03
G1 X66.1434 Y54.36 E0.25387 F4800 ; Print pattern wall
G1 X44.9302 Y75.5732 E0.25387 F4800 ; Print pattern wall
G1 E-0.5 F2100 ; Retract
G1 Z0.5 F12000 ; Z hop
G0 X45.2181 Y33.1468 F12000 ; Move to start next pattern wall
G1 Z0.4 F12000 ; Z hop return
G1 E0.5 F2100 ; Un-retract
G1 X66.4313 Y54.36 E0.25387 F4800 ; Print pattern wall
G1 X45.2181 Y75.5732 E0.25387 F4800 ; Print pattern wall
G1 E-0.5 F2100 ; Retract
G1 Z0.5 F12000 ; Z hop
G0 X45.5059 Y33.1468 F12000 ; Move to start next pattern wall
G1 Z0.4 F12000 ; Z hop return
G1 E0.5 F2100 ; Un-retract
G1 X66.7191 Y54.36 E0.25387 F4800 ; Print pattern wall
G1 X45.5059 Y75.5732 E0.25387 F4800 ; Print pattern wall
G1 E-0.5 F2100 ; Retract
G1 Z0.5 F12000 ; Z hop
G0 X47.7309 Y33.1468 F12000 ; Move to next pattern
G1 Z0.4 F12000 ; Z hop return
G1 E0.5 F2100 ; Un-retract
SET_PRESSURE_ADVANCE ADVANCE=0.035 ; Set pressure advance
M117 PA 0.035
G1 X68.9441 Y54.36 E0.25387 F4800 ; Print pattern wall
G1 X47.7309 Y75.5732 E0.25387 F4800 ; Print pattern wall
G1 E-0.5 F2100 ; Retract
G1 Z0.5 F12000 ; Z hop
G0 X48.0188 Y33.1468 F12000 ; Move to start next pattern wall
G1 Z0.4 F12000 ; Z hop return
G1 E0.5 F2100 ; Un-retract
G1 X69.232 Y54.36 E0.25387 F4800 ; Print pattern wall
G1 X48.0188 Y75.5732 E0.25387 F4800 ; Print pattern wall
G1 E-0.5 F2100 ; Retract
G1 Z0.5 F12000 ; Z hop
G0 X48.3066 Y33.1468 F12000 ; Move to start next pattern wall
G1 Z0.4 F12000 ; Z hop return
G1 E0.5 F2100 ; Un-retract
G1 X69.5198 Y54.36 E0.25387 F4800 ; Print pattern wall
G1 X48.3066 Y75.5732 E0.25387 F4800 ; Print pattern wall
G1 E-0.5 F2100 ; Retract
G1 Z0.5 F12000 ; Z hop
G0 X50.5316 Y33.1468 F12000 ; Move to next pattern
G1 Z0.4 F12000 ; Z hop return
G1 E0.5 F2100 ; Un-retract
SET_PRESSURE_ADVANCE ADVANCE=0.04 ; Set pressure advance
M117 PA 0.04
G1 X71.7448 Y54.36 E0.25387 F4800 ; Print pattern wall
G1 X50.5316 Y75.5732 E0.25387 F4800 ; Print pattern wall
G1 E-0.5 F2100 ; Retract
G1 Z0.5 F12000 ; Z hop
G0 X50.8195 Y33.1468 F12000 ; Move to start next pattern wall
G1 Z0.4 F12000 ; Z hop return
G1 E0.5 F2100 ; Un-retract
G1 X72.0327 Y54.36 E0.25387 F4800 ; Print pattern wall
G1 X50.8195 Y75.5732 E0.25387 F4800 ; Print pattern wall
G1 E-0.5 F2100 ; Retract
G1 Z0.5 F12000 ; Z hop
G0 X51.1073 Y33.1468 F12000 ; Move to start next pattern wall
G1 Z0.4 F12000 ; Z hop return
G1 E0.5 F2100 ; Un-retract
G1 X72.3205 Y54.36 E0.25387 F4800 ; Print pattern wall
G1 X51.1073 Y75.5732 E0.25387 F4800 ; Print pattern wall
G1 E-0.5 F2100 ; Retract
G1 Z0.5 F12000 ; Z hop
G0 X53.3323 Y33.1468 F12000 ; Move to next pattern
G1 Z0.4 F12000 ; Z hop return
G1 E0.5 F2100 ; Un-retract
SET_PRESSURE_ADVANCE ADVANCE=0.045 ; Set pressure advance
M117 PA 0.045
G1 X74.5455 Y54.36 E0.25387 F4800 ; Print pattern wall
G1 X53.3323 Y75.5732 E0.25387 F4800 ; Print pattern wall
G1 E-0.5 F2100 ; Retract
G1 Z0.5 F12000 ; Z hop
G0 X53.6202 Y33.1468 F12000 ; Move to start next pattern wall
G1 Z0.4 F12000 ; Z hop return
G1 E0.5 F2100 ; Un-retract
G1 X74.8334 Y54.36 E0.25387 F4800 ; Print pattern wall
G1 X53.6202 Y75.5732 E0.25387 F4800 ; Print pattern wall
G1 E-0.5 F2100 ; Retract
G1 Z0.5 F12000 ; Z hop
G0 X53.908 Y33.1468 F12000 ; Move to start next pattern wall
G1 Z0.4 F12000 ; Z hop return
G1 E0.5 F2100 ; Un-retract
G1 X75.1212 Y54.36 E0.25387 F4800 ; Print pattern wall
G1 X53.908 Y75.5732 E0.25387 F4800 ; Print pattern wall
G1 E-0.5 F2100 ; Retract
G1 Z0.5 F12000 ; Z hop
G0 X56.133 Y33.1468 F12000 ; Move to next pattern
G1 Z0.4 F12000 ; Z hop return
G1 E0.5 F2100 ; Un-retract
SET_PRESSURE_ADVANCE ADVANCE=0.05 ; Set pressure advance
M117 PA 0.05
G1 X77.3462 Y54.36 E0.25387 F4800 ; Print pattern wall
G1 X56.133 Y75.5732 E0.25387 F4800 ; Print pattern wall
G1 E-0.5 F2100 ; Retract
G1 Z0.5 F12000 ; Z hop
G0 X56.4208 Y33.1468 F12000 ; Move to start next pattern wall
G1 Z0.4 F12000 ; Z hop return
G1 E0.5 F2100 ; Un-retract
G1 X77.6341 Y54.36 E0.25387 F4800 ; Print pattern wall
G1 X56.4208 Y75.5732 E0.25387 F4800 ; Print pattern wall
G1 E-0.5 F2100 ; Retract
G1 Z0.5 F12000 ; Z hop
G0 X56.7087 Y33.1468 F12000 ; Move to start next pattern wall
G1 Z0.4 F12000 ; Z hop return
G1 E0.5 F2100 ; Un-retract
G1 X77.9219 Y54.36 E0.25387 F4800 ; Print pattern wall
G1 X56.7087 Y75.5732 E0.25387 F4800 ; Print pattern wall
G1 E-0.5 F2100 ; Retract
G1 Z0.5 F12000 ; Z hop
G0 X58.9337 Y33.1468 F12000 ; Move to next pattern
G1 Z0.4 F12000 ; Z hop return
G1 E0.5 F2100 ; Un-retract
SET_PRESSURE_ADVANCE ADVANCE=0.055 ; Set pressure advance
M117 PA 0.055
G1 X80.1469 Y54.36 E0.25387 F4800 ; Print pattern wall
G1 X58.9337 Y75.5732 E0.25387 F4800 ; Print pattern wall
G1 E-0.5 F2100 ; Retract
G1 Z0.5 F12000 ; Z hop
G0 X59.2215 Y33.1468 F12000 ; Move to start next pattern wall
G1 Z0.4 F12000 ; Z hop return
G1 E0.5 F2100 ; Un-retract
G1 X80.4348 Y54.36 E0.25387 F4800 ; Print pattern wall
G1 X59.2215 Y75.5732 E0.25387 F4800 ; Print pattern wall
G1 E-0.5 F2100 ; Retract
G1 Z0.5 F12000 ; Z hop
G0 X59.5094 Y33.1468 F12000 ; Move to start next pattern wall
G1 Z0.4 F12000 ; Z hop return
G1 E0.5 F2100 ; Un-retract
G1 X80.7226 Y54.36 E0.25387 F4800 ; Print pattern wall
G1 X59.5094 Y75.5732 E0.25387 F4800 ; Print pattern wall
G1 E-0.5 F2100 ; Retract
G1 Z0.5 F12000 ; Z hop
G0 X61.7344 Y33.1468 F12000 ; Move to next pattern
G1 Z0.4 F12000 ; Z hop return
G1 E0.5 F2100 ; Un-retract
SET_PRESSURE_ADVANCE ADVANCE=0.06 ; Set pressure advance
M117 PA 0.06
G1 X82.9476 Y54.36 E0.25387 F4800 ; Print pattern wall
G1 X61.7344 Y75.5732 E0.25387 F4800 ; Print pattern wall
G1 E-0.5 F2100 ; Retract
G1 Z0.5 F12000 ; Z hop
G0 X62.0222 Y33.1468 F12000 ; Move to start next pattern wall
G1 Z0.4 F12000 ; Z hop return
G1 E0.5 F2100 ; Un-retract
G1 X83.2354 Y54.36 E0.25387 F4800 ; Print pattern wall
G1 X62.0222 Y75.5732 E0.25387 F4800 ; Print pattern wall
G1 E-0.5 F2100 ; Retract
G1 Z0.5 F12000 ; Z hop
G0 X62.3101 Y33.1468 F12000 ; Move to start next pattern wall
G1 Z0.4 F12000 ; Z hop return
G1 E0.5 F2100 ; Un-retract
G1 X83.5233 Y54.36 E0.25387 F4800 ; Print pattern wall
G1 X62.3101 Y75.5732 E0.25387 F4800 ; Print pattern wall
G1 E-0.5 F2100 ; Retract
G1 Z0.5 F12000 ; Z hop
G0 X64.5351 Y33.1468 F12000 ; Move to next pattern
G1 Z0.4 F12000 ; Z hop return
G1 E0.5 F2100 ; Un-retract
SET_PRESSURE_ADVANCE ADVANCE=0.065 ; Set pressure advance
M117 PA 0.065
G1 X85.7483 Y54.36 E0.25387 F4800 ; Print pattern wall
G1 X64.5351 Y75.5732 E0.25387 F4800 ; Print pattern wall
G1 E-0.5 F2100 ; Retract
G1 Z0.5 F12000 ; Z hop
G0 X64.8229 Y33.1468 F12000 ; Move to start next pattern wall
G1 Z0.4 F12000 ; Z hop return
G1 E0.5 F2100 ; Un-retract
G1 X86.0361 Y54.36 E0.25387 F4800 ; Print pattern wall
G1 X64.8229 Y75.5732 E0.25387 F4800 ; Print pattern wall
G1 E-0.5 F2100 ; Retract
G1 Z0.5 F12000 ; Z hop
G0 X65.1108 Y33.1468 F12000 ; Move to start next pattern wall
G1 Z0.4 F12000 ; Z hop return
G1 E0.5 F2100 ; Un-retract
G1 X86.324 Y54.36 E0.25387 F4800 ; Print pattern wall
G1 X65.1108 Y75.5732 E0.25387 F4800 ; Print pattern wall
G1 E-0.5 F2100 ; Retract
G1 Z0.5 F12000 ; Z hop
G0 X67.3358 Y33.1468 F12000 ; Move to next pattern
G1 Z0.4 F12000 ; Z hop return
G1 E0.5 F2100 ; Un-retract
SET_PRESSURE_ADVANCE ADVANCE=0.07 ; Set pressure advance
M117 PA 0.07
G1 X88.549 Y54.36 E0.25387 F4800 ; Print pattern wall
G1 X67.3358 Y75.5732 E0.25387 F4800 ; Print pattern wall
G1 E-0.5 F2100 ; Retract
G1 Z0.5 F12000 ; Z hop
G0 X67.6236 Y33.1468 F12000 ; Move to start next pattern wall
G1 Z0.4 F12000 ; Z hop return
G1 E0.5 F2100 ; Un-retract
G1 X88.8368 Y54.36 E0.25387 F4800 ; Print pattern wall
G1 X67.6236 Y75.5732 E0.25387 F4800 ; Print pattern wall
G1 E-0.5 F2100 ; Retract
G1 Z0.5 F12000 ; Z hop
G0 X67.9115 Y33.1468 F12000 ; Move to start next pattern wall
G1 Z0.4 F12000 ; Z hop return
G1 E0.5 F2100 ; Un-retract
G1 X89.1247 Y54.36 E0.25387 F4800 ; Print pattern wall
G1 X67.9115 Y75.5732 E0.25387 F4800 ; Print pattern wall
G1 E-0.5 F2100 ; Retract
G1 Z0.5 F12000 ; Z hop
G0 X70.1365 Y33.1468 F12000 ; Move to next pattern
G1 Z0.4 F12000 ; Z hop return
G1 E0.5 F2100 ; Un-retract
SET_PRESSURE_ADVANCE ADVANCE=0.075 ; Set pressure advance
M117 PA 0.075
G1 X91.3497 Y54.36 E0.25387 F4800 ; Print pattern wall
G1 X70.1365 Y75.5732 E0.25387 F4800 ; Print pattern wall
G1 E-0.5 F2100 ; Retract
G1 Z0.5 F12000 ; Z hop
G0 X70.4243 Y33.1468 F12000 ; Move to start next pattern wall
G1 Z0.4 F12000 ; Z hop return
G1 E0.5 F2100 ; Un-retract
G1 X91.6375 Y54.36 E0.25387 F4800 ; Print pattern wall
G1 X70.4243 Y75.5732 E0.25387 F4800 ; Print pattern wall
G1 E-0.5 F2100 ; Retract
G1 Z0.5 F12000 ; Z hop
G0 X70.7122 Y33.1468 F12000 ; Move to start next pattern wall
G1 Z0.4 F12000 ; Z hop return
G1 E0.5 F2100 ; Un-retract
G1 X91.9254 Y54.36 E0.25387 F4800 ; Print pattern wall
G1 X70.7122 Y75.5732 E0.25387 F4800 ; Print pattern wall
G1 E-0.5 F2100 ; Retract
G1 Z0.5 F12000 ; Z hop
G0 X72.9372 Y33.1468 F12000 ; Move to next pattern
G1 Z0.4 F12000 ; Z hop return
G1 E0.5 F2100 ; Un-retract
SET_PRESSURE_ADVANCE ADVANCE=0.08 ; Set pressure advance
M117 PA 0.08
G1 X94.1504 Y54.36 E0.25387 F4800 ; Print pattern wall
G1 X72.9372 Y75.5732 E0.25387 F4800 ; Print pattern wall
G1 E-0.5 F2100 ; Retract
G1 Z0.5 F12000 ; Z hop
G0 X73.225 Y33.1468 F12000 ; Move to start next pattern wall
G1 Z0.4 F12000 ; Z hop return
G1 E0.5 F2100 ; Un-retract
G1 X94.4382 Y54.36 E0.25387 F4800 ; Print pattern wall
G1 X73.225 Y75.5732 E0.25387 F4800 ; Print pattern wall
G1 E-0.5 F2100 ; Retract
G1 Z0.5 F12000 ; Z hop
G0 X73.5129 Y33.1468 F12000 ; Move to start next pattern wall
G1 Z0.4 F12000 ; Z hop return
G1 E0.5 F2100 ; Un-retract
G1 X94.7261 Y54.36 E0.25387 F4800 ; Print pattern wall
G1 X73.5129 Y75.5732 E0.25387 F4800 ; Print pattern wall
SET_PRESSURE_ADVANCE ADVANCE=0 ; Set pressure advance back to start value
M117 PA 0
G1 E-0.5 F2100 ; Retract
G1 Z0.5 F12000 ; Z hop
G0 Z5.4 F12000 ; Z raise
M104 S0 ; Turn off hotend
M140 S0 ; Turn off bed
M107    ; Turn off fan
;
; End G-code
;
END_PRINT
;
; FINISH
;
