
; ### Ellis' Pressure Advance / Linear Advance Calibration Tool ###
;
; Original Marlin linear advance calibration tool by Sineos [https://github.com/Sineos]
; Heavily modified/rewritten by Andrew Ellis [https://github.com/AndrewEllis93]
;
; -------------------------------------------
; Generated: Mon Dec 26 2022 14:08:20 GMT-0800 (Pacific Standard Time)
; -------------------------------------------
;
; Advanced mode: false
;
; Printer:
;  - Firmware: klipper
;  - Bed Shape: Rect
;  - Bed Size X: 120 mm
;  - Bed Size Y: 120 mm
;  - Origin Bed Center: false
;  - Travel Speed: 200 mm/s
;  - Nozzle Diameter: 0.4 mm
;  - Filament Diameter: 1.75 mm
;  - Extrusion Multiplier: 1
;
; Retraction / Z Hop:
;  - Retraction Distance: 0.5 mm
;  - Retract Speed: 35 mm/s
;  - Unretract Speed: 35 mm/s
;  - Z Hop Enable: true
;  - Z Hop Height: 0.1mm
;
; First Layer Settings:
;  - First Layer Height: 0.25 mm
;  - First Layer Printing Speed: 30 mm/s
;  - First Layer Fan Speed: 0%
;  - Anchor Option: anchor_frame
;
; Print Settings:
;  - Layer Height: 0.2 mm
;  - Print Speed: 80 mm/s
;  - Acceleration: Disabled
;  - Fan Speed: 100%
;
; Pressure Advance Stepping:
;  - PA Start Value: 0.05
;  - PA End Value: 0.06
;  - PA Increment: 0.001
;
; Start / End G-code:
;  - Start G-code Type: standalone
;  - Hotend Temp: 200C
;  - Bed Temp: 60C
;
; Calculated Values:
;  - Print Size X: 63.11 mm
;  - Print Size Y: 56.99 mm
;  - Number of Patterns to Print: 11
;  - PA Values: 0.05, 0.051, 0.052, 0.053, 0.054, 0.055, 0.056, 0.057, 0.058, 0.059, 0.06
;
; Prepare printing
;
M190 S60    ; Set & wait for bed temp. !Don't modify/delete, only move!
M109 S200 ; Set & wait for hotend temp. !Don't modify/delete, only move!
START_PRINT T_BED=60 T_EXTRUDER=200
;
; Make sure this macro name matches your own!
; (For example, some may use START_PRINT instead.)
G21 ; Millimeter units
G90 ; Absolute XYZ
M83 ; Relative E
G92 E0 ; Reset extruder distance
;
;  Begin printing
;
M106 S0 ; Set fan speed
G1 E-0.5 F2100 ; Retract
G0 Z5 F12000 ; Z raise
G0 X28.4459 Y31.5068 F12000 ; Move to start position
G0 Z0.25 F12000 ; Move to start layer height
G1 E0.5 F2100 ; Un-retract
SET_PRESSURE_ADVANCE ADVANCE=0.05 ; Set pressure advance to start value
M117 PA 0.05
G1 X28.4459 Y73.9332 E2.23286 F1800 ; Draw perimeter (up)
G1 X91.5541 Y73.9332 E3.32132 F1800 ; Draw perimeter (right)
G1 X91.5541 Y31.5068 E2.23286 F1800 ; Draw perimeter (down)
G1 X28.4459 Y31.5068 E3.32132 F1800 ; Draw perimeter (left)
G0 X28.9522 Y32.0131 F12000 ; Step inwards to print next perimeter
G1 X28.9522 Y73.4269 E2.17956 F1800 ; Draw perimeter (up)
G1 X91.0478 Y73.4269 E3.26802 F1800 ; Draw perimeter (right)
G1 X91.0478 Y32.0131 E2.17956 F1800 ; Draw perimeter (down)
G1 X28.9522 Y32.0131 E3.26802 F1800 ; Draw perimeter (left)
G0 X29.4586 Y32.5195 F12000 ; Step inwards to print next perimeter
G1 X29.4586 Y72.9205 E2.12626 F1800 ; Draw perimeter (up)
G1 X90.5414 Y72.9205 E3.21472 F1800 ; Draw perimeter (right)
G1 X90.5414 Y32.5195 E2.12626 F1800 ; Draw perimeter (down)
G1 X29.4586 Y32.5195 E3.21472 F1800 ; Draw perimeter (left)
G0 X29.9649 Y33.0258 F12000 ; Step inwards to print next perimeter
G1 X29.9649 Y72.4142 E2.07296 F1800 ; Draw perimeter (up)
G1 X90.0351 Y72.4142 E3.16142 F1800 ; Draw perimeter (right)
G1 X90.0351 Y33.0258 E2.07296 F1800 ; Draw perimeter (down)
G1 X29.9649 Y33.0258 E3.16142 F1800 ; Draw perimeter (left)
G1 E-0.5 F2100 ; Retract
G1 Z0.35 F12000 ; Z hop
G0 X28.4459 Y74.4396 F12000 ; Move to box start
G1 Z0.25 F12000 ; Z hop return
G1 E0.5 F2100 ; Un-retract
G1 X28.4459 Y88.9459 E0.76345 F1800 ; Draw perimeter (up)
G1 X71.092 Y88.9459 E2.24442 F1800 ; Draw perimeter (right)
G1 X71.092 Y74.4396 E0.76345 F1800 ; Draw perimeter (down)
G1 X28.4459 Y74.4396 E2.24442 F1800 ; Draw perimeter (left)
G0 X28.9522 Y74.9459 F12000 ; Step inwards to print next perimeter
G1 X28.9522 Y88.4396 E0.71016 F1800 ; Draw perimeter (up)
G1 X70.5857 Y88.4396 E2.19112 F1800 ; Draw perimeter (right)
G1 X70.5857 Y74.9459 E0.71016 F1800 ; Draw perimeter (down)
G1 X28.9522 Y74.9459 E2.19112 F1800 ; Draw perimeter (left)
G0 X29.4586 Y75.4523 F12000 ; Step inwards to print next perimeter
G1 X29.4586 Y87.9332 E0.65686 F1800 ; Draw perimeter (up)
G1 X70.0793 Y87.9332 E2.13782 F1800 ; Draw perimeter (right)
G1 X70.0793 Y75.4523 E0.65686 F1800 ; Draw perimeter (down)
G1 X29.4586 Y75.4523 E2.13782 F1800 ; Draw perimeter (left)
G0 X29.9649 Y75.9586 F12000 ; Step inwards to print next perimeter
G1 X29.9649 Y87.4269 E0.60356 F1800 ; Draw perimeter (up)
G1 X69.573 Y87.4269 E2.08453 F1800 ; Draw perimeter (right)
G1 X69.573 Y75.9586 E0.60356 F1800 ; Draw perimeter (down)
G1 X29.9649 Y75.9586 E2.08453 F1800 ; Draw perimeter (left)
G0 X30.3383 Y76.3319 F12000 ; Move to fill start
G0 X31.0544 Y76.3319 F12000 ; Move
G1 X30.3383 Y77.048 E0.0533 F1800 ; Fill
G0 X30.3383 Y77.7641 F12000 ; Move
G1 X31.7705 Y76.3319 E0.10659 F1800 ; Fill
G0 X32.4865 Y76.3319 F12000 ; Move
G1 X30.3383 Y78.4802 E0.15989 F1800 ; Fill
G0 X30.3383 Y79.1963 F12000 ; Move
G1 X33.2026 Y76.3319 E0.21319 F1800 ; Fill
G0 X33.9187 Y76.3319 F12000 ; Move
G1 X30.3383 Y79.9124 E0.26649 F1800 ; Fill
G0 X30.3383 Y80.6285 F12000 ; Move
G1 X34.6348 Y76.3319 E0.31978 F1800 ; Fill
G0 X35.3509 Y76.3319 F12000 ; Move
G1 X30.3383 Y81.3445 E0.37308 F1800 ; Fill
G0 X30.3383 Y82.0606 F12000 ; Move
G1 X36.067 Y76.3319 E0.42638 F1800 ; Fill
G0 X36.7831 Y76.3319 F12000 ; Move
G1 X30.3383 Y82.7767 E0.47968 F1800 ; Fill
G0 X30.3383 Y83.4928 F12000 ; Move
G1 X37.4991 Y76.3319 E0.53297 F1800 ; Fill
G0 X38.2152 Y76.3319 F12000 ; Move
G1 X30.3383 Y84.2089 E0.58627 F1800 ; Fill
G0 X30.3383 Y84.925 F12000 ; Move
G1 X38.9313 Y76.3319 E0.63957 F1800 ; Fill
G0 X39.6474 Y76.3319 F12000 ; Move
G1 X30.3383 Y85.6411 E0.69286 F1800 ; Fill
G0 X30.3383 Y86.3571 F12000 ; Move
G1 X40.3635 Y76.3319 E0.74616 F1800 ; Fill
G0 X41.0796 Y76.3319 F12000 ; Move
G1 X30.358 Y87.0535 E0.79799 F1800 ; Fill
G0 X31.0741 Y87.0535 F12000 ; Move
G1 X41.7957 Y76.3319 E0.79799 F1800 ; Fill
G0 X42.5118 Y76.3319 F12000 ; Move
G1 X31.7902 Y87.0535 E0.79799 F1800 ; Fill
G0 X32.5063 Y87.0535 F12000 ; Move
G1 X43.2278 Y76.3319 E0.79799 F1800 ; Fill
G0 X43.9439 Y76.3319 F12000 ; Move
G1 X33.2223 Y87.0535 E0.79799 F1800 ; Fill
G0 X33.9384 Y87.0535 F12000 ; Move
G1 X44.66 Y76.3319 E0.79799 F1800 ; Fill
G0 X45.3761 Y76.3319 F12000 ; Move
G1 X34.6545 Y87.0535 E0.79799 F1800 ; Fill
G0 X35.3706 Y87.0535 F12000 ; Move
G1 X46.0922 Y76.3319 E0.79799 F1800 ; Fill
G0 X46.8083 Y76.3319 F12000 ; Move
G1 X36.0867 Y87.0535 E0.79799 F1800 ; Fill
G0 X36.8028 Y87.0535 F12000 ; Move
G1 X47.5244 Y76.3319 E0.79799 F1800 ; Fill
G0 X48.2404 Y76.3319 F12000 ; Move
G1 X37.5189 Y87.0535 E0.79799 F1800 ; Fill
G0 X38.2349 Y87.0535 F12000 ; Move
G1 X48.9565 Y76.3319 E0.79799 F1800 ; Fill
G0 X49.6726 Y76.3319 F12000 ; Move
G1 X38.951 Y87.0535 E0.79799 F1800 ; Fill
G0 X39.6671 Y87.0535 F12000 ; Move
G1 X50.3887 Y76.3319 E0.79799 F1800 ; Fill
G0 X51.1048 Y76.3319 F12000 ; Move
G1 X40.3832 Y87.0535 E0.79799 F1800 ; Fill
G0 X41.0993 Y87.0535 F12000 ; Move
G1 X51.8209 Y76.3319 E0.79799 F1800 ; Fill
G0 X52.537 Y76.3319 F12000 ; Move
G1 X41.8154 Y87.0535 E0.79799 F1800 ; Fill
G0 X42.5315 Y87.0535 F12000 ; Move
G1 X53.253 Y76.3319 E0.79799 F1800 ; Fill
G0 X53.9691 Y76.3319 F12000 ; Move
G1 X43.2475 Y87.0535 E0.79799 F1800 ; Fill
G0 X43.9636 Y87.0535 F12000 ; Move
G1 X54.6852 Y76.3319 E0.79799 F1800 ; Fill
G0 X55.4013 Y76.3319 F12000 ; Move
G1 X44.6797 Y87.0535 E0.79799 F1800 ; Fill
G0 X45.3958 Y87.0535 F12000 ; Move
G1 X56.1174 Y76.3319 E0.79799 F1800 ; Fill
G0 X56.8335 Y76.3319 F12000 ; Move
G1 X46.1119 Y87.0535 E0.79799 F1800 ; Fill
G0 X46.828 Y87.0535 F12000 ; Move
G1 X57.5496 Y76.3319 E0.79799 F1800 ; Fill
G0 X58.2657 Y76.3319 F12000 ; Move
G1 X47.5441 Y87.0535 E0.79799 F1800 ; Fill
G0 X48.2602 Y87.0535 F12000 ; Move
G1 X58.9817 Y76.3319 E0.79799 F1800 ; Fill
G0 X59.6978 Y76.3319 F12000 ; Move
G1 X48.9762 Y87.0535 E0.79799 F1800 ; Fill
G0 X49.6923 Y87.0535 F12000 ; Move
G1 X60.4139 Y76.3319 E0.79799 F1800 ; Fill
G0 X61.13 Y76.3319 F12000 ; Move
G1 X50.4084 Y87.0535 E0.79799 F1800 ; Fill
G0 X51.1245 Y87.0535 F12000 ; Move
G1 X61.8461 Y76.3319 E0.79799 F1800 ; Fill
G0 X62.5622 Y76.3319 F12000 ; Move
G1 X51.8406 Y87.0535 E0.79799 F1800 ; Fill
G0 X52.5567 Y87.0535 F12000 ; Move
G1 X63.2783 Y76.3319 E0.79799 F1800 ; Fill
G0 X63.9943 Y76.3319 F12000 ; Move
G1 X53.2728 Y87.0535 E0.79799 F1800 ; Fill
G0 X53.9888 Y87.0535 F12000 ; Move
G1 X64.7104 Y76.3319 E0.79799 F1800 ; Fill
G0 X65.4265 Y76.3319 F12000 ; Move
G1 X54.7049 Y87.0535 E0.79799 F1800 ; Fill
G0 X55.421 Y87.0535 F12000 ; Move
G1 X66.1426 Y76.3319 E0.79799 F1800 ; Fill
G0 X66.8587 Y76.3319 F12000 ; Move
G1 X56.1371 Y87.0535 E0.79799 F1800 ; Fill
G0 X56.8532 Y87.0535 F12000 ; Move
G1 X67.5748 Y76.3319 E0.79799 F1800 ; Fill
G0 X68.2909 Y76.3319 F12000 ; Move
G1 X57.5693 Y87.0535 E0.79799 F1800 ; Fill
G0 X58.2854 Y87.0535 F12000 ; Move
G1 X69.0069 Y76.3319 E0.79799 F1800 ; Fill
G0 X69.1996 Y76.8554 F12000 ; Move
G1 X59.0014 Y87.0535 E0.75903 F1800 ; Fill
G0 X59.7175 Y87.0535 F12000 ; Move
G1 X69.1996 Y77.5714 E0.70574 F1800 ; Fill
G0 X69.1996 Y78.2875 F12000 ; Move
G1 X60.4336 Y87.0535 E0.65244 F1800 ; Fill
G0 X61.1497 Y87.0535 F12000 ; Move
G1 X69.1996 Y79.0036 E0.59914 F1800 ; Fill
G0 X69.1996 Y79.7197 F12000 ; Move
G1 X61.8658 Y87.0535 E0.54585 F1800 ; Fill
G0 X62.5819 Y87.0535 F12000 ; Move
G1 X69.1996 Y80.4358 E0.49255 F1800 ; Fill
G0 X69.1996 Y81.1519 F12000 ; Move
G1 X63.298 Y87.0535 E0.43925 F1800 ; Fill
G0 X64.0141 Y87.0535 F12000 ; Move
G1 X69.1996 Y81.868 E0.38595 F1800 ; Fill
G0 X69.1996 Y82.584 F12000 ; Move
G1 X64.7301 Y87.0535 E0.33266 F1800 ; Fill
G0 X65.4462 Y87.0535 F12000 ; Move
G1 X69.1996 Y83.3001 E0.27936 F1800 ; Fill
G0 X69.1996 Y84.0162 F12000 ; Move
G1 X66.1623 Y87.0535 E0.22606 F1800 ; Fill
G0 X66.8784 Y87.0535 F12000 ; Move
G1 X69.1996 Y84.7323 E0.17277 F1800 ; Fill
G0 X69.1996 Y85.4484 F12000 ; Move
G1 X67.5945 Y87.0535 E0.11947 F1800 ; Fill
G0 X68.3106 Y87.0535 F12000 ; Move
G1 X69.1996 Y86.1645 E0.06617 F1800 ; Fill
G0 X69.1996 Y86.8806 F12000 ; Move
G1 X69.0267 Y87.0535 E0.01287 F1800 ; Fill
G0 Z0.25 F12000 ; Move to layer height
G1 E-0.5 F2100 ; Retract
G1 Z0.35 F12000 ; Z hop
G0 X33.0426 Y33.3992 F12000 ; Move to pattern start

G1 Z0.25 F12000 ; Z hop return
G1 E0.5 F2100 ; Un-retract
SET_PRESSURE_ADVANCE ADVANCE=0.05 ; Set pressure advance
M117 PA 0.05
G1 X52.3634 Y52.72 E1.12562 F1800 ; Print pattern wall
G1 X33.0426 Y72.0408 E1.12562 F1800 ; Print pattern wall
G1 E-0.5 F2100 ; Retract
G1 Z0.35 F12000 ; Z hop
G0 X33.6183 Y33.3992 F12000 ; Move to start next pattern wall
G1 Z0.25 F12000 ; Z hop return
G1 E0.5 F2100 ; Un-retract
G1 X52.9391 Y52.72 E1.12562 F1800 ; Print pattern wall
G1 X33.6183 Y72.0408 E1.12562 F1800 ; Print pattern wall
G1 E-0.5 F2100 ; Retract
G1 Z0.35 F12000 ; Z hop
G0 X34.194 Y33.3992 F12000 ; Move to start next pattern wall
G1 Z0.25 F12000 ; Z hop return
G1 E0.5 F2100 ; Un-retract
G1 X53.5148 Y52.72 E1.12562 F1800 ; Print pattern wall
G1 X34.194 Y72.0408 E1.12562 F1800 ; Print pattern wall
G1 E-0.5 F2100 ; Retract
G1 Z0.35 F12000 ; Z hop
G0 X36.644 Y33.3992 F12000 ; Move to next pattern
G1 Z0.25 F12000 ; Z hop return
G1 E0.5 F2100 ; Un-retract
SET_PRESSURE_ADVANCE ADVANCE=0.051 ; Set pressure advance
M117 PA 0.051
G1 X55.9648 Y52.72 E1.12562 F1800 ; Print pattern wall
G1 X36.644 Y72.0408 E1.12562 F1800 ; Print pattern wall
G1 E-0.5 F2100 ; Retract
G1 Z0.35 F12000 ; Z hop
G0 X37.2197 Y33.3992 F12000 ; Move to start next pattern wall
G1 Z0.25 F12000 ; Z hop return
G1 E0.5 F2100 ; Un-retract
G1 X56.5405 Y52.72 E1.12562 F1800 ; Print pattern wall
G1 X37.2197 Y72.0408 E1.12562 F1800 ; Print pattern wall
G1 E-0.5 F2100 ; Retract
G1 Z0.35 F12000 ; Z hop
G0 X37.7954 Y33.3992 F12000 ; Move to start next pattern wall
G1 Z0.25 F12000 ; Z hop return
G1 E0.5 F2100 ; Un-retract
G1 X57.1162 Y52.72 E1.12562 F1800 ; Print pattern wall
G1 X37.7954 Y72.0408 E1.12562 F1800 ; Print pattern wall
G1 E-0.5 F2100 ; Retract
G1 Z0.35 F12000 ; Z hop
G0 X40.2454 Y33.3992 F12000 ; Move to next pattern
G1 Z0.25 F12000 ; Z hop return
G1 E0.5 F2100 ; Un-retract
SET_PRESSURE_ADVANCE ADVANCE=0.052 ; Set pressure advance
M117 PA 0.052
G1 X59.5662 Y52.72 E1.12562 F1800 ; Print pattern wall
G1 X40.2454 Y72.0408 E1.12562 F1800 ; Print pattern wall
G1 E-0.5 F2100 ; Retract
G1 Z0.35 F12000 ; Z hop
G0 X40.8211 Y33.3992 F12000 ; Move to start next pattern wall
G1 Z0.25 F12000 ; Z hop return
G1 E0.5 F2100 ; Un-retract
G1 X60.1419 Y52.72 E1.12562 F1800 ; Print pattern wall
G1 X40.8211 Y72.0408 E1.12562 F1800 ; Print pattern wall
G1 E-0.5 F2100 ; Retract
G1 Z0.35 F12000 ; Z hop
G0 X41.3968 Y33.3992 F12000 ; Move to start next pattern wall
G1 Z0.25 F12000 ; Z hop return
G1 E0.5 F2100 ; Un-retract
G1 X60.7176 Y52.72 E1.12562 F1800 ; Print pattern wall
G1 X41.3968 Y72.0408 E1.12562 F1800 ; Print pattern wall
G1 E-0.5 F2100 ; Retract
G1 Z0.35 F12000 ; Z hop
G0 X43.8468 Y33.3992 F12000 ; Move to next pattern
G1 Z0.25 F12000 ; Z hop return
G1 E0.5 F2100 ; Un-retract
SET_PRESSURE_ADVANCE ADVANCE=0.053 ; Set pressure advance
M117 PA 0.053
G1 X63.1676 Y52.72 E1.12562 F1800 ; Print pattern wall
G1 X43.8468 Y72.0408 E1.12562 F1800 ; Print pattern wall
G1 E-0.5 F2100 ; Retract
G1 Z0.35 F12000 ; Z hop
G0 X44.4225 Y33.3992 F12000 ; Move to start next pattern wall
G1 Z0.25 F12000 ; Z hop return
G1 E0.5 F2100 ; Un-retract
G1 X63.7433 Y52.72 E1.12562 F1800 ; Print pattern wall
G1 X44.4225 Y72.0408 E1.12562 F1800 ; Print pattern wall
G1 E-0.5 F2100 ; Retract
G1 Z0.35 F12000 ; Z hop
G0 X44.9982 Y33.3992 F12000 ; Move to start next pattern wall
G1 Z0.25 F12000 ; Z hop return
G1 E0.5 F2100 ; Un-retract
G1 X64.319 Y52.72 E1.12562 F1800 ; Print pattern wall
G1 X44.9982 Y72.0408 E1.12562 F1800 ; Print pattern wall
G1 E-0.5 F2100 ; Retract
G1 Z0.35 F12000 ; Z hop
G0 X47.4482 Y33.3992 F12000 ; Move to next pattern
G1 Z0.25 F12000 ; Z hop return
G1 E0.5 F2100 ; Un-retract
SET_PRESSURE_ADVANCE ADVANCE=0.054 ; Set pressure advance
M117 PA 0.054
G1 X66.769 Y52.72 E1.12562 F1800 ; Print pattern wall
G1 X47.4482 Y72.0408 E1.12562 F1800 ; Print pattern wall
G1 E-0.5 F2100 ; Retract
G1 Z0.35 F12000 ; Z hop
G0 X48.0239 Y33.3992 F12000 ; Move to start next pattern wall
G1 Z0.25 F12000 ; Z hop return
G1 E0.5 F2100 ; Un-retract
G1 X67.3447 Y52.72 E1.12562 F1800 ; Print pattern wall
G1 X48.0239 Y72.0408 E1.12562 F1800 ; Print pattern wall
G1 E-0.5 F2100 ; Retract
G1 Z0.35 F12000 ; Z hop
G0 X48.5996 Y33.3992 F12000 ; Move to start next pattern wall
G1 Z0.25 F12000 ; Z hop return
G1 E0.5 F2100 ; Un-retract
G1 X67.9204 Y52.72 E1.12562 F1800 ; Print pattern wall
G1 X48.5996 Y72.0408 E1.12562 F1800 ; Print pattern wall
G1 E-0.5 F2100 ; Retract
G1 Z0.35 F12000 ; Z hop
G0 X51.0496 Y33.3992 F12000 ; Move to next pattern
G1 Z0.25 F12000 ; Z hop return
G1 E0.5 F2100 ; Un-retract
SET_PRESSURE_ADVANCE ADVANCE=0.055 ; Set pressure advance
M117 PA 0.055
G1 X70.3704 Y52.72 E1.12562 F1800 ; Print pattern wall
G1 X51.0496 Y72.0408 E1.12562 F1800 ; Print pattern wall
G1 E-0.5 F2100 ; Retract
G1 Z0.35 F12000 ; Z hop
G0 X51.6253 Y33.3992 F12000 ; Move to start next pattern wall
G1 Z0.25 F12000 ; Z hop return
G1 E0.5 F2100 ; Un-retract
G1 X70.9461 Y52.72 E1.12562 F1800 ; Print pattern wall
G1 X51.6253 Y72.0408 E1.12562 F1800 ; Print pattern wall
G1 E-0.5 F2100 ; Retract
G1 Z0.35 F12000 ; Z hop
G0 X52.201 Y33.3992 F12000 ; Move to start next pattern wall
G1 Z0.25 F12000 ; Z hop return
G1 E0.5 F2100 ; Un-retract
G1 X71.5218 Y52.72 E1.12562 F1800 ; Print pattern wall
G1 X52.201 Y72.0408 E1.12562 F1800 ; Print pattern wall
G1 E-0.5 F2100 ; Retract
G1 Z0.35 F12000 ; Z hop
G0 X54.651 Y33.3992 F12000 ; Move to next pattern
G1 Z0.25 F12000 ; Z hop return
G1 E0.5 F2100 ; Un-retract
SET_PRESSURE_ADVANCE ADVANCE=0.056 ; Set pressure advance
M117 PA 0.056
G1 X73.9718 Y52.72 E1.12562 F1800 ; Print pattern wall
G1 X54.651 Y72.0408 E1.12562 F1800 ; Print pattern wall
G1 E-0.5 F2100 ; Retract
G1 Z0.35 F12000 ; Z hop
G0 X55.2267 Y33.3992 F12000 ; Move to start next pattern wall
G1 Z0.25 F12000 ; Z hop return
G1 E0.5 F2100 ; Un-retract
G1 X74.5475 Y52.72 E1.12562 F1800 ; Print pattern wall
G1 X55.2267 Y72.0408 E1.12562 F1800 ; Print pattern wall
G1 E-0.5 F2100 ; Retract
G1 Z0.35 F12000 ; Z hop
G0 X55.8023 Y33.3992 F12000 ; Move to start next pattern wall
G1 Z0.25 F12000 ; Z hop return
G1 E0.5 F2100 ; Un-retract
G1 X75.1232 Y52.72 E1.12562 F1800 ; Print pattern wall
G1 X55.8023 Y72.0408 E1.12562 F1800 ; Print pattern wall
G1 E-0.5 F2100 ; Retract
G1 Z0.35 F12000 ; Z hop
G0 X58.2523 Y33.3992 F12000 ; Move to next pattern
G1 Z0.25 F12000 ; Z hop return
G1 E0.5 F2100 ; Un-retract
SET_PRESSURE_ADVANCE ADVANCE=0.057 ; Set pressure advance
M117 PA 0.057
G1 X77.5732 Y52.72 E1.12562 F1800 ; Print pattern wall
G1 X58.2523 Y72.0408 E1.12562 F1800 ; Print pattern wall
G1 E-0.5 F2100 ; Retract
G1 Z0.35 F12000 ; Z hop
G0 X58.828 Y33.3992 F12000 ; Move to start next pattern wall
G1 Z0.25 F12000 ; Z hop return
G1 E0.5 F2100 ; Un-retract
G1 X78.1489 Y52.72 E1.12562 F1800 ; Print pattern wall
G1 X58.828 Y72.0408 E1.12562 F1800 ; Print pattern wall
G1 E-0.5 F2100 ; Retract
G1 Z0.35 F12000 ; Z hop
G0 X59.4037 Y33.3992 F12000 ; Move to start next pattern wall
G1 Z0.25 F12000 ; Z hop return
G1 E0.5 F2100 ; Un-retract
G1 X78.7246 Y52.72 E1.12562 F1800 ; Print pattern wall
G1 X59.4037 Y72.0408 E1.12562 F1800 ; Print pattern wall
G1 E-0.5 F2100 ; Retract
G1 Z0.35 F12000 ; Z hop
G0 X61.8537 Y33.3992 F12000 ; Move to next pattern
G1 Z0.25 F12000 ; Z hop return
G1 E0.5 F2100 ; Un-retract
SET_PRESSURE_ADVANCE ADVANCE=0.058 ; Set pressure advance
M117 PA 0.058
G1 X81.1746 Y52.72 E1.12562 F1800 ; Print pattern wall
G1 X61.8537 Y72.0408 E1.12562 F1800 ; Print pattern wall
G1 E-0.5 F2100 ; Retract
G1 Z0.35 F12000 ; Z hop
G0 X62.4294 Y33.3992 F12000 ; Move to start next pattern wall
G1 Z0.25 F12000 ; Z hop return
G1 E0.5 F2100 ; Un-retract
G1 X81.7503 Y52.72 E1.12562 F1800 ; Print pattern wall
G1 X62.4294 Y72.0408 E1.12562 F1800 ; Print pattern wall
G1 E-0.5 F2100 ; Retract
G1 Z0.35 F12000 ; Z hop
G0 X63.0051 Y33.3992 F12000 ; Move to start next pattern wall
G1 Z0.25 F12000 ; Z hop return
G1 E0.5 F2100 ; Un-retract
G1 X82.326 Y52.72 E1.12562 F1800 ; Print pattern wall
G1 X63.0051 Y72.0408 E1.12562 F1800 ; Print pattern wall
G1 E-0.5 F2100 ; Retract
G1 Z0.35 F12000 ; Z hop
G0 X65.4551 Y33.3992 F12000 ; Move to next pattern
G1 Z0.25 F12000 ; Z hop return
G1 E0.5 F2100 ; Un-retract
SET_PRESSURE_ADVANCE ADVANCE=0.059 ; Set pressure advance
M117 PA 0.059
G1 X84.776 Y52.72 E1.12562 F1800 ; Print pattern wall
G1 X65.4551 Y72.0408 E1.12562 F1800 ; Print pattern wall
G1 E-0.5 F2100 ; Retract
G1 Z0.35 F12000 ; Z hop
G0 X66.0308 Y33.3992 F12000 ; Move to start next pattern wall
G1 Z0.25 F12000 ; Z hop return
G1 E0.5 F2100 ; Un-retract
G1 X85.3517 Y52.72 E1.12562 F1800 ; Print pattern wall
G1 X66.0308 Y72.0408 E1.12562 F1800 ; Print pattern wall
G1 E-0.5 F2100 ; Retract
G1 Z0.35 F12000 ; Z hop
G0 X66.6065 Y33.3992 F12000 ; Move to start next pattern wall
G1 Z0.25 F12000 ; Z hop return
G1 E0.5 F2100 ; Un-retract
G1 X85.9274 Y52.72 E1.12562 F1800 ; Print pattern wall
G1 X66.6065 Y72.0408 E1.12562 F1800 ; Print pattern wall
G1 E-0.5 F2100 ; Retract
G1 Z0.35 F12000 ; Z hop
G0 X69.0565 Y33.3992 F12000 ; Move to next pattern
G1 Z0.25 F12000 ; Z hop return
G1 E0.5 F2100 ; Un-retract
SET_PRESSURE_ADVANCE ADVANCE=0.06 ; Set pressure advance
M117 PA 0.06
G1 X88.3774 Y52.72 E1.12562 F1800 ; Print pattern wall
G1 X69.0565 Y72.0408 E1.12562 F1800 ; Print pattern wall
G1 E-0.5 F2100 ; Retract
G1 Z0.35 F12000 ; Z hop
G0 X69.6322 Y33.3992 F12000 ; Move to start next pattern wall
G1 Z0.25 F12000 ; Z hop return
G1 E0.5 F2100 ; Un-retract
G1 X88.9531 Y52.72 E1.12562 F1800 ; Print pattern wall
G1 X69.6322 Y72.0408 E1.12562 F1800 ; Print pattern wall
G1 E-0.5 F2100 ; Retract
G1 Z0.35 F12000 ; Z hop
G0 X70.2079 Y33.3992 F12000 ; Move to start next pattern wall
G1 Z0.25 F12000 ; Z hop return
G1 E0.5 F2100 ; Un-retract
G1 X89.5288 Y52.72 E1.12562 F1800 ; Print pattern wall
G1 X70.2079 Y72.0408 E1.12562 F1800 ; Print pattern wall
G1 E-0.5 F2100 ; Retract
G1 Z0.35 F12000 ; Z hop
G0 X33.0426 Y33.3992 F12000 ; Move back to start position
G1 Z0.25 F12000 ; Z hop return
G1 E0.5 F2100 ; Un-retract
M106 S255 ; Set fan speed
G0 Z0.45 F12000 ; Move to layer height
G1 E-0.5 F2100 ; Retract
G1 Z0.55 F12000 ; Z hop
G0 X29.7259 Y75.3832 F12000 ; Move
G1 Z0.45 F12000 ; Z hop return
G1 E0.5 F2100 ; Un-retract
G1 X31.7259 Y75.3832 E0.0677 F1800 ; Glyph: 0
G1 X33.7259 Y75.3832 E0.0677 F1800 ; Glyph: 0
G1 X33.7259 Y77.3832 E0.0677 F1800 ; Glyph: 0
G1 X31.7259 Y77.3832 E0.0677 F1800 ; Glyph: 0
G1 X29.7259 Y77.3832 E0.0677 F1800 ; Glyph: 0
G1 X29.7259 Y75.3832 E0.0677 F1800 ; Glyph: 0
G1 E-0.5 F2100 ; Retract
G1 Z0.55 F12000 ; Z hop
G0 X33.7259 Y78.3832 F12000 ; Move
G1 Z0.45 F12000 ; Z hop return
G1 E0.5 F2100 ; Un-retract
G1 X32.9759 Y78.3832 E0.02539 F1800 ; Glyph: .
G1 E-0.5 F2100 ; Retract
G1 Z0.55 F12000 ; Z hop
G0 X29.7259 Y79.3832 F12000 ; Move
G1 Z0.45 F12000 ; Z hop return
G1 E0.5 F2100 ; Un-retract
G1 X31.7259 Y79.3832 E0.0677 F1800 ; Glyph: 0
G1 X33.7259 Y79.3832 E0.0677 F1800 ; Glyph: 0
G1 X33.7259 Y81.3832 E0.0677 F1800 ; Glyph: 0
G1 X31.7259 Y81.3832 E0.0677 F1800 ; Glyph: 0
G1 X29.7259 Y81.3832 E0.0677 F1800 ; Glyph: 0
G1 X29.7259 Y79.3832 E0.0677 F1800 ; Glyph: 0
G1 E-0.5 F2100 ; Retract
G1 Z0.55 F12000 ; Z hop
G0 X29.7259 Y84.3832 F12000 ; Move
G1 Z0.45 F12000 ; Z hop return
G1 E0.5 F2100 ; Un-retract
G1 X29.7259 Y82.3832 E0.0677 F1800 ; Glyph: 5
G1 X31.7259 Y82.3832 E0.0677 F1800 ; Glyph: 5
G1 X31.7259 Y84.3832 E0.0677 F1800 ; Glyph: 5
G1 X33.7259 Y84.3832 E0.0677 F1800 ; Glyph: 5
G1 X33.7259 Y82.3832 E0.0677 F1800 ; Glyph: 5
G1 E-0.5 F2100 ; Retract
G1 Z0.55 F12000 ; Z hop
G0 X36.9287 Y75.3832 F12000 ; Move
G1 Z0.45 F12000 ; Z hop return
G1 E0.5 F2100 ; Un-retract
G1 X38.9287 Y75.3832 E0.0677 F1800 ; Glyph: 0
G1 X40.9287 Y75.3832 E0.0677 F1800 ; Glyph: 0
G1 X40.9287 Y77.3832 E0.0677 F1800 ; Glyph: 0
G1 X38.9287 Y77.3832 E0.0677 F1800 ; Glyph: 0
G1 X36.9287 Y77.3832 E0.0677 F1800 ; Glyph: 0
G1 X36.9287 Y75.3832 E0.0677 F1800 ; Glyph: 0
G1 E-0.5 F2100 ; Retract
G1 Z0.55 F12000 ; Z hop
G0 X40.9287 Y78.3832 F12000 ; Move
G1 Z0.45 F12000 ; Z hop return
G1 E0.5 F2100 ; Un-retract
G1 X40.1787 Y78.3832 E0.02539 F1800 ; Glyph: .
G1 E-0.5 F2100 ; Retract
G1 Z0.55 F12000 ; Z hop
G0 X36.9287 Y79.3832 F12000 ; Move
G1 Z0.45 F12000 ; Z hop return
G1 E0.5 F2100 ; Un-retract
G1 X38.9287 Y79.3832 E0.0677 F1800 ; Glyph: 0
G1 X40.9287 Y79.3832 E0.0677 F1800 ; Glyph: 0
G1 X40.9287 Y81.3832 E0.0677 F1800 ; Glyph: 0
G1 X38.9287 Y81.3832 E0.0677 F1800 ; Glyph: 0
G1 X36.9287 Y81.3832 E0.0677 F1800 ; Glyph: 0
G1 X36.9287 Y79.3832 E0.0677 F1800 ; Glyph: 0
G1 E-0.5 F2100 ; Retract
G1 Z0.55 F12000 ; Z hop
G0 X36.9287 Y84.3832 F12000 ; Move
G1 Z0.45 F12000 ; Z hop return
G1 E0.5 F2100 ; Un-retract
G1 X36.9287 Y82.3832 E0.0677 F1800 ; Glyph: 5
G1 X38.9287 Y82.3832 E0.0677 F1800 ; Glyph: 5
G1 X38.9287 Y84.3832 E0.0677 F1800 ; Glyph: 5
G1 X40.9287 Y84.3832 E0.0677 F1800 ; Glyph: 5
G1 X40.9287 Y82.3832 E0.0677 F1800 ; Glyph: 5
G1 E-0.5 F2100 ; Retract
G1 Z0.55 F12000 ; Z hop
G0 X36.9287 Y85.3832 F12000 ; Move
G1 Z0.45 F12000 ; Z hop return
G1 E0.5 F2100 ; Un-retract
G1 X36.9287 Y87.3832 E0.0677 F1800 ; Glyph: 2
G1 X38.9287 Y87.3832 E0.0677 F1800 ; Glyph: 2
G1 X38.9287 Y85.3832 E0.0677 F1800 ; Glyph: 2
G1 X40.9287 Y85.3832 E0.0677 F1800 ; Glyph: 2
G1 X40.9287 Y87.3832 E0.0677 F1800 ; Glyph: 2
G1 E-0.5 F2100 ; Retract
G1 Z0.55 F12000 ; Z hop
G0 X44.1315 Y75.3832 F12000 ; Move
G1 Z0.45 F12000 ; Z hop return
G1 E0.5 F2100 ; Un-retract
G1 X46.1315 Y75.3832 E0.0677 F1800 ; Glyph: 0
G1 X48.1315 Y75.3832 E0.0677 F1800 ; Glyph: 0
G1 X48.1315 Y77.3832 E0.0677 F1800 ; Glyph: 0
G1 X46.1315 Y77.3832 E0.0677 F1800 ; Glyph: 0
G1 X44.1315 Y77.3832 E0.0677 F1800 ; Glyph: 0
G1 X44.1315 Y75.3832 E0.0677 F1800 ; Glyph: 0
G1 E-0.5 F2100 ; Retract
G1 Z0.55 F12000 ; Z hop
G0 X48.1315 Y78.3832 F12000 ; Move
G1 Z0.45 F12000 ; Z hop return
G1 E0.5 F2100 ; Un-retract
G1 X47.3815 Y78.3832 E0.02539 F1800 ; Glyph: .
G1 E-0.5 F2100 ; Retract
G1 Z0.55 F12000 ; Z hop
G0 X44.1315 Y79.3832 F12000 ; Move
G1 Z0.45 F12000 ; Z hop return
G1 E0.5 F2100 ; Un-retract
G1 X46.1315 Y79.3832 E0.0677 F1800 ; Glyph: 0
G1 X48.1315 Y79.3832 E0.0677 F1800 ; Glyph: 0
G1 X48.1315 Y81.3832 E0.0677 F1800 ; Glyph: 0
G1 X46.1315 Y81.3832 E0.0677 F1800 ; Glyph: 0
G1 X44.1315 Y81.3832 E0.0677 F1800 ; Glyph: 0
G1 X44.1315 Y79.3832 E0.0677 F1800 ; Glyph: 0
G1 E-0.5 F2100 ; Retract
G1 Z0.55 F12000 ; Z hop
G0 X44.1315 Y84.3832 F12000 ; Move
G1 Z0.45 F12000 ; Z hop return
G1 E0.5 F2100 ; Un-retract
G1 X44.1315 Y82.3832 E0.0677 F1800 ; Glyph: 5
G1 X46.1315 Y82.3832 E0.0677 F1800 ; Glyph: 5
G1 X46.1315 Y84.3832 E0.0677 F1800 ; Glyph: 5
G1 X48.1315 Y84.3832 E0.0677 F1800 ; Glyph: 5
G1 X48.1315 Y82.3832 E0.0677 F1800 ; Glyph: 5
G1 E-0.5 F2100 ; Retract
G1 Z0.55 F12000 ; Z hop
G0 X44.1315 Y87.3832 F12000 ; Move
G1 Z0.45 F12000 ; Z hop return
G1 E0.5 F2100 ; Un-retract
G1 X46.1315 Y87.3832 E0.0677 F1800 ; Glyph: 4
G1 X48.1315 Y87.3832 E0.0677 F1800 ; Glyph: 4
G0 X46.1315 Y87.3832 F12000 ; Move
G1 X46.1315 Y85.3832 E0.0677 F1800 ; Glyph: 4
G1 X44.1315 Y85.3832 E0.0677 F1800 ; Glyph: 4
G1 E-0.5 F2100 ; Retract
G1 Z0.55 F12000 ; Z hop
G0 X51.3343 Y75.3832 F12000 ; Move
G1 Z0.45 F12000 ; Z hop return
G1 E0.5 F2100 ; Un-retract
G1 X53.3343 Y75.3832 E0.0677 F1800 ; Glyph: 0
G1 X55.3343 Y75.3832 E0.0677 F1800 ; Glyph: 0
G1 X55.3343 Y77.3832 E0.0677 F1800 ; Glyph: 0
G1 X53.3343 Y77.3832 E0.0677 F1800 ; Glyph: 0
G1 X51.3343 Y77.3832 E0.0677 F1800 ; Glyph: 0
G1 X51.3343 Y75.3832 E0.0677 F1800 ; Glyph: 0
G1 E-0.5 F2100 ; Retract
G1 Z0.55 F12000 ; Z hop
G0 X55.3343 Y78.3832 F12000 ; Move
G1 Z0.45 F12000 ; Z hop return
G1 E0.5 F2100 ; Un-retract
G1 X54.5843 Y78.3832 E0.02539 F1800 ; Glyph: .
G1 E-0.5 F2100 ; Retract
G1 Z0.55 F12000 ; Z hop
G0 X51.3343 Y79.3832 F12000 ; Move
G1 Z0.45 F12000 ; Z hop return
G1 E0.5 F2100 ; Un-retract
G1 X53.3343 Y79.3832 E0.0677 F1800 ; Glyph: 0
G1 X55.3343 Y79.3832 E0.0677 F1800 ; Glyph: 0
G1 X55.3343 Y81.3832 E0.0677 F1800 ; Glyph: 0
G1 X53.3343 Y81.3832 E0.0677 F1800 ; Glyph: 0
G1 X51.3343 Y81.3832 E0.0677 F1800 ; Glyph: 0
G1 X51.3343 Y79.3832 E0.0677 F1800 ; Glyph: 0
G1 E-0.5 F2100 ; Retract
G1 Z0.55 F12000 ; Z hop
G0 X51.3343 Y84.3832 F12000 ; Move
G1 Z0.45 F12000 ; Z hop return
G1 E0.5 F2100 ; Un-retract
G1 X51.3343 Y82.3832 E0.0677 F1800 ; Glyph: 5
G1 X53.3343 Y82.3832 E0.0677 F1800 ; Glyph: 5
G1 X53.3343 Y84.3832 E0.0677 F1800 ; Glyph: 5
G1 X55.3343 Y84.3832 E0.0677 F1800 ; Glyph: 5
G1 X55.3343 Y82.3832 E0.0677 F1800 ; Glyph: 5
G1 E-0.5 F2100 ; Retract
G1 Z0.55 F12000 ; Z hop
G0 X51.3343 Y87.3832 F12000 ; Move
G1 Z0.45 F12000 ; Z hop return
G1 E0.5 F2100 ; Un-retract
G1 X51.3343 Y85.3832 E0.0677 F1800 ; Glyph: 6
G1 X53.3343 Y85.3832 E0.0677 F1800 ; Glyph: 6
G1 X55.3343 Y85.3832 E0.0677 F1800 ; Glyph: 6
G1 X55.3343 Y87.3832 E0.0677 F1800 ; Glyph: 6
G1 X53.3343 Y87.3832 E0.0677 F1800 ; Glyph: 6
G1 X53.3343 Y85.3832 E0.0677 F1800 ; Glyph: 6
G1 E-0.5 F2100 ; Retract
G1 Z0.55 F12000 ; Z hop
G0 X58.5371 Y75.3832 F12000 ; Move
G1 Z0.45 F12000 ; Z hop return
G1 E0.5 F2100 ; Un-retract
G1 X60.5371 Y75.3832 E0.0677 F1800 ; Glyph: 0
G1 X62.5371 Y75.3832 E0.0677 F1800 ; Glyph: 0
G1 X62.5371 Y77.3832 E0.0677 F1800 ; Glyph: 0
G1 X60.5371 Y77.3832 E0.0677 F1800 ; Glyph: 0
G1 X58.5371 Y77.3832 E0.0677 F1800 ; Glyph: 0
G1 X58.5371 Y75.3832 E0.0677 F1800 ; Glyph: 0
G1 E-0.5 F2100 ; Retract
G1 Z0.55 F12000 ; Z hop
G0 X62.5371 Y78.3832 F12000 ; Move
G1 Z0.45 F12000 ; Z hop return
G1 E0.5 F2100 ; Un-retract
G1 X61.7871 Y78.3832 E0.02539 F1800 ; Glyph: .
G1 E-0.5 F2100 ; Retract
G1 Z0.55 F12000 ; Z hop
G0 X58.5371 Y79.3832 F12000 ; Move
G1 Z0.45 F12000 ; Z hop return
G1 E0.5 F2100 ; Un-retract
G1 X60.5371 Y79.3832 E0.0677 F1800 ; Glyph: 0
G1 X62.5371 Y79.3832 E0.0677 F1800 ; Glyph: 0
G1 X62.5371 Y81.3832 E0.0677 F1800 ; Glyph: 0
G1 X60.5371 Y81.3832 E0.0677 F1800 ; Glyph: 0
G1 X58.5371 Y81.3832 E0.0677 F1800 ; Glyph: 0
G1 X58.5371 Y79.3832 E0.0677 F1800 ; Glyph: 0
G1 E-0.5 F2100 ; Retract
G1 Z0.55 F12000 ; Z hop
G0 X58.5371 Y84.3832 F12000 ; Move
G1 Z0.45 F12000 ; Z hop return
G1 E0.5 F2100 ; Un-retract
G1 X58.5371 Y82.3832 E0.0677 F1800 ; Glyph: 5
G1 X60.5371 Y82.3832 E0.0677 F1800 ; Glyph: 5
G1 X60.5371 Y84.3832 E0.0677 F1800 ; Glyph: 5
G1 X62.5371 Y84.3832 E0.0677 F1800 ; Glyph: 5
G1 X62.5371 Y82.3832 E0.0677 F1800 ; Glyph: 5
G1 E-0.5 F2100 ; Retract
G1 Z0.55 F12000 ; Z hop
G0 X58.5371 Y85.3832 F12000 ; Move
G1 Z0.45 F12000 ; Z hop return
G1 E0.5 F2100 ; Un-retract
G1 X60.5371 Y85.3832 E0.0677 F1800 ; Glyph: 8
G1 X62.5371 Y85.3832 E0.0677 F1800 ; Glyph: 8
G1 X62.5371 Y87.3832 E0.0677 F1800 ; Glyph: 8
G1 X60.5371 Y87.3832 E0.0677 F1800 ; Glyph: 8
G1 X58.5371 Y87.3832 E0.0677 F1800 ; Glyph: 8
G1 X58.5371 Y85.3832 E0.0677 F1800 ; Glyph: 8
G0 X60.5371 Y85.3832 F12000 ; Move
G1 X60.5371 Y87.3832 E0.0677 F1800 ; Glyph: 8
G1 E-0.5 F2100 ; Retract
G1 Z0.55 F12000 ; Z hop
G0 X65.7399 Y75.3832 F12000 ; Move
G1 Z0.45 F12000 ; Z hop return
G1 E0.5 F2100 ; Un-retract
G1 X67.7399 Y75.3832 E0.0677 F1800 ; Glyph: 0
G1 X69.7399 Y75.3832 E0.0677 F1800 ; Glyph: 0
G1 X69.7399 Y77.3832 E0.0677 F1800 ; Glyph: 0
G1 X67.7399 Y77.3832 E0.0677 F1800 ; Glyph: 0
G1 X65.7399 Y77.3832 E0.0677 F1800 ; Glyph: 0
G1 X65.7399 Y75.3832 E0.0677 F1800 ; Glyph: 0
G1 E-0.5 F2100 ; Retract
G1 Z0.55 F12000 ; Z hop
G0 X69.7399 Y78.3832 F12000 ; Move
G1 Z0.45 F12000 ; Z hop return
G1 E0.5 F2100 ; Un-retract
G1 X68.9899 Y78.3832 E0.02539 F1800 ; Glyph: .
G1 E-0.5 F2100 ; Retract
G1 Z0.55 F12000 ; Z hop
G0 X65.7399 Y79.3832 F12000 ; Move
G1 Z0.45 F12000 ; Z hop return
G1 E0.5 F2100 ; Un-retract
G1 X67.7399 Y79.3832 E0.0677 F1800 ; Glyph: 0
G1 X69.7399 Y79.3832 E0.0677 F1800 ; Glyph: 0
G1 X69.7399 Y81.3832 E0.0677 F1800 ; Glyph: 0
G1 X67.7399 Y81.3832 E0.0677 F1800 ; Glyph: 0
G1 X65.7399 Y81.3832 E0.0677 F1800 ; Glyph: 0
G1 X65.7399 Y79.3832 E0.0677 F1800 ; Glyph: 0
G1 E-0.5 F2100 ; Retract
G1 Z0.55 F12000 ; Z hop
G0 X65.7399 Y84.3832 F12000 ; Move
G1 Z0.45 F12000 ; Z hop return
G1 E0.5 F2100 ; Un-retract
G1 X65.7399 Y82.3832 E0.0677 F1800 ; Glyph: 6
G1 X67.7399 Y82.3832 E0.0677 F1800 ; Glyph: 6
G1 X69.7399 Y82.3832 E0.0677 F1800 ; Glyph: 6
G1 X69.7399 Y84.3832 E0.0677 F1800 ; Glyph: 6
G1 X67.7399 Y84.3832 E0.0677 F1800 ; Glyph: 6
G1 X67.7399 Y82.3832 E0.0677 F1800 ; Glyph: 6
G1 E-0.5 F2100 ; Retract
G1 Z0.55 F12000 ; Z hop
G0 X31.1502 Y31.5068 F12000 ; Move to pattern start

G1 Z0.45 F12000 ; Z hop return
G1 E0.5 F2100 ; Un-retract
SET_PRESSURE_ADVANCE ADVANCE=0.05 ; Set pressure advance
M117 PA 0.05
G1 X52.3634 Y52.72 E1.01546 F4800 ; Print pattern wall
G1 X31.1502 Y73.9332 E1.01546 F4800 ; Print pattern wall
G1 E-0.5 F2100 ; Retract
G1 Z0.55 F12000 ; Z hop
G0 X31.7259 Y31.5068 F12000 ; Move to start next pattern wall
G1 Z0.45 F12000 ; Z hop return
G1 E0.5 F2100 ; Un-retract
G1 X52.9391 Y52.72 E1.01546 F4800 ; Print pattern wall
G1 X31.7259 Y73.9332 E1.01546 F4800 ; Print pattern wall
G1 E-0.5 F2100 ; Retract
G1 Z0.55 F12000 ; Z hop
G0 X32.3016 Y31.5068 F12000 ; Move to start next pattern wall
G1 Z0.45 F12000 ; Z hop return
G1 E0.5 F2100 ; Un-retract
G1 X53.5148 Y52.72 E1.01546 F4800 ; Print pattern wall
G1 X32.3016 Y73.9332 E1.01546 F4800 ; Print pattern wall
G1 E-0.5 F2100 ; Retract
G1 Z0.55 F12000 ; Z hop
G0 X34.7516 Y31.5068 F12000 ; Move to next pattern
G1 Z0.45 F12000 ; Z hop return
G1 E0.5 F2100 ; Un-retract
SET_PRESSURE_ADVANCE ADVANCE=0.051 ; Set pressure advance
M117 PA 0.051
G1 X55.9648 Y52.72 E1.01546 F4800 ; Print pattern wall
G1 X34.7516 Y73.9332 E1.01546 F4800 ; Print pattern wall
G1 E-0.5 F2100 ; Retract
G1 Z0.55 F12000 ; Z hop
G0 X35.3273 Y31.5068 F12000 ; Move to start next pattern wall
G1 Z0.45 F12000 ; Z hop return
G1 E0.5 F2100 ; Un-retract
G1 X56.5405 Y52.72 E1.01546 F4800 ; Print pattern wall
G1 X35.3273 Y73.9332 E1.01546 F4800 ; Print pattern wall
G1 E-0.5 F2100 ; Retract
G1 Z0.55 F12000 ; Z hop
G0 X35.903 Y31.5068 F12000 ; Move to start next pattern wall
G1 Z0.45 F12000 ; Z hop return
G1 E0.5 F2100 ; Un-retract
G1 X57.1162 Y52.72 E1.01546 F4800 ; Print pattern wall
G1 X35.903 Y73.9332 E1.01546 F4800 ; Print pattern wall
G1 E-0.5 F2100 ; Retract
G1 Z0.55 F12000 ; Z hop
G0 X38.353 Y31.5068 F12000 ; Move to next pattern
G1 Z0.45 F12000 ; Z hop return
G1 E0.5 F2100 ; Un-retract
SET_PRESSURE_ADVANCE ADVANCE=0.052 ; Set pressure advance
M117 PA 0.052
G1 X59.5662 Y52.72 E1.01546 F4800 ; Print pattern wall
G1 X38.353 Y73.9332 E1.01546 F4800 ; Print pattern wall
G1 E-0.5 F2100 ; Retract
G1 Z0.55 F12000 ; Z hop
G0 X38.9287 Y31.5068 F12000 ; Move to start next pattern wall
G1 Z0.45 F12000 ; Z hop return
G1 E0.5 F2100 ; Un-retract
G1 X60.1419 Y52.72 E1.01546 F4800 ; Print pattern wall
G1 X38.9287 Y73.9332 E1.01546 F4800 ; Print pattern wall
G1 E-0.5 F2100 ; Retract
G1 Z0.55 F12000 ; Z hop
G0 X39.5044 Y31.5068 F12000 ; Move to start next pattern wall
G1 Z0.45 F12000 ; Z hop return
G1 E0.5 F2100 ; Un-retract
G1 X60.7176 Y52.72 E1.01546 F4800 ; Print pattern wall
G1 X39.5044 Y73.9332 E1.01546 F4800 ; Print pattern wall
G1 E-0.5 F2100 ; Retract
G1 Z0.55 F12000 ; Z hop
G0 X41.9544 Y31.5068 F12000 ; Move to next pattern
G1 Z0.45 F12000 ; Z hop return
G1 E0.5 F2100 ; Un-retract
SET_PRESSURE_ADVANCE ADVANCE=0.053 ; Set pressure advance
M117 PA 0.053
G1 X63.1676 Y52.72 E1.01546 F4800 ; Print pattern wall
G1 X41.9544 Y73.9332 E1.01546 F4800 ; Print pattern wall
G1 E-0.5 F2100 ; Retract
G1 Z0.55 F12000 ; Z hop
G0 X42.5301 Y31.5068 F12000 ; Move to start next pattern wall
G1 Z0.45 F12000 ; Z hop return
G1 E0.5 F2100 ; Un-retract
G1 X63.7433 Y52.72 E1.01546 F4800 ; Print pattern wall
G1 X42.5301 Y73.9332 E1.01546 F4800 ; Print pattern wall
G1 E-0.5 F2100 ; Retract
G1 Z0.55 F12000 ; Z hop
G0 X43.1058 Y31.5068 F12000 ; Move to start next pattern wall
G1 Z0.45 F12000 ; Z hop return
G1 E0.5 F2100 ; Un-retract
G1 X64.319 Y52.72 E1.01546 F4800 ; Print pattern wall
G1 X43.1058 Y73.9332 E1.01546 F4800 ; Print pattern wall
G1 E-0.5 F2100 ; Retract
G1 Z0.55 F12000 ; Z hop
G0 X45.5558 Y31.5068 F12000 ; Move to next pattern
G1 Z0.45 F12000 ; Z hop return
G1 E0.5 F2100 ; Un-retract
SET_PRESSURE_ADVANCE ADVANCE=0.054 ; Set pressure advance
M117 PA 0.054
G1 X66.769 Y52.72 E1.01546 F4800 ; Print pattern wall
G1 X45.5558 Y73.9332 E1.01546 F4800 ; Print pattern wall
G1 E-0.5 F2100 ; Retract
G1 Z0.55 F12000 ; Z hop
G0 X46.1315 Y31.5068 F12000 ; Move to start next pattern wall
G1 Z0.45 F12000 ; Z hop return
G1 E0.5 F2100 ; Un-retract
G1 X67.3447 Y52.72 E1.01546 F4800 ; Print pattern wall
G1 X46.1315 Y73.9332 E1.01546 F4800 ; Print pattern wall
G1 E-0.5 F2100 ; Retract
G1 Z0.55 F12000 ; Z hop
G0 X46.7072 Y31.5068 F12000 ; Move to start next pattern wall
G1 Z0.45 F12000 ; Z hop return
G1 E0.5 F2100 ; Un-retract
G1 X67.9204 Y52.72 E1.01546 F4800 ; Print pattern wall
G1 X46.7072 Y73.9332 E1.01546 F4800 ; Print pattern wall
G1 E-0.5 F2100 ; Retract
G1 Z0.55 F12000 ; Z hop
G0 X49.1572 Y31.5068 F12000 ; Move to next pattern
G1 Z0.45 F12000 ; Z hop return
G1 E0.5 F2100 ; Un-retract
SET_PRESSURE_ADVANCE ADVANCE=0.055 ; Set pressure advance
M117 PA 0.055
G1 X70.3704 Y52.72 E1.01546 F4800 ; Print pattern wall
G1 X49.1572 Y73.9332 E1.01546 F4800 ; Print pattern wall
G1 E-0.5 F2100 ; Retract
G1 Z0.55 F12000 ; Z hop
G0 X49.7329 Y31.5068 F12000 ; Move to start next pattern wall
G1 Z0.45 F12000 ; Z hop return
G1 E0.5 F2100 ; Un-retract
G1 X70.9461 Y52.72 E1.01546 F4800 ; Print pattern wall
G1 X49.7329 Y73.9332 E1.01546 F4800 ; Print pattern wall
G1 E-0.5 F2100 ; Retract
G1 Z0.55 F12000 ; Z hop
G0 X50.3086 Y31.5068 F12000 ; Move to start next pattern wall
G1 Z0.45 F12000 ; Z hop return
G1 E0.5 F2100 ; Un-retract
G1 X71.5218 Y52.72 E1.01546 F4800 ; Print pattern wall
G1 X50.3086 Y73.9332 E1.01546 F4800 ; Print pattern wall
G1 E-0.5 F2100 ; Retract
G1 Z0.55 F12000 ; Z hop
G0 X52.7586 Y31.5068 F12000 ; Move to next pattern
G1 Z0.45 F12000 ; Z hop return
G1 E0.5 F2100 ; Un-retract
SET_PRESSURE_ADVANCE ADVANCE=0.056 ; Set pressure advance
M117 PA 0.056
G1 X73.9718 Y52.72 E1.01546 F4800 ; Print pattern wall
G1 X52.7586 Y73.9332 E1.01546 F4800 ; Print pattern wall
G1 E-0.5 F2100 ; Retract
G1 Z0.55 F12000 ; Z hop
G0 X53.3343 Y31.5068 F12000 ; Move to start next pattern wall
G1 Z0.45 F12000 ; Z hop return
G1 E0.5 F2100 ; Un-retract
G1 X74.5475 Y52.72 E1.01546 F4800 ; Print pattern wall
G1 X53.3343 Y73.9332 E1.01546 F4800 ; Print pattern wall
G1 E-0.5 F2100 ; Retract
G1 Z0.55 F12000 ; Z hop
G0 X53.91 Y31.5068 F12000 ; Move to start next pattern wall
G1 Z0.45 F12000 ; Z hop return
G1 E0.5 F2100 ; Un-retract
G1 X75.1232 Y52.72 E1.01546 F4800 ; Print pattern wall
G1 X53.91 Y73.9332 E1.01546 F4800 ; Print pattern wall
G1 E-0.5 F2100 ; Retract
G1 Z0.55 F12000 ; Z hop
G0 X56.36 Y31.5068 F12000 ; Move to next pattern
G1 Z0.45 F12000 ; Z hop return
G1 E0.5 F2100 ; Un-retract
SET_PRESSURE_ADVANCE ADVANCE=0.057 ; Set pressure advance
M117 PA 0.057
G1 X77.5732 Y52.72 E1.01546 F4800 ; Print pattern wall
G1 X56.36 Y73.9332 E1.01546 F4800 ; Print pattern wall
G1 E-0.5 F2100 ; Retract
G1 Z0.55 F12000 ; Z hop
G0 X56.9357 Y31.5068 F12000 ; Move to start next pattern wall
G1 Z0.45 F12000 ; Z hop return
G1 E0.5 F2100 ; Un-retract
G1 X78.1489 Y52.72 E1.01546 F4800 ; Print pattern wall
G1 X56.9357 Y73.9332 E1.01546 F4800 ; Print pattern wall
G1 E-0.5 F2100 ; Retract
G1 Z0.55 F12000 ; Z hop
G0 X57.5114 Y31.5068 F12000 ; Move to start next pattern wall
G1 Z0.45 F12000 ; Z hop return
G1 E0.5 F2100 ; Un-retract
G1 X78.7246 Y52.72 E1.01546 F4800 ; Print pattern wall
G1 X57.5114 Y73.9332 E1.01546 F4800 ; Print pattern wall
G1 E-0.5 F2100 ; Retract
G1 Z0.55 F12000 ; Z hop
G0 X59.9614 Y31.5068 F12000 ; Move to next pattern
G1 Z0.45 F12000 ; Z hop return
G1 E0.5 F2100 ; Un-retract
SET_PRESSURE_ADVANCE ADVANCE=0.058 ; Set pressure advance
M117 PA 0.058
G1 X81.1746 Y52.72 E1.01546 F4800 ; Print pattern wall
G1 X59.9614 Y73.9332 E1.01546 F4800 ; Print pattern wall
G1 E-0.5 F2100 ; Retract
G1 Z0.55 F12000 ; Z hop
G0 X60.5371 Y31.5068 F12000 ; Move to start next pattern wall
G1 Z0.45 F12000 ; Z hop return
G1 E0.5 F2100 ; Un-retract
G1 X81.7503 Y52.72 E1.01546 F4800 ; Print pattern wall
G1 X60.5371 Y73.9332 E1.01546 F4800 ; Print pattern wall
G1 E-0.5 F2100 ; Retract
G1 Z0.55 F12000 ; Z hop
G0 X61.1128 Y31.5068 F12000 ; Move to start next pattern wall
G1 Z0.45 F12000 ; Z hop return
G1 E0.5 F2100 ; Un-retract
G1 X82.326 Y52.72 E1.01546 F4800 ; Print pattern wall
G1 X61.1128 Y73.9332 E1.01546 F4800 ; Print pattern wall
G1 E-0.5 F2100 ; Retract
G1 Z0.55 F12000 ; Z hop
G0 X63.5628 Y31.5068 F12000 ; Move to next pattern
G1 Z0.45 F12000 ; Z hop return
G1 E0.5 F2100 ; Un-retract
SET_PRESSURE_ADVANCE ADVANCE=0.059 ; Set pressure advance
M117 PA 0.059
G1 X84.776 Y52.72 E1.01546 F4800 ; Print pattern wall
G1 X63.5628 Y73.9332 E1.01546 F4800 ; Print pattern wall
G1 E-0.5 F2100 ; Retract
G1 Z0.55 F12000 ; Z hop
G0 X64.1385 Y31.5068 F12000 ; Move to start next pattern wall
G1 Z0.45 F12000 ; Z hop return
G1 E0.5 F2100 ; Un-retract
G1 X85.3517 Y52.72 E1.01546 F4800 ; Print pattern wall
G1 X64.1385 Y73.9332 E1.01546 F4800 ; Print pattern wall
G1 E-0.5 F2100 ; Retract
G1 Z0.55 F12000 ; Z hop
G0 X64.7142 Y31.5068 F12000 ; Move to start next pattern wall
G1 Z0.45 F12000 ; Z hop return
G1 E0.5 F2100 ; Un-retract
G1 X85.9274 Y52.72 E1.01546 F4800 ; Print pattern wall
G1 X64.7142 Y73.9332 E1.01546 F4800 ; Print pattern wall
G1 E-0.5 F2100 ; Retract
G1 Z0.55 F12000 ; Z hop
G0 X67.1642 Y31.5068 F12000 ; Move to next pattern
G1 Z0.45 F12000 ; Z hop return
G1 E0.5 F2100 ; Un-retract
SET_PRESSURE_ADVANCE ADVANCE=0.06 ; Set pressure advance
M117 PA 0.06
G1 X88.3774 Y52.72 E1.01546 F4800 ; Print pattern wall
G1 X67.1642 Y73.9332 E1.01546 F4800 ; Print pattern wall
G1 E-0.5 F2100 ; Retract
G1 Z0.55 F12000 ; Z hop
G0 X67.7399 Y31.5068 F12000 ; Move to start next pattern wall
G1 Z0.45 F12000 ; Z hop return
G1 E0.5 F2100 ; Un-retract
G1 X88.9531 Y52.72 E1.01546 F4800 ; Print pattern wall
G1 X67.7399 Y73.9332 E1.01546 F4800 ; Print pattern wall
G1 E-0.5 F2100 ; Retract
G1 Z0.55 F12000 ; Z hop
G0 X68.3155 Y31.5068 F12000 ; Move to start next pattern wall
G1 Z0.45 F12000 ; Z hop return
G1 E0.5 F2100 ; Un-retract
G1 X89.5288 Y52.72 E1.01546 F4800 ; Print pattern wall
G1 X68.3155 Y73.9332 E1.01546 F4800 ; Print pattern wall
G1 E-0.5 F2100 ; Retract
G1 Z0.55 F12000 ; Z hop
G0 X31.1502 Y31.5068 F12000 ; Move back to start position
G1 Z0.45 F12000 ; Z hop return
G1 E0.5 F2100 ; Un-retract
G0 Z0.65 F12000 ; Move to layer height
SET_PRESSURE_ADVANCE ADVANCE=0.05 ; Set pressure advance
M117 PA 0.05
G1 X52.3634 Y52.72 E1.01546 F4800 ; Print pattern wall
G1 X31.1502 Y73.9332 E1.01546 F4800 ; Print pattern wall
G1 E-0.5 F2100 ; Retract
G1 Z0.75 F12000 ; Z hop
G0 X31.7259 Y31.5068 F12000 ; Move to start next pattern wall
G1 Z0.65 F12000 ; Z hop return
G1 E0.5 F2100 ; Un-retract
G1 X52.9391 Y52.72 E1.01546 F4800 ; Print pattern wall
G1 X31.7259 Y73.9332 E1.01546 F4800 ; Print pattern wall
G1 E-0.5 F2100 ; Retract
G1 Z0.75 F12000 ; Z hop
G0 X32.3016 Y31.5068 F12000 ; Move to start next pattern wall
G1 Z0.65 F12000 ; Z hop return
G1 E0.5 F2100 ; Un-retract
G1 X53.5148 Y52.72 E1.01546 F4800 ; Print pattern wall
G1 X32.3016 Y73.9332 E1.01546 F4800 ; Print pattern wall
G1 E-0.5 F2100 ; Retract
G1 Z0.75 F12000 ; Z hop
G0 X34.7516 Y31.5068 F12000 ; Move to next pattern
G1 Z0.65 F12000 ; Z hop return
G1 E0.5 F2100 ; Un-retract
SET_PRESSURE_ADVANCE ADVANCE=0.051 ; Set pressure advance
M117 PA 0.051
G1 X55.9648 Y52.72 E1.01546 F4800 ; Print pattern wall
G1 X34.7516 Y73.9332 E1.01546 F4800 ; Print pattern wall
G1 E-0.5 F2100 ; Retract
G1 Z0.75 F12000 ; Z hop
G0 X35.3273 Y31.5068 F12000 ; Move to start next pattern wall
G1 Z0.65 F12000 ; Z hop return
G1 E0.5 F2100 ; Un-retract
G1 X56.5405 Y52.72 E1.01546 F4800 ; Print pattern wall
G1 X35.3273 Y73.9332 E1.01546 F4800 ; Print pattern wall
G1 E-0.5 F2100 ; Retract
G1 Z0.75 F12000 ; Z hop
G0 X35.903 Y31.5068 F12000 ; Move to start next pattern wall
G1 Z0.65 F12000 ; Z hop return
G1 E0.5 F2100 ; Un-retract
G1 X57.1162 Y52.72 E1.01546 F4800 ; Print pattern wall
G1 X35.903 Y73.9332 E1.01546 F4800 ; Print pattern wall
G1 E-0.5 F2100 ; Retract
G1 Z0.75 F12000 ; Z hop
G0 X38.353 Y31.5068 F12000 ; Move to next pattern
G1 Z0.65 F12000 ; Z hop return
G1 E0.5 F2100 ; Un-retract
SET_PRESSURE_ADVANCE ADVANCE=0.052 ; Set pressure advance
M117 PA 0.052
G1 X59.5662 Y52.72 E1.01546 F4800 ; Print pattern wall
G1 X38.353 Y73.9332 E1.01546 F4800 ; Print pattern wall
G1 E-0.5 F2100 ; Retract
G1 Z0.75 F12000 ; Z hop
G0 X38.9287 Y31.5068 F12000 ; Move to start next pattern wall
G1 Z0.65 F12000 ; Z hop return
G1 E0.5 F2100 ; Un-retract
G1 X60.1419 Y52.72 E1.01546 F4800 ; Print pattern wall
G1 X38.9287 Y73.9332 E1.01546 F4800 ; Print pattern wall
G1 E-0.5 F2100 ; Retract
G1 Z0.75 F12000 ; Z hop
G0 X39.5044 Y31.5068 F12000 ; Move to start next pattern wall
G1 Z0.65 F12000 ; Z hop return
G1 E0.5 F2100 ; Un-retract
G1 X60.7176 Y52.72 E1.01546 F4800 ; Print pattern wall
G1 X39.5044 Y73.9332 E1.01546 F4800 ; Print pattern wall
G1 E-0.5 F2100 ; Retract
G1 Z0.75 F12000 ; Z hop
G0 X41.9544 Y31.5068 F12000 ; Move to next pattern
G1 Z0.65 F12000 ; Z hop return
G1 E0.5 F2100 ; Un-retract
SET_PRESSURE_ADVANCE ADVANCE=0.053 ; Set pressure advance
M117 PA 0.053
G1 X63.1676 Y52.72 E1.01546 F4800 ; Print pattern wall
G1 X41.9544 Y73.9332 E1.01546 F4800 ; Print pattern wall
G1 E-0.5 F2100 ; Retract
G1 Z0.75 F12000 ; Z hop
G0 X42.5301 Y31.5068 F12000 ; Move to start next pattern wall
G1 Z0.65 F12000 ; Z hop return
G1 E0.5 F2100 ; Un-retract
G1 X63.7433 Y52.72 E1.01546 F4800 ; Print pattern wall
G1 X42.5301 Y73.9332 E1.01546 F4800 ; Print pattern wall
G1 E-0.5 F2100 ; Retract
G1 Z0.75 F12000 ; Z hop
G0 X43.1058 Y31.5068 F12000 ; Move to start next pattern wall
G1 Z0.65 F12000 ; Z hop return
G1 E0.5 F2100 ; Un-retract
G1 X64.319 Y52.72 E1.01546 F4800 ; Print pattern wall
G1 X43.1058 Y73.9332 E1.01546 F4800 ; Print pattern wall
G1 E-0.5 F2100 ; Retract
G1 Z0.75 F12000 ; Z hop
G0 X45.5558 Y31.5068 F12000 ; Move to next pattern
G1 Z0.65 F12000 ; Z hop return
G1 E0.5 F2100 ; Un-retract
SET_PRESSURE_ADVANCE ADVANCE=0.054 ; Set pressure advance
M117 PA 0.054
G1 X66.769 Y52.72 E1.01546 F4800 ; Print pattern wall
G1 X45.5558 Y73.9332 E1.01546 F4800 ; Print pattern wall
G1 E-0.5 F2100 ; Retract
G1 Z0.75 F12000 ; Z hop
G0 X46.1315 Y31.5068 F12000 ; Move to start next pattern wall
G1 Z0.65 F12000 ; Z hop return
G1 E0.5 F2100 ; Un-retract
G1 X67.3447 Y52.72 E1.01546 F4800 ; Print pattern wall
G1 X46.1315 Y73.9332 E1.01546 F4800 ; Print pattern wall
G1 E-0.5 F2100 ; Retract
G1 Z0.75 F12000 ; Z hop
G0 X46.7072 Y31.5068 F12000 ; Move to start next pattern wall
G1 Z0.65 F12000 ; Z hop return
G1 E0.5 F2100 ; Un-retract
G1 X67.9204 Y52.72 E1.01546 F4800 ; Print pattern wall
G1 X46.7072 Y73.9332 E1.01546 F4800 ; Print pattern wall
G1 E-0.5 F2100 ; Retract
G1 Z0.75 F12000 ; Z hop
G0 X49.1572 Y31.5068 F12000 ; Move to next pattern
G1 Z0.65 F12000 ; Z hop return
G1 E0.5 F2100 ; Un-retract
SET_PRESSURE_ADVANCE ADVANCE=0.055 ; Set pressure advance
M117 PA 0.055
G1 X70.3704 Y52.72 E1.01546 F4800 ; Print pattern wall
G1 X49.1572 Y73.9332 E1.01546 F4800 ; Print pattern wall
G1 E-0.5 F2100 ; Retract
G1 Z0.75 F12000 ; Z hop
G0 X49.7329 Y31.5068 F12000 ; Move to start next pattern wall
G1 Z0.65 F12000 ; Z hop return
G1 E0.5 F2100 ; Un-retract
G1 X70.9461 Y52.72 E1.01546 F4800 ; Print pattern wall
G1 X49.7329 Y73.9332 E1.01546 F4800 ; Print pattern wall
G1 E-0.5 F2100 ; Retract
G1 Z0.75 F12000 ; Z hop
G0 X50.3086 Y31.5068 F12000 ; Move to start next pattern wall
G1 Z0.65 F12000 ; Z hop return
G1 E0.5 F2100 ; Un-retract
G1 X71.5218 Y52.72 E1.01546 F4800 ; Print pattern wall
G1 X50.3086 Y73.9332 E1.01546 F4800 ; Print pattern wall
G1 E-0.5 F2100 ; Retract
G1 Z0.75 F12000 ; Z hop
G0 X52.7586 Y31.5068 F12000 ; Move to next pattern
G1 Z0.65 F12000 ; Z hop return
G1 E0.5 F2100 ; Un-retract
SET_PRESSURE_ADVANCE ADVANCE=0.056 ; Set pressure advance
M117 PA 0.056
G1 X73.9718 Y52.72 E1.01546 F4800 ; Print pattern wall
G1 X52.7586 Y73.9332 E1.01546 F4800 ; Print pattern wall
G1 E-0.5 F2100 ; Retract
G1 Z0.75 F12000 ; Z hop
G0 X53.3343 Y31.5068 F12000 ; Move to start next pattern wall
G1 Z0.65 F12000 ; Z hop return
G1 E0.5 F2100 ; Un-retract
G1 X74.5475 Y52.72 E1.01546 F4800 ; Print pattern wall
G1 X53.3343 Y73.9332 E1.01546 F4800 ; Print pattern wall
G1 E-0.5 F2100 ; Retract
G1 Z0.75 F12000 ; Z hop
G0 X53.91 Y31.5068 F12000 ; Move to start next pattern wall
G1 Z0.65 F12000 ; Z hop return
G1 E0.5 F2100 ; Un-retract
G1 X75.1232 Y52.72 E1.01546 F4800 ; Print pattern wall
G1 X53.91 Y73.9332 E1.01546 F4800 ; Print pattern wall
G1 E-0.5 F2100 ; Retract
G1 Z0.75 F12000 ; Z hop
G0 X56.36 Y31.5068 F12000 ; Move to next pattern
G1 Z0.65 F12000 ; Z hop return
G1 E0.5 F2100 ; Un-retract
SET_PRESSURE_ADVANCE ADVANCE=0.057 ; Set pressure advance
M117 PA 0.057
G1 X77.5732 Y52.72 E1.01546 F4800 ; Print pattern wall
G1 X56.36 Y73.9332 E1.01546 F4800 ; Print pattern wall
G1 E-0.5 F2100 ; Retract
G1 Z0.75 F12000 ; Z hop
G0 X56.9357 Y31.5068 F12000 ; Move to start next pattern wall
G1 Z0.65 F12000 ; Z hop return
G1 E0.5 F2100 ; Un-retract
G1 X78.1489 Y52.72 E1.01546 F4800 ; Print pattern wall
G1 X56.9357 Y73.9332 E1.01546 F4800 ; Print pattern wall
G1 E-0.5 F2100 ; Retract
G1 Z0.75 F12000 ; Z hop
G0 X57.5114 Y31.5068 F12000 ; Move to start next pattern wall
G1 Z0.65 F12000 ; Z hop return
G1 E0.5 F2100 ; Un-retract
G1 X78.7246 Y52.72 E1.01546 F4800 ; Print pattern wall
G1 X57.5114 Y73.9332 E1.01546 F4800 ; Print pattern wall
G1 E-0.5 F2100 ; Retract
G1 Z0.75 F12000 ; Z hop
G0 X59.9614 Y31.5068 F12000 ; Move to next pattern
G1 Z0.65 F12000 ; Z hop return
G1 E0.5 F2100 ; Un-retract
SET_PRESSURE_ADVANCE ADVANCE=0.058 ; Set pressure advance
M117 PA 0.058
G1 X81.1746 Y52.72 E1.01546 F4800 ; Print pattern wall
G1 X59.9614 Y73.9332 E1.01546 F4800 ; Print pattern wall
G1 E-0.5 F2100 ; Retract
G1 Z0.75 F12000 ; Z hop
G0 X60.5371 Y31.5068 F12000 ; Move to start next pattern wall
G1 Z0.65 F12000 ; Z hop return
G1 E0.5 F2100 ; Un-retract
G1 X81.7503 Y52.72 E1.01546 F4800 ; Print pattern wall
G1 X60.5371 Y73.9332 E1.01546 F4800 ; Print pattern wall
G1 E-0.5 F2100 ; Retract
G1 Z0.75 F12000 ; Z hop
G0 X61.1128 Y31.5068 F12000 ; Move to start next pattern wall
G1 Z0.65 F12000 ; Z hop return
G1 E0.5 F2100 ; Un-retract
G1 X82.326 Y52.72 E1.01546 F4800 ; Print pattern wall
G1 X61.1128 Y73.9332 E1.01546 F4800 ; Print pattern wall
G1 E-0.5 F2100 ; Retract
G1 Z0.75 F12000 ; Z hop
G0 X63.5628 Y31.5068 F12000 ; Move to next pattern
G1 Z0.65 F12000 ; Z hop return
G1 E0.5 F2100 ; Un-retract
SET_PRESSURE_ADVANCE ADVANCE=0.059 ; Set pressure advance
M117 PA 0.059
G1 X84.776 Y52.72 E1.01546 F4800 ; Print pattern wall
G1 X63.5628 Y73.9332 E1.01546 F4800 ; Print pattern wall
G1 E-0.5 F2100 ; Retract
G1 Z0.75 F12000 ; Z hop
G0 X64.1385 Y31.5068 F12000 ; Move to start next pattern wall
G1 Z0.65 F12000 ; Z hop return
G1 E0.5 F2100 ; Un-retract
G1 X85.3517 Y52.72 E1.01546 F4800 ; Print pattern wall
G1 X64.1385 Y73.9332 E1.01546 F4800 ; Print pattern wall
G1 E-0.5 F2100 ; Retract
G1 Z0.75 F12000 ; Z hop
G0 X64.7142 Y31.5068 F12000 ; Move to start next pattern wall
G1 Z0.65 F12000 ; Z hop return
G1 E0.5 F2100 ; Un-retract
G1 X85.9274 Y52.72 E1.01546 F4800 ; Print pattern wall
G1 X64.7142 Y73.9332 E1.01546 F4800 ; Print pattern wall
G1 E-0.5 F2100 ; Retract
G1 Z0.75 F12000 ; Z hop
G0 X67.1642 Y31.5068 F12000 ; Move to next pattern
G1 Z0.65 F12000 ; Z hop return
G1 E0.5 F2100 ; Un-retract
SET_PRESSURE_ADVANCE ADVANCE=0.06 ; Set pressure advance
M117 PA 0.06
G1 X88.3774 Y52.72 E1.01546 F4800 ; Print pattern wall
G1 X67.1642 Y73.9332 E1.01546 F4800 ; Print pattern wall
G1 E-0.5 F2100 ; Retract
G1 Z0.75 F12000 ; Z hop
G0 X67.7399 Y31.5068 F12000 ; Move to start next pattern wall
G1 Z0.65 F12000 ; Z hop return
G1 E0.5 F2100 ; Un-retract
G1 X88.9531 Y52.72 E1.01546 F4800 ; Print pattern wall
G1 X67.7399 Y73.9332 E1.01546 F4800 ; Print pattern wall
G1 E-0.5 F2100 ; Retract
G1 Z0.75 F12000 ; Z hop
G0 X68.3155 Y31.5068 F12000 ; Move to start next pattern wall
G1 Z0.65 F12000 ; Z hop return
G1 E0.5 F2100 ; Un-retract
G1 X89.5288 Y52.72 E1.01546 F4800 ; Print pattern wall
G1 X68.3155 Y73.9332 E1.01546 F4800 ; Print pattern wall
G1 E-0.5 F2100 ; Retract
G1 Z0.75 F12000 ; Z hop
G0 X31.1502 Y31.5068 F12000 ; Move back to start position
G1 Z0.65 F12000 ; Z hop return
G1 E0.5 F2100 ; Un-retract
G0 Z0.85 F12000 ; Move to layer height
SET_PRESSURE_ADVANCE ADVANCE=0.05 ; Set pressure advance
M117 PA 0.05
G1 X52.3634 Y52.72 E1.01546 F4800 ; Print pattern wall
G1 X31.1502 Y73.9332 E1.01546 F4800 ; Print pattern wall
G1 E-0.5 F2100 ; Retract
G1 Z0.95 F12000 ; Z hop
G0 X31.7259 Y31.5068 F12000 ; Move to start next pattern wall
G1 Z0.85 F12000 ; Z hop return
G1 E0.5 F2100 ; Un-retract
G1 X52.9391 Y52.72 E1.01546 F4800 ; Print pattern wall
G1 X31.7259 Y73.9332 E1.01546 F4800 ; Print pattern wall
G1 E-0.5 F2100 ; Retract
G1 Z0.95 F12000 ; Z hop
G0 X32.3016 Y31.5068 F12000 ; Move to start next pattern wall
G1 Z0.85 F12000 ; Z hop return
G1 E0.5 F2100 ; Un-retract
G1 X53.5148 Y52.72 E1.01546 F4800 ; Print pattern wall
G1 X32.3016 Y73.9332 E1.01546 F4800 ; Print pattern wall
G1 E-0.5 F2100 ; Retract
G1 Z0.95 F12000 ; Z hop
G0 X34.7516 Y31.5068 F12000 ; Move to next pattern
G1 Z0.85 F12000 ; Z hop return
G1 E0.5 F2100 ; Un-retract
SET_PRESSURE_ADVANCE ADVANCE=0.051 ; Set pressure advance
M117 PA 0.051
G1 X55.9648 Y52.72 E1.01546 F4800 ; Print pattern wall
G1 X34.7516 Y73.9332 E1.01546 F4800 ; Print pattern wall
G1 E-0.5 F2100 ; Retract
G1 Z0.95 F12000 ; Z hop
G0 X35.3273 Y31.5068 F12000 ; Move to start next pattern wall
G1 Z0.85 F12000 ; Z hop return
G1 E0.5 F2100 ; Un-retract
G1 X56.5405 Y52.72 E1.01546 F4800 ; Print pattern wall
G1 X35.3273 Y73.9332 E1.01546 F4800 ; Print pattern wall
G1 E-0.5 F2100 ; Retract
G1 Z0.95 F12000 ; Z hop
G0 X35.903 Y31.5068 F12000 ; Move to start next pattern wall
G1 Z0.85 F12000 ; Z hop return
G1 E0.5 F2100 ; Un-retract
G1 X57.1162 Y52.72 E1.01546 F4800 ; Print pattern wall
G1 X35.903 Y73.9332 E1.01546 F4800 ; Print pattern wall
G1 E-0.5 F2100 ; Retract
G1 Z0.95 F12000 ; Z hop
G0 X38.353 Y31.5068 F12000 ; Move to next pattern
G1 Z0.85 F12000 ; Z hop return
G1 E0.5 F2100 ; Un-retract
SET_PRESSURE_ADVANCE ADVANCE=0.052 ; Set pressure advance
M117 PA 0.052
G1 X59.5662 Y52.72 E1.01546 F4800 ; Print pattern wall
G1 X38.353 Y73.9332 E1.01546 F4800 ; Print pattern wall
G1 E-0.5 F2100 ; Retract
G1 Z0.95 F12000 ; Z hop
G0 X38.9287 Y31.5068 F12000 ; Move to start next pattern wall
G1 Z0.85 F12000 ; Z hop return
G1 E0.5 F2100 ; Un-retract
G1 X60.1419 Y52.72 E1.01546 F4800 ; Print pattern wall
G1 X38.9287 Y73.9332 E1.01546 F4800 ; Print pattern wall
G1 E-0.5 F2100 ; Retract
G1 Z0.95 F12000 ; Z hop
G0 X39.5044 Y31.5068 F12000 ; Move to start next pattern wall
G1 Z0.85 F12000 ; Z hop return
G1 E0.5 F2100 ; Un-retract
G1 X60.7176 Y52.72 E1.01546 F4800 ; Print pattern wall
G1 X39.5044 Y73.9332 E1.01546 F4800 ; Print pattern wall
G1 E-0.5 F2100 ; Retract
G1 Z0.95 F12000 ; Z hop
G0 X41.9544 Y31.5068 F12000 ; Move to next pattern
G1 Z0.85 F12000 ; Z hop return
G1 E0.5 F2100 ; Un-retract
SET_PRESSURE_ADVANCE ADVANCE=0.053 ; Set pressure advance
M117 PA 0.053
G1 X63.1676 Y52.72 E1.01546 F4800 ; Print pattern wall
G1 X41.9544 Y73.9332 E1.01546 F4800 ; Print pattern wall
G1 E-0.5 F2100 ; Retract
G1 Z0.95 F12000 ; Z hop
G0 X42.5301 Y31.5068 F12000 ; Move to start next pattern wall
G1 Z0.85 F12000 ; Z hop return
G1 E0.5 F2100 ; Un-retract
G1 X63.7433 Y52.72 E1.01546 F4800 ; Print pattern wall
G1 X42.5301 Y73.9332 E1.01546 F4800 ; Print pattern wall
G1 E-0.5 F2100 ; Retract
G1 Z0.95 F12000 ; Z hop
G0 X43.1058 Y31.5068 F12000 ; Move to start next pattern wall
G1 Z0.85 F12000 ; Z hop return
G1 E0.5 F2100 ; Un-retract
G1 X64.319 Y52.72 E1.01546 F4800 ; Print pattern wall
G1 X43.1058 Y73.9332 E1.01546 F4800 ; Print pattern wall
G1 E-0.5 F2100 ; Retract
G1 Z0.95 F12000 ; Z hop
G0 X45.5558 Y31.5068 F12000 ; Move to next pattern
G1 Z0.85 F12000 ; Z hop return
G1 E0.5 F2100 ; Un-retract
SET_PRESSURE_ADVANCE ADVANCE=0.054 ; Set pressure advance
M117 PA 0.054
G1 X66.769 Y52.72 E1.01546 F4800 ; Print pattern wall
G1 X45.5558 Y73.9332 E1.01546 F4800 ; Print pattern wall
G1 E-0.5 F2100 ; Retract
G1 Z0.95 F12000 ; Z hop
G0 X46.1315 Y31.5068 F12000 ; Move to start next pattern wall
G1 Z0.85 F12000 ; Z hop return
G1 E0.5 F2100 ; Un-retract
G1 X67.3447 Y52.72 E1.01546 F4800 ; Print pattern wall
G1 X46.1315 Y73.9332 E1.01546 F4800 ; Print pattern wall
G1 E-0.5 F2100 ; Retract
G1 Z0.95 F12000 ; Z hop
G0 X46.7072 Y31.5068 F12000 ; Move to start next pattern wall
G1 Z0.85 F12000 ; Z hop return
G1 E0.5 F2100 ; Un-retract
G1 X67.9204 Y52.72 E1.01546 F4800 ; Print pattern wall
G1 X46.7072 Y73.9332 E1.01546 F4800 ; Print pattern wall
G1 E-0.5 F2100 ; Retract
G1 Z0.95 F12000 ; Z hop
G0 X49.1572 Y31.5068 F12000 ; Move to next pattern
G1 Z0.85 F12000 ; Z hop return
G1 E0.5 F2100 ; Un-retract
SET_PRESSURE_ADVANCE ADVANCE=0.055 ; Set pressure advance
M117 PA 0.055
G1 X70.3704 Y52.72 E1.01546 F4800 ; Print pattern wall
G1 X49.1572 Y73.9332 E1.01546 F4800 ; Print pattern wall
G1 E-0.5 F2100 ; Retract
G1 Z0.95 F12000 ; Z hop
G0 X49.7329 Y31.5068 F12000 ; Move to start next pattern wall
G1 Z0.85 F12000 ; Z hop return
G1 E0.5 F2100 ; Un-retract
G1 X70.9461 Y52.72 E1.01546 F4800 ; Print pattern wall
G1 X49.7329 Y73.9332 E1.01546 F4800 ; Print pattern wall
G1 E-0.5 F2100 ; Retract
G1 Z0.95 F12000 ; Z hop
G0 X50.3086 Y31.5068 F12000 ; Move to start next pattern wall
G1 Z0.85 F12000 ; Z hop return
G1 E0.5 F2100 ; Un-retract
G1 X71.5218 Y52.72 E1.01546 F4800 ; Print pattern wall
G1 X50.3086 Y73.9332 E1.01546 F4800 ; Print pattern wall
G1 E-0.5 F2100 ; Retract
G1 Z0.95 F12000 ; Z hop
G0 X52.7586 Y31.5068 F12000 ; Move to next pattern
G1 Z0.85 F12000 ; Z hop return
G1 E0.5 F2100 ; Un-retract
SET_PRESSURE_ADVANCE ADVANCE=0.056 ; Set pressure advance
M117 PA 0.056
G1 X73.9718 Y52.72 E1.01546 F4800 ; Print pattern wall
G1 X52.7586 Y73.9332 E1.01546 F4800 ; Print pattern wall
G1 E-0.5 F2100 ; Retract
G1 Z0.95 F12000 ; Z hop
G0 X53.3343 Y31.5068 F12000 ; Move to start next pattern wall
G1 Z0.85 F12000 ; Z hop return
G1 E0.5 F2100 ; Un-retract
G1 X74.5475 Y52.72 E1.01546 F4800 ; Print pattern wall
G1 X53.3343 Y73.9332 E1.01546 F4800 ; Print pattern wall
G1 E-0.5 F2100 ; Retract
G1 Z0.95 F12000 ; Z hop
G0 X53.91 Y31.5068 F12000 ; Move to start next pattern wall
G1 Z0.85 F12000 ; Z hop return
G1 E0.5 F2100 ; Un-retract
G1 X75.1232 Y52.72 E1.01546 F4800 ; Print pattern wall
G1 X53.91 Y73.9332 E1.01546 F4800 ; Print pattern wall
G1 E-0.5 F2100 ; Retract
G1 Z0.95 F12000 ; Z hop
G0 X56.36 Y31.5068 F12000 ; Move to next pattern
G1 Z0.85 F12000 ; Z hop return
G1 E0.5 F2100 ; Un-retract
SET_PRESSURE_ADVANCE ADVANCE=0.057 ; Set pressure advance
M117 PA 0.057
G1 X77.5732 Y52.72 E1.01546 F4800 ; Print pattern wall
G1 X56.36 Y73.9332 E1.01546 F4800 ; Print pattern wall
G1 E-0.5 F2100 ; Retract
G1 Z0.95 F12000 ; Z hop
G0 X56.9357 Y31.5068 F12000 ; Move to start next pattern wall
G1 Z0.85 F12000 ; Z hop return
G1 E0.5 F2100 ; Un-retract
G1 X78.1489 Y52.72 E1.01546 F4800 ; Print pattern wall
G1 X56.9357 Y73.9332 E1.01546 F4800 ; Print pattern wall
G1 E-0.5 F2100 ; Retract
G1 Z0.95 F12000 ; Z hop
G0 X57.5114 Y31.5068 F12000 ; Move to start next pattern wall
G1 Z0.85 F12000 ; Z hop return
G1 E0.5 F2100 ; Un-retract
G1 X78.7246 Y52.72 E1.01546 F4800 ; Print pattern wall
G1 X57.5114 Y73.9332 E1.01546 F4800 ; Print pattern wall
G1 E-0.5 F2100 ; Retract
G1 Z0.95 F12000 ; Z hop
G0 X59.9614 Y31.5068 F12000 ; Move to next pattern
G1 Z0.85 F12000 ; Z hop return
G1 E0.5 F2100 ; Un-retract
SET_PRESSURE_ADVANCE ADVANCE=0.058 ; Set pressure advance
M117 PA 0.058
G1 X81.1746 Y52.72 E1.01546 F4800 ; Print pattern wall
G1 X59.9614 Y73.9332 E1.01546 F4800 ; Print pattern wall
G1 E-0.5 F2100 ; Retract
G1 Z0.95 F12000 ; Z hop
G0 X60.5371 Y31.5068 F12000 ; Move to start next pattern wall
G1 Z0.85 F12000 ; Z hop return
G1 E0.5 F2100 ; Un-retract
G1 X81.7503 Y52.72 E1.01546 F4800 ; Print pattern wall
G1 X60.5371 Y73.9332 E1.01546 F4800 ; Print pattern wall
G1 E-0.5 F2100 ; Retract
G1 Z0.95 F12000 ; Z hop
G0 X61.1128 Y31.5068 F12000 ; Move to start next pattern wall
G1 Z0.85 F12000 ; Z hop return
G1 E0.5 F2100 ; Un-retract
G1 X82.326 Y52.72 E1.01546 F4800 ; Print pattern wall
G1 X61.1128 Y73.9332 E1.01546 F4800 ; Print pattern wall
G1 E-0.5 F2100 ; Retract
G1 Z0.95 F12000 ; Z hop
G0 X63.5628 Y31.5068 F12000 ; Move to next pattern
G1 Z0.85 F12000 ; Z hop return
G1 E0.5 F2100 ; Un-retract
SET_PRESSURE_ADVANCE ADVANCE=0.059 ; Set pressure advance
M117 PA 0.059
G1 X84.776 Y52.72 E1.01546 F4800 ; Print pattern wall
G1 X63.5628 Y73.9332 E1.01546 F4800 ; Print pattern wall
G1 E-0.5 F2100 ; Retract
G1 Z0.95 F12000 ; Z hop
G0 X64.1385 Y31.5068 F12000 ; Move to start next pattern wall
G1 Z0.85 F12000 ; Z hop return
G1 E0.5 F2100 ; Un-retract
G1 X85.3517 Y52.72 E1.01546 F4800 ; Print pattern wall
G1 X64.1385 Y73.9332 E1.01546 F4800 ; Print pattern wall
G1 E-0.5 F2100 ; Retract
G1 Z0.95 F12000 ; Z hop
G0 X64.7142 Y31.5068 F12000 ; Move to start next pattern wall
G1 Z0.85 F12000 ; Z hop return
G1 E0.5 F2100 ; Un-retract
G1 X85.9274 Y52.72 E1.01546 F4800 ; Print pattern wall
G1 X64.7142 Y73.9332 E1.01546 F4800 ; Print pattern wall
G1 E-0.5 F2100 ; Retract
G1 Z0.95 F12000 ; Z hop
G0 X67.1642 Y31.5068 F12000 ; Move to next pattern
G1 Z0.85 F12000 ; Z hop return
G1 E0.5 F2100 ; Un-retract
SET_PRESSURE_ADVANCE ADVANCE=0.06 ; Set pressure advance
M117 PA 0.06
G1 X88.3774 Y52.72 E1.01546 F4800 ; Print pattern wall
G1 X67.1642 Y73.9332 E1.01546 F4800 ; Print pattern wall
G1 E-0.5 F2100 ; Retract
G1 Z0.95 F12000 ; Z hop
G0 X67.7399 Y31.5068 F12000 ; Move to start next pattern wall
G1 Z0.85 F12000 ; Z hop return
G1 E0.5 F2100 ; Un-retract
G1 X88.9531 Y52.72 E1.01546 F4800 ; Print pattern wall
G1 X67.7399 Y73.9332 E1.01546 F4800 ; Print pattern wall
G1 E-0.5 F2100 ; Retract
G1 Z0.95 F12000 ; Z hop
G0 X68.3155 Y31.5068 F12000 ; Move to start next pattern wall
G1 Z0.85 F12000 ; Z hop return
G1 E0.5 F2100 ; Un-retract
G1 X89.5288 Y52.72 E1.01546 F4800 ; Print pattern wall
G1 X68.3155 Y73.9332 E1.01546 F4800 ; Print pattern wall
SET_PRESSURE_ADVANCE ADVANCE=0.05 ; Set pressure advance back to start value
M117 PA 0.05
G1 E-0.5 F2100 ; Retract
G1 Z0.95 F12000 ; Z hop
G0 Z5.85 F12000 ; Z raise
M104 S0 ; Turn off hotend
M140 S0 ; Turn off bed
M107    ; Turn off fan
;
; End G-code
;
END_PRINT
;
; FINISH
;
