
; ### Ellis' Pressure Advance / Linear Advance Calibration Tool ###
;
; Original Marlin linear advance calibration tool by Sineos [https://github.com/Sineos]
; Heavily modified/rewritten by Andrew Ellis [https://github.com/AndrewEllis93]
;
; -------------------------------------------
; Generated: Mon Dec 26 2022 13:51:19 GMT-0800 (Pacific Standard Time)
; -------------------------------------------
;
; Advanced mode: false
;
; Printer:
;  - Firmware: klipper
;  - Bed Shape: Rect
;  - Bed Size X: 120 mm
;  - Bed Size Y: 120 mm
;  - Origin Bed Center: false
;  - Travel Speed: 200 mm/s
;  - Nozzle Diameter: 0.4 mm
;  - Filament Diameter: 1.75 mm
;  - Extrusion Multiplier: 1
;
; Retraction / Z Hop:
;  - Retraction Distance: 0.5 mm
;  - Retract Speed: 35 mm/s
;  - Unretract Speed: 35 mm/s
;  - Z Hop Enable: true
;  - Z Hop Height: 0.1mm
;
; First Layer Settings:
;  - First Layer Height: 0.25 mm
;  - First Layer Printing Speed: 30 mm/s
;  - First Layer Fan Speed: 0%
;  - Anchor Option: anchor_frame
;
; Print Settings:
;  - Layer Height: 0.2 mm
;  - Print Speed: 80 mm/s
;  - Acceleration: Disabled
;  - Fan Speed: 100%
;
; Pressure Advance Stepping:
;  - PA Start Value: 0
;  - PA End Value: 0.08
;  - PA Increment: 0.005
;
; Start / End G-code:
;  - Start G-code Type: standalone
;  - Hotend Temp: 200C
;  - Bed Temp: 60C
;
; Calculated Values:
;  - Print Size X: 84.72 mm
;  - Print Size Y: 53.99 mm
;  - Number of Patterns to Print: 17
;  - PA Values: 0, 0.005, 0.01, 0.015, 0.02, 0.025, 0.03, 0.035, 0.04, 0.045, 0.05, 0.055, 0.06, 0.065, 0.07, 0.075, 0.08
;
; Prepare printing
;
M190 S60    ; Set & wait for bed temp. !Don't modify/delete, only move!
M109 S200 ; Set & wait for hotend temp. !Don't modify/delete, only move!
START_PRINT T_BED=60 T_EXTRUDER=200
;
; Make sure this macro name matches your own!
; (For example, some may use START_PRINT instead.)
G21 ; Millimeter units
G90 ; Absolute XYZ
M83 ; Relative E
G92 E0 ; Reset extruder distance
;
;  Begin printing
;
M106 S0 ; Set fan speed
G1 E-0.5 F2100 ; Retract
G0 Z5 F12000 ; Z raise
G0 X17.6417 Y33.0068 F12000 ; Move to start position
G0 Z0.25 F12000 ; Move to start layer height
G1 E0.5 F2100 ; Un-retract
SET_PRESSURE_ADVANCE ADVANCE=0 ; Set pressure advance to start value
M117 PA 0
G1 X17.6417 Y75.4332 E2.23286 F1800 ; Draw perimeter (up)
G1 X102.3583 Y75.4332 E4.45854 F1800 ; Draw perimeter (right)
G1 X102.3583 Y33.0068 E2.23286 F1800 ; Draw perimeter (down)
G1 X17.6417 Y33.0068 E4.45854 F1800 ; Draw perimeter (left)
G0 X18.148 Y33.5131 F12000 ; Step inwards to print next perimeter
G1 X18.148 Y74.9269 E2.17956 F1800 ; Draw perimeter (up)
G1 X101.852 Y74.9269 E4.40525 F1800 ; Draw perimeter (right)
G1 X101.852 Y33.5131 E2.17956 F1800 ; Draw perimeter (down)
G1 X18.148 Y33.5131 E4.40525 F1800 ; Draw perimeter (left)
G0 X18.6544 Y34.0195 F12000 ; Step inwards to print next perimeter
G1 X18.6544 Y74.4205 E2.12626 F1800 ; Draw perimeter (up)
G1 X101.3456 Y74.4205 E4.35195 F1800 ; Draw perimeter (right)
G1 X101.3456 Y34.0195 E2.12626 F1800 ; Draw perimeter (down)
G1 X18.6544 Y34.0195 E4.35195 F1800 ; Draw perimeter (left)
G0 X19.1607 Y34.5258 F12000 ; Step inwards to print next perimeter
G1 X19.1607 Y73.9142 E2.07296 F1800 ; Draw perimeter (up)
G1 X100.8393 Y73.9142 E4.29865 F1800 ; Draw perimeter (right)
G1 X100.8393 Y34.5258 E2.07296 F1800 ; Draw perimeter (down)
G1 X19.1607 Y34.5258 E4.29865 F1800 ; Draw perimeter (left)
G1 E-0.5 F2100 ; Retract
G1 Z0.35 F12000 ; Z hop
G0 X17.6417 Y75.9396 F12000 ; Move to box start
G1 Z0.25 F12000 ; Z hop return
G1 E0.5 F2100 ; Un-retract
G1 X17.6417 Y87.4459 E0.60557 F1800 ; Draw perimeter (up)
G1 X81.8962 Y87.4459 E3.38164 F1800 ; Draw perimeter (right)
G1 X81.8962 Y75.9396 E0.60557 F1800 ; Draw perimeter (down)
G1 X17.6417 Y75.9396 E3.38164 F1800 ; Draw perimeter (left)
G0 X18.148 Y76.4459 F12000 ; Step inwards to print next perimeter
G1 X18.148 Y86.9396 E0.55227 F1800 ; Draw perimeter (up)
G1 X81.3898 Y86.9396 E3.32835 F1800 ; Draw perimeter (right)
G1 X81.3898 Y76.4459 E0.55227 F1800 ; Draw perimeter (down)
G1 X18.148 Y76.4459 E3.32835 F1800 ; Draw perimeter (left)
G0 X18.6544 Y76.9523 F12000 ; Step inwards to print next perimeter
G1 X18.6544 Y86.4332 E0.49897 F1800 ; Draw perimeter (up)
G1 X80.8835 Y86.4332 E3.27505 F1800 ; Draw perimeter (right)
G1 X80.8835 Y76.9523 E0.49897 F1800 ; Draw perimeter (down)
G1 X18.6544 Y76.9523 E3.27505 F1800 ; Draw perimeter (left)
G0 X19.1607 Y77.4586 F12000 ; Step inwards to print next perimeter
G1 X19.1607 Y85.9269 E0.44567 F1800 ; Draw perimeter (up)
G1 X80.3771 Y85.9269 E3.22175 F1800 ; Draw perimeter (right)
G1 X80.3771 Y77.4586 E0.44567 F1800 ; Draw perimeter (down)
G1 X19.1607 Y77.4586 E3.22175 F1800 ; Draw perimeter (left)
G0 X19.5341 Y77.8319 F12000 ; Move to fill start
G0 X20.2502 Y77.8319 F12000 ; Move
G1 X19.5341 Y78.548 E0.0533 F1800 ; Fill
G0 X19.5341 Y79.2641 F12000 ; Move
G1 X20.9663 Y77.8319 E0.10659 F1800 ; Fill
G0 X21.6823 Y77.8319 F12000 ; Move
G1 X19.5341 Y79.9802 E0.15989 F1800 ; Fill
G0 X19.5341 Y80.6963 F12000 ; Move
G1 X22.3984 Y77.8319 E0.21319 F1800 ; Fill
G0 X23.1145 Y77.8319 F12000 ; Move
G1 X19.5341 Y81.4124 E0.26649 F1800 ; Fill
G0 X19.5341 Y82.1285 F12000 ; Move
G1 X23.8306 Y77.8319 E0.31978 F1800 ; Fill
G0 X24.5467 Y77.8319 F12000 ; Move
G1 X19.5341 Y82.8445 E0.37308 F1800 ; Fill
G0 X19.5341 Y83.5606 F12000 ; Move
G1 X25.2628 Y77.8319 E0.42638 F1800 ; Fill
G0 X25.9789 Y77.8319 F12000 ; Move
G1 X19.5341 Y84.2767 E0.47968 F1800 ; Fill
G0 X19.5341 Y84.9928 F12000 ; Move
G1 X26.6949 Y77.8319 E0.53297 F1800 ; Fill
G0 X27.411 Y77.8319 F12000 ; Move
G1 X19.6894 Y85.5535 E0.57471 F1800 ; Fill
G0 X20.4055 Y85.5535 F12000 ; Move
G1 X28.1271 Y77.8319 E0.57471 F1800 ; Fill
G0 X28.8432 Y77.8319 F12000 ; Move
G1 X21.1216 Y85.5535 E0.57471 F1800 ; Fill
G0 X21.8377 Y85.5535 F12000 ; Move
G1 X29.5593 Y77.8319 E0.57471 F1800 ; Fill
G0 X30.2754 Y77.8319 F12000 ; Move
G1 X22.5538 Y85.5535 E0.57471 F1800 ; Fill
G0 X23.2699 Y85.5535 F12000 ; Move
G1 X30.9915 Y77.8319 E0.57471 F1800 ; Fill
G0 X31.7076 Y77.8319 F12000 ; Move
G1 X23.986 Y85.5535 E0.57471 F1800 ; Fill
G0 X24.7021 Y85.5535 F12000 ; Move
G1 X32.4236 Y77.8319 E0.57471 F1800 ; Fill
G0 X33.1397 Y77.8319 F12000 ; Move
G1 X25.4181 Y85.5535 E0.57471 F1800 ; Fill
G0 X26.1342 Y85.5535 F12000 ; Move
G1 X33.8558 Y77.8319 E0.57471 F1800 ; Fill
G0 X34.5719 Y77.8319 F12000 ; Move
G1 X26.8503 Y85.5535 E0.57471 F1800 ; Fill
G0 X27.5664 Y85.5535 F12000 ; Move
G1 X35.288 Y77.8319 E0.57471 F1800 ; Fill
G0 X36.0041 Y77.8319 F12000 ; Move
G1 X28.2825 Y85.5535 E0.57471 F1800 ; Fill
G0 X28.9986 Y85.5535 F12000 ; Move
G1 X36.7202 Y77.8319 E0.57471 F1800 ; Fill
G0 X37.4362 Y77.8319 F12000 ; Move
G1 X29.7147 Y85.5535 E0.57471 F1800 ; Fill
G0 X30.4307 Y85.5535 F12000 ; Move
G1 X38.1523 Y77.8319 E0.57471 F1800 ; Fill
G0 X38.8684 Y77.8319 F12000 ; Move
G1 X31.1468 Y85.5535 E0.57471 F1800 ; Fill
G0 X31.8629 Y85.5535 F12000 ; Move
G1 X39.5845 Y77.8319 E0.57471 F1800 ; Fill
G0 X40.3006 Y77.8319 F12000 ; Move
G1 X32.579 Y85.5535 E0.57471 F1800 ; Fill
G0 X33.2951 Y85.5535 F12000 ; Move
G1 X41.0167 Y77.8319 E0.57471 F1800 ; Fill
G0 X41.7328 Y77.8319 F12000 ; Move
G1 X34.0112 Y85.5535 E0.57471 F1800 ; Fill
G0 X34.7273 Y85.5535 F12000 ; Move
G1 X42.4488 Y77.8319 E0.57471 F1800 ; Fill
G0 X43.1649 Y77.8319 F12000 ; Move
G1 X35.4433 Y85.5535 E0.57471 F1800 ; Fill
G0 X36.1594 Y85.5535 F12000 ; Move
G1 X43.881 Y77.8319 E0.57471 F1800 ; Fill
G0 X44.5971 Y77.8319 F12000 ; Move
G1 X36.8755 Y85.5535 E0.57471 F1800 ; Fill
G0 X37.5916 Y85.5535 F12000 ; Move
G1 X45.3132 Y77.8319 E0.57471 F1800 ; Fill
G0 X46.0293 Y77.8319 F12000 ; Move
G1 X38.3077 Y85.5535 E0.57471 F1800 ; Fill
G0 X39.0238 Y85.5535 F12000 ; Move
G1 X46.7454 Y77.8319 E0.57471 F1800 ; Fill
G0 X47.4615 Y77.8319 F12000 ; Move
G1 X39.7399 Y85.5535 E0.57471 F1800 ; Fill
G0 X40.456 Y85.5535 F12000 ; Move
G1 X48.1775 Y77.8319 E0.57471 F1800 ; Fill
G0 X48.8936 Y77.8319 F12000 ; Move
G1 X41.172 Y85.5535 E0.57471 F1800 ; Fill
G0 X41.8881 Y85.5535 F12000 ; Move
G1 X49.6097 Y77.8319 E0.57471 F1800 ; Fill
G0 X50.3258 Y77.8319 F12000 ; Move
G1 X42.6042 Y85.5535 E0.57471 F1800 ; Fill
G0 X43.3203 Y85.5535 F12000 ; Move
G1 X51.0419 Y77.8319 E0.57471 F1800 ; Fill
G0 X51.758 Y77.8319 F12000 ; Move
G1 X44.0364 Y85.5535 E0.57471 F1800 ; Fill
G0 X44.7525 Y85.5535 F12000 ; Move
G1 X52.4741 Y77.8319 E0.57471 F1800 ; Fill
G0 X53.1901 Y77.8319 F12000 ; Move
G1 X45.4686 Y85.5535 E0.57471 F1800 ; Fill
G0 X46.1846 Y85.5535 F12000 ; Move
G1 X53.9062 Y77.8319 E0.57471 F1800 ; Fill
G0 X54.6223 Y77.8319 F12000 ; Move
G1 X46.9007 Y85.5535 E0.57471 F1800 ; Fill
G0 X47.6168 Y85.5535 F12000 ; Move
G1 X55.3384 Y77.8319 E0.57471 F1800 ; Fill
G0 X56.0545 Y77.8319 F12000 ; Move
G1 X48.3329 Y85.5535 E0.57471 F1800 ; Fill
G0 X49.049 Y85.5535 F12000 ; Move
G1 X56.7706 Y77.8319 E0.57471 F1800 ; Fill
G0 X57.4867 Y77.8319 F12000 ; Move
G1 X49.7651 Y85.5535 E0.57471 F1800 ; Fill
G0 X50.4812 Y85.5535 F12000 ; Move
G1 X58.2027 Y77.8319 E0.57471 F1800 ; Fill
G0 X58.9188 Y77.8319 F12000 ; Move
G1 X51.1972 Y85.5535 E0.57471 F1800 ; Fill
G0 X51.9133 Y85.5535 F12000 ; Move
G1 X59.6349 Y77.8319 E0.57471 F1800 ; Fill
G0 X60.351 Y77.8319 F12000 ; Move
G1 X52.6294 Y85.5535 E0.57471 F1800 ; Fill
G0 X53.3455 Y85.5535 F12000 ; Move
G1 X61.0671 Y77.8319 E0.57471 F1800 ; Fill
G0 X61.7832 Y77.8319 F12000 ; Move
G1 X54.0616 Y85.5535 E0.57471 F1800 ; Fill
G0 X54.7777 Y85.5535 F12000 ; Move
G1 X62.4993 Y77.8319 E0.57471 F1800 ; Fill
G0 X63.2154 Y77.8319 F12000 ; Move
G1 X55.4938 Y85.5535 E0.57471 F1800 ; Fill
G0 X56.2099 Y85.5535 F12000 ; Move
G1 X63.9314 Y77.8319 E0.57471 F1800 ; Fill
G0 X64.6475 Y77.8319 F12000 ; Move
G1 X56.9259 Y85.5535 E0.57471 F1800 ; Fill
G0 X57.642 Y85.5535 F12000 ; Move
G1 X65.3636 Y77.8319 E0.57471 F1800 ; Fill
G0 X66.0797 Y77.8319 F12000 ; Move
G1 X58.3581 Y85.5535 E0.57471 F1800 ; Fill
G0 X59.0742 Y85.5535 F12000 ; Move
G1 X66.7958 Y77.8319 E0.57471 F1800 ; Fill
G0 X67.5119 Y77.8319 F12000 ; Move
G1 X59.7903 Y85.5535 E0.57471 F1800 ; Fill
G0 X60.5064 Y85.5535 F12000 ; Move
G1 X68.228 Y77.8319 E0.57471 F1800 ; Fill
G0 X68.944 Y77.8319 F12000 ; Move
G1 X61.2225 Y85.5535 E0.57471 F1800 ; Fill
G0 X61.9385 Y85.5535 F12000 ; Move
G1 X69.6601 Y77.8319 E0.57471 F1800 ; Fill
G0 X70.3762 Y77.8319 F12000 ; Move
G1 X62.6546 Y85.5535 E0.57471 F1800 ; Fill
G0 X63.3707 Y85.5535 F12000 ; Move
G1 X71.0923 Y77.8319 E0.57471 F1800 ; Fill
G0 X71.8084 Y77.8319 F12000 ; Move
G1 X64.0868 Y85.5535 E0.57471 F1800 ; Fill
G0 X64.8029 Y85.5535 F12000 ; Move
G1 X72.5245 Y77.8319 E0.57471 F1800 ; Fill
G0 X73.2406 Y77.8319 F12000 ; Move
G1 X65.519 Y85.5535 E0.57471 F1800 ; Fill
G0 X66.2351 Y85.5535 F12000 ; Move
G1 X73.9566 Y77.8319 E0.57471 F1800 ; Fill
G0 X74.6727 Y77.8319 F12000 ; Move
G1 X66.9511 Y85.5535 E0.57471 F1800 ; Fill
G0 X67.6672 Y85.5535 F12000 ; Move
G1 X75.3888 Y77.8319 E0.57471 F1800 ; Fill
G0 X76.1049 Y77.8319 F12000 ; Move
G1 X68.3833 Y85.5535 E0.57471 F1800 ; Fill
G0 X69.0994 Y85.5535 F12000 ; Move
G1 X76.821 Y77.8319 E0.57471 F1800 ; Fill
G0 X77.5371 Y77.8319 F12000 ; Move
G1 X69.8155 Y85.5535 E0.57471 F1800 ; Fill
G0 X70.5316 Y85.5535 F12000 ; Move
G1 X78.2532 Y77.8319 E0.57471 F1800 ; Fill
G0 X78.9693 Y77.8319 F12000 ; Move
G1 X71.2477 Y85.5535 E0.57471 F1800 ; Fill
G0 X71.9638 Y85.5535 F12000 ; Move
G1 X79.6853 Y77.8319 E0.57471 F1800 ; Fill
G0 X80.0038 Y78.2296 F12000 ; Move
G1 X72.6798 Y85.5535 E0.54511 F1800 ; Fill
G0 X73.3959 Y85.5535 F12000 ; Move
G1 X80.0038 Y78.9457 E0.49181 F1800 ; Fill
G0 X80.0038 Y79.6617 F12000 ; Move
G1 X74.112 Y85.5535 E0.43852 F1800 ; Fill
G0 X74.8281 Y85.5535 F12000 ; Move
G1 X80.0038 Y80.3778 E0.38522 F1800 ; Fill
G0 X80.0038 Y81.0939 F12000 ; Move
G1 X75.5442 Y85.5535 E0.33192 F1800 ; Fill
G0 X76.2603 Y85.5535 F12000 ; Move
G1 X80.0038 Y81.81 E0.27862 F1800 ; Fill
G0 X80.0038 Y82.5261 F12000 ; Move
G1 X76.9764 Y85.5535 E0.22533 F1800 ; Fill
G0 X77.6924 Y85.5535 F12000 ; Move
G1 X80.0038 Y83.2422 E0.17203 F1800 ; Fill
G0 X80.0038 Y83.9583 F12000 ; Move
G1 X78.4085 Y85.5535 E0.11873 F1800 ; Fill
G0 X79.1246 Y85.5535 F12000 ; Move
G1 X80.0038 Y84.6744 E0.06544 F1800 ; Fill
G0 X80.0038 Y85.3904 F12000 ; Move
G1 X79.8407 Y85.5535 E0.01214 F1800 ; Fill
G0 Z0.25 F12000 ; Move to layer height
G1 E-0.5 F2100 ; Retract
G1 Z0.35 F12000 ; Z hop
G0 X22.2384 Y34.8992 F12000 ; Move to pattern start

G1 Z0.25 F12000 ; Z hop return
G1 E0.5 F2100 ; Un-retract
SET_PRESSURE_ADVANCE ADVANCE=0 ; Set pressure advance
M117 PA 0
G1 X41.5592 Y54.22 E1.12562 F1800 ; Print pattern wall
G1 X22.2384 Y73.5408 E1.12562 F1800 ; Print pattern wall
G1 E-0.5 F2100 ; Retract
G1 Z0.35 F12000 ; Z hop
G0 X22.8141 Y34.8992 F12000 ; Move to start next pattern wall
G1 Z0.25 F12000 ; Z hop return
G1 E0.5 F2100 ; Un-retract
G1 X42.1349 Y54.22 E1.12562 F1800 ; Print pattern wall
G1 X22.8141 Y73.5408 E1.12562 F1800 ; Print pattern wall
G1 E-0.5 F2100 ; Retract
G1 Z0.35 F12000 ; Z hop
G0 X23.3898 Y34.8992 F12000 ; Move to start next pattern wall
G1 Z0.25 F12000 ; Z hop return
G1 E0.5 F2100 ; Un-retract
G1 X42.7106 Y54.22 E1.12562 F1800 ; Print pattern wall
G1 X23.3898 Y73.5408 E1.12562 F1800 ; Print pattern wall
G1 E-0.5 F2100 ; Retract
G1 Z0.35 F12000 ; Z hop
G0 X25.8398 Y34.8992 F12000 ; Move to next pattern
G1 Z0.25 F12000 ; Z hop return
G1 E0.5 F2100 ; Un-retract
SET_PRESSURE_ADVANCE ADVANCE=0.005 ; Set pressure advance
M117 PA 0.005
G1 X45.1606 Y54.22 E1.12562 F1800 ; Print pattern wall
G1 X25.8398 Y73.5408 E1.12562 F1800 ; Print pattern wall
G1 E-0.5 F2100 ; Retract
G1 Z0.35 F12000 ; Z hop
G0 X26.4155 Y34.8992 F12000 ; Move to start next pattern wall
G1 Z0.25 F12000 ; Z hop return
G1 E0.5 F2100 ; Un-retract
G1 X45.7363 Y54.22 E1.12562 F1800 ; Print pattern wall
G1 X26.4155 Y73.5408 E1.12562 F1800 ; Print pattern wall
G1 E-0.5 F2100 ; Retract
G1 Z0.35 F12000 ; Z hop
G0 X26.9912 Y34.8992 F12000 ; Move to start next pattern wall
G1 Z0.25 F12000 ; Z hop return
G1 E0.5 F2100 ; Un-retract
G1 X46.312 Y54.22 E1.12562 F1800 ; Print pattern wall
G1 X26.9912 Y73.5408 E1.12562 F1800 ; Print pattern wall
G1 E-0.5 F2100 ; Retract
G1 Z0.35 F12000 ; Z hop
G0 X29.4412 Y34.8992 F12000 ; Move to next pattern
G1 Z0.25 F12000 ; Z hop return
G1 E0.5 F2100 ; Un-retract
SET_PRESSURE_ADVANCE ADVANCE=0.01 ; Set pressure advance
M117 PA 0.01
G1 X48.762 Y54.22 E1.12562 F1800 ; Print pattern wall
G1 X29.4412 Y73.5408 E1.12562 F1800 ; Print pattern wall
G1 E-0.5 F2100 ; Retract
G1 Z0.35 F12000 ; Z hop
G0 X30.0169 Y34.8992 F12000 ; Move to start next pattern wall
G1 Z0.25 F12000 ; Z hop return
G1 E0.5 F2100 ; Un-retract
G1 X49.3377 Y54.22 E1.12562 F1800 ; Print pattern wall
G1 X30.0169 Y73.5408 E1.12562 F1800 ; Print pattern wall
G1 E-0.5 F2100 ; Retract
G1 Z0.35 F12000 ; Z hop
G0 X30.5926 Y34.8992 F12000 ; Move to start next pattern wall
G1 Z0.25 F12000 ; Z hop return
G1 E0.5 F2100 ; Un-retract
G1 X49.9134 Y54.22 E1.12562 F1800 ; Print pattern wall
G1 X30.5926 Y73.5408 E1.12562 F1800 ; Print pattern wall
G1 E-0.5 F2100 ; Retract
G1 Z0.35 F12000 ; Z hop
G0 X33.0426 Y34.8992 F12000 ; Move to next pattern
G1 Z0.25 F12000 ; Z hop return
G1 E0.5 F2100 ; Un-retract
SET_PRESSURE_ADVANCE ADVANCE=0.015 ; Set pressure advance
M117 PA 0.015
G1 X52.3634 Y54.22 E1.12562 F1800 ; Print pattern wall
G1 X33.0426 Y73.5408 E1.12562 F1800 ; Print pattern wall
G1 E-0.5 F2100 ; Retract
G1 Z0.35 F12000 ; Z hop
G0 X33.6183 Y34.8992 F12000 ; Move to start next pattern wall
G1 Z0.25 F12000 ; Z hop return
G1 E0.5 F2100 ; Un-retract
G1 X52.9391 Y54.22 E1.12562 F1800 ; Print pattern wall
G1 X33.6183 Y73.5408 E1.12562 F1800 ; Print pattern wall
G1 E-0.5 F2100 ; Retract
G1 Z0.35 F12000 ; Z hop
G0 X34.194 Y34.8992 F12000 ; Move to start next pattern wall
G1 Z0.25 F12000 ; Z hop return
G1 E0.5 F2100 ; Un-retract
G1 X53.5148 Y54.22 E1.12562 F1800 ; Print pattern wall
G1 X34.194 Y73.5408 E1.12562 F1800 ; Print pattern wall
G1 E-0.5 F2100 ; Retract
G1 Z0.35 F12000 ; Z hop
G0 X36.644 Y34.8992 F12000 ; Move to next pattern
G1 Z0.25 F12000 ; Z hop return
G1 E0.5 F2100 ; Un-retract
SET_PRESSURE_ADVANCE ADVANCE=0.02 ; Set pressure advance
M117 PA 0.02
G1 X55.9648 Y54.22 E1.12562 F1800 ; Print pattern wall
G1 X36.644 Y73.5408 E1.12562 F1800 ; Print pattern wall
G1 E-0.5 F2100 ; Retract
G1 Z0.35 F12000 ; Z hop
G0 X37.2197 Y34.8992 F12000 ; Move to start next pattern wall
G1 Z0.25 F12000 ; Z hop return
G1 E0.5 F2100 ; Un-retract
G1 X56.5405 Y54.22 E1.12562 F1800 ; Print pattern wall
G1 X37.2197 Y73.5408 E1.12562 F1800 ; Print pattern wall
G1 E-0.5 F2100 ; Retract
G1 Z0.35 F12000 ; Z hop
G0 X37.7954 Y34.8992 F12000 ; Move to start next pattern wall
G1 Z0.25 F12000 ; Z hop return
G1 E0.5 F2100 ; Un-retract
G1 X57.1162 Y54.22 E1.12562 F1800 ; Print pattern wall
G1 X37.7954 Y73.5408 E1.12562 F1800 ; Print pattern wall
G1 E-0.5 F2100 ; Retract
G1 Z0.35 F12000 ; Z hop
G0 X40.2454 Y34.8992 F12000 ; Move to next pattern
G1 Z0.25 F12000 ; Z hop return
G1 E0.5 F2100 ; Un-retract
SET_PRESSURE_ADVANCE ADVANCE=0.025 ; Set pressure advance
M117 PA 0.025
G1 X59.5662 Y54.22 E1.12562 F1800 ; Print pattern wall
G1 X40.2454 Y73.5408 E1.12562 F1800 ; Print pattern wall
G1 E-0.5 F2100 ; Retract
G1 Z0.35 F12000 ; Z hop
G0 X40.8211 Y34.8992 F12000 ; Move to start next pattern wall
G1 Z0.25 F12000 ; Z hop return
G1 E0.5 F2100 ; Un-retract
G1 X60.1419 Y54.22 E1.12562 F1800 ; Print pattern wall
G1 X40.8211 Y73.5408 E1.12562 F1800 ; Print pattern wall
G1 E-0.5 F2100 ; Retract
G1 Z0.35 F12000 ; Z hop
G0 X41.3968 Y34.8992 F12000 ; Move to start next pattern wall
G1 Z0.25 F12000 ; Z hop return
G1 E0.5 F2100 ; Un-retract
G1 X60.7176 Y54.22 E1.12562 F1800 ; Print pattern wall
G1 X41.3968 Y73.5408 E1.12562 F1800 ; Print pattern wall
G1 E-0.5 F2100 ; Retract
G1 Z0.35 F12000 ; Z hop
G0 X43.8468 Y34.8992 F12000 ; Move to next pattern
G1 Z0.25 F12000 ; Z hop return
G1 E0.5 F2100 ; Un-retract
SET_PRESSURE_ADVANCE ADVANCE=0.03 ; Set pressure advance
M117 PA 0.03
G1 X63.1676 Y54.22 E1.12562 F1800 ; Print pattern wall
G1 X43.8468 Y73.5408 E1.12562 F1800 ; Print pattern wall
G1 E-0.5 F2100 ; Retract
G1 Z0.35 F12000 ; Z hop
G0 X44.4225 Y34.8992 F12000 ; Move to start next pattern wall
G1 Z0.25 F12000 ; Z hop return
G1 E0.5 F2100 ; Un-retract
G1 X63.7433 Y54.22 E1.12562 F1800 ; Print pattern wall
G1 X44.4225 Y73.5408 E1.12562 F1800 ; Print pattern wall
G1 E-0.5 F2100 ; Retract
G1 Z0.35 F12000 ; Z hop
G0 X44.9981 Y34.8992 F12000 ; Move to start next pattern wall
G1 Z0.25 F12000 ; Z hop return
G1 E0.5 F2100 ; Un-retract
G1 X64.319 Y54.22 E1.12562 F1800 ; Print pattern wall
G1 X44.9981 Y73.5408 E1.12562 F1800 ; Print pattern wall
G1 E-0.5 F2100 ; Retract
G1 Z0.35 F12000 ; Z hop
G0 X47.4481 Y34.8992 F12000 ; Move to next pattern
G1 Z0.25 F12000 ; Z hop return
G1 E0.5 F2100 ; Un-retract
SET_PRESSURE_ADVANCE ADVANCE=0.035 ; Set pressure advance
M117 PA 0.035
G1 X66.769 Y54.22 E1.12562 F1800 ; Print pattern wall
G1 X47.4481 Y73.5408 E1.12562 F1800 ; Print pattern wall
G1 E-0.5 F2100 ; Retract
G1 Z0.35 F12000 ; Z hop
G0 X48.0238 Y34.8992 F12000 ; Move to start next pattern wall
G1 Z0.25 F12000 ; Z hop return
G1 E0.5 F2100 ; Un-retract
G1 X67.3447 Y54.22 E1.12562 F1800 ; Print pattern wall
G1 X48.0238 Y73.5408 E1.12562 F1800 ; Print pattern wall
G1 E-0.5 F2100 ; Retract
G1 Z0.35 F12000 ; Z hop
G0 X48.5995 Y34.8992 F12000 ; Move to start next pattern wall
G1 Z0.25 F12000 ; Z hop return
G1 E0.5 F2100 ; Un-retract
G1 X67.9204 Y54.22 E1.12562 F1800 ; Print pattern wall
G1 X48.5995 Y73.5408 E1.12562 F1800 ; Print pattern wall
G1 E-0.5 F2100 ; Retract
G1 Z0.35 F12000 ; Z hop
G0 X51.0495 Y34.8992 F12000 ; Move to next pattern
G1 Z0.25 F12000 ; Z hop return
G1 E0.5 F2100 ; Un-retract
SET_PRESSURE_ADVANCE ADVANCE=0.04 ; Set pressure advance
M117 PA 0.04
G1 X70.3704 Y54.22 E1.12562 F1800 ; Print pattern wall
G1 X51.0495 Y73.5408 E1.12562 F1800 ; Print pattern wall
G1 E-0.5 F2100 ; Retract
G1 Z0.35 F12000 ; Z hop
G0 X51.6252 Y34.8992 F12000 ; Move to start next pattern wall
G1 Z0.25 F12000 ; Z hop return
G1 E0.5 F2100 ; Un-retract
G1 X70.9461 Y54.22 E1.12562 F1800 ; Print pattern wall
G1 X51.6252 Y73.5408 E1.12562 F1800 ; Print pattern wall
G1 E-0.5 F2100 ; Retract
G1 Z0.35 F12000 ; Z hop
G0 X52.2009 Y34.8992 F12000 ; Move to start next pattern wall
G1 Z0.25 F12000 ; Z hop return
G1 E0.5 F2100 ; Un-retract
G1 X71.5218 Y54.22 E1.12562 F1800 ; Print pattern wall
G1 X52.2009 Y73.5408 E1.12562 F1800 ; Print pattern wall
G1 E-0.5 F2100 ; Retract
G1 Z0.35 F12000 ; Z hop
G0 X54.6509 Y34.8992 F12000 ; Move to next pattern
G1 Z0.25 F12000 ; Z hop return
G1 E0.5 F2100 ; Un-retract
SET_PRESSURE_ADVANCE ADVANCE=0.045 ; Set pressure advance
M117 PA 0.045
G1 X73.9718 Y54.22 E1.12562 F1800 ; Print pattern wall
G1 X54.6509 Y73.5408 E1.12562 F1800 ; Print pattern wall
G1 E-0.5 F2100 ; Retract
G1 Z0.35 F12000 ; Z hop
G0 X55.2266 Y34.8992 F12000 ; Move to start next pattern wall
G1 Z0.25 F12000 ; Z hop return
G1 E0.5 F2100 ; Un-retract
G1 X74.5475 Y54.22 E1.12562 F1800 ; Print pattern wall
G1 X55.2266 Y73.5408 E1.12562 F1800 ; Print pattern wall
G1 E-0.5 F2100 ; Retract
G1 Z0.35 F12000 ; Z hop
G0 X55.8023 Y34.8992 F12000 ; Move to start next pattern wall
G1 Z0.25 F12000 ; Z hop return
G1 E0.5 F2100 ; Un-retract
G1 X75.1232 Y54.22 E1.12562 F1800 ; Print pattern wall
G1 X55.8023 Y73.5408 E1.12562 F1800 ; Print pattern wall
G1 E-0.5 F2100 ; Retract
G1 Z0.35 F12000 ; Z hop
G0 X58.2523 Y34.8992 F12000 ; Move to next pattern
G1 Z0.25 F12000 ; Z hop return
G1 E0.5 F2100 ; Un-retract
SET_PRESSURE_ADVANCE ADVANCE=0.05 ; Set pressure advance
M117 PA 0.05
G1 X77.5732 Y54.22 E1.12562 F1800 ; Print pattern wall
G1 X58.2523 Y73.5408 E1.12562 F1800 ; Print pattern wall
G1 E-0.5 F2100 ; Retract
G1 Z0.35 F12000 ; Z hop
G0 X58.828 Y34.8992 F12000 ; Move to start next pattern wall
G1 Z0.25 F12000 ; Z hop return
G1 E0.5 F2100 ; Un-retract
G1 X78.1489 Y54.22 E1.12562 F1800 ; Print pattern wall
G1 X58.828 Y73.5408 E1.12562 F1800 ; Print pattern wall
G1 E-0.5 F2100 ; Retract
G1 Z0.35 F12000 ; Z hop
G0 X59.4037 Y34.8992 F12000 ; Move to start next pattern wall
G1 Z0.25 F12000 ; Z hop return
G1 E0.5 F2100 ; Un-retract
G1 X78.7246 Y54.22 E1.12562 F1800 ; Print pattern wall
G1 X59.4037 Y73.5408 E1.12562 F1800 ; Print pattern wall
G1 E-0.5 F2100 ; Retract
G1 Z0.35 F12000 ; Z hop
G0 X61.8537 Y34.8992 F12000 ; Move to next pattern
G1 Z0.25 F12000 ; Z hop return
G1 E0.5 F2100 ; Un-retract
SET_PRESSURE_ADVANCE ADVANCE=0.055 ; Set pressure advance
M117 PA 0.055
G1 X81.1746 Y54.22 E1.12562 F1800 ; Print pattern wall
G1 X61.8537 Y73.5408 E1.12562 F1800 ; Print pattern wall
G1 E-0.5 F2100 ; Retract
G1 Z0.35 F12000 ; Z hop
G0 X62.4294 Y34.8992 F12000 ; Move to start next pattern wall
G1 Z0.25 F12000 ; Z hop return
G1 E0.5 F2100 ; Un-retract
G1 X81.7502 Y54.22 E1.12562 F1800 ; Print pattern wall
G1 X62.4294 Y73.5408 E1.12562 F1800 ; Print pattern wall
G1 E-0.5 F2100 ; Retract
G1 Z0.35 F12000 ; Z hop
G0 X63.0051 Y34.8992 F12000 ; Move to start next pattern wall
G1 Z0.25 F12000 ; Z hop return
G1 E0.5 F2100 ; Un-retract
G1 X82.3259 Y54.22 E1.12562 F1800 ; Print pattern wall
G1 X63.0051 Y73.5408 E1.12562 F1800 ; Print pattern wall
G1 E-0.5 F2100 ; Retract
G1 Z0.35 F12000 ; Z hop
G0 X65.4551 Y34.8992 F12000 ; Move to next pattern
G1 Z0.25 F12000 ; Z hop return
G1 E0.5 F2100 ; Un-retract
SET_PRESSURE_ADVANCE ADVANCE=0.06 ; Set pressure advance
M117 PA 0.06
G1 X84.7759 Y54.22 E1.12562 F1800 ; Print pattern wall
G1 X65.4551 Y73.5408 E1.12562 F1800 ; Print pattern wall
G1 E-0.5 F2100 ; Retract
G1 Z0.35 F12000 ; Z hop
G0 X66.0308 Y34.8992 F12000 ; Move to start next pattern wall
G1 Z0.25 F12000 ; Z hop return
G1 E0.5 F2100 ; Un-retract
G1 X85.3516 Y54.22 E1.12562 F1800 ; Print pattern wall
G1 X66.0308 Y73.5408 E1.12562 F1800 ; Print pattern wall
G1 E-0.5 F2100 ; Retract
G1 Z0.35 F12000 ; Z hop
G0 X66.6065 Y34.8992 F12000 ; Move to start next pattern wall
G1 Z0.25 F12000 ; Z hop return
G1 E0.5 F2100 ; Un-retract
G1 X85.9273 Y54.22 E1.12562 F1800 ; Print pattern wall
G1 X66.6065 Y73.5408 E1.12562 F1800 ; Print pattern wall
G1 E-0.5 F2100 ; Retract
G1 Z0.35 F12000 ; Z hop
G0 X69.0565 Y34.8992 F12000 ; Move to next pattern
G1 Z0.25 F12000 ; Z hop return
G1 E0.5 F2100 ; Un-retract
SET_PRESSURE_ADVANCE ADVANCE=0.065 ; Set pressure advance
M117 PA 0.065
G1 X88.3773 Y54.22 E1.12562 F1800 ; Print pattern wall
G1 X69.0565 Y73.5408 E1.12562 F1800 ; Print pattern wall
G1 E-0.5 F2100 ; Retract
G1 Z0.35 F12000 ; Z hop
G0 X69.6322 Y34.8992 F12000 ; Move to start next pattern wall
G1 Z0.25 F12000 ; Z hop return
G1 E0.5 F2100 ; Un-retract
G1 X88.953 Y54.22 E1.12562 F1800 ; Print pattern wall
G1 X69.6322 Y73.5408 E1.12562 F1800 ; Print pattern wall
G1 E-0.5 F2100 ; Retract
G1 Z0.35 F12000 ; Z hop
G0 X70.2079 Y34.8992 F12000 ; Move to start next pattern wall
G1 Z0.25 F12000 ; Z hop return
G1 E0.5 F2100 ; Un-retract
G1 X89.5287 Y54.22 E1.12562 F1800 ; Print pattern wall
G1 X70.2079 Y73.5408 E1.12562 F1800 ; Print pattern wall
G1 E-0.5 F2100 ; Retract
G1 Z0.35 F12000 ; Z hop
G0 X72.6579 Y34.8992 F12000 ; Move to next pattern
G1 Z0.25 F12000 ; Z hop return
G1 E0.5 F2100 ; Un-retract
SET_PRESSURE_ADVANCE ADVANCE=0.07 ; Set pressure advance
M117 PA 0.07
G1 X91.9787 Y54.22 E1.12562 F1800 ; Print pattern wall
G1 X72.6579 Y73.5408 E1.12562 F1800 ; Print pattern wall
G1 E-0.5 F2100 ; Retract
G1 Z0.35 F12000 ; Z hop
G0 X73.2336 Y34.8992 F12000 ; Move to start next pattern wall
G1 Z0.25 F12000 ; Z hop return
G1 E0.5 F2100 ; Un-retract
G1 X92.5544 Y54.22 E1.12562 F1800 ; Print pattern wall
G1 X73.2336 Y73.5408 E1.12562 F1800 ; Print pattern wall
G1 E-0.5 F2100 ; Retract
G1 Z0.35 F12000 ; Z hop
G0 X73.8093 Y34.8992 F12000 ; Move to start next pattern wall
G1 Z0.25 F12000 ; Z hop return
G1 E0.5 F2100 ; Un-retract
G1 X93.1301 Y54.22 E1.12562 F1800 ; Print pattern wall
G1 X73.8093 Y73.5408 E1.12562 F1800 ; Print pattern wall
G1 E-0.5 F2100 ; Retract
G1 Z0.35 F12000 ; Z hop
G0 X76.2593 Y34.8992 F12000 ; Move to next pattern
G1 Z0.25 F12000 ; Z hop return
G1 E0.5 F2100 ; Un-retract
SET_PRESSURE_ADVANCE ADVANCE=0.075 ; Set pressure advance
M117 PA 0.075
G1 X95.5801 Y54.22 E1.12562 F1800 ; Print pattern wall
G1 X76.2593 Y73.5408 E1.12562 F1800 ; Print pattern wall
G1 E-0.5 F2100 ; Retract
G1 Z0.35 F12000 ; Z hop
G0 X76.835 Y34.8992 F12000 ; Move to start next pattern wall
G1 Z0.25 F12000 ; Z hop return
G1 E0.5 F2100 ; Un-retract
G1 X96.1558 Y54.22 E1.12562 F1800 ; Print pattern wall
G1 X76.835 Y73.5408 E1.12562 F1800 ; Print pattern wall
G1 E-0.5 F2100 ; Retract
G1 Z0.35 F12000 ; Z hop
G0 X77.4107 Y34.8992 F12000 ; Move to start next pattern wall
G1 Z0.25 F12000 ; Z hop return
G1 E0.5 F2100 ; Un-retract
G1 X96.7315 Y54.22 E1.12562 F1800 ; Print pattern wall
G1 X77.4107 Y73.5408 E1.12562 F1800 ; Print pattern wall
G1 E-0.5 F2100 ; Retract
G1 Z0.35 F12000 ; Z hop
G0 X79.8607 Y34.8992 F12000 ; Move to next pattern
G1 Z0.25 F12000 ; Z hop return
G1 E0.5 F2100 ; Un-retract
SET_PRESSURE_ADVANCE ADVANCE=0.08 ; Set pressure advance
M117 PA 0.08
G1 X99.1815 Y54.22 E1.12562 F1800 ; Print pattern wall
G1 X79.8607 Y73.5408 E1.12562 F1800 ; Print pattern wall
G1 E-0.5 F2100 ; Retract
G1 Z0.35 F12000 ; Z hop
G0 X80.4364 Y34.8992 F12000 ; Move to start next pattern wall
G1 Z0.25 F12000 ; Z hop return
G1 E0.5 F2100 ; Un-retract
G1 X99.7572 Y54.22 E1.12562 F1800 ; Print pattern wall
G1 X80.4364 Y73.5408 E1.12562 F1800 ; Print pattern wall
G1 E-0.5 F2100 ; Retract
G1 Z0.35 F12000 ; Z hop
G0 X81.0121 Y34.8992 F12000 ; Move to start next pattern wall
G1 Z0.25 F12000 ; Z hop return
G1 E0.5 F2100 ; Un-retract
G1 X100.3329 Y54.22 E1.12562 F1800 ; Print pattern wall
G1 X81.0121 Y73.5408 E1.12562 F1800 ; Print pattern wall
G1 E-0.5 F2100 ; Retract
G1 Z0.35 F12000 ; Z hop
G0 X22.2384 Y34.8992 F12000 ; Move back to start position
G1 Z0.25 F12000 ; Z hop return
G1 E0.5 F2100 ; Un-retract
M106 S255 ; Set fan speed
G0 Z0.45 F12000 ; Move to layer height
G1 E-0.5 F2100 ; Retract
G1 Z0.55 F12000 ; Z hop
G0 X18.9217 Y76.8832 F12000 ; Move
G1 Z0.45 F12000 ; Z hop return
G1 E0.5 F2100 ; Un-retract
G1 X20.9217 Y76.8832 E0.0677 F1800 ; Glyph: 0
G1 X22.9217 Y76.8832 E0.0677 F1800 ; Glyph: 0
G1 X22.9217 Y78.8832 E0.0677 F1800 ; Glyph: 0
G1 X20.9217 Y78.8832 E0.0677 F1800 ; Glyph: 0
G1 X18.9217 Y78.8832 E0.0677 F1800 ; Glyph: 0
G1 X18.9217 Y76.8832 E0.0677 F1800 ; Glyph: 0
G1 E-0.5 F2100 ; Retract
G1 Z0.55 F12000 ; Z hop
G0 X26.1245 Y76.8832 F12000 ; Move
G1 Z0.45 F12000 ; Z hop return
G1 E0.5 F2100 ; Un-retract
G1 X28.1245 Y76.8832 E0.0677 F1800 ; Glyph: 0
G1 X30.1245 Y76.8832 E0.0677 F1800 ; Glyph: 0
G1 X30.1245 Y78.8832 E0.0677 F1800 ; Glyph: 0
G1 X28.1245 Y78.8832 E0.0677 F1800 ; Glyph: 0
G1 X26.1245 Y78.8832 E0.0677 F1800 ; Glyph: 0
G1 X26.1245 Y76.8832 E0.0677 F1800 ; Glyph: 0
G1 E-0.5 F2100 ; Retract
G1 Z0.55 F12000 ; Z hop
G0 X30.1245 Y79.8832 F12000 ; Move
G1 Z0.45 F12000 ; Z hop return
G1 E0.5 F2100 ; Un-retract
G1 X29.3745 Y79.8832 E0.02539 F1800 ; Glyph: .
G1 E-0.5 F2100 ; Retract
G1 Z0.55 F12000 ; Z hop
G0 X26.1245 Y80.8832 F12000 ; Move
G1 Z0.45 F12000 ; Z hop return
G1 E0.5 F2100 ; Un-retract
G1 X28.1245 Y80.8832 E0.0677 F1800 ; Glyph: 0
G1 X30.1245 Y80.8832 E0.0677 F1800 ; Glyph: 0
G1 X30.1245 Y82.8832 E0.0677 F1800 ; Glyph: 0
G1 X28.1245 Y82.8832 E0.0677 F1800 ; Glyph: 0
G1 X26.1245 Y82.8832 E0.0677 F1800 ; Glyph: 0
G1 X26.1245 Y80.8832 E0.0677 F1800 ; Glyph: 0
G1 E-0.5 F2100 ; Retract
G1 Z0.55 F12000 ; Z hop
G0 X26.1245 Y83.8832 F12000 ; Move
G1 Z0.45 F12000 ; Z hop return
G1 E0.5 F2100 ; Un-retract
G1 X28.1245 Y83.8832 E0.0677 F1800 ; Glyph: 1
G1 X30.1245 Y83.8832 E0.0677 F1800 ; Glyph: 1
G1 E-0.5 F2100 ; Retract
G1 Z0.55 F12000 ; Z hop
G0 X33.3273 Y76.8832 F12000 ; Move
G1 Z0.45 F12000 ; Z hop return
G1 E0.5 F2100 ; Un-retract
G1 X35.3273 Y76.8832 E0.0677 F1800 ; Glyph: 0
G1 X37.3273 Y76.8832 E0.0677 F1800 ; Glyph: 0
G1 X37.3273 Y78.8832 E0.0677 F1800 ; Glyph: 0
G1 X35.3273 Y78.8832 E0.0677 F1800 ; Glyph: 0
G1 X33.3273 Y78.8832 E0.0677 F1800 ; Glyph: 0
G1 X33.3273 Y76.8832 E0.0677 F1800 ; Glyph: 0
G1 E-0.5 F2100 ; Retract
G1 Z0.55 F12000 ; Z hop
G0 X37.3273 Y79.8832 F12000 ; Move
G1 Z0.45 F12000 ; Z hop return
G1 E0.5 F2100 ; Un-retract
G1 X36.5773 Y79.8832 E0.02539 F1800 ; Glyph: .
G1 E-0.5 F2100 ; Retract
G1 Z0.55 F12000 ; Z hop
G0 X33.3273 Y80.8832 F12000 ; Move
G1 Z0.45 F12000 ; Z hop return
G1 E0.5 F2100 ; Un-retract
G1 X35.3273 Y80.8832 E0.0677 F1800 ; Glyph: 0
G1 X37.3273 Y80.8832 E0.0677 F1800 ; Glyph: 0
G1 X37.3273 Y82.8832 E0.0677 F1800 ; Glyph: 0
G1 X35.3273 Y82.8832 E0.0677 F1800 ; Glyph: 0
G1 X33.3273 Y82.8832 E0.0677 F1800 ; Glyph: 0
G1 X33.3273 Y80.8832 E0.0677 F1800 ; Glyph: 0
G1 E-0.5 F2100 ; Retract
G1 Z0.55 F12000 ; Z hop
G0 X33.3273 Y83.8832 F12000 ; Move
G1 Z0.45 F12000 ; Z hop return
G1 E0.5 F2100 ; Un-retract
G1 X33.3273 Y85.8832 E0.0677 F1800 ; Glyph: 2
G1 X35.3273 Y85.8832 E0.0677 F1800 ; Glyph: 2
G1 X35.3273 Y83.8832 E0.0677 F1800 ; Glyph: 2
G1 X37.3273 Y83.8832 E0.0677 F1800 ; Glyph: 2
G1 X37.3273 Y85.8832 E0.0677 F1800 ; Glyph: 2
G1 E-0.5 F2100 ; Retract
G1 Z0.55 F12000 ; Z hop
G0 X40.5301 Y76.8832 F12000 ; Move
G1 Z0.45 F12000 ; Z hop return
G1 E0.5 F2100 ; Un-retract
G1 X42.5301 Y76.8832 E0.0677 F1800 ; Glyph: 0
G1 X44.5301 Y76.8832 E0.0677 F1800 ; Glyph: 0
G1 X44.5301 Y78.8832 E0.0677 F1800 ; Glyph: 0
G1 X42.5301 Y78.8832 E0.0677 F1800 ; Glyph: 0
G1 X40.5301 Y78.8832 E0.0677 F1800 ; Glyph: 0
G1 X40.5301 Y76.8832 E0.0677 F1800 ; Glyph: 0
G1 E-0.5 F2100 ; Retract
G1 Z0.55 F12000 ; Z hop
G0 X44.5301 Y79.8832 F12000 ; Move
G1 Z0.45 F12000 ; Z hop return
G1 E0.5 F2100 ; Un-retract
G1 X43.7801 Y79.8832 E0.02539 F1800 ; Glyph: .
G1 E-0.5 F2100 ; Retract
G1 Z0.55 F12000 ; Z hop
G0 X40.5301 Y80.8832 F12000 ; Move
G1 Z0.45 F12000 ; Z hop return
G1 E0.5 F2100 ; Un-retract
G1 X42.5301 Y80.8832 E0.0677 F1800 ; Glyph: 0
G1 X44.5301 Y80.8832 E0.0677 F1800 ; Glyph: 0
G1 X44.5301 Y82.8832 E0.0677 F1800 ; Glyph: 0
G1 X42.5301 Y82.8832 E0.0677 F1800 ; Glyph: 0
G1 X40.5301 Y82.8832 E0.0677 F1800 ; Glyph: 0
G1 X40.5301 Y80.8832 E0.0677 F1800 ; Glyph: 0
G1 E-0.5 F2100 ; Retract
G1 Z0.55 F12000 ; Z hop
G0 X40.5301 Y83.8832 F12000 ; Move
G1 Z0.45 F12000 ; Z hop return
G1 E0.5 F2100 ; Un-retract
G1 X40.5301 Y85.8832 E0.0677 F1800 ; Glyph: 3
G1 X42.5301 Y85.8832 E0.0677 F1800 ; Glyph: 3
G1 X42.5301 Y83.8832 E0.0677 F1800 ; Glyph: 3
G0 X42.5301 Y85.8832 F12000 ; Move
G1 X44.5301 Y85.8832 E0.0677 F1800 ; Glyph: 3
G1 X44.5301 Y83.8832 E0.0677 F1800 ; Glyph: 3
G1 E-0.5 F2100 ; Retract
G1 Z0.55 F12000 ; Z hop
G0 X47.7329 Y76.8832 F12000 ; Move
G1 Z0.45 F12000 ; Z hop return
G1 E0.5 F2100 ; Un-retract
G1 X49.7329 Y76.8832 E0.0677 F1800 ; Glyph: 0
G1 X51.7329 Y76.8832 E0.0677 F1800 ; Glyph: 0
G1 X51.7329 Y78.8832 E0.0677 F1800 ; Glyph: 0
G1 X49.7329 Y78.8832 E0.0677 F1800 ; Glyph: 0
G1 X47.7329 Y78.8832 E0.0677 F1800 ; Glyph: 0
G1 X47.7329 Y76.8832 E0.0677 F1800 ; Glyph: 0
G1 E-0.5 F2100 ; Retract
G1 Z0.55 F12000 ; Z hop
G0 X51.7329 Y79.8832 F12000 ; Move
G1 Z0.45 F12000 ; Z hop return
G1 E0.5 F2100 ; Un-retract
G1 X50.9829 Y79.8832 E0.02539 F1800 ; Glyph: .
G1 E-0.5 F2100 ; Retract
G1 Z0.55 F12000 ; Z hop
G0 X47.7329 Y80.8832 F12000 ; Move
G1 Z0.45 F12000 ; Z hop return
G1 E0.5 F2100 ; Un-retract
G1 X49.7329 Y80.8832 E0.0677 F1800 ; Glyph: 0
G1 X51.7329 Y80.8832 E0.0677 F1800 ; Glyph: 0
G1 X51.7329 Y82.8832 E0.0677 F1800 ; Glyph: 0
G1 X49.7329 Y82.8832 E0.0677 F1800 ; Glyph: 0
G1 X47.7329 Y82.8832 E0.0677 F1800 ; Glyph: 0
G1 X47.7329 Y80.8832 E0.0677 F1800 ; Glyph: 0
G1 E-0.5 F2100 ; Retract
G1 Z0.55 F12000 ; Z hop
G0 X47.7329 Y85.8832 F12000 ; Move
G1 Z0.45 F12000 ; Z hop return
G1 E0.5 F2100 ; Un-retract
G1 X49.7329 Y85.8832 E0.0677 F1800 ; Glyph: 4
G1 X51.7329 Y85.8832 E0.0677 F1800 ; Glyph: 4
G0 X49.7329 Y85.8832 F12000 ; Move
G1 X49.7329 Y83.8832 E0.0677 F1800 ; Glyph: 4
G1 X47.7329 Y83.8832 E0.0677 F1800 ; Glyph: 4
G1 E-0.5 F2100 ; Retract
G1 Z0.55 F12000 ; Z hop
G0 X54.9357 Y76.8832 F12000 ; Move
G1 Z0.45 F12000 ; Z hop return
G1 E0.5 F2100 ; Un-retract
G1 X56.9357 Y76.8832 E0.0677 F1800 ; Glyph: 0
G1 X58.9357 Y76.8832 E0.0677 F1800 ; Glyph: 0
G1 X58.9357 Y78.8832 E0.0677 F1800 ; Glyph: 0
G1 X56.9357 Y78.8832 E0.0677 F1800 ; Glyph: 0
G1 X54.9357 Y78.8832 E0.0677 F1800 ; Glyph: 0
G1 X54.9357 Y76.8832 E0.0677 F1800 ; Glyph: 0
G1 E-0.5 F2100 ; Retract
G1 Z0.55 F12000 ; Z hop
G0 X58.9357 Y79.8832 F12000 ; Move
G1 Z0.45 F12000 ; Z hop return
G1 E0.5 F2100 ; Un-retract
G1 X58.1857 Y79.8832 E0.02539 F1800 ; Glyph: .
G1 E-0.5 F2100 ; Retract
G1 Z0.55 F12000 ; Z hop
G0 X54.9357 Y80.8832 F12000 ; Move
G1 Z0.45 F12000 ; Z hop return
G1 E0.5 F2100 ; Un-retract
G1 X56.9357 Y80.8832 E0.0677 F1800 ; Glyph: 0
G1 X58.9357 Y80.8832 E0.0677 F1800 ; Glyph: 0
G1 X58.9357 Y82.8832 E0.0677 F1800 ; Glyph: 0
G1 X56.9357 Y82.8832 E0.0677 F1800 ; Glyph: 0
G1 X54.9357 Y82.8832 E0.0677 F1800 ; Glyph: 0
G1 X54.9357 Y80.8832 E0.0677 F1800 ; Glyph: 0
G1 E-0.5 F2100 ; Retract
G1 Z0.55 F12000 ; Z hop
G0 X54.9357 Y85.8832 F12000 ; Move
G1 Z0.45 F12000 ; Z hop return
G1 E0.5 F2100 ; Un-retract
G1 X54.9357 Y83.8832 E0.0677 F1800 ; Glyph: 5
G1 X56.9357 Y83.8832 E0.0677 F1800 ; Glyph: 5
G1 X56.9357 Y85.8832 E0.0677 F1800 ; Glyph: 5
G1 X58.9357 Y85.8832 E0.0677 F1800 ; Glyph: 5
G1 X58.9357 Y83.8832 E0.0677 F1800 ; Glyph: 5
G1 E-0.5 F2100 ; Retract
G1 Z0.55 F12000 ; Z hop
G0 X62.1384 Y76.8832 F12000 ; Move
G1 Z0.45 F12000 ; Z hop return
G1 E0.5 F2100 ; Un-retract
G1 X64.1384 Y76.8832 E0.0677 F1800 ; Glyph: 0
G1 X66.1384 Y76.8832 E0.0677 F1800 ; Glyph: 0
G1 X66.1384 Y78.8832 E0.0677 F1800 ; Glyph: 0
G1 X64.1384 Y78.8832 E0.0677 F1800 ; Glyph: 0
G1 X62.1384 Y78.8832 E0.0677 F1800 ; Glyph: 0
G1 X62.1384 Y76.8832 E0.0677 F1800 ; Glyph: 0
G1 E-0.5 F2100 ; Retract
G1 Z0.55 F12000 ; Z hop
G0 X66.1384 Y79.8832 F12000 ; Move
G1 Z0.45 F12000 ; Z hop return
G1 E0.5 F2100 ; Un-retract
G1 X65.3884 Y79.8832 E0.02539 F1800 ; Glyph: .
G1 E-0.5 F2100 ; Retract
G1 Z0.55 F12000 ; Z hop
G0 X62.1384 Y80.8832 F12000 ; Move
G1 Z0.45 F12000 ; Z hop return
G1 E0.5 F2100 ; Un-retract
G1 X64.1384 Y80.8832 E0.0677 F1800 ; Glyph: 0
G1 X66.1384 Y80.8832 E0.0677 F1800 ; Glyph: 0
G1 X66.1384 Y82.8832 E0.0677 F1800 ; Glyph: 0
G1 X64.1384 Y82.8832 E0.0677 F1800 ; Glyph: 0
G1 X62.1384 Y82.8832 E0.0677 F1800 ; Glyph: 0
G1 X62.1384 Y80.8832 E0.0677 F1800 ; Glyph: 0
G1 E-0.5 F2100 ; Retract
G1 Z0.55 F12000 ; Z hop
G0 X62.1384 Y85.8832 F12000 ; Move
G1 Z0.45 F12000 ; Z hop return
G1 E0.5 F2100 ; Un-retract
G1 X62.1384 Y83.8832 E0.0677 F1800 ; Glyph: 6
G1 X64.1384 Y83.8832 E0.0677 F1800 ; Glyph: 6
G1 X66.1384 Y83.8832 E0.0677 F1800 ; Glyph: 6
G1 X66.1384 Y85.8832 E0.0677 F1800 ; Glyph: 6
G1 X64.1384 Y85.8832 E0.0677 F1800 ; Glyph: 6
G1 X64.1384 Y83.8832 E0.0677 F1800 ; Glyph: 6
G1 E-0.5 F2100 ; Retract
G1 Z0.55 F12000 ; Z hop
G0 X69.3412 Y76.8832 F12000 ; Move
G1 Z0.45 F12000 ; Z hop return
G1 E0.5 F2100 ; Un-retract
G1 X71.3412 Y76.8832 E0.0677 F1800 ; Glyph: 0
G1 X73.3412 Y76.8832 E0.0677 F1800 ; Glyph: 0
G1 X73.3412 Y78.8832 E0.0677 F1800 ; Glyph: 0
G1 X71.3412 Y78.8832 E0.0677 F1800 ; Glyph: 0
G1 X69.3412 Y78.8832 E0.0677 F1800 ; Glyph: 0
G1 X69.3412 Y76.8832 E0.0677 F1800 ; Glyph: 0
G1 E-0.5 F2100 ; Retract
G1 Z0.55 F12000 ; Z hop
G0 X73.3412 Y79.8832 F12000 ; Move
G1 Z0.45 F12000 ; Z hop return
G1 E0.5 F2100 ; Un-retract
G1 X72.5912 Y79.8832 E0.02539 F1800 ; Glyph: .
G1 E-0.5 F2100 ; Retract
G1 Z0.55 F12000 ; Z hop
G0 X69.3412 Y80.8832 F12000 ; Move
G1 Z0.45 F12000 ; Z hop return
G1 E0.5 F2100 ; Un-retract
G1 X71.3412 Y80.8832 E0.0677 F1800 ; Glyph: 0
G1 X73.3412 Y80.8832 E0.0677 F1800 ; Glyph: 0
G1 X73.3412 Y82.8832 E0.0677 F1800 ; Glyph: 0
G1 X71.3412 Y82.8832 E0.0677 F1800 ; Glyph: 0
G1 X69.3412 Y82.8832 E0.0677 F1800 ; Glyph: 0
G1 X69.3412 Y80.8832 E0.0677 F1800 ; Glyph: 0
G1 E-0.5 F2100 ; Retract
G1 Z0.55 F12000 ; Z hop
G0 X69.3412 Y83.8832 F12000 ; Move
G1 Z0.45 F12000 ; Z hop return
G1 E0.5 F2100 ; Un-retract
G1 X69.3412 Y85.8832 E0.0677 F1800 ; Glyph: 7
G1 X71.3412 Y85.8832 E0.0677 F1800 ; Glyph: 7
G1 X73.3412 Y85.8832 E0.0677 F1800 ; Glyph: 7
G1 E-0.5 F2100 ; Retract
G1 Z0.55 F12000 ; Z hop
G0 X76.544 Y76.8832 F12000 ; Move
G1 Z0.45 F12000 ; Z hop return
G1 E0.5 F2100 ; Un-retract
G1 X78.544 Y76.8832 E0.0677 F1800 ; Glyph: 0
G1 X80.544 Y76.8832 E0.0677 F1800 ; Glyph: 0
G1 X80.544 Y78.8832 E0.0677 F1800 ; Glyph: 0
G1 X78.544 Y78.8832 E0.0677 F1800 ; Glyph: 0
G1 X76.544 Y78.8832 E0.0677 F1800 ; Glyph: 0
G1 X76.544 Y76.8832 E0.0677 F1800 ; Glyph: 0
G1 E-0.5 F2100 ; Retract
G1 Z0.55 F12000 ; Z hop
G0 X80.544 Y79.8832 F12000 ; Move
G1 Z0.45 F12000 ; Z hop return
G1 E0.5 F2100 ; Un-retract
G1 X79.794 Y79.8832 E0.02539 F1800 ; Glyph: .
G1 E-0.5 F2100 ; Retract
G1 Z0.55 F12000 ; Z hop
G0 X76.544 Y80.8832 F12000 ; Move
G1 Z0.45 F12000 ; Z hop return
G1 E0.5 F2100 ; Un-retract
G1 X78.544 Y80.8832 E0.0677 F1800 ; Glyph: 0
G1 X80.544 Y80.8832 E0.0677 F1800 ; Glyph: 0
G1 X80.544 Y82.8832 E0.0677 F1800 ; Glyph: 0
G1 X78.544 Y82.8832 E0.0677 F1800 ; Glyph: 0
G1 X76.544 Y82.8832 E0.0677 F1800 ; Glyph: 0
G1 X76.544 Y80.8832 E0.0677 F1800 ; Glyph: 0
G1 E-0.5 F2100 ; Retract
G1 Z0.55 F12000 ; Z hop
G0 X76.544 Y83.8832 F12000 ; Move
G1 Z0.45 F12000 ; Z hop return
G1 E0.5 F2100 ; Un-retract
G1 X78.544 Y83.8832 E0.0677 F1800 ; Glyph: 8
G1 X80.544 Y83.8832 E0.0677 F1800 ; Glyph: 8
G1 X80.544 Y85.8832 E0.0677 F1800 ; Glyph: 8
G1 X78.544 Y85.8832 E0.0677 F1800 ; Glyph: 8
G1 X76.544 Y85.8832 E0.0677 F1800 ; Glyph: 8
G1 X76.544 Y83.8832 E0.0677 F1800 ; Glyph: 8
G0 X78.544 Y83.8832 F12000 ; Move
G1 X78.544 Y85.8832 E0.0677 F1800 ; Glyph: 8
G1 E-0.5 F2100 ; Retract
G1 Z0.55 F12000 ; Z hop
G0 X20.346 Y33.0068 F12000 ; Move to pattern start

G1 Z0.45 F12000 ; Z hop return
G1 E0.5 F2100 ; Un-retract
SET_PRESSURE_ADVANCE ADVANCE=0 ; Set pressure advance
M117 PA 0
G1 X41.5592 Y54.22 E1.01546 F4800 ; Print pattern wall
G1 X20.346 Y75.4332 E1.01546 F4800 ; Print pattern wall
G1 E-0.5 F2100 ; Retract
G1 Z0.55 F12000 ; Z hop
G0 X20.9217 Y33.0068 F12000 ; Move to start next pattern wall
G1 Z0.45 F12000 ; Z hop return
G1 E0.5 F2100 ; Un-retract
G1 X42.1349 Y54.22 E1.01546 F4800 ; Print pattern wall
G1 X20.9217 Y75.4332 E1.01546 F4800 ; Print pattern wall
G1 E-0.5 F2100 ; Retract
G1 Z0.55 F12000 ; Z hop
G0 X21.4974 Y33.0068 F12000 ; Move to start next pattern wall
G1 Z0.45 F12000 ; Z hop return
G1 E0.5 F2100 ; Un-retract
G1 X42.7106 Y54.22 E1.01546 F4800 ; Print pattern wall
G1 X21.4974 Y75.4332 E1.01546 F4800 ; Print pattern wall
G1 E-0.5 F2100 ; Retract
G1 Z0.55 F12000 ; Z hop
G0 X23.9474 Y33.0068 F12000 ; Move to next pattern
G1 Z0.45 F12000 ; Z hop return
G1 E0.5 F2100 ; Un-retract
SET_PRESSURE_ADVANCE ADVANCE=0.005 ; Set pressure advance
M117 PA 0.005
G1 X45.1606 Y54.22 E1.01546 F4800 ; Print pattern wall
G1 X23.9474 Y75.4332 E1.01546 F4800 ; Print pattern wall
G1 E-0.5 F2100 ; Retract
G1 Z0.55 F12000 ; Z hop
G0 X24.5231 Y33.0068 F12000 ; Move to start next pattern wall
G1 Z0.45 F12000 ; Z hop return
G1 E0.5 F2100 ; Un-retract
G1 X45.7363 Y54.22 E1.01546 F4800 ; Print pattern wall
G1 X24.5231 Y75.4332 E1.01546 F4800 ; Print pattern wall
G1 E-0.5 F2100 ; Retract
G1 Z0.55 F12000 ; Z hop
G0 X25.0988 Y33.0068 F12000 ; Move to start next pattern wall
G1 Z0.45 F12000 ; Z hop return
G1 E0.5 F2100 ; Un-retract
G1 X46.312 Y54.22 E1.01546 F4800 ; Print pattern wall
G1 X25.0988 Y75.4332 E1.01546 F4800 ; Print pattern wall
G1 E-0.5 F2100 ; Retract
G1 Z0.55 F12000 ; Z hop
G0 X27.5488 Y33.0068 F12000 ; Move to next pattern
G1 Z0.45 F12000 ; Z hop return
G1 E0.5 F2100 ; Un-retract
SET_PRESSURE_ADVANCE ADVANCE=0.01 ; Set pressure advance
M117 PA 0.01
G1 X48.762 Y54.22 E1.01546 F4800 ; Print pattern wall
G1 X27.5488 Y75.4332 E1.01546 F4800 ; Print pattern wall
G1 E-0.5 F2100 ; Retract
G1 Z0.55 F12000 ; Z hop
G0 X28.1245 Y33.0068 F12000 ; Move to start next pattern wall
G1 Z0.45 F12000 ; Z hop return
G1 E0.5 F2100 ; Un-retract
G1 X49.3377 Y54.22 E1.01546 F4800 ; Print pattern wall
G1 X28.1245 Y75.4332 E1.01546 F4800 ; Print pattern wall
G1 E-0.5 F2100 ; Retract
G1 Z0.55 F12000 ; Z hop
G0 X28.7002 Y33.0068 F12000 ; Move to start next pattern wall
G1 Z0.45 F12000 ; Z hop return
G1 E0.5 F2100 ; Un-retract
G1 X49.9134 Y54.22 E1.01546 F4800 ; Print pattern wall
G1 X28.7002 Y75.4332 E1.01546 F4800 ; Print pattern wall
G1 E-0.5 F2100 ; Retract
G1 Z0.55 F12000 ; Z hop
G0 X31.1502 Y33.0068 F12000 ; Move to next pattern
G1 Z0.45 F12000 ; Z hop return
G1 E0.5 F2100 ; Un-retract
SET_PRESSURE_ADVANCE ADVANCE=0.015 ; Set pressure advance
M117 PA 0.015
G1 X52.3634 Y54.22 E1.01546 F4800 ; Print pattern wall
G1 X31.1502 Y75.4332 E1.01546 F4800 ; Print pattern wall
G1 E-0.5 F2100 ; Retract
G1 Z0.55 F12000 ; Z hop
G0 X31.7259 Y33.0068 F12000 ; Move to start next pattern wall
G1 Z0.45 F12000 ; Z hop return
G1 E0.5 F2100 ; Un-retract
G1 X52.9391 Y54.22 E1.01546 F4800 ; Print pattern wall
G1 X31.7259 Y75.4332 E1.01546 F4800 ; Print pattern wall
G1 E-0.5 F2100 ; Retract
G1 Z0.55 F12000 ; Z hop
G0 X32.3016 Y33.0068 F12000 ; Move to start next pattern wall
G1 Z0.45 F12000 ; Z hop return
G1 E0.5 F2100 ; Un-retract
G1 X53.5148 Y54.22 E1.01546 F4800 ; Print pattern wall
G1 X32.3016 Y75.4332 E1.01546 F4800 ; Print pattern wall
G1 E-0.5 F2100 ; Retract
G1 Z0.55 F12000 ; Z hop
G0 X34.7516 Y33.0068 F12000 ; Move to next pattern
G1 Z0.45 F12000 ; Z hop return
G1 E0.5 F2100 ; Un-retract
SET_PRESSURE_ADVANCE ADVANCE=0.02 ; Set pressure advance
M117 PA 0.02
G1 X55.9648 Y54.22 E1.01546 F4800 ; Print pattern wall
G1 X34.7516 Y75.4332 E1.01546 F4800 ; Print pattern wall
G1 E-0.5 F2100 ; Retract
G1 Z0.55 F12000 ; Z hop
G0 X35.3273 Y33.0068 F12000 ; Move to start next pattern wall
G1 Z0.45 F12000 ; Z hop return
G1 E0.5 F2100 ; Un-retract
G1 X56.5405 Y54.22 E1.01546 F4800 ; Print pattern wall
G1 X35.3273 Y75.4332 E1.01546 F4800 ; Print pattern wall
G1 E-0.5 F2100 ; Retract
G1 Z0.55 F12000 ; Z hop
G0 X35.903 Y33.0068 F12000 ; Move to start next pattern wall
G1 Z0.45 F12000 ; Z hop return
G1 E0.5 F2100 ; Un-retract
G1 X57.1162 Y54.22 E1.01546 F4800 ; Print pattern wall
G1 X35.903 Y75.4332 E1.01546 F4800 ; Print pattern wall
G1 E-0.5 F2100 ; Retract
G1 Z0.55 F12000 ; Z hop
G0 X38.353 Y33.0068 F12000 ; Move to next pattern
G1 Z0.45 F12000 ; Z hop return
G1 E0.5 F2100 ; Un-retract
SET_PRESSURE_ADVANCE ADVANCE=0.025 ; Set pressure advance
M117 PA 0.025
G1 X59.5662 Y54.22 E1.01546 F4800 ; Print pattern wall
G1 X38.353 Y75.4332 E1.01546 F4800 ; Print pattern wall
G1 E-0.5 F2100 ; Retract
G1 Z0.55 F12000 ; Z hop
G0 X38.9287 Y33.0068 F12000 ; Move to start next pattern wall
G1 Z0.45 F12000 ; Z hop return
G1 E0.5 F2100 ; Un-retract
G1 X60.1419 Y54.22 E1.01546 F4800 ; Print pattern wall
G1 X38.9287 Y75.4332 E1.01546 F4800 ; Print pattern wall
G1 E-0.5 F2100 ; Retract
G1 Z0.55 F12000 ; Z hop
G0 X39.5044 Y33.0068 F12000 ; Move to start next pattern wall
G1 Z0.45 F12000 ; Z hop return
G1 E0.5 F2100 ; Un-retract
G1 X60.7176 Y54.22 E1.01546 F4800 ; Print pattern wall
G1 X39.5044 Y75.4332 E1.01546 F4800 ; Print pattern wall
G1 E-0.5 F2100 ; Retract
G1 Z0.55 F12000 ; Z hop
G0 X41.9544 Y33.0068 F12000 ; Move to next pattern
G1 Z0.45 F12000 ; Z hop return
G1 E0.5 F2100 ; Un-retract
SET_PRESSURE_ADVANCE ADVANCE=0.03 ; Set pressure advance
M117 PA 0.03
G1 X63.1676 Y54.22 E1.01546 F4800 ; Print pattern wall
G1 X41.9544 Y75.4332 E1.01546 F4800 ; Print pattern wall
G1 E-0.5 F2100 ; Retract
G1 Z0.55 F12000 ; Z hop
G0 X42.5301 Y33.0068 F12000 ; Move to start next pattern wall
G1 Z0.45 F12000 ; Z hop return
G1 E0.5 F2100 ; Un-retract
G1 X63.7433 Y54.22 E1.01546 F4800 ; Print pattern wall
G1 X42.5301 Y75.4332 E1.01546 F4800 ; Print pattern wall
G1 E-0.5 F2100 ; Retract
G1 Z0.55 F12000 ; Z hop
G0 X43.1058 Y33.0068 F12000 ; Move to start next pattern wall
G1 Z0.45 F12000 ; Z hop return
G1 E0.5 F2100 ; Un-retract
G1 X64.319 Y54.22 E1.01546 F4800 ; Print pattern wall
G1 X43.1058 Y75.4332 E1.01546 F4800 ; Print pattern wall
G1 E-0.5 F2100 ; Retract
G1 Z0.55 F12000 ; Z hop
G0 X45.5558 Y33.0068 F12000 ; Move to next pattern
G1 Z0.45 F12000 ; Z hop return
G1 E0.5 F2100 ; Un-retract
SET_PRESSURE_ADVANCE ADVANCE=0.035 ; Set pressure advance
M117 PA 0.035
G1 X66.769 Y54.22 E1.01546 F4800 ; Print pattern wall
G1 X45.5558 Y75.4332 E1.01546 F4800 ; Print pattern wall
G1 E-0.5 F2100 ; Retract
G1 Z0.55 F12000 ; Z hop
G0 X46.1315 Y33.0068 F12000 ; Move to start next pattern wall
G1 Z0.45 F12000 ; Z hop return
G1 E0.5 F2100 ; Un-retract
G1 X67.3447 Y54.22 E1.01546 F4800 ; Print pattern wall
G1 X46.1315 Y75.4332 E1.01546 F4800 ; Print pattern wall
G1 E-0.5 F2100 ; Retract
G1 Z0.55 F12000 ; Z hop
G0 X46.7072 Y33.0068 F12000 ; Move to start next pattern wall
G1 Z0.45 F12000 ; Z hop return
G1 E0.5 F2100 ; Un-retract
G1 X67.9204 Y54.22 E1.01546 F4800 ; Print pattern wall
G1 X46.7072 Y75.4332 E1.01546 F4800 ; Print pattern wall
G1 E-0.5 F2100 ; Retract
G1 Z0.55 F12000 ; Z hop
G0 X49.1572 Y33.0068 F12000 ; Move to next pattern
G1 Z0.45 F12000 ; Z hop return
G1 E0.5 F2100 ; Un-retract
SET_PRESSURE_ADVANCE ADVANCE=0.04 ; Set pressure advance
M117 PA 0.04
G1 X70.3704 Y54.22 E1.01546 F4800 ; Print pattern wall
G1 X49.1572 Y75.4332 E1.01546 F4800 ; Print pattern wall
G1 E-0.5 F2100 ; Retract
G1 Z0.55 F12000 ; Z hop
G0 X49.7329 Y33.0068 F12000 ; Move to start next pattern wall
G1 Z0.45 F12000 ; Z hop return
G1 E0.5 F2100 ; Un-retract
G1 X70.9461 Y54.22 E1.01546 F4800 ; Print pattern wall
G1 X49.7329 Y75.4332 E1.01546 F4800 ; Print pattern wall
G1 E-0.5 F2100 ; Retract
G1 Z0.55 F12000 ; Z hop
G0 X50.3086 Y33.0068 F12000 ; Move to start next pattern wall
G1 Z0.45 F12000 ; Z hop return
G1 E0.5 F2100 ; Un-retract
G1 X71.5218 Y54.22 E1.01546 F4800 ; Print pattern wall
G1 X50.3086 Y75.4332 E1.01546 F4800 ; Print pattern wall
G1 E-0.5 F2100 ; Retract
G1 Z0.55 F12000 ; Z hop
G0 X52.7586 Y33.0068 F12000 ; Move to next pattern
G1 Z0.45 F12000 ; Z hop return
G1 E0.5 F2100 ; Un-retract
SET_PRESSURE_ADVANCE ADVANCE=0.045 ; Set pressure advance
M117 PA 0.045
G1 X73.9718 Y54.22 E1.01546 F4800 ; Print pattern wall
G1 X52.7586 Y75.4332 E1.01546 F4800 ; Print pattern wall
G1 E-0.5 F2100 ; Retract
G1 Z0.55 F12000 ; Z hop
G0 X53.3343 Y33.0068 F12000 ; Move to start next pattern wall
G1 Z0.45 F12000 ; Z hop return
G1 E0.5 F2100 ; Un-retract
G1 X74.5475 Y54.22 E1.01546 F4800 ; Print pattern wall
G1 X53.3343 Y75.4332 E1.01546 F4800 ; Print pattern wall
G1 E-0.5 F2100 ; Retract
G1 Z0.55 F12000 ; Z hop
G0 X53.91 Y33.0068 F12000 ; Move to start next pattern wall
G1 Z0.45 F12000 ; Z hop return
G1 E0.5 F2100 ; Un-retract
G1 X75.1232 Y54.22 E1.01546 F4800 ; Print pattern wall
G1 X53.91 Y75.4332 E1.01546 F4800 ; Print pattern wall
G1 E-0.5 F2100 ; Retract
G1 Z0.55 F12000 ; Z hop
G0 X56.36 Y33.0068 F12000 ; Move to next pattern
G1 Z0.45 F12000 ; Z hop return
G1 E0.5 F2100 ; Un-retract
SET_PRESSURE_ADVANCE ADVANCE=0.05 ; Set pressure advance
M117 PA 0.05
G1 X77.5732 Y54.22 E1.01546 F4800 ; Print pattern wall
G1 X56.36 Y75.4332 E1.01546 F4800 ; Print pattern wall
G1 E-0.5 F2100 ; Retract
G1 Z0.55 F12000 ; Z hop
G0 X56.9357 Y33.0068 F12000 ; Move to start next pattern wall
G1 Z0.45 F12000 ; Z hop return
G1 E0.5 F2100 ; Un-retract
G1 X78.1489 Y54.22 E1.01546 F4800 ; Print pattern wall
G1 X56.9357 Y75.4332 E1.01546 F4800 ; Print pattern wall
G1 E-0.5 F2100 ; Retract
G1 Z0.55 F12000 ; Z hop
G0 X57.5113 Y33.0068 F12000 ; Move to start next pattern wall
G1 Z0.45 F12000 ; Z hop return
G1 E0.5 F2100 ; Un-retract
G1 X78.7246 Y54.22 E1.01546 F4800 ; Print pattern wall
G1 X57.5113 Y75.4332 E1.01546 F4800 ; Print pattern wall
G1 E-0.5 F2100 ; Retract
G1 Z0.55 F12000 ; Z hop
G0 X59.9613 Y33.0068 F12000 ; Move to next pattern
G1 Z0.45 F12000 ; Z hop return
G1 E0.5 F2100 ; Un-retract
SET_PRESSURE_ADVANCE ADVANCE=0.055 ; Set pressure advance
M117 PA 0.055
G1 X81.1746 Y54.22 E1.01546 F4800 ; Print pattern wall
G1 X59.9613 Y75.4332 E1.01546 F4800 ; Print pattern wall
G1 E-0.5 F2100 ; Retract
G1 Z0.55 F12000 ; Z hop
G0 X60.537 Y33.0068 F12000 ; Move to start next pattern wall
G1 Z0.45 F12000 ; Z hop return
G1 E0.5 F2100 ; Un-retract
G1 X81.7502 Y54.22 E1.01546 F4800 ; Print pattern wall
G1 X60.537 Y75.4332 E1.01546 F4800 ; Print pattern wall
G1 E-0.5 F2100 ; Retract
G1 Z0.55 F12000 ; Z hop
G0 X61.1127 Y33.0068 F12000 ; Move to start next pattern wall
G1 Z0.45 F12000 ; Z hop return
G1 E0.5 F2100 ; Un-retract
G1 X82.3259 Y54.22 E1.01546 F4800 ; Print pattern wall
G1 X61.1127 Y75.4332 E1.01546 F4800 ; Print pattern wall
G1 E-0.5 F2100 ; Retract
G1 Z0.55 F12000 ; Z hop
G0 X63.5627 Y33.0068 F12000 ; Move to next pattern
G1 Z0.45 F12000 ; Z hop return
G1 E0.5 F2100 ; Un-retract
SET_PRESSURE_ADVANCE ADVANCE=0.06 ; Set pressure advance
M117 PA 0.06
G1 X84.7759 Y54.22 E1.01546 F4800 ; Print pattern wall
G1 X63.5627 Y75.4332 E1.01546 F4800 ; Print pattern wall
G1 E-0.5 F2100 ; Retract
G1 Z0.55 F12000 ; Z hop
G0 X64.1384 Y33.0068 F12000 ; Move to start next pattern wall
G1 Z0.45 F12000 ; Z hop return
G1 E0.5 F2100 ; Un-retract
G1 X85.3516 Y54.22 E1.01546 F4800 ; Print pattern wall
G1 X64.1384 Y75.4332 E1.01546 F4800 ; Print pattern wall
G1 E-0.5 F2100 ; Retract
G1 Z0.55 F12000 ; Z hop
G0 X64.7141 Y33.0068 F12000 ; Move to start next pattern wall
G1 Z0.45 F12000 ; Z hop return
G1 E0.5 F2100 ; Un-retract
G1 X85.9273 Y54.22 E1.01546 F4800 ; Print pattern wall
G1 X64.7141 Y75.4332 E1.01546 F4800 ; Print pattern wall
G1 E-0.5 F2100 ; Retract
G1 Z0.55 F12000 ; Z hop
G0 X67.1641 Y33.0068 F12000 ; Move to next pattern
G1 Z0.45 F12000 ; Z hop return
G1 E0.5 F2100 ; Un-retract
SET_PRESSURE_ADVANCE ADVANCE=0.065 ; Set pressure advance
M117 PA 0.065
G1 X88.3773 Y54.22 E1.01546 F4800 ; Print pattern wall
G1 X67.1641 Y75.4332 E1.01546 F4800 ; Print pattern wall
G1 E-0.5 F2100 ; Retract
G1 Z0.55 F12000 ; Z hop
G0 X67.7398 Y33.0068 F12000 ; Move to start next pattern wall
G1 Z0.45 F12000 ; Z hop return
G1 E0.5 F2100 ; Un-retract
G1 X88.953 Y54.22 E1.01546 F4800 ; Print pattern wall
G1 X67.7398 Y75.4332 E1.01546 F4800 ; Print pattern wall
G1 E-0.5 F2100 ; Retract
G1 Z0.55 F12000 ; Z hop
G0 X68.3155 Y33.0068 F12000 ; Move to start next pattern wall
G1 Z0.45 F12000 ; Z hop return
G1 E0.5 F2100 ; Un-retract
G1 X89.5287 Y54.22 E1.01546 F4800 ; Print pattern wall
G1 X68.3155 Y75.4332 E1.01546 F4800 ; Print pattern wall
G1 E-0.5 F2100 ; Retract
G1 Z0.55 F12000 ; Z hop
G0 X70.7655 Y33.0068 F12000 ; Move to next pattern
G1 Z0.45 F12000 ; Z hop return
G1 E0.5 F2100 ; Un-retract
SET_PRESSURE_ADVANCE ADVANCE=0.07 ; Set pressure advance
M117 PA 0.07
G1 X91.9787 Y54.22 E1.01546 F4800 ; Print pattern wall
G1 X70.7655 Y75.4332 E1.01546 F4800 ; Print pattern wall
G1 E-0.5 F2100 ; Retract
G1 Z0.55 F12000 ; Z hop
G0 X71.3412 Y33.0068 F12000 ; Move to start next pattern wall
G1 Z0.45 F12000 ; Z hop return
G1 E0.5 F2100 ; Un-retract
G1 X92.5544 Y54.22 E1.01546 F4800 ; Print pattern wall
G1 X71.3412 Y75.4332 E1.01546 F4800 ; Print pattern wall
G1 E-0.5 F2100 ; Retract
G1 Z0.55 F12000 ; Z hop
G0 X71.9169 Y33.0068 F12000 ; Move to start next pattern wall
G1 Z0.45 F12000 ; Z hop return
G1 E0.5 F2100 ; Un-retract
G1 X93.1301 Y54.22 E1.01546 F4800 ; Print pattern wall
G1 X71.9169 Y75.4332 E1.01546 F4800 ; Print pattern wall
G1 E-0.5 F2100 ; Retract
G1 Z0.55 F12000 ; Z hop
G0 X74.3669 Y33.0068 F12000 ; Move to next pattern
G1 Z0.45 F12000 ; Z hop return
G1 E0.5 F2100 ; Un-retract
SET_PRESSURE_ADVANCE ADVANCE=0.075 ; Set pressure advance
M117 PA 0.075
G1 X95.5801 Y54.22 E1.01546 F4800 ; Print pattern wall
G1 X74.3669 Y75.4332 E1.01546 F4800 ; Print pattern wall
G1 E-0.5 F2100 ; Retract
G1 Z0.55 F12000 ; Z hop
G0 X74.9426 Y33.0068 F12000 ; Move to start next pattern wall
G1 Z0.45 F12000 ; Z hop return
G1 E0.5 F2100 ; Un-retract
G1 X96.1558 Y54.22 E1.01546 F4800 ; Print pattern wall
G1 X74.9426 Y75.4332 E1.01546 F4800 ; Print pattern wall
G1 E-0.5 F2100 ; Retract
G1 Z0.55 F12000 ; Z hop
G0 X75.5183 Y33.0068 F12000 ; Move to start next pattern wall
G1 Z0.45 F12000 ; Z hop return
G1 E0.5 F2100 ; Un-retract
G1 X96.7315 Y54.22 E1.01546 F4800 ; Print pattern wall
G1 X75.5183 Y75.4332 E1.01546 F4800 ; Print pattern wall
G1 E-0.5 F2100 ; Retract
G1 Z0.55 F12000 ; Z hop
G0 X77.9683 Y33.0068 F12000 ; Move to next pattern
G1 Z0.45 F12000 ; Z hop return
G1 E0.5 F2100 ; Un-retract
SET_PRESSURE_ADVANCE ADVANCE=0.08 ; Set pressure advance
M117 PA 0.08
G1 X99.1815 Y54.22 E1.01546 F4800 ; Print pattern wall
G1 X77.9683 Y75.4332 E1.01546 F4800 ; Print pattern wall
G1 E-0.5 F2100 ; Retract
G1 Z0.55 F12000 ; Z hop
G0 X78.544 Y33.0068 F12000 ; Move to start next pattern wall
G1 Z0.45 F12000 ; Z hop return
G1 E0.5 F2100 ; Un-retract
G1 X99.7572 Y54.22 E1.01546 F4800 ; Print pattern wall
G1 X78.544 Y75.4332 E1.01546 F4800 ; Print pattern wall
G1 E-0.5 F2100 ; Retract
G1 Z0.55 F12000 ; Z hop
G0 X79.1197 Y33.0068 F12000 ; Move to start next pattern wall
G1 Z0.45 F12000 ; Z hop return
G1 E0.5 F2100 ; Un-retract
G1 X100.3329 Y54.22 E1.01546 F4800 ; Print pattern wall
G1 X79.1197 Y75.4332 E1.01546 F4800 ; Print pattern wall
G1 E-0.5 F2100 ; Retract
G1 Z0.55 F12000 ; Z hop
G0 X20.346 Y33.0068 F12000 ; Move back to start position
G1 Z0.45 F12000 ; Z hop return
G1 E0.5 F2100 ; Un-retract
G0 Z0.65 F12000 ; Move to layer height
SET_PRESSURE_ADVANCE ADVANCE=0 ; Set pressure advance
M117 PA 0
G1 X41.5592 Y54.22 E1.01546 F4800 ; Print pattern wall
G1 X20.346 Y75.4332 E1.01546 F4800 ; Print pattern wall
G1 E-0.5 F2100 ; Retract
G1 Z0.75 F12000 ; Z hop
G0 X20.9217 Y33.0068 F12000 ; Move to start next pattern wall
G1 Z0.65 F12000 ; Z hop return
G1 E0.5 F2100 ; Un-retract
G1 X42.1349 Y54.22 E1.01546 F4800 ; Print pattern wall
G1 X20.9217 Y75.4332 E1.01546 F4800 ; Print pattern wall
G1 E-0.5 F2100 ; Retract
G1 Z0.75 F12000 ; Z hop
G0 X21.4974 Y33.0068 F12000 ; Move to start next pattern wall
G1 Z0.65 F12000 ; Z hop return
G1 E0.5 F2100 ; Un-retract
G1 X42.7106 Y54.22 E1.01546 F4800 ; Print pattern wall
G1 X21.4974 Y75.4332 E1.01546 F4800 ; Print pattern wall
G1 E-0.5 F2100 ; Retract
G1 Z0.75 F12000 ; Z hop
G0 X23.9474 Y33.0068 F12000 ; Move to next pattern
G1 Z0.65 F12000 ; Z hop return
G1 E0.5 F2100 ; Un-retract
SET_PRESSURE_ADVANCE ADVANCE=0.005 ; Set pressure advance
M117 PA 0.005
G1 X45.1606 Y54.22 E1.01546 F4800 ; Print pattern wall
G1 X23.9474 Y75.4332 E1.01546 F4800 ; Print pattern wall
G1 E-0.5 F2100 ; Retract
G1 Z0.75 F12000 ; Z hop
G0 X24.5231 Y33.0068 F12000 ; Move to start next pattern wall
G1 Z0.65 F12000 ; Z hop return
G1 E0.5 F2100 ; Un-retract
G1 X45.7363 Y54.22 E1.01546 F4800 ; Print pattern wall
G1 X24.5231 Y75.4332 E1.01546 F4800 ; Print pattern wall
G1 E-0.5 F2100 ; Retract
G1 Z0.75 F12000 ; Z hop
G0 X25.0988 Y33.0068 F12000 ; Move to start next pattern wall
G1 Z0.65 F12000 ; Z hop return
G1 E0.5 F2100 ; Un-retract
G1 X46.312 Y54.22 E1.01546 F4800 ; Print pattern wall
G1 X25.0988 Y75.4332 E1.01546 F4800 ; Print pattern wall
G1 E-0.5 F2100 ; Retract
G1 Z0.75 F12000 ; Z hop
G0 X27.5488 Y33.0068 F12000 ; Move to next pattern
G1 Z0.65 F12000 ; Z hop return
G1 E0.5 F2100 ; Un-retract
SET_PRESSURE_ADVANCE ADVANCE=0.01 ; Set pressure advance
M117 PA 0.01
G1 X48.762 Y54.22 E1.01546 F4800 ; Print pattern wall
G1 X27.5488 Y75.4332 E1.01546 F4800 ; Print pattern wall
G1 E-0.5 F2100 ; Retract
G1 Z0.75 F12000 ; Z hop
G0 X28.1245 Y33.0068 F12000 ; Move to start next pattern wall
G1 Z0.65 F12000 ; Z hop return
G1 E0.5 F2100 ; Un-retract
G1 X49.3377 Y54.22 E1.01546 F4800 ; Print pattern wall
G1 X28.1245 Y75.4332 E1.01546 F4800 ; Print pattern wall
G1 E-0.5 F2100 ; Retract
G1 Z0.75 F12000 ; Z hop
G0 X28.7002 Y33.0068 F12000 ; Move to start next pattern wall
G1 Z0.65 F12000 ; Z hop return
G1 E0.5 F2100 ; Un-retract
G1 X49.9134 Y54.22 E1.01546 F4800 ; Print pattern wall
G1 X28.7002 Y75.4332 E1.01546 F4800 ; Print pattern wall
G1 E-0.5 F2100 ; Retract
G1 Z0.75 F12000 ; Z hop
G0 X31.1502 Y33.0068 F12000 ; Move to next pattern
G1 Z0.65 F12000 ; Z hop return
G1 E0.5 F2100 ; Un-retract
SET_PRESSURE_ADVANCE ADVANCE=0.015 ; Set pressure advance
M117 PA 0.015
G1 X52.3634 Y54.22 E1.01546 F4800 ; Print pattern wall
G1 X31.1502 Y75.4332 E1.01546 F4800 ; Print pattern wall
G1 E-0.5 F2100 ; Retract
G1 Z0.75 F12000 ; Z hop
G0 X31.7259 Y33.0068 F12000 ; Move to start next pattern wall
G1 Z0.65 F12000 ; Z hop return
G1 E0.5 F2100 ; Un-retract
G1 X52.9391 Y54.22 E1.01546 F4800 ; Print pattern wall
G1 X31.7259 Y75.4332 E1.01546 F4800 ; Print pattern wall
G1 E-0.5 F2100 ; Retract
G1 Z0.75 F12000 ; Z hop
G0 X32.3016 Y33.0068 F12000 ; Move to start next pattern wall
G1 Z0.65 F12000 ; Z hop return
G1 E0.5 F2100 ; Un-retract
G1 X53.5148 Y54.22 E1.01546 F4800 ; Print pattern wall
G1 X32.3016 Y75.4332 E1.01546 F4800 ; Print pattern wall
G1 E-0.5 F2100 ; Retract
G1 Z0.75 F12000 ; Z hop
G0 X34.7516 Y33.0068 F12000 ; Move to next pattern
G1 Z0.65 F12000 ; Z hop return
G1 E0.5 F2100 ; Un-retract
SET_PRESSURE_ADVANCE ADVANCE=0.02 ; Set pressure advance
M117 PA 0.02
G1 X55.9648 Y54.22 E1.01546 F4800 ; Print pattern wall
G1 X34.7516 Y75.4332 E1.01546 F4800 ; Print pattern wall
G1 E-0.5 F2100 ; Retract
G1 Z0.75 F12000 ; Z hop
G0 X35.3273 Y33.0068 F12000 ; Move to start next pattern wall
G1 Z0.65 F12000 ; Z hop return
G1 E0.5 F2100 ; Un-retract
G1 X56.5405 Y54.22 E1.01546 F4800 ; Print pattern wall
G1 X35.3273 Y75.4332 E1.01546 F4800 ; Print pattern wall
G1 E-0.5 F2100 ; Retract
G1 Z0.75 F12000 ; Z hop
G0 X35.903 Y33.0068 F12000 ; Move to start next pattern wall
G1 Z0.65 F12000 ; Z hop return
G1 E0.5 F2100 ; Un-retract
G1 X57.1162 Y54.22 E1.01546 F4800 ; Print pattern wall
G1 X35.903 Y75.4332 E1.01546 F4800 ; Print pattern wall
G1 E-0.5 F2100 ; Retract
G1 Z0.75 F12000 ; Z hop
G0 X38.353 Y33.0068 F12000 ; Move to next pattern
G1 Z0.65 F12000 ; Z hop return
G1 E0.5 F2100 ; Un-retract
SET_PRESSURE_ADVANCE ADVANCE=0.025 ; Set pressure advance
M117 PA 0.025
G1 X59.5662 Y54.22 E1.01546 F4800 ; Print pattern wall
G1 X38.353 Y75.4332 E1.01546 F4800 ; Print pattern wall
G1 E-0.5 F2100 ; Retract
G1 Z0.75 F12000 ; Z hop
G0 X38.9287 Y33.0068 F12000 ; Move to start next pattern wall
G1 Z0.65 F12000 ; Z hop return
G1 E0.5 F2100 ; Un-retract
G1 X60.1419 Y54.22 E1.01546 F4800 ; Print pattern wall
G1 X38.9287 Y75.4332 E1.01546 F4800 ; Print pattern wall
G1 E-0.5 F2100 ; Retract
G1 Z0.75 F12000 ; Z hop
G0 X39.5044 Y33.0068 F12000 ; Move to start next pattern wall
G1 Z0.65 F12000 ; Z hop return
G1 E0.5 F2100 ; Un-retract
G1 X60.7176 Y54.22 E1.01546 F4800 ; Print pattern wall
G1 X39.5044 Y75.4332 E1.01546 F4800 ; Print pattern wall
G1 E-0.5 F2100 ; Retract
G1 Z0.75 F12000 ; Z hop
G0 X41.9544 Y33.0068 F12000 ; Move to next pattern
G1 Z0.65 F12000 ; Z hop return
G1 E0.5 F2100 ; Un-retract
SET_PRESSURE_ADVANCE ADVANCE=0.03 ; Set pressure advance
M117 PA 0.03
G1 X63.1676 Y54.22 E1.01546 F4800 ; Print pattern wall
G1 X41.9544 Y75.4332 E1.01546 F4800 ; Print pattern wall
G1 E-0.5 F2100 ; Retract
G1 Z0.75 F12000 ; Z hop
G0 X42.5301 Y33.0068 F12000 ; Move to start next pattern wall
G1 Z0.65 F12000 ; Z hop return
G1 E0.5 F2100 ; Un-retract
G1 X63.7433 Y54.22 E1.01546 F4800 ; Print pattern wall
G1 X42.5301 Y75.4332 E1.01546 F4800 ; Print pattern wall
G1 E-0.5 F2100 ; Retract
G1 Z0.75 F12000 ; Z hop
G0 X43.1058 Y33.0068 F12000 ; Move to start next pattern wall
G1 Z0.65 F12000 ; Z hop return
G1 E0.5 F2100 ; Un-retract
G1 X64.319 Y54.22 E1.01546 F4800 ; Print pattern wall
G1 X43.1058 Y75.4332 E1.01546 F4800 ; Print pattern wall
G1 E-0.5 F2100 ; Retract
G1 Z0.75 F12000 ; Z hop
G0 X45.5558 Y33.0068 F12000 ; Move to next pattern
G1 Z0.65 F12000 ; Z hop return
G1 E0.5 F2100 ; Un-retract
SET_PRESSURE_ADVANCE ADVANCE=0.035 ; Set pressure advance
M117 PA 0.035
G1 X66.769 Y54.22 E1.01546 F4800 ; Print pattern wall
G1 X45.5558 Y75.4332 E1.01546 F4800 ; Print pattern wall
G1 E-0.5 F2100 ; Retract
G1 Z0.75 F12000 ; Z hop
G0 X46.1315 Y33.0068 F12000 ; Move to start next pattern wall
G1 Z0.65 F12000 ; Z hop return
G1 E0.5 F2100 ; Un-retract
G1 X67.3447 Y54.22 E1.01546 F4800 ; Print pattern wall
G1 X46.1315 Y75.4332 E1.01546 F4800 ; Print pattern wall
G1 E-0.5 F2100 ; Retract
G1 Z0.75 F12000 ; Z hop
G0 X46.7072 Y33.0068 F12000 ; Move to start next pattern wall
G1 Z0.65 F12000 ; Z hop return
G1 E0.5 F2100 ; Un-retract
G1 X67.9204 Y54.22 E1.01546 F4800 ; Print pattern wall
G1 X46.7072 Y75.4332 E1.01546 F4800 ; Print pattern wall
G1 E-0.5 F2100 ; Retract
G1 Z0.75 F12000 ; Z hop
G0 X49.1572 Y33.0068 F12000 ; Move to next pattern
G1 Z0.65 F12000 ; Z hop return
G1 E0.5 F2100 ; Un-retract
SET_PRESSURE_ADVANCE ADVANCE=0.04 ; Set pressure advance
M117 PA 0.04
G1 X70.3704 Y54.22 E1.01546 F4800 ; Print pattern wall
G1 X49.1572 Y75.4332 E1.01546 F4800 ; Print pattern wall
G1 E-0.5 F2100 ; Retract
G1 Z0.75 F12000 ; Z hop
G0 X49.7329 Y33.0068 F12000 ; Move to start next pattern wall
G1 Z0.65 F12000 ; Z hop return
G1 E0.5 F2100 ; Un-retract
G1 X70.9461 Y54.22 E1.01546 F4800 ; Print pattern wall
G1 X49.7329 Y75.4332 E1.01546 F4800 ; Print pattern wall
G1 E-0.5 F2100 ; Retract
G1 Z0.75 F12000 ; Z hop
G0 X50.3086 Y33.0068 F12000 ; Move to start next pattern wall
G1 Z0.65 F12000 ; Z hop return
G1 E0.5 F2100 ; Un-retract
G1 X71.5218 Y54.22 E1.01546 F4800 ; Print pattern wall
G1 X50.3086 Y75.4332 E1.01546 F4800 ; Print pattern wall
G1 E-0.5 F2100 ; Retract
G1 Z0.75 F12000 ; Z hop
G0 X52.7586 Y33.0068 F12000 ; Move to next pattern
G1 Z0.65 F12000 ; Z hop return
G1 E0.5 F2100 ; Un-retract
SET_PRESSURE_ADVANCE ADVANCE=0.045 ; Set pressure advance
M117 PA 0.045
G1 X73.9718 Y54.22 E1.01546 F4800 ; Print pattern wall
G1 X52.7586 Y75.4332 E1.01546 F4800 ; Print pattern wall
G1 E-0.5 F2100 ; Retract
G1 Z0.75 F12000 ; Z hop
G0 X53.3343 Y33.0068 F12000 ; Move to start next pattern wall
G1 Z0.65 F12000 ; Z hop return
G1 E0.5 F2100 ; Un-retract
G1 X74.5475 Y54.22 E1.01546 F4800 ; Print pattern wall
G1 X53.3343 Y75.4332 E1.01546 F4800 ; Print pattern wall
G1 E-0.5 F2100 ; Retract
G1 Z0.75 F12000 ; Z hop
G0 X53.91 Y33.0068 F12000 ; Move to start next pattern wall
G1 Z0.65 F12000 ; Z hop return
G1 E0.5 F2100 ; Un-retract
G1 X75.1232 Y54.22 E1.01546 F4800 ; Print pattern wall
G1 X53.91 Y75.4332 E1.01546 F4800 ; Print pattern wall
G1 E-0.5 F2100 ; Retract
G1 Z0.75 F12000 ; Z hop
G0 X56.36 Y33.0068 F12000 ; Move to next pattern
G1 Z0.65 F12000 ; Z hop return
G1 E0.5 F2100 ; Un-retract
SET_PRESSURE_ADVANCE ADVANCE=0.05 ; Set pressure advance
M117 PA 0.05
G1 X77.5732 Y54.22 E1.01546 F4800 ; Print pattern wall
G1 X56.36 Y75.4332 E1.01546 F4800 ; Print pattern wall
G1 E-0.5 F2100 ; Retract
G1 Z0.75 F12000 ; Z hop
G0 X56.9357 Y33.0068 F12000 ; Move to start next pattern wall
G1 Z0.65 F12000 ; Z hop return
G1 E0.5 F2100 ; Un-retract
G1 X78.1489 Y54.22 E1.01546 F4800 ; Print pattern wall
G1 X56.9357 Y75.4332 E1.01546 F4800 ; Print pattern wall
G1 E-0.5 F2100 ; Retract
G1 Z0.75 F12000 ; Z hop
G0 X57.5113 Y33.0068 F12000 ; Move to start next pattern wall
G1 Z0.65 F12000 ; Z hop return
G1 E0.5 F2100 ; Un-retract
G1 X78.7246 Y54.22 E1.01546 F4800 ; Print pattern wall
G1 X57.5113 Y75.4332 E1.01546 F4800 ; Print pattern wall
G1 E-0.5 F2100 ; Retract
G1 Z0.75 F12000 ; Z hop
G0 X59.9613 Y33.0068 F12000 ; Move to next pattern
G1 Z0.65 F12000 ; Z hop return
G1 E0.5 F2100 ; Un-retract
SET_PRESSURE_ADVANCE ADVANCE=0.055 ; Set pressure advance
M117 PA 0.055
G1 X81.1746 Y54.22 E1.01546 F4800 ; Print pattern wall
G1 X59.9613 Y75.4332 E1.01546 F4800 ; Print pattern wall
G1 E-0.5 F2100 ; Retract
G1 Z0.75 F12000 ; Z hop
G0 X60.537 Y33.0068 F12000 ; Move to start next pattern wall
G1 Z0.65 F12000 ; Z hop return
G1 E0.5 F2100 ; Un-retract
G1 X81.7502 Y54.22 E1.01546 F4800 ; Print pattern wall
G1 X60.537 Y75.4332 E1.01546 F4800 ; Print pattern wall
G1 E-0.5 F2100 ; Retract
G1 Z0.75 F12000 ; Z hop
G0 X61.1127 Y33.0068 F12000 ; Move to start next pattern wall
G1 Z0.65 F12000 ; Z hop return
G1 E0.5 F2100 ; Un-retract
G1 X82.3259 Y54.22 E1.01546 F4800 ; Print pattern wall
G1 X61.1127 Y75.4332 E1.01546 F4800 ; Print pattern wall
G1 E-0.5 F2100 ; Retract
G1 Z0.75 F12000 ; Z hop
G0 X63.5627 Y33.0068 F12000 ; Move to next pattern
G1 Z0.65 F12000 ; Z hop return
G1 E0.5 F2100 ; Un-retract
SET_PRESSURE_ADVANCE ADVANCE=0.06 ; Set pressure advance
M117 PA 0.06
G1 X84.7759 Y54.22 E1.01546 F4800 ; Print pattern wall
G1 X63.5627 Y75.4332 E1.01546 F4800 ; Print pattern wall
G1 E-0.5 F2100 ; Retract
G1 Z0.75 F12000 ; Z hop
G0 X64.1384 Y33.0068 F12000 ; Move to start next pattern wall
G1 Z0.65 F12000 ; Z hop return
G1 E0.5 F2100 ; Un-retract
G1 X85.3516 Y54.22 E1.01546 F4800 ; Print pattern wall
G1 X64.1384 Y75.4332 E1.01546 F4800 ; Print pattern wall
G1 E-0.5 F2100 ; Retract
G1 Z0.75 F12000 ; Z hop
G0 X64.7141 Y33.0068 F12000 ; Move to start next pattern wall
G1 Z0.65 F12000 ; Z hop return
G1 E0.5 F2100 ; Un-retract
G1 X85.9273 Y54.22 E1.01546 F4800 ; Print pattern wall
G1 X64.7141 Y75.4332 E1.01546 F4800 ; Print pattern wall
G1 E-0.5 F2100 ; Retract
G1 Z0.75 F12000 ; Z hop
G0 X67.1641 Y33.0068 F12000 ; Move to next pattern
G1 Z0.65 F12000 ; Z hop return
G1 E0.5 F2100 ; Un-retract
SET_PRESSURE_ADVANCE ADVANCE=0.065 ; Set pressure advance
M117 PA 0.065
G1 X88.3773 Y54.22 E1.01546 F4800 ; Print pattern wall
G1 X67.1641 Y75.4332 E1.01546 F4800 ; Print pattern wall
G1 E-0.5 F2100 ; Retract
G1 Z0.75 F12000 ; Z hop
G0 X67.7398 Y33.0068 F12000 ; Move to start next pattern wall
G1 Z0.65 F12000 ; Z hop return
G1 E0.5 F2100 ; Un-retract
G1 X88.953 Y54.22 E1.01546 F4800 ; Print pattern wall
G1 X67.7398 Y75.4332 E1.01546 F4800 ; Print pattern wall
G1 E-0.5 F2100 ; Retract
G1 Z0.75 F12000 ; Z hop
G0 X68.3155 Y33.0068 F12000 ; Move to start next pattern wall
G1 Z0.65 F12000 ; Z hop return
G1 E0.5 F2100 ; Un-retract
G1 X89.5287 Y54.22 E1.01546 F4800 ; Print pattern wall
G1 X68.3155 Y75.4332 E1.01546 F4800 ; Print pattern wall
G1 E-0.5 F2100 ; Retract
G1 Z0.75 F12000 ; Z hop
G0 X70.7655 Y33.0068 F12000 ; Move to next pattern
G1 Z0.65 F12000 ; Z hop return
G1 E0.5 F2100 ; Un-retract
SET_PRESSURE_ADVANCE ADVANCE=0.07 ; Set pressure advance
M117 PA 0.07
G1 X91.9787 Y54.22 E1.01546 F4800 ; Print pattern wall
G1 X70.7655 Y75.4332 E1.01546 F4800 ; Print pattern wall
G1 E-0.5 F2100 ; Retract
G1 Z0.75 F12000 ; Z hop
G0 X71.3412 Y33.0068 F12000 ; Move to start next pattern wall
G1 Z0.65 F12000 ; Z hop return
G1 E0.5 F2100 ; Un-retract
G1 X92.5544 Y54.22 E1.01546 F4800 ; Print pattern wall
G1 X71.3412 Y75.4332 E1.01546 F4800 ; Print pattern wall
G1 E-0.5 F2100 ; Retract
G1 Z0.75 F12000 ; Z hop
G0 X71.9169 Y33.0068 F12000 ; Move to start next pattern wall
G1 Z0.65 F12000 ; Z hop return
G1 E0.5 F2100 ; Un-retract
G1 X93.1301 Y54.22 E1.01546 F4800 ; Print pattern wall
G1 X71.9169 Y75.4332 E1.01546 F4800 ; Print pattern wall
G1 E-0.5 F2100 ; Retract
G1 Z0.75 F12000 ; Z hop
G0 X74.3669 Y33.0068 F12000 ; Move to next pattern
G1 Z0.65 F12000 ; Z hop return
G1 E0.5 F2100 ; Un-retract
SET_PRESSURE_ADVANCE ADVANCE=0.075 ; Set pressure advance
M117 PA 0.075
G1 X95.5801 Y54.22 E1.01546 F4800 ; Print pattern wall
G1 X74.3669 Y75.4332 E1.01546 F4800 ; Print pattern wall
G1 E-0.5 F2100 ; Retract
G1 Z0.75 F12000 ; Z hop
G0 X74.9426 Y33.0068 F12000 ; Move to start next pattern wall
G1 Z0.65 F12000 ; Z hop return
G1 E0.5 F2100 ; Un-retract
G1 X96.1558 Y54.22 E1.01546 F4800 ; Print pattern wall
G1 X74.9426 Y75.4332 E1.01546 F4800 ; Print pattern wall
G1 E-0.5 F2100 ; Retract
G1 Z0.75 F12000 ; Z hop
G0 X75.5183 Y33.0068 F12000 ; Move to start next pattern wall
G1 Z0.65 F12000 ; Z hop return
G1 E0.5 F2100 ; Un-retract
G1 X96.7315 Y54.22 E1.01546 F4800 ; Print pattern wall
G1 X75.5183 Y75.4332 E1.01546 F4800 ; Print pattern wall
G1 E-0.5 F2100 ; Retract
G1 Z0.75 F12000 ; Z hop
G0 X77.9683 Y33.0068 F12000 ; Move to next pattern
G1 Z0.65 F12000 ; Z hop return
G1 E0.5 F2100 ; Un-retract
SET_PRESSURE_ADVANCE ADVANCE=0.08 ; Set pressure advance
M117 PA 0.08
G1 X99.1815 Y54.22 E1.01546 F4800 ; Print pattern wall
G1 X77.9683 Y75.4332 E1.01546 F4800 ; Print pattern wall
G1 E-0.5 F2100 ; Retract
G1 Z0.75 F12000 ; Z hop
G0 X78.544 Y33.0068 F12000 ; Move to start next pattern wall
G1 Z0.65 F12000 ; Z hop return
G1 E0.5 F2100 ; Un-retract
G1 X99.7572 Y54.22 E1.01546 F4800 ; Print pattern wall
G1 X78.544 Y75.4332 E1.01546 F4800 ; Print pattern wall
G1 E-0.5 F2100 ; Retract
G1 Z0.75 F12000 ; Z hop
G0 X79.1197 Y33.0068 F12000 ; Move to start next pattern wall
G1 Z0.65 F12000 ; Z hop return
G1 E0.5 F2100 ; Un-retract
G1 X100.3329 Y54.22 E1.01546 F4800 ; Print pattern wall
G1 X79.1197 Y75.4332 E1.01546 F4800 ; Print pattern wall
G1 E-0.5 F2100 ; Retract
G1 Z0.75 F12000 ; Z hop
G0 X20.346 Y33.0068 F12000 ; Move back to start position
G1 Z0.65 F12000 ; Z hop return
G1 E0.5 F2100 ; Un-retract
G0 Z0.85 F12000 ; Move to layer height
SET_PRESSURE_ADVANCE ADVANCE=0 ; Set pressure advance
M117 PA 0
G1 X41.5592 Y54.22 E1.01546 F4800 ; Print pattern wall
G1 X20.346 Y75.4332 E1.01546 F4800 ; Print pattern wall
G1 E-0.5 F2100 ; Retract
G1 Z0.95 F12000 ; Z hop
G0 X20.9217 Y33.0068 F12000 ; Move to start next pattern wall
G1 Z0.85 F12000 ; Z hop return
G1 E0.5 F2100 ; Un-retract
G1 X42.1349 Y54.22 E1.01546 F4800 ; Print pattern wall
G1 X20.9217 Y75.4332 E1.01546 F4800 ; Print pattern wall
G1 E-0.5 F2100 ; Retract
G1 Z0.95 F12000 ; Z hop
G0 X21.4974 Y33.0068 F12000 ; Move to start next pattern wall
G1 Z0.85 F12000 ; Z hop return
G1 E0.5 F2100 ; Un-retract
G1 X42.7106 Y54.22 E1.01546 F4800 ; Print pattern wall
G1 X21.4974 Y75.4332 E1.01546 F4800 ; Print pattern wall
G1 E-0.5 F2100 ; Retract
G1 Z0.95 F12000 ; Z hop
G0 X23.9474 Y33.0068 F12000 ; Move to next pattern
G1 Z0.85 F12000 ; Z hop return
G1 E0.5 F2100 ; Un-retract
SET_PRESSURE_ADVANCE ADVANCE=0.005 ; Set pressure advance
M117 PA 0.005
G1 X45.1606 Y54.22 E1.01546 F4800 ; Print pattern wall
G1 X23.9474 Y75.4332 E1.01546 F4800 ; Print pattern wall
G1 E-0.5 F2100 ; Retract
G1 Z0.95 F12000 ; Z hop
G0 X24.5231 Y33.0068 F12000 ; Move to start next pattern wall
G1 Z0.85 F12000 ; Z hop return
G1 E0.5 F2100 ; Un-retract
G1 X45.7363 Y54.22 E1.01546 F4800 ; Print pattern wall
G1 X24.5231 Y75.4332 E1.01546 F4800 ; Print pattern wall
G1 E-0.5 F2100 ; Retract
G1 Z0.95 F12000 ; Z hop
G0 X25.0988 Y33.0068 F12000 ; Move to start next pattern wall
G1 Z0.85 F12000 ; Z hop return
G1 E0.5 F2100 ; Un-retract
G1 X46.312 Y54.22 E1.01546 F4800 ; Print pattern wall
G1 X25.0988 Y75.4332 E1.01546 F4800 ; Print pattern wall
G1 E-0.5 F2100 ; Retract
G1 Z0.95 F12000 ; Z hop
G0 X27.5488 Y33.0068 F12000 ; Move to next pattern
G1 Z0.85 F12000 ; Z hop return
G1 E0.5 F2100 ; Un-retract
SET_PRESSURE_ADVANCE ADVANCE=0.01 ; Set pressure advance
M117 PA 0.01
G1 X48.762 Y54.22 E1.01546 F4800 ; Print pattern wall
G1 X27.5488 Y75.4332 E1.01546 F4800 ; Print pattern wall
G1 E-0.5 F2100 ; Retract
G1 Z0.95 F12000 ; Z hop
G0 X28.1245 Y33.0068 F12000 ; Move to start next pattern wall
G1 Z0.85 F12000 ; Z hop return
G1 E0.5 F2100 ; Un-retract
G1 X49.3377 Y54.22 E1.01546 F4800 ; Print pattern wall
G1 X28.1245 Y75.4332 E1.01546 F4800 ; Print pattern wall
G1 E-0.5 F2100 ; Retract
G1 Z0.95 F12000 ; Z hop
G0 X28.7002 Y33.0068 F12000 ; Move to start next pattern wall
G1 Z0.85 F12000 ; Z hop return
G1 E0.5 F2100 ; Un-retract
G1 X49.9134 Y54.22 E1.01546 F4800 ; Print pattern wall
G1 X28.7002 Y75.4332 E1.01546 F4800 ; Print pattern wall
G1 E-0.5 F2100 ; Retract
G1 Z0.95 F12000 ; Z hop
G0 X31.1502 Y33.0068 F12000 ; Move to next pattern
G1 Z0.85 F12000 ; Z hop return
G1 E0.5 F2100 ; Un-retract
SET_PRESSURE_ADVANCE ADVANCE=0.015 ; Set pressure advance
M117 PA 0.015
G1 X52.3634 Y54.22 E1.01546 F4800 ; Print pattern wall
G1 X31.1502 Y75.4332 E1.01546 F4800 ; Print pattern wall
G1 E-0.5 F2100 ; Retract
G1 Z0.95 F12000 ; Z hop
G0 X31.7259 Y33.0068 F12000 ; Move to start next pattern wall
G1 Z0.85 F12000 ; Z hop return
G1 E0.5 F2100 ; Un-retract
G1 X52.9391 Y54.22 E1.01546 F4800 ; Print pattern wall
G1 X31.7259 Y75.4332 E1.01546 F4800 ; Print pattern wall
G1 E-0.5 F2100 ; Retract
G1 Z0.95 F12000 ; Z hop
G0 X32.3016 Y33.0068 F12000 ; Move to start next pattern wall
G1 Z0.85 F12000 ; Z hop return
G1 E0.5 F2100 ; Un-retract
G1 X53.5148 Y54.22 E1.01546 F4800 ; Print pattern wall
G1 X32.3016 Y75.4332 E1.01546 F4800 ; Print pattern wall
G1 E-0.5 F2100 ; Retract
G1 Z0.95 F12000 ; Z hop
G0 X34.7516 Y33.0068 F12000 ; Move to next pattern
G1 Z0.85 F12000 ; Z hop return
G1 E0.5 F2100 ; Un-retract
SET_PRESSURE_ADVANCE ADVANCE=0.02 ; Set pressure advance
M117 PA 0.02
G1 X55.9648 Y54.22 E1.01546 F4800 ; Print pattern wall
G1 X34.7516 Y75.4332 E1.01546 F4800 ; Print pattern wall
G1 E-0.5 F2100 ; Retract
G1 Z0.95 F12000 ; Z hop
G0 X35.3273 Y33.0068 F12000 ; Move to start next pattern wall
G1 Z0.85 F12000 ; Z hop return
G1 E0.5 F2100 ; Un-retract
G1 X56.5405 Y54.22 E1.01546 F4800 ; Print pattern wall
G1 X35.3273 Y75.4332 E1.01546 F4800 ; Print pattern wall
G1 E-0.5 F2100 ; Retract
G1 Z0.95 F12000 ; Z hop
G0 X35.903 Y33.0068 F12000 ; Move to start next pattern wall
G1 Z0.85 F12000 ; Z hop return
G1 E0.5 F2100 ; Un-retract
G1 X57.1162 Y54.22 E1.01546 F4800 ; Print pattern wall
G1 X35.903 Y75.4332 E1.01546 F4800 ; Print pattern wall
G1 E-0.5 F2100 ; Retract
G1 Z0.95 F12000 ; Z hop
G0 X38.353 Y33.0068 F12000 ; Move to next pattern
G1 Z0.85 F12000 ; Z hop return
G1 E0.5 F2100 ; Un-retract
SET_PRESSURE_ADVANCE ADVANCE=0.025 ; Set pressure advance
M117 PA 0.025
G1 X59.5662 Y54.22 E1.01546 F4800 ; Print pattern wall
G1 X38.353 Y75.4332 E1.01546 F4800 ; Print pattern wall
G1 E-0.5 F2100 ; Retract
G1 Z0.95 F12000 ; Z hop
G0 X38.9287 Y33.0068 F12000 ; Move to start next pattern wall
G1 Z0.85 F12000 ; Z hop return
G1 E0.5 F2100 ; Un-retract
G1 X60.1419 Y54.22 E1.01546 F4800 ; Print pattern wall
G1 X38.9287 Y75.4332 E1.01546 F4800 ; Print pattern wall
G1 E-0.5 F2100 ; Retract
G1 Z0.95 F12000 ; Z hop
G0 X39.5044 Y33.0068 F12000 ; Move to start next pattern wall
G1 Z0.85 F12000 ; Z hop return
G1 E0.5 F2100 ; Un-retract
G1 X60.7176 Y54.22 E1.01546 F4800 ; Print pattern wall
G1 X39.5044 Y75.4332 E1.01546 F4800 ; Print pattern wall
G1 E-0.5 F2100 ; Retract
G1 Z0.95 F12000 ; Z hop
G0 X41.9544 Y33.0068 F12000 ; Move to next pattern
G1 Z0.85 F12000 ; Z hop return
G1 E0.5 F2100 ; Un-retract
SET_PRESSURE_ADVANCE ADVANCE=0.03 ; Set pressure advance
M117 PA 0.03
G1 X63.1676 Y54.22 E1.01546 F4800 ; Print pattern wall
G1 X41.9544 Y75.4332 E1.01546 F4800 ; Print pattern wall
G1 E-0.5 F2100 ; Retract
G1 Z0.95 F12000 ; Z hop
G0 X42.5301 Y33.0068 F12000 ; Move to start next pattern wall
G1 Z0.85 F12000 ; Z hop return
G1 E0.5 F2100 ; Un-retract
G1 X63.7433 Y54.22 E1.01546 F4800 ; Print pattern wall
G1 X42.5301 Y75.4332 E1.01546 F4800 ; Print pattern wall
G1 E-0.5 F2100 ; Retract
G1 Z0.95 F12000 ; Z hop
G0 X43.1058 Y33.0068 F12000 ; Move to start next pattern wall
G1 Z0.85 F12000 ; Z hop return
G1 E0.5 F2100 ; Un-retract
G1 X64.319 Y54.22 E1.01546 F4800 ; Print pattern wall
G1 X43.1058 Y75.4332 E1.01546 F4800 ; Print pattern wall
G1 E-0.5 F2100 ; Retract
G1 Z0.95 F12000 ; Z hop
G0 X45.5558 Y33.0068 F12000 ; Move to next pattern
G1 Z0.85 F12000 ; Z hop return
G1 E0.5 F2100 ; Un-retract
SET_PRESSURE_ADVANCE ADVANCE=0.035 ; Set pressure advance
M117 PA 0.035
G1 X66.769 Y54.22 E1.01546 F4800 ; Print pattern wall
G1 X45.5558 Y75.4332 E1.01546 F4800 ; Print pattern wall
G1 E-0.5 F2100 ; Retract
G1 Z0.95 F12000 ; Z hop
G0 X46.1315 Y33.0068 F12000 ; Move to start next pattern wall
G1 Z0.85 F12000 ; Z hop return
G1 E0.5 F2100 ; Un-retract
G1 X67.3447 Y54.22 E1.01546 F4800 ; Print pattern wall
G1 X46.1315 Y75.4332 E1.01546 F4800 ; Print pattern wall
G1 E-0.5 F2100 ; Retract
G1 Z0.95 F12000 ; Z hop
G0 X46.7072 Y33.0068 F12000 ; Move to start next pattern wall
G1 Z0.85 F12000 ; Z hop return
G1 E0.5 F2100 ; Un-retract
G1 X67.9204 Y54.22 E1.01546 F4800 ; Print pattern wall
G1 X46.7072 Y75.4332 E1.01546 F4800 ; Print pattern wall
G1 E-0.5 F2100 ; Retract
G1 Z0.95 F12000 ; Z hop
G0 X49.1572 Y33.0068 F12000 ; Move to next pattern
G1 Z0.85 F12000 ; Z hop return
G1 E0.5 F2100 ; Un-retract
SET_PRESSURE_ADVANCE ADVANCE=0.04 ; Set pressure advance
M117 PA 0.04
G1 X70.3704 Y54.22 E1.01546 F4800 ; Print pattern wall
G1 X49.1572 Y75.4332 E1.01546 F4800 ; Print pattern wall
G1 E-0.5 F2100 ; Retract
G1 Z0.95 F12000 ; Z hop
G0 X49.7329 Y33.0068 F12000 ; Move to start next pattern wall
G1 Z0.85 F12000 ; Z hop return
G1 E0.5 F2100 ; Un-retract
G1 X70.9461 Y54.22 E1.01546 F4800 ; Print pattern wall
G1 X49.7329 Y75.4332 E1.01546 F4800 ; Print pattern wall
G1 E-0.5 F2100 ; Retract
G1 Z0.95 F12000 ; Z hop
G0 X50.3086 Y33.0068 F12000 ; Move to start next pattern wall
G1 Z0.85 F12000 ; Z hop return
G1 E0.5 F2100 ; Un-retract
G1 X71.5218 Y54.22 E1.01546 F4800 ; Print pattern wall
G1 X50.3086 Y75.4332 E1.01546 F4800 ; Print pattern wall
G1 E-0.5 F2100 ; Retract
G1 Z0.95 F12000 ; Z hop
G0 X52.7586 Y33.0068 F12000 ; Move to next pattern
G1 Z0.85 F12000 ; Z hop return
G1 E0.5 F2100 ; Un-retract
SET_PRESSURE_ADVANCE ADVANCE=0.045 ; Set pressure advance
M117 PA 0.045
G1 X73.9718 Y54.22 E1.01546 F4800 ; Print pattern wall
G1 X52.7586 Y75.4332 E1.01546 F4800 ; Print pattern wall
G1 E-0.5 F2100 ; Retract
G1 Z0.95 F12000 ; Z hop
G0 X53.3343 Y33.0068 F12000 ; Move to start next pattern wall
G1 Z0.85 F12000 ; Z hop return
G1 E0.5 F2100 ; Un-retract
G1 X74.5475 Y54.22 E1.01546 F4800 ; Print pattern wall
G1 X53.3343 Y75.4332 E1.01546 F4800 ; Print pattern wall
G1 E-0.5 F2100 ; Retract
G1 Z0.95 F12000 ; Z hop
G0 X53.91 Y33.0068 F12000 ; Move to start next pattern wall
G1 Z0.85 F12000 ; Z hop return
G1 E0.5 F2100 ; Un-retract
G1 X75.1232 Y54.22 E1.01546 F4800 ; Print pattern wall
G1 X53.91 Y75.4332 E1.01546 F4800 ; Print pattern wall
G1 E-0.5 F2100 ; Retract
G1 Z0.95 F12000 ; Z hop
G0 X56.36 Y33.0068 F12000 ; Move to next pattern
G1 Z0.85 F12000 ; Z hop return
G1 E0.5 F2100 ; Un-retract
SET_PRESSURE_ADVANCE ADVANCE=0.05 ; Set pressure advance
M117 PA 0.05
G1 X77.5732 Y54.22 E1.01546 F4800 ; Print pattern wall
G1 X56.36 Y75.4332 E1.01546 F4800 ; Print pattern wall
G1 E-0.5 F2100 ; Retract
G1 Z0.95 F12000 ; Z hop
G0 X56.9357 Y33.0068 F12000 ; Move to start next pattern wall
G1 Z0.85 F12000 ; Z hop return
G1 E0.5 F2100 ; Un-retract
G1 X78.1489 Y54.22 E1.01546 F4800 ; Print pattern wall
G1 X56.9357 Y75.4332 E1.01546 F4800 ; Print pattern wall
G1 E-0.5 F2100 ; Retract
G1 Z0.95 F12000 ; Z hop
G0 X57.5113 Y33.0068 F12000 ; Move to start next pattern wall
G1 Z0.85 F12000 ; Z hop return
G1 E0.5 F2100 ; Un-retract
G1 X78.7246 Y54.22 E1.01546 F4800 ; Print pattern wall
G1 X57.5113 Y75.4332 E1.01546 F4800 ; Print pattern wall
G1 E-0.5 F2100 ; Retract
G1 Z0.95 F12000 ; Z hop
G0 X59.9613 Y33.0068 F12000 ; Move to next pattern
G1 Z0.85 F12000 ; Z hop return
G1 E0.5 F2100 ; Un-retract
SET_PRESSURE_ADVANCE ADVANCE=0.055 ; Set pressure advance
M117 PA 0.055
G1 X81.1746 Y54.22 E1.01546 F4800 ; Print pattern wall
G1 X59.9613 Y75.4332 E1.01546 F4800 ; Print pattern wall
G1 E-0.5 F2100 ; Retract
G1 Z0.95 F12000 ; Z hop
G0 X60.537 Y33.0068 F12000 ; Move to start next pattern wall
G1 Z0.85 F12000 ; Z hop return
G1 E0.5 F2100 ; Un-retract
G1 X81.7502 Y54.22 E1.01546 F4800 ; Print pattern wall
G1 X60.537 Y75.4332 E1.01546 F4800 ; Print pattern wall
G1 E-0.5 F2100 ; Retract
G1 Z0.95 F12000 ; Z hop
G0 X61.1127 Y33.0068 F12000 ; Move to start next pattern wall
G1 Z0.85 F12000 ; Z hop return
G1 E0.5 F2100 ; Un-retract
G1 X82.3259 Y54.22 E1.01546 F4800 ; Print pattern wall
G1 X61.1127 Y75.4332 E1.01546 F4800 ; Print pattern wall
G1 E-0.5 F2100 ; Retract
G1 Z0.95 F12000 ; Z hop
G0 X63.5627 Y33.0068 F12000 ; Move to next pattern
G1 Z0.85 F12000 ; Z hop return
G1 E0.5 F2100 ; Un-retract
SET_PRESSURE_ADVANCE ADVANCE=0.06 ; Set pressure advance
M117 PA 0.06
G1 X84.7759 Y54.22 E1.01546 F4800 ; Print pattern wall
G1 X63.5627 Y75.4332 E1.01546 F4800 ; Print pattern wall
G1 E-0.5 F2100 ; Retract
G1 Z0.95 F12000 ; Z hop
G0 X64.1384 Y33.0068 F12000 ; Move to start next pattern wall
G1 Z0.85 F12000 ; Z hop return
G1 E0.5 F2100 ; Un-retract
G1 X85.3516 Y54.22 E1.01546 F4800 ; Print pattern wall
G1 X64.1384 Y75.4332 E1.01546 F4800 ; Print pattern wall
G1 E-0.5 F2100 ; Retract
G1 Z0.95 F12000 ; Z hop
G0 X64.7141 Y33.0068 F12000 ; Move to start next pattern wall
G1 Z0.85 F12000 ; Z hop return
G1 E0.5 F2100 ; Un-retract
G1 X85.9273 Y54.22 E1.01546 F4800 ; Print pattern wall
G1 X64.7141 Y75.4332 E1.01546 F4800 ; Print pattern wall
G1 E-0.5 F2100 ; Retract
G1 Z0.95 F12000 ; Z hop
G0 X67.1641 Y33.0068 F12000 ; Move to next pattern
G1 Z0.85 F12000 ; Z hop return
G1 E0.5 F2100 ; Un-retract
SET_PRESSURE_ADVANCE ADVANCE=0.065 ; Set pressure advance
M117 PA 0.065
G1 X88.3773 Y54.22 E1.01546 F4800 ; Print pattern wall
G1 X67.1641 Y75.4332 E1.01546 F4800 ; Print pattern wall
G1 E-0.5 F2100 ; Retract
G1 Z0.95 F12000 ; Z hop
G0 X67.7398 Y33.0068 F12000 ; Move to start next pattern wall
G1 Z0.85 F12000 ; Z hop return
G1 E0.5 F2100 ; Un-retract
G1 X88.953 Y54.22 E1.01546 F4800 ; Print pattern wall
G1 X67.7398 Y75.4332 E1.01546 F4800 ; Print pattern wall
G1 E-0.5 F2100 ; Retract
G1 Z0.95 F12000 ; Z hop
G0 X68.3155 Y33.0068 F12000 ; Move to start next pattern wall
G1 Z0.85 F12000 ; Z hop return
G1 E0.5 F2100 ; Un-retract
G1 X89.5287 Y54.22 E1.01546 F4800 ; Print pattern wall
G1 X68.3155 Y75.4332 E1.01546 F4800 ; Print pattern wall
G1 E-0.5 F2100 ; Retract
G1 Z0.95 F12000 ; Z hop
G0 X70.7655 Y33.0068 F12000 ; Move to next pattern
G1 Z0.85 F12000 ; Z hop return
G1 E0.5 F2100 ; Un-retract
SET_PRESSURE_ADVANCE ADVANCE=0.07 ; Set pressure advance
M117 PA 0.07
G1 X91.9787 Y54.22 E1.01546 F4800 ; Print pattern wall
G1 X70.7655 Y75.4332 E1.01546 F4800 ; Print pattern wall
G1 E-0.5 F2100 ; Retract
G1 Z0.95 F12000 ; Z hop
G0 X71.3412 Y33.0068 F12000 ; Move to start next pattern wall
G1 Z0.85 F12000 ; Z hop return
G1 E0.5 F2100 ; Un-retract
G1 X92.5544 Y54.22 E1.01546 F4800 ; Print pattern wall
G1 X71.3412 Y75.4332 E1.01546 F4800 ; Print pattern wall
G1 E-0.5 F2100 ; Retract
G1 Z0.95 F12000 ; Z hop
G0 X71.9169 Y33.0068 F12000 ; Move to start next pattern wall
G1 Z0.85 F12000 ; Z hop return
G1 E0.5 F2100 ; Un-retract
G1 X93.1301 Y54.22 E1.01546 F4800 ; Print pattern wall
G1 X71.9169 Y75.4332 E1.01546 F4800 ; Print pattern wall
G1 E-0.5 F2100 ; Retract
G1 Z0.95 F12000 ; Z hop
G0 X74.3669 Y33.0068 F12000 ; Move to next pattern
G1 Z0.85 F12000 ; Z hop return
G1 E0.5 F2100 ; Un-retract
SET_PRESSURE_ADVANCE ADVANCE=0.075 ; Set pressure advance
M117 PA 0.075
G1 X95.5801 Y54.22 E1.01546 F4800 ; Print pattern wall
G1 X74.3669 Y75.4332 E1.01546 F4800 ; Print pattern wall
G1 E-0.5 F2100 ; Retract
G1 Z0.95 F12000 ; Z hop
G0 X74.9426 Y33.0068 F12000 ; Move to start next pattern wall
G1 Z0.85 F12000 ; Z hop return
G1 E0.5 F2100 ; Un-retract
G1 X96.1558 Y54.22 E1.01546 F4800 ; Print pattern wall
G1 X74.9426 Y75.4332 E1.01546 F4800 ; Print pattern wall
G1 E-0.5 F2100 ; Retract
G1 Z0.95 F12000 ; Z hop
G0 X75.5183 Y33.0068 F12000 ; Move to start next pattern wall
G1 Z0.85 F12000 ; Z hop return
G1 E0.5 F2100 ; Un-retract
G1 X96.7315 Y54.22 E1.01546 F4800 ; Print pattern wall
G1 X75.5183 Y75.4332 E1.01546 F4800 ; Print pattern wall
G1 E-0.5 F2100 ; Retract
G1 Z0.95 F12000 ; Z hop
G0 X77.9683 Y33.0068 F12000 ; Move to next pattern
G1 Z0.85 F12000 ; Z hop return
G1 E0.5 F2100 ; Un-retract
SET_PRESSURE_ADVANCE ADVANCE=0.08 ; Set pressure advance
M117 PA 0.08
G1 X99.1815 Y54.22 E1.01546 F4800 ; Print pattern wall
G1 X77.9683 Y75.4332 E1.01546 F4800 ; Print pattern wall
G1 E-0.5 F2100 ; Retract
G1 Z0.95 F12000 ; Z hop
G0 X78.544 Y33.0068 F12000 ; Move to start next pattern wall
G1 Z0.85 F12000 ; Z hop return
G1 E0.5 F2100 ; Un-retract
G1 X99.7572 Y54.22 E1.01546 F4800 ; Print pattern wall
G1 X78.544 Y75.4332 E1.01546 F4800 ; Print pattern wall
G1 E-0.5 F2100 ; Retract
G1 Z0.95 F12000 ; Z hop
G0 X79.1197 Y33.0068 F12000 ; Move to start next pattern wall
G1 Z0.85 F12000 ; Z hop return
G1 E0.5 F2100 ; Un-retract
G1 X100.3329 Y54.22 E1.01546 F4800 ; Print pattern wall
G1 X79.1197 Y75.4332 E1.01546 F4800 ; Print pattern wall
SET_PRESSURE_ADVANCE ADVANCE=0 ; Set pressure advance back to start value
M117 PA 0
G1 E-0.5 F2100 ; Retract
G1 Z0.95 F12000 ; Z hop
G0 Z5.85 F12000 ; Z raise
M104 S0 ; Turn off hotend
M140 S0 ; Turn off bed
M107    ; Turn off fan
;
; End G-code
;
END_PRINT
;
; FINISH
;
