; HEADER_BLOCK_START
; generated by OrcaSlicer 1.6.3 on 2023-07-13 at 13:02:51
; total layer number: 20
; HEADER_BLOCK_END

; THUMBNAIL_BLOCK_START
; THUMBNAIL_BLOCK_END

; external perimeters extrusion width = 0.12mm
; perimeters extrusion width = 0.12mm
; infill extrusion width = 0.12mm
; solid infill extrusion width = 0.12mm
; top infill extrusion width = 0.12mm
; first layer extrusion width = 0.20mm

; EXECUTABLE_BLOCK_START
EXCLUDE_OBJECT_DEFINE NAME=Panda_Keychain.stl_id_0_copy_0 CENTER=60,60 POLYGON=[[36.4562,80.8266],[36.4639,80.4279],[37.9547,49.3708],[37.9834,49.0596],[38.0301,48.7565],[38.0947,48.4628],[38.1774,48.1797],[38.278,47.9086],[38.3966,47.6507],[45.4236,33.4083],[45.698,33.0234],[45.9951,32.6558],[46.3141,32.307],[46.6536,31.9782],[47.0125,31.6707],[47.3895,31.3855],[47.783,31.1237],[48.1917,30.8863],[48.6141,30.6742],[49.0486,30.4881],[49.4936,30.3288],[49.9474,30.1968],[50.4084,30.0926],[50.8749,30.0166],[51.3452,29.9691],[51.8175,29.9502],[68.1832,29.9141],[68.6554,29.933],[69.1257,29.9805],[69.5922,30.0565],[70.0532,30.1607],[70.5071,30.2927],[70.9521,30.452],[71.3866,30.6381],[71.8089,30.8502],[72.2177,31.0876],[72.6112,31.3494],[72.9881,31.6346],[73.347,31.9421],[73.6866,32.2709],[74.0055,32.6197],[74.3027,32.9873],[74.577,33.3722],[81.6795,47.8243],[81.7495,47.9846],[81.8122,48.1482],[81.8679,48.3151],[81.9578,48.6578],[82.0195,49.0116],[82.0533,49.3753],[83.5377,80.4676],[83.5437,80.8266],[83.53,81.3087],[83.4892,81.7787],[83.4216,82.2362],[83.3275,82.6805],[83.2072,83.1112],[83.0609,83.5278],[82.8891,83.9295],[82.6919,84.316],[82.4697,84.6866],[82.2229,85.0409],[81.9516,85.3782],[81.6562,85.698],[81.3371,85.9999],[80.9944,86.2831],[80.6286,86.5472],[80.2399,86.7917],[80.0421,86.9019],[79.8379,87.0045],[79.6277,87.0996],[79.4121,87.1872],[79.1916,87.2673],[78.9667,87.3398],[78.7378,87.405],[78.5056,87.4626],[78.2704,87.5128],[78.0329,87.5555],[63.594,89.768],[62.7902,89.89],[61.9825,89.983],[61.172,90.0466],[60.3596,90.0809],[59.5466,90.0859],[58.734,90.0614],[57.9227,90.0076],[57.1139,89.9245],[56.3087,89.8122],[42.0409,87.596],[41.6995,87.541],[41.3649,87.4687],[41.0376,87.3794],[40.7181,87.2735],[40.4066,87.1515],[40.1038,87.0137],[39.8099,86.8606],[39.5254,86.6926],[39.2508,86.5101],[38.9863,86.3135],[38.7326,86.1031],[38.4899,85.8795],[38.2587,85.643],[38.0394,85.394],[37.8325,85.133],[37.6383,84.8603],[37.4573,84.5763],[37.2899,84.2815],[37.1365,83.9763],[36.9976,83.661],[36.8735,83.3361],[36.7647,83.002],[36.6716,82.659],[36.5946,82.3077],[36.5342,81.9484],[36.4907,81.5815],[36.4646,81.2075],[36.4562,80.8266]]
M73 P0 R47
M73 C34
;TYPE:Custom
START_PRINT T_BED=60 T_EXTRUDER=220
G90
G21
M83 ; use relative distances for extrusion
; filament start gcode

    PRESSURE_ADVANCE_SELECT FILAMENT=PLA
M106 S0
;LAYER_CHANGE
;Z:0.1
;HEIGHT:0.1
;BEFORE_LAYER_CHANGE
;0.1
G92 E0

;AFTER_LAYER_CHANGE
;0.1
M204 S500
G1 E-.8 F3000
G1 Z.2 F21000
G1 X43.865 Y31.541
G1 Z.1
G1 E.8 F1800
;TYPE:Skirt
;WIDTH:0.2
G1 F3000
G1 X44.674 Y30.614 E.00896
G1 X45.59 Y29.791 E.00896
G1 X46.599 Y29.085 E.00896
G1 X47.686 Y28.507 E.00896
G1 X48.835 Y28.066 E.00896
G1 X50.029 Y27.766 E.00896
G1 X51.251 Y27.614 E.00896
G1 X68.277 Y27.559 E.12386
G1 X69.505 Y27.654 E.00896
G1 X70.573 Y27.862 E.00792
G1 X72.444 Y28.532 E.01446
G1 X73.523 Y29.125 E.00896
G1 X74.522 Y29.845 E.00896
G1 X75.426 Y30.68 E.00896
G1 X76.136 Y31.505 E.00792
G1 X76.692 Y32.333 E.00725
G1 X83.795 Y46.785 E.11714
G1 X84.148 Y47.717 E.00725
G1 X84.408 Y49.263 E.0114
G1 X85.894 Y80.428 E.22697
G1 X85.878 Y81.512 E.00789
G1 X85.728 Y82.725 E.00889
G1 X85.431 Y83.892 E.00876
G1 X84.989 Y85.001 E.00868
G1 X84.06 Y86.518 E.01294
G1 X82.839 Y87.817 E.01297
G1 X81.387 Y88.851 E.01297
G1 X80.599 Y89.247 E.00641
G1 X79.691 Y89.583 E.00705
G1 X78.39 Y89.885 E.00971
G1 X62.167 Y92.333 E.11935
G1 X59.476 Y92.442 E.01959
G1 X56.788 Y92.259 E.01959
G1 X41.325 Y89.868 E.11382
G1 X40.296 Y89.617 E.0077
G1 X39.128 Y89.159 E.00913
G1 X38.221 Y88.656 E.00755
G1 X37.228 Y87.918 E.009
G1 X36.49 Y87.201 E.00749
G1 X35.651 Y86.127 E.00991
G1 X34.98 Y84.927 E.01
G1 X34.523 Y83.732 E.0093
G1 X34.27 Y82.699 E.00774
G1 X34.113 Y81.372 E.00972
G1 X34.11 Y80.315 E.00769
G1 X35.6 Y49.258 E.22618
G1 X35.793 Y47.956 E.00957
G1 X36.255 Y46.666 E.00997
G1 X43.31 Y32.365 E.11599
G1 X43.852 Y31.56 E.00706
G1 X44 Y31.66 F21000
G1 F3000
G1 X44.004 Y31.654 E.00005
G1 X44.799 Y30.742 E.0088
G1 X45.698 Y29.933 E.0088
G1 X46.689 Y29.24 E.0088
G1 X47.756 Y28.672 E.0088
G1 X48.885 Y28.237 E.0088
G1 X50.058 Y27.942 E.0088
G1 X51.258 Y27.792 E.0088
G1 X68.27 Y27.737 E.12375
G1 X69.476 Y27.83 E.0088
G1 X70.534 Y28.036 E.00784
G1 X72.364 Y28.691 E.01415
G1 X73.424 Y29.274 E.0088
G1 X74.406 Y29.98 E.0088
G1 X75.294 Y30.801 E.0088
G1 X75.997 Y31.618 E.00784
G1 X76.532 Y32.411 E.00697
G1 X83.635 Y46.863 E.11714
G1 X83.975 Y47.762 E.00699
G1 X84.229 Y49.271 E.01113
G1 X85.716 Y80.431 E.22692
G1 X85.7 Y81.497 E.00775
G1 X85.553 Y82.688 E.00873
G1 X85.263 Y83.833 E.0086
G1 X84.83 Y84.92 E.00851
G1 X83.921 Y86.406 E.01268
G1 X82.725 Y87.679 E.0127
G1 X81.3 Y88.695 E.01273
G1 X80.526 Y89.084 E.0063
G1 X79.636 Y89.413 E.0069
G1 X78.363 Y89.709 E.00951
G1 X62.153 Y92.155 E.11925
G1 X59.481 Y92.263 E.01945
G1 X56.813 Y92.082 E.01945
G1 X41.353 Y89.692 E.1138
G1 X40.352 Y89.447 E.00749
G1 X39.202 Y88.997 E.00899
G1 X38.32 Y88.507 E.00734
G1 X37.342 Y87.78 E.00886
G1 X36.624 Y87.083 E.00729
G1 X35.801 Y86.031 E.00971
G1 X35.143 Y84.855 E.00981
G1 X34.693 Y83.677 E.00917
G1 X34.446 Y82.669 E.00755
G1 X34.291 Y81.359 E.0096
G1 X34.288 Y80.323 E.00753
G1 X35.779 Y49.266 E.22618
G1 X35.967 Y47.994 E.00935
G1 X36.418 Y46.74 E.00969
G1 X43.47 Y32.444 E.11596
G1 X43.987 Y31.678 E.00672
; printing object Panda_Keychain.stl id:0 copy 0
EXCLUDE_OBJECT_START NAME=Panda_Keychain.stl_id_0_copy_0
G1 E-.8
G1 Z.3 F21000
G1 X44.333 Y57.727 Z.1
G1 E.8 F1800
;TYPE:Outer wall
G1 F3000
G3 X42.635 Y56.745 I16.947 J-31.278 E.01428
G3 X38.743 Y52.574 I6.958 J-10.394 E.04186
G3 X38.192 Y48.488 I5.304 J-2.796 E.03062
G3 X41.006 Y45.696 I3.789 J1.006 E.03023
G3 X43.311 Y45.371 I2.213 J7.342 E.01701
G3 X46.778 Y38.651 I8.008 J-.122 E.05728
G1 X45.375 Y34.585 E.03129
G3 X45.51 Y33.459 I1.442 J-.398 E.00846
G3 X54.559 Y30.528 I6.382 J4.269 E.07461
G3 X56.129 Y31.317 I-5.819 J13.548 E.01279
G3 X58.564 Y33.936 I-3.522 J5.716 E.02634
G3 X58.721 Y34.372 I-2.328 J1.081 E.00337
G1 X58.894 Y35.061 E.00517
G3 X61.098 Y35.062 I1.084 J30.331 E.01604
G3 X61.436 Y33.9 I6.056 J1.134 E.00882
G3 X63.113 Y31.835 I5.766 J2.968 E.01949
G3 X64.39 Y30.994 I4.154 J4.918 E.01115
G1 X65.442 Y30.492 E.00848
G3 X68.637 Y30.032 I2.688 J7.35 E.02365
G3 X74.491 Y33.423 I-.544 J7.687 E.05095
G3 X74.597 Y34.641 I-1.339 J.73 E.00915
G1 X73.206 Y38.673 E.03103
G3 X76.658 Y45.039 I-3.503 J6.019 E.0554
G1 X76.657 Y45.472 E.00315
G3 X77.769 Y45.475 I.507 J19.886 E.00809
G3 X80.656 Y46.632 I-.426 J5.245 E.02297
G3 X81.959 Y49.746 I-2.614 J2.924 E.02539
G3 X80.827 Y53.247 I-7.167 J-.384 E.02707
G3 X77.212 Y56.843 I-9.83 J-6.265 E.0374
G1 X75.739 Y57.79 E.01274
G3 X79.621 Y75.104 I-15.469 J12.56 E.13377
G1 X79.912 Y74.975 E.00232
G3 X80.298 Y75.097 I.032 J.572 E.00301
G3 X81.903 Y76.558 I-5.253 J7.382 E.01583
G3 X83.438 Y80.471 I-4.24 J3.92 E.03129
G3 X82.386 Y84.632 I-7.135 J.41 E.03171
G3 X77.543 Y87.519 I-5.361 J-3.488 E.04247
G3 X73.967 Y86.975 I-.795 J-6.794 E.02663
G3 X73.283 Y86.555 I2.4 J-4.678 E.00584
G1 X72.568 Y86.003 E.00657
G3 X47.265 Y86.14 I-12.752 J-18.435 E.19558
G3 X46.835 Y86.542 I-.682 J-.3 E.0044
G3 X43.46 Y87.534 I-4.788 J-10.045 E.0257
G3 X36.861 Y82.973 I-.538 J-6.276 E.06326
G3 X36.826 Y78.716 I7.636 J-2.192 E.03135
G3 X38.188 Y76.463 I5.427 J1.744 E.01933
G3 X39.774 Y75.118 I6.05 J5.524 E.01517
G3 X40.26 Y74.993 I.406 J.574 E.00373
G3 X44.319 Y57.745 I19.57 J-4.496 E.1335
G1 X44.35 Y57.702
G1 X44.601 Y57.675 F21000
;TYPE:Inner wall
G1 F3000
G3 X42.731 Y56.595 I18.629 J-34.428 E.01571
G3 X38.901 Y52.491 I6.863 J-10.245 E.0412
G3 X38.365 Y48.532 I5.147 J-2.713 E.02967
G3 X41.057 Y45.868 I3.617 J.963 E.02889
G3 X43.486 Y45.549 I2.195 J7.33 E.01789
G3 X45.742 Y39.751 I7.988 J-.23 E.04649
G3 X46.99 Y38.717 I6.677 J6.783 E.01181
G1 X45.548 Y34.538 E.03216
G3 X45.665 Y33.55 I1.433 J-.331 E.00738
G3 X54.491 Y30.694 I6.227 J4.177 E.07276
G3 X56.035 Y31.468 I-5.721 J13.327 E.01257
G3 X58.402 Y34.01 I-3.429 J5.566 E.02557
G3 X58.549 Y34.42 I-2.19 J1.016 E.00317
G1 X58.755 Y35.243 E.00617
G3 X61.236 Y35.244 I1.222 J32.505 E.01805
G3 X61.514 Y34.182 I10.394 J2.151 E.00799
G3 X62.551 Y32.615 I4.653 J1.953 E.01375
G3 X64.469 Y31.154 I5.219 J4.864 E.01763
G1 X65.509 Y30.658 E.00838
G3 X68.624 Y30.21 I2.62 J7.177 E.02306
G3 X74.336 Y33.515 I-.531 J7.507 E.04969
G3 X74.426 Y34.588 I-1.181 J.64 E.00807
G1 X72.991 Y38.748 E.03201
G3 X76.479 Y45.038 I-3.325 J5.956 E.05511
G1 X76.479 Y45.651 E.00446
G3 X77.758 Y45.653 I.595 J22.879 E.00931
G3 X80.539 Y46.767 I-.414 J5.064 E.02212
G3 X81.781 Y49.742 I-2.497 J2.789 E.02425
G3 X80.675 Y53.153 I-6.988 J-.381 E.02638
G3 X77.114 Y56.694 I-9.679 J-6.173 E.03683
G1 X75.479 Y57.745 E.01414
G3 X79.63 Y74.235 I-15.238 J12.604 E.12787
G1 X79.37 Y75.41 E.00875
G1 X79.967 Y75.146 E.00475
G3 X80.601 Y75.539 I-.707 J1.845 E.00546
G3 X82.34 Y77.402 I-6.958 J8.236 E.01858
G3 X83.259 Y80.477 I-4.649 J3.066 E.02368
G3 X82.236 Y84.535 I-6.958 J.403 E.03092
G3 X77.525 Y87.341 I-5.21 J-3.39 E.04131
G3 X74.046 Y86.814 I-.777 J-6.617 E.02591
G3 X73.39 Y86.412 I2.29 J-4.466 E.0056
G1 X72.576 Y85.784 E.00748
G3 X47.197 Y85.884 I-12.762 J-18.239 E.19644
G1 X47.034 Y86.199 E.00258
G3 X45.78 Y86.793 I-2.517 J-3.694 E.01013
G3 X43.447 Y87.356 I-3.563 J-9.638 E.0175
G3 X37.032 Y82.922 I-.526 J-6.098 E.06151
G3 X36.997 Y78.768 I7.465 J-2.141 E.0306
G3 X38.318 Y76.585 I5.441 J1.805 E.01872
G3 X39.863 Y75.273 I5.922 J5.405 E.01479
G3 X40.085 Y75.17 I.418 J.613 E.00178
G1 X40.479 Y75.174 E.00287
G3 X44.587 Y57.692 I19.424 J-4.66 E.13549
G1 X44.869 Y57.622 F21000
G1 F3000
G3 X42.828 Y56.445 I20.309 J-37.575 E.01715
G3 X39.059 Y52.407 I6.768 J-10.096 E.04053
G3 X38.538 Y48.576 I4.99 J-2.629 E.02871
G3 X41.108 Y46.039 I3.445 J.919 E.02755
G3 X43.66 Y45.728 I2.196 J7.406 E.01879
G3 X44.15 Y42.568 I8.862 J-.244 E.02339
G3 X46.553 Y39.264 I7.201 J2.712 E.03008
G1 X47.201 Y38.782 E.00588
G1 X45.72 Y34.49 E.03303
G3 X45.819 Y33.641 I1.238 J-.286 E.00634
G3 X54.424 Y30.86 I6.073 J4.085 E.07091
G3 X55.94 Y31.62 I-5.623 J13.106 E.01234
G3 X58.239 Y34.084 I-3.336 J5.417 E.02481
G3 X58.377 Y34.468 I-2.052 J.952 E.00297
G1 X58.617 Y35.425 E.00718
G3 X61.374 Y35.427 I1.36 J34.801 E.02007
G3 X61.682 Y34.242 I11.587 J2.379 E.00891
G3 X62.682 Y32.736 I4.486 J1.894 E.01322
G3 X64.549 Y31.314 I5.082 J4.735 E.01716
G1 X65.576 Y30.823 E.00828
G3 X68.612 Y30.389 I2.552 J7.005 E.02247
G3 X74.182 Y33.606 I-.517 J7.327 E.04843
G3 X74.256 Y34.535 I-1.024 J.549 E.00698
G1 X72.776 Y38.823 E.033
G3 X74.963 Y40.691 I-3.719 J6.568 E.02105
G3 X76.301 Y45.036 I-5.286 J4.005 E.03375
G1 X76.3 Y45.83 E.00577
G3 X77.747 Y45.832 I.683 J25.869 E.01053
G3 X80.422 Y46.902 I-.401 J4.882 E.02127
G3 X81.602 Y49.739 I-2.38 J2.654 E.02311
G3 X80.523 Y53.06 I-6.808 J-.377 E.02569
G3 X77.016 Y56.545 I-9.528 J-6.081 E.03626
G1 X75.218 Y57.7 E.01554
G3 X78.217 Y62.545 I-15.909 J13.199 E.04158
G3 X79.455 Y74.2 I-17.942 J7.799 E.08659
G1 X79.119 Y75.715 E.01129
G1 X79.979 Y75.336 E.00684
G3 X81.002 Y76.144 I-2.128 J3.744 E.00952
G3 X82.597 Y78.221 I-4.651 J5.223 E.01916
G3 X83.086 Y80.824 I-5.64 J2.408 E.01942
G3 X81.857 Y84.767 I-6.53 J.127 E.03057
G3 X77.507 Y87.164 I-4.816 J-3.593 E.03725
G3 X74.124 Y86.654 I-.759 J-6.44 E.02519
G3 X73.497 Y86.269 I2.181 J-4.255 E.00535
G1 X72.584 Y85.565 E.00839
G3 X48.22 Y86.331 I-12.761 J-18.011 E.18785
G1 X47.129 Y85.628 E.00944
G1 X46.89 Y86.088 E.00377
G3 X45.427 Y86.724 I-3.164 J-5.276 E.01164
G3 X43.091 Y87.196 I-2.778 J-7.741 E.0174
G3 X37.203 Y82.871 I-.18 J-5.926 E.05726
G3 X37.168 Y78.819 I7.294 J-2.09 E.02984
G3 X38.449 Y76.708 I5.261 J1.747 E.01812
G3 X40.085 Y75.358 I5.297 J4.756 E.01548
G1 X40.699 Y75.355 E.00447
G3 X40.106 Y70.39 I21.526 J-5.088 E.03645
G3 X44.064 Y58.65 I19.744 J.121 E.09167
G1 X44.856 Y57.64 E.00934
G1 E-.8
G1 Z.3 F21000
G1 X42.277 Y81.285 Z.1
G1 E.8 F1800
;TYPE:Outer wall
G1 F3000
G1 X42.278 Y81.287 E.00001
G3 X40.341 Y80.451 I-1.8 J1.508 E.09141
G1 X40.614 Y80.451 E.00199
G3 X42.09 Y81.088 I-.137 J2.344 E.01193
G1 X42.261 Y81.269 E.00181
G1 X42.277 Y81.285
G1 X42.421 Y81.179 F21000
;TYPE:Inner wall
G1 F3000
G1 X42.59 Y81.408 E.00207
G3 X40.331 Y80.273 I-2.112 J1.387 E.09623
G1 X40.625 Y80.273 E.00214
G3 X42.406 Y81.162 I-.147 J2.523 E.01489
G1 X42.539 Y81.043 F21000
G1 F3000
G1 X42.552 Y81.057 E.00014
G3 X40.32 Y80.094 I-2.074 J1.738 E.10533
G1 X40.635 Y80.094 E.00229
G3 X42.336 Y80.828 I-.157 J2.701 E.01375
G1 X42.524 Y81.027 E.00199
G1 E-.8
G1 Z.3 F21000
G1 X41.737 Y80.616 Z.1
G1 X41.475 Y80.485
G1 X41.2 Y80.385
G1 X40.915 Y80.317
G1 X40.624 Y80.283
G1 X40.331 Y80.283
G1 X40.041 Y80.317
G1 X39.755 Y80.385
G1 X39.474 Y80.488
G1 X39.219 Y80.616
G1 X38.974 Y80.777
G1 X38.75 Y80.966
G1 X38.549 Y81.179
G1 X38.374 Y81.413
G1 X38.227 Y81.667
G1 X38.111 Y81.936
G1 X37.609 Y83.382
G1 E.8 F1800
;TYPE:Gap infill
;WIDTH:0.228595
G1 F3000
G1 X37.725 Y83.699 E.00285
;WIDTH:0.195489
G2 X38.265 Y84.648 I3.739 J-1.502 E.00776
G1 X38.351 Y84.753 E.00097
;WIDTH:0.245674
G2 X38.684 Y85.105 I2.746 J-2.262 E.00443
G1 E-.8
G1 Z.3 F21000
G1 X40.041 Y85.277 Z.1
G1 X40.331 Y85.311
G1 X40.624 Y85.311
G1 X40.915 Y85.277
G1 X41.2 Y85.21
G1 X41.475 Y85.11
G1 X41.737 Y84.978
G1 X41.982 Y84.817
G1 X42.206 Y84.629
G1 X79.766 Y46.511
G1 E.8 F1800
;TYPE:Bottom surface
;WIDTH:0.200036
G1 F6300
G1 X80.9 Y47.644 E.01166
M73 P1 R47
G3 X81.185 Y48.181 I-3.77 J2.343 E.00443
G1 X79.438 Y46.434 E.01798
G2 X79.015 Y46.264 I-1.079 J2.067 E.00332
G1 X81.325 Y48.574 E.02377
G3 X81.401 Y48.903 I-1.914 J.614 E.00245
G1 X78.646 Y46.148 E.02835
G1 X78.313 Y46.067 E.00249
G1 X81.443 Y49.198 E.03221
G3 X81.464 Y49.471 I-1.777 J.271 E.00199
G1 X77.988 Y45.995 E.03577
G1 X77.708 Y45.968 E.00204
G1 X81.468 Y49.728 E.03868
G3 X81.455 Y49.967 I-1.659 J.031 E.00175
G1 X77.451 Y45.963 E.0412
G1 X77.199 Y45.963 E.00184
G1 X81.43 Y50.194 E.04354
G1 X81.395 Y50.412 E.00161
G1 X76.946 Y45.963 E.04578
G1 X76.694 Y45.963 E.00184
G1 X81.36 Y50.63 E.04802
G3 X81.32 Y50.843 I-1.142 J-.106 E.00157
G1 X76.361 Y45.883 E.05103
G1 E-.8 F3000
G1 Z.3 F21000
G1 X75.304 Y41.291 Z.1
G1 E.8 F1800
G1 F6300
G1 X73.118 Y39.104 E.0225
G1 E-.8 F3000
G1 Z.3 F21000
G1 X73.946 Y33.366 Z.1
G1 E.8 F1800
G1 F6300
G2 X72.617 Y32.095 I-12.608 J11.846 E.01338
G2 X71.939 Y31.612 I-4.308 J5.331 E.00606
G1 X74.11 Y33.783 E.02234
G3 X74.179 Y34.104 I-.632 J.304 E.00242
G1 X71.361 Y31.287 E.02899
G2 X70.89 Y31.068 I-2.027 J3.757 E.00378
G1 X74.168 Y34.346 E.03372
G3 X74.105 Y34.536 I-.558 J-.079 E.00146
G1 X70.48 Y30.911 E.0373
G2 X70.109 Y30.792 I-1.158 J2.988 E.00283
G1 X74.04 Y34.724 E.04045
G1 X73.976 Y34.912 E.00145
G1 X69.766 Y30.702 E.04332
G2 X69.443 Y30.631 I-.743 J2.62 E.00241
G1 X73.911 Y35.1 E.04598
G1 X73.847 Y35.288 E.00145
G1 X69.141 Y30.582 E.04842
G2 X68.854 Y30.547 I-.419 J2.284 E.0021
G1 X73.782 Y35.476 E.05071
G1 X73.718 Y35.664 E.00145
G1 X68.575 Y30.521 E.05292
G1 X68.312 Y30.511 E.00192
G1 X73.653 Y35.852 E.05496
G1 X73.589 Y36.04 E.00145
G1 X68.057 Y30.508 E.05692
G1 X67.809 Y30.513 E.0018
G1 X73.524 Y36.228 E.05881
G1 X73.46 Y36.416 E.00145
G1 X67.572 Y30.528 E.06058
G1 X67.339 Y30.547 E.0017
G1 X73.395 Y36.604 E.06232
G1 X73.331 Y36.792 E.00145
G1 X67.116 Y30.577 E.06395
G1 X66.895 Y30.609 E.00162
G1 X73.267 Y36.98 E.06556
G1 X73.202 Y37.168 E.00145
G1 X66.685 Y30.651 E.06706
G1 X66.475 Y30.694 E.00156
G1 X73.138 Y37.356 E.06855
G1 X73.073 Y37.544 E.00145
G1 X66.275 Y30.746 E.06995
G1 X66.076 Y30.8 E.0015
G1 X73.009 Y37.732 E.07133
G1 X72.944 Y37.921 E.00145
G1 X65.885 Y30.861 E.07264
G1 X65.696 Y30.925 E.00145
G1 X72.88 Y38.109 E.07392
G1 X72.815 Y38.297 E.00145
G1 X65.518 Y31 E.07508
G1 X65.347 Y31.081 E.00138
G1 X72.751 Y38.485 E.07618
G1 X72.686 Y38.673 E.00145
