; generated by SuperSlicer 2.5.59 on 2023-07-13 at 20:01:31 UTC


;
;

;
;
; 

; external perimeters extrusion width = 0.15mm
; perimeters extrusion width = 0.17mm
; infill extrusion width = 0.24mm
; solid infill extrusion width = 0.21mm
; top infill extrusion width = 0.15mm
; first layer extrusion width = 0.19mm

; object:{"name":"Panda_Keychain","id":"Panda_Keychain.stl id:0 copy 0","object_center":[59.999947,59.999977,0.000000],"boundingbox_center":[59.999947,59.999977,1.000000],"boundingbox_size":[47.087435,60.171751,2.000000]}
EXCLUDE_OBJECT_DEFINE NAME=Panda_Keychain_stl_id_0_copy_0 CENTER=59.999947,59.999977 POLYGON=[[36.456232,80.826640],[36.463876,80.427936],[37.954736,49.370804],[37.983384,49.059644],[38.030044,48.756540],[38.094704,48.462788],[38.177360,48.179704],[38.278008,47.908576],[38.396636,47.650720],[45.423636,33.408280],[45.697944,33.023366],[45.995116,32.655822],[46.314072,32.307010],[46.653624,31.978218],[47.012520,31.670658],[47.389444,31.385468],[47.782980,31.123698],[48.191704,30.886314],[48.614084,30.674198],[49.048576,30.488130],[49.493560,30.328798],[49.947404,30.196790],[50.408432,30.092594],[50.874932,30.016594],[51.345192,29.969072],[51.817468,29.950202],[68.183160,29.914102],[68.655440,29.932972],[69.125696,29.980496],[69.592192,30.056494],[70.053224,30.160690],[70.507064,30.292700],[70.952056,30.452030],[71.386544,30.638100],[71.808928,30.850216],[72.217640,31.087596],[72.611192,31.349368],[72.988104,31.634560],[73.347000,31.942120],[73.686552,32.270912],[74.005512,32.619724],[74.302688,32.987266],[74.576992,33.372178],[81.679496,47.824272],[81.749448,47.984580],[81.812224,48.148240],[81.867848,48.315096],[81.957784,48.657828],[82.019520,49.011616],[82.053312,49.375288],[83.537640,80.467624],[83.543664,80.826648],[83.530000,81.308680],[83.489216,81.778704],[83.421608,82.236168],[83.327488,82.680528],[83.207152,83.111240],[83.060896,83.527752],[82.889048,83.929520],[82.691880,84.315992],[82.469712,84.686632],[82.222840,85.040888],[81.951576,85.378208],[81.656216,85.698048],[81.337064,85.999864],[80.994424,86.283112],[80.628592,86.547240],[80.239880,86.791704],[80.042088,86.901856],[79.837864,87.004480],[79.627696,87.099576],[79.412104,87.187168],[79.191592,87.267248],[78.966656,87.339840],[78.737816,87.404952],[78.505568,87.462600],[78.270424,87.512784],[78.032880,87.555544],[63.594024,89.767992],[62.790200,89.890048],[61.982492,89.982960],[61.171952,90.046616],[60.359636,90.080928],[59.546616,90.085856],[58.733948,90.061384],[57.922696,90.007568],[57.113920,89.924456],[56.308676,89.812160],[42.040892,87.596008],[41.699448,87.541032],[41.364876,87.468672],[41.037604,87.379368],[40.718056,87.273488],[40.406640,87.151472],[40.103784,87.013720],[39.809908,86.860640],[39.525420,86.692624],[39.250764,86.510104],[38.986336,86.313480],[38.732568,86.103152],[38.489884,85.879520],[38.258688,85.643024],[38.039420,85.394024],[37.832488,85.132984],[37.638312,84.860272],[37.457312,84.576312],[37.289916,84.281496],[37.136536,83.976248],[36.997596,83.660976],[36.873512,83.336072],[36.764700,83.001968],[36.671592,82.659040],[36.594604,82.307728],[36.534156,81.948424],[36.490660,81.581528],[36.464548,81.207472],[36.456232,80.826640]]
; plater:{"center":[59.999947,59.999977,0.000000],"boundingbox_center":[59.999947,59.999977,1.000000],"boundingbox_size":[47.087435,60.171751,2.000000]}

M73 P0 R40
M73 P0 R40
;TYPE:Custom
; custom gcode: start_gcode
START_PRINT T_BED=60 T_EXTRUDER=210
; custom gcode end: start_gcode
M107
G21 ; set units to millimeters
G90 ; use absolute coordinates
M82 ; use absolute distances for extrusion
G92 E0
; custom gcode: start_filament_gcode
; Filament gcode

    PRESSURE_ADVANCE_SELECT FILAMENT=PLA
; custom gcode end: start_filament_gcode
;_TOOLCHANGE 0
M109 S210 ; set temperature and wait for it to be reached
M190 S60 ; set bed temperature and wait for it to be reached
;LAYER_CHANGE
;Z:0.1
;HEIGHT:0.1
G1 Z0.1 F12000
M73 P0 R40
G1 E-0.8 F2400
M204 S2000
G1 X43.061 Y31.284 F12000
G1 E0 F1800
;TYPE:Skirt
;WIDTH:0.195
G1 X42.855 Y31.567 E0.00253
G1 X42.586 Y32.017 E0.00631
G1 X35.563 Y46.252 E0.12083
G1 X35.26 Y46.965 E0.12642
G1 X35.062 Y47.572 E0.13103
G1 X34.878 Y48.474 E0.13767
G1 X34.829 Y48.869 E0.14054
G1 X33.329 Y79.899 E0.36468
G1 X33.297 Y80.899 E0.3719
G1 X33.318 Y81.507 E0.37629
G1 X33.477 Y82.828 E0.3859
G1 X33.694 Y83.75 E0.39273
G1 X33.867 Y84.311 E0.39696
G1 X34.212 Y85.174 E0.40366
G1 X34.464 Y85.697 E0.40786
G1 X35.066 Y86.696 E0.41627
G1 X35.83 Y87.666 E0.42518
G1 X36.785 Y88.592 E0.43477
G1 X37.577 Y89.191 E0.44194
G1 X38.353 Y89.665 E0.4485
G1 X38.877 Y89.926 E0.45272
G1 X40.04 Y90.378 E0.46173
G1 X41.217 Y90.664 E0.47047
G1 X56.676 Y93.054 E0.58332
M73 P0 R40
G1 X57.715 Y93.161 E0.59087
G1 X59.45 Y93.245 E0.60339
G1 X61.304 Y93.204 E0.61677
G1 X62.345 Y93.122 E0.62431
G1 X63.266 Y93.014 E0.631
G1 X78.51 Y90.68 E0.74226
G1 X79.393 Y90.497 E0.74877
G1 X80.378 Y90.196 E0.7562
G1 X81.34 Y89.783 E0.76376
G1 X82.26 Y89.254 E0.77142
G1 X82.842 Y88.847 E0.77654
G1 X83.511 Y88.294 E0.7828
G1 X84.271 Y87.525 E0.7906
G1 X84.818 Y86.845 E0.7969
G1 X85.401 Y85.944 E0.80464
G1 X85.796 Y85.169 E0.81091
G1 X86.188 Y84.161 E0.81872
G1 X86.37 Y83.534 E0.82343
G1 X86.513 Y82.894 E0.82816
G1 X86.638 Y82.049 E0.83432
G1 X86.689 Y81.395 E0.83905
G1 X86.702 Y80.714 E0.84397
G1 X85.21 Y49.225 E1.07141
G1 X85.132 Y48.464 E1.07693
G1 X84.926 Y47.517 E1.08393
G1 X84.726 Y46.923 E1.08845
G1 X84.44 Y46.276 E1.09356
G1 X77.415 Y31.983 E1.20846
G1 X77.144 Y31.529 E1.21228
G1 X76.758 Y30.998 E1.21701
G1 X76.021 Y30.141 E1.22517
G1 X75.548 Y29.674 E1.22997
G1 X75.047 Y29.237 E1.23476
G1 X74.52 Y28.831 E1.23956
G1 X73.97 Y28.458 E1.24435
G1 X73.224 Y28.025 E1.25058
G1 X72.628 Y27.732 E1.25537
G1 X72.015 Y27.476 E1.26017
G1 X71.387 Y27.257 E1.26496
G1 X70.747 Y27.077 E1.26976
G1 X70.097 Y26.937 E1.27455
G1 X69.44 Y26.836 E1.27935
G1 X68.312 Y26.756 E1.28751
G1 X51.811 Y26.79 E1.40656
G1 X51.024 Y26.825 E1.41224
G1 X50.364 Y26.898 E1.41704
G1 X49.709 Y27.011 E1.42184
G1 X49.062 Y27.163 E1.42663
G1 X48.425 Y27.354 E1.43143
G1 X47.373 Y27.768 E1.43959
G1 X46.776 Y28.061 E1.44438
G1 X46.198 Y28.389 E1.44918
G1 X45.642 Y28.752 E1.45397
G1 X45.108 Y29.149 E1.45877
G1 X44.6 Y29.577 E1.46356
G1 X44.118 Y30.035 E1.46836
G1 X43.665 Y30.521 E1.47315
G1 X43.242 Y31.034 E1.47795
G1 X43.061 Y31.284 E1.48018
G1 X43.201 Y31.386 F12000
G1 F1800
G1 X42.996 Y31.668 E1.48269
G1 X42.742 Y32.093 E1.48627
G1 X35.719 Y46.329 E1.6008
G1 X35.42 Y47.031 E1.6063
G1 X35.229 Y47.621 E1.61078
G1 X35.048 Y48.506 E1.61729
G1 X35.002 Y48.88 E1.62001
G1 X33.502 Y79.907 E1.84413
G1 X33.47 Y80.895 E1.85126
G1 X33.491 Y81.49 E1.85556
G1 X33.649 Y82.8 E1.86508
G1 X33.863 Y83.709 E1.87182
G1 X34.032 Y84.257 E1.87596
G1 X34.372 Y85.108 E1.88257
G1 X34.619 Y85.619 E1.88666
G1 X35.207 Y86.596 E1.89489
G1 X35.963 Y87.554 E1.9037
G1 X36.892 Y88.455 E1.91303
G1 X37.669 Y89.044 E1.92006
G1 X38.434 Y89.511 E1.92653
G1 X38.944 Y89.766 E1.93065
G1 X40.094 Y90.213 E1.93955
G1 X41.244 Y90.493 E1.94809
G1 X56.7 Y92.882 E2.06092
G1 X57.727 Y92.988 E2.06837
G1 X59.567 Y93.073 E2.08166
G1 X61.296 Y93.031 E2.09414
G1 X62.326 Y92.95 E2.10159
G1 X63.24 Y92.843 E2.10824
G1 X78.483 Y90.508 E2.2195
G1 X79.357 Y90.327 E2.22593
G1 X80.325 Y90.031 E2.23324
G1 X81.269 Y89.625 E2.24065
G1 X82.17 Y89.105 E2.24816
G1 X82.74 Y88.707 E2.25318
G1 X83.392 Y88.168 E2.25928
G1 X84.144 Y87.407 E2.26699
G1 X84.675 Y86.746 E2.27312
G1 X85.252 Y85.855 E2.28078
G1 X85.636 Y85.101 E2.28688
G1 X86.024 Y84.104 E2.2946
G1 X86.203 Y83.487 E2.29923
G1 X86.343 Y82.858 E2.30388
G1 X86.465 Y82.034 E2.30989
G1 X86.529 Y80.72 E2.31938
G1 X85.037 Y49.234 E2.54681
G1 X84.961 Y48.494 E2.55217
G1 X84.758 Y47.561 E2.55906
G1 X84.563 Y46.982 E2.56347
G1 X84.284 Y46.352 E2.56844
G1 X77.259 Y32.059 E2.68335
G1 X77.003 Y31.629 E2.68696
G1 X76.623 Y31.107 E2.69162
G1 X76.208 Y30.602 E2.69633
G1 X75.762 Y30.123 E2.70105
G1 X74.934 Y29.369 E2.70914
G1 X74.263 Y28.861 E2.71521
G1 X73.715 Y28.503 E2.71993
G1 X73.147 Y28.18 E2.72465
G1 X72.56 Y27.891 E2.72937
G1 X71.956 Y27.639 E2.73409
G1 X71.338 Y27.424 E2.73881
G1 X70.709 Y27.247 E2.74352
G1 X70.069 Y27.108 E2.74824
G1 X69.423 Y27.009 E2.75296
G1 X68.305 Y26.93 E2.76105
G1 X51.812 Y26.963 E2.88005
G1 X51.042 Y26.998 E2.88561
G1 X49.931 Y27.144 E2.89369
G1 X49.292 Y27.283 E2.89841
G1 X48.662 Y27.46 E2.90313
G1 X48.045 Y27.675 E2.90785
G1 X47.441 Y27.927 E2.91257
G1 X46.854 Y28.216 E2.91729
G1 X46.286 Y28.539 E2.92201
G1 X45.738 Y28.897 E2.92673
G1 X45.213 Y29.287 E2.93144
G1 X44.712 Y29.708 E2.93616
G1 X44.239 Y30.159 E2.94088
G1 X43.793 Y30.638 E2.9456
G1 X43.377 Y31.143 E2.95032
G1 X43.201 Y31.386 E2.95248
G92 E0
G1 E-0.8 F2400
; printing object Panda_Keychain.stl id:0 copy 0
EXCLUDE_OBJECT_START NAME=Panda_Keychain_stl_id_0_copy_0
G1 X37.536 Y82.769 F12000
G1 E0 F1800
;TYPE:Internal perimeter
;WIDTH:0.1875
G1 X37.555 Y82.456 E0.00217
G1 X37.614 Y82.119 E0.00453
G1 X37.712 Y81.791 E0.00689
G1 X37.848 Y81.477 E0.00926
G1 X38.019 Y81.18 E0.01162
G1 X38.223 Y80.906 E0.01398
G1 X38.458 Y80.657 E0.01634
G1 X38.72 Y80.437 E0.01871
G1 X39.006 Y80.249 E0.02107
G1 X39.312 Y80.095 E0.02343
G1 X39.634 Y79.978 E0.02579
G1 X39.967 Y79.899 E0.02816
G1 X40.224 Y79.869 E0.02995
G1 X40.234 Y80.035 E0.03109
G1 X39.996 Y80.063 E0.03275
G1 X39.681 Y80.137 E0.03498
G1 X39.378 Y80.248 E0.03721
G1 X39.089 Y80.393 E0.03944
G1 X38.82 Y80.57 E0.04167
G1 X38.572 Y80.778 E0.04389
G1 X38.351 Y81.013 E0.04612
G1 X38.158 Y81.272 E0.04835
G1 X37.996 Y81.551 E0.05058
G1 X37.869 Y81.848 E0.05281
G1 X37.776 Y82.157 E0.05504
G1 X37.72 Y82.475 E0.05727
G1 X37.701 Y82.797 E0.0595
G1 X37.72 Y83.12 E0.06173
G1 X37.776 Y83.438 E0.06396
G1 X37.869 Y83.747 E0.06619
G1 X37.996 Y84.044 E0.06841
G1 X38.158 Y84.323 E0.07064
G1 X38.351 Y84.582 E0.07287
G1 X38.572 Y84.817 E0.0751
G1 X38.82 Y85.025 E0.07733
G1 X39.089 Y85.202 E0.07956
G1 X39.378 Y85.347 E0.08179
G1 X39.681 Y85.457 E0.08402
G1 X39.996 Y85.532 E0.08625
G1 X40.316 Y85.569 E0.08848
G1 X40.639 Y85.569 E0.0907
G1 X40.96 Y85.532 E0.09293
G1 X41.274 Y85.457 E0.09516
G1 X41.578 Y85.347 E0.09739
G1 X41.866 Y85.202 E0.09962
G1 X42.136 Y85.025 E0.10185
G1 X42.383 Y84.817 E0.10408
G1 X42.605 Y84.582 E0.10631
G1 X42.798 Y84.323 E0.10854
G1 X42.959 Y84.044 E0.11077
G1 X43.087 Y83.747 E0.113
G1 X43.18 Y83.438 E0.11522
G1 X43.236 Y83.12 E0.11745
G1 X43.255 Y82.797 E0.11968
G1 X43.236 Y82.475 E0.12191
G1 X43.18 Y82.157 E0.12414
G1 X43.087 Y81.848 E0.12637
G1 X42.959 Y81.551 E0.1286
G1 X42.798 Y81.272 E0.13083
G1 X42.605 Y81.013 E0.13306
G1 X42.383 Y80.778 E0.13529
G1 X42.136 Y80.57 E0.13751
G1 X41.866 Y80.393 E0.13974
G1 X41.578 Y80.248 E0.14197
G1 X41.274 Y80.137 E0.1442
G1 X40.96 Y80.063 E0.14643
G1 X40.722 Y80.035 E0.14809
G1 X40.712 Y80.201 E0.14924
G1 X40.931 Y80.227 E0.15076
G1 X41.226 Y80.297 E0.15285
G1 X41.512 Y80.4 E0.15495
G1 X41.783 Y80.537 E0.15704
G1 X42.037 Y80.703 E0.15914
G1 X42.269 Y80.899 E0.16124
G1 X42.478 Y81.119 E0.16333
G1 X42.659 Y81.363 E0.16543
G1 X42.811 Y81.626 E0.16752
G1 X42.931 Y81.905 E0.16962
G1 X43.018 Y82.195 E0.17171
G1 X43.071 Y82.494 E0.17381
G1 X43.088 Y82.797 E0.1759
G1 X43.071 Y83.1 E0.178
G1 X43.018 Y83.399 E0.18009
G1 X42.931 Y83.69 E0.18219
G1 X42.811 Y83.969 E0.18429
G1 X42.659 Y84.232 E0.18638
G1 X42.478 Y84.475 E0.18848
G1 X42.269 Y84.696 E0.19057
G1 X42.037 Y84.891 E0.19267
G1 X41.783 Y85.058 E0.19476
G1 X41.512 Y85.194 E0.19686
G1 X41.226 Y85.298 E0.19895
G1 X40.931 Y85.368 E0.20105
G1 X40.712 Y85.394 E0.20257
G1 X40.702 Y85.228 E0.20372
;TYPE:External perimeter
G1 X40.902 Y85.204 E0.20511
G1 X41.179 Y85.139 E0.20707
G1 X41.446 Y85.042 E0.20903
G1 X41.7 Y84.914 E0.211
G1 X41.937 Y84.758 E0.21296
G1 X42.155 Y84.575 E0.21492
G1 X42.35 Y84.368 E0.21688
G1 X42.52 Y84.14 E0.21884
G1 X42.662 Y83.894 E0.22081
G1 X42.775 Y83.633 E0.22277
G1 X42.856 Y83.361 E0.22473
G1 X42.905 Y83.081 E0.22669
G1 X42.922 Y82.797 E0.22865
G1 X42.905 Y82.514 E0.23062
G1 X42.856 Y82.234 E0.23258
G1 X42.775 Y81.961 E0.23454
G1 X42.662 Y81.7 E0.2365
G1 X42.52 Y81.454 E0.23846
G1 X42.35 Y81.226 E0.24043
G1 X42.155 Y81.02 E0.24239
G1 X41.937 Y80.837 E0.24435
G1 X41.7 Y80.681 E0.24631
G1 X41.446 Y80.553 E0.24827
G1 X41.179 Y80.456 E0.25024
G1 X40.902 Y80.39 E0.2522
G1 X40.62 Y80.357 E0.25416
G1 X40.336 Y80.357 E0.25612
G1 X40.053 Y80.39 E0.25808
G1 X39.777 Y80.456 E0.26005
G1 X39.51 Y80.553 E0.26201
G1 X39.256 Y80.681 E0.26397
G1 X39.018 Y80.837 E0.26593
G1 X38.801 Y81.02 E0.26789
G1 X38.606 Y81.226 E0.26986
G1 X38.436 Y81.454 E0.27182
G1 X38.294 Y81.7 E0.27378
G1 X38.181 Y81.961 E0.27574
G1 X38.1 Y82.234 E0.2777
G1 X38.05 Y82.514 E0.27967
G1 X38.034 Y82.797 E0.28163
G1 X38.05 Y83.081 E0.28359
G1 X38.1 Y83.361 E0.28555
G1 X38.181 Y83.633 E0.28751
G1 X38.294 Y83.894 E0.28948
G1 X38.436 Y84.14 E0.29144
G1 X38.606 Y84.368 E0.2934
G1 X38.801 Y84.575 E0.29536
G1 X39.018 Y84.758 E0.29732
G1 X39.256 Y84.914 E0.29929
G1 X39.51 Y85.042 E0.30125
G1 X39.777 Y85.139 E0.30321
G1 X40.053 Y85.204 E0.30517
G1 X40.336 Y85.237 E0.30713
G1 X40.537 Y85.237 E0.30852
;TYPE:Internal perimeter
G1 X40.547 Y85.403 E0.30967
G1 X40.326 Y85.403 E0.31119
G1 X40.025 Y85.368 E0.31329
G1 X39.729 Y85.298 E0.31539
G1 X39.444 Y85.194 E0.31748
G1 X39.173 Y85.058 E0.31958
G1 X38.919 Y84.891 E0.32167
G1 X38.686 Y84.696 E0.32377
G1 X38.478 Y84.475 E0.32586
G1 X38.297 Y84.232 E0.32796
G1 X38.145 Y83.969 E0.33005
G1 X38.025 Y83.69 E0.33215
G1 X37.938 Y83.399 E0.33424
G1 X37.885 Y83.1 E0.33634
G1 X37.867 Y82.797 E0.33844
G1 X37.885 Y82.494 E0.34053
G1 X37.938 Y82.195 E0.34263
G1 X38.025 Y81.905 E0.34472
G1 X38.145 Y81.626 E0.34682
G1 X38.297 Y81.363 E0.34891
G1 X38.478 Y81.119 E0.35101
G1 X38.686 Y80.899 E0.3531
G1 X38.919 Y80.703 E0.3552
G1 X39.173 Y80.537 E0.3573
G1 X39.444 Y80.4 E0.35939
G1 X39.729 Y80.297 E0.36149
G1 X40.025 Y80.227 E0.36358
G1 X40.326 Y80.191 E0.36568
G1 X40.547 Y80.191 E0.3672
G1 X40.556 Y80.025 E0.36835
G1 X40.399 Y80.025 E0.36943
G1 X40.39 Y79.859 E0.37058
G1 X40.649 Y79.859 E0.37237
G1 X40.989 Y79.899 E0.37473
G1 X41.322 Y79.978 E0.37709
G1 X41.643 Y80.095 E0.37946
G1 X41.949 Y80.249 E0.38182
G1 X42.235 Y80.437 E0.38418
G1 X42.497 Y80.657 E0.38654
G1 X42.732 Y80.906 E0.38891
G1 X42.937 Y81.18 E0.39127
G1 X43.108 Y81.477 E0.39363
G1 X43.243 Y81.791 E0.39599
G1 X43.342 Y82.119 E0.39836
G1 X43.401 Y82.456 E0.40072
G1 X43.421 Y82.797 E0.40308
G1 X43.401 Y83.139 E0.40544
G1 X43.342 Y83.476 E0.40781
G1 X43.243 Y83.804 E0.41017
G1 X43.108 Y84.118 E0.41253
G1 X42.937 Y84.415 E0.41489
G1 X42.732 Y84.689 E0.41726
G1 X42.497 Y84.938 E0.41962
G1 X42.235 Y85.158 E0.42198
G1 X41.949 Y85.346 E0.42435
G1 X41.644 Y85.5 E0.42671
G1 X41.322 Y85.617 E0.42907
G1 X40.989 Y85.696 E0.43143
G1 X40.649 Y85.735 E0.4338
G1 X40.307 Y85.735 E0.43616
G1 X39.967 Y85.696 E0.43852
G1 X39.634 Y85.617 E0.44088
G1 X39.217 Y85.452 E0.44398
G1 X39.153 Y85.553 E0.4448
G1 X39.649 Y85.943 E0.44916
G1 X40.154 Y86.26 E0.45328
G1 X40.399 Y86.387 E0.45518
G1 X40.962 Y86.625 E0.4594
G1 X41.229 Y86.714 E0.46134
G1 X41.828 Y86.86 E0.4656
G1 X42.453 Y86.944 E0.46995
G1 X42.756 Y86.96 E0.47205
G1 X43.526 Y86.933 E0.47737
G1 X43.885 Y86.881 E0.47987
G1 X44.454 Y86.759 E0.48389
G1 X45.056 Y86.594 E0.4882
G1 X45.641 Y86.403 E0.49245
G1 X46.159 Y86.204 E0.49628
G1 X46.549 Y86.022 E0.49924
G1 X46.705 Y85.923 E0.50052
G1 X47.044 Y85.294 E0.50545
G1 X48.343 Y86.131 E0.51613
G1 X49.021 Y86.534 E0.52157
G1 X49.712 Y86.912 E0.52701
G1 X50.417 Y87.264 E0.53245
G1 X51.134 Y87.591 E0.53789
G1 X51.862 Y87.892 E0.54333
G1 X52.601 Y88.166 E0.54877
G1 X53.349 Y88.414 E0.55421
G1 X54.106 Y88.634 E0.55965
G1 X54.87 Y88.827 E0.56509
G1 X55.641 Y88.992 E0.57053
G1 X56.417 Y89.129 E0.57596
G1 X57.197 Y89.237 E0.58141
G1 X57.981 Y89.318 E0.58684
G1 X58.767 Y89.37 E0.59228
G1 X59.555 Y89.394 E0.59772
G1 X60.343 Y89.389 E0.60316
G1 X61.13 Y89.356 E0.6086
G1 X61.916 Y89.294 E0.61404
G1 X62.699 Y89.204 E0.61948
G1 X63.478 Y89.086 E0.62492
G1 X64.252 Y88.939 E0.63036
G1 X65.021 Y88.765 E0.6358
G1 X65.782 Y88.563 E0.64124
G1 X66.536 Y88.334 E0.64668
G1 X67.281 Y88.077 E0.65212
