; HEADER_BLOCK_START
; generated by OrcaSlicer 1.6.6 on 2023-08-25 at 18:33:16
; total layer number: 37
; HEADER_BLOCK_END

; THUMBNAIL_BLOCK_START
; THUMBNAIL_BLOCK_END

; external perimeters extrusion width = 0.15mm
; perimeters extrusion width = 0.17mm
; infill extrusion width = 0.24mm
; solid infill extrusion width = 0.21mm
; top infill extrusion width = 0.15mm
; first layer extrusion width = 0.19mm

; EXECUTABLE_BLOCK_START
EXCLUDE_OBJECT_DEFINE NAME=Pegboard_hook_v1.stl_id_0_copy_0 CENTER=60,60 POLYGON=[[48.7606,47.7437],[48.7646,47.5997],[48.7795,47.4564],[48.8049,47.3161],[48.8407,47.178],[48.8868,47.0431],[48.9429,46.912],[49.0087,46.7855],[49.0838,46.6642],[49.1677,46.5489],[49.26,46.4402],[49.3127,46.3827],[49.3276,46.3664],[49.4369,46.2567],[49.5548,46.1563],[49.6805,46.0658],[49.8131,45.9857],[49.9518,45.9168],[50.0957,45.8596],[50.2439,45.8142],[50.3953,45.7811],[50.5505,45.7602],[50.7068,45.7522],[50.985,45.77],[51.2577,45.8283],[51.519,45.9257],[51.7632,46.0604],[51.9395,46.1902],[52.0997,46.3395],[52.4975,46.761],[69.1467,64.6805],[69.4086,64.9819],[69.6474,65.294],[69.8636,65.6146],[70.0579,65.9414],[70.2308,66.272],[70.3843,66.6046],[70.521,66.9389],[70.6421,67.2747],[70.7488,67.6121],[70.8423,67.9509],[70.9378,68.3778],[70.994,68.6322],[71.1066,69.3178],[71.1876,70.0081],[71.2394,70.7053],[71.2339,70.9695],[71.1887,71.2298],[71.1047,71.4804],[70.9841,71.7154],[70.9037,71.8275],[70.8294,71.9296],[70.7354,72.0274],[70.6442,72.1181],[70.5167,72.2163],[70.4328,72.2766],[70.2687,72.3673],[70.1999,72.4014],[70.1363,72.4267],[69.9993,72.4749],[69.9509,72.4897],[69.8589,72.5114],[69.7158,72.5362],[69.6914,72.5395],[55.3863,74.2345],[55.2106,74.2478],[55.0344,74.245],[54.8593,74.2258],[54.6867,74.1903],[54.5182,74.139],[54.355,74.0723],[54.1892,73.9854],[54.0328,73.8826],[53.9088,73.7837],[53.7935,73.6746],[53.6876,73.5564],[53.5919,73.4298],[53.507,73.2957],[53.4337,73.1551],[53.3726,73.0087],[53.3239,72.8577],[53.272,72.606],[48.7806,47.9993],[48.7606,47.7437]]
M73 P0 R6
;TYPE:Custom
START_PRINT T_BED=70 T_EXTRUDER=240
G90
G21
M83 ; use relative distances for extrusion
; filament start gcode
PRESSURE_ADVANCE_SELECT FILAMENT=PETG
M106 S0
;LAYER_CHANGE
;Z:0.1
;HEIGHT:0.1
;BEFORE_LAYER_CHANGE
;0.1
G92 E0

;AFTER_LAYER_CHANGE
;0.1
SET_VELOCITY_LIMIT ACCEL=500 ACCEL_TO_DECEL=250
SET_VELOCITY_LIMIT SQUARE_CORNER_VELOCITY=9
G1 E-1 F3000
G1 Z.2 F21000
G1 X48.388 Y45.258
G1 Z.2
G1 Z.1
G1 E1 F1800
;TYPE:Skirt
;WIDTH:0.1875
G1 F3000
G1 X49.103 Y44.74 E.00579
G1 X49.876 Y44.431 E.00546
G1 X50.653 Y44.331 E.00514
G1 X51.188 Y44.363 E.00351
G1 X52.198 Y44.678 E.00693
G1 X53.133 Y45.369 E.00762
G1 X70.319 Y63.804 E.16528
G1 X70.971 Y64.646 E.00699
G1 X71.668 Y65.908 E.00946
G1 X72.157 Y67.25 E.00936
G1 X72.517 Y68.901 E.01108
G1 X72.69 Y70.57 E.011
G1 X72.615 Y71.528 E.0063
G1 X72.383 Y72.202 E.00467
G1 X71.888 Y72.969 E.00599
G1 X71.186 Y73.591 E.00615
G1 X70.441 Y73.962 E.00545
G1 X69.762 Y74.135 E.0046
G1 X55.348 Y75.658 E.09505
G1 X54.486 Y75.595 E.00567
G1 X53.653 Y75.307 E.00578
G1 X52.9 Y74.789 E.006
G1 X52.347 Y74.141 E.00559
G1 X52.017 Y73.486 E.00481
G1 X51.841 Y72.797 E.00466
G1 X47.346 Y47.973 E.16544
G1 X47.363 Y47.308 E.00436
G1 X47.506 Y46.642 E.00447
G1 X47.898 Y45.845 E.00583
G1 X48.378 Y45.27 E.00491
G1 X48.503 Y45.378 F21000
G1 F3000
G1 X49.186 Y44.883 E.00553
G1 X49.913 Y44.593 E.00513
G1 X50.663 Y44.497 E.00496
G1 X51.159 Y44.526 E.00326
G1 X52.119 Y44.825 E.00659
G1 X53.012 Y45.483 E.00727
G1 X70.198 Y63.917 E.16528
G1 X70.78 Y64.661 E.0062
G1 X71.518 Y65.979 E.00991
G1 X71.999 Y67.299 E.00921
G1 X72.352 Y68.925 E.01091
G1 X72.524 Y70.582 E.01093
G1 X72.455 Y71.486 E.00595
G1 X72.235 Y72.126 E.00443
G1 X71.766 Y72.856 E.00569
G1 X71.097 Y73.451 E.00587
G1 X70.388 Y73.804 E.00519
G1 X69.741 Y73.97 E.00438
G1 X55.336 Y75.493 E.09499
M73 P1 R6
G1 X54.524 Y75.433 E.00534
G1 X53.724 Y75.157 E.00555
G1 X53.009 Y74.664 E.00569
G1 X52.487 Y74.052 E.00528
G1 X52.172 Y73.425 E.0046
G1 X52.005 Y72.767 E.00445
G1 X47.511 Y47.958 E.16535
G1 X47.528 Y47.33 E.00412
G1 X47.665 Y46.691 E.00429
G1 X48.039 Y45.934 E.00554
G1 X48.494 Y45.389 E.00465
; printing object Pegboard_hook_v1.stl id:0 copy 0
G1 E-1
EXCLUDE_OBJECT_START NAME=Pegboard_hook_v1.stl_id_0_copy_0
G1 Z.3 F21000
G1 X68.77 Y71.626 Z.3
G1 Z.1
G1 E1 F1800
;TYPE:Outer wall
;WIDTH:0.187499
G1 F3000
G1 X68.719 Y71.609 E.00035
G1 X68.419 Y71.369 E.00252
G1 X68.292 Y71.17 E.00155
G1 X68.205 Y70.756 E.00277
G2 X67.87 Y68.591 I-12.861 J.881 E.01438
G1 X67.59 Y67.787 E.00559
G1 X67.3 Y67.232 E.00411
G1 X66.961 Y66.781 E.0037
G1 X66.549 Y66.404 E.00366
G1 X66.046 Y66.091 E.00388
G1 X65.408 Y65.842 E.00449
G2 X63.255 Y65.572 I-2.131 J8.264 E.01427
G1 X59.3 Y65.578 E.02593
G2 X58.606 Y65.737 I-.02 J1.509 E.00471
G1 X58.386 Y65.938 E.00196
G1 X58.246 Y66.291 E.00249
G1 X58.22 Y66.511 E.00145
G3 X58.188 Y68.976 I-74.734 J.239 E.01617
G3 X57.896 Y70.707 I-7.514 J-.377 E.01154
G3 X57.049 Y72.2 I-4.34 J-1.474 E.01133
G1 X56.604 Y72.601 E.00393
G3 X55.169 Y73.238 I-2.132 J-2.869 E.01038
G1 X54.882 Y73.196 E.0019
G1 X54.58 Y73.035 E.00224
G1 X54.36 Y72.784 E.00219
G1 X54.23 Y72.372 E.00284
G1 X54.265 Y72.047 E.00214
G1 X54.452 Y71.679 E.00271
G1 X54.753 Y71.447 E.00249
G1 X55.207 Y71.261 E.00321
G1 X55.553 Y71.029 E.00273
G1 X55.883 Y70.626 E.00342
G1 X56.111 Y70.095 E.00379
G2 X56.303 Y68.905 I-4.703 J-1.369 E.00793
G2 X55.904 Y60.799 I-44.767 J-1.857 E.0533
G2 X53.791 Y53.685 I-24.204 J3.318 E.04886
G2 X50.371 Y48.72 I-18.66 J9.194 E.03968
G1 X49.902 Y48.196 E.00461
G1 X49.769 Y47.811 E.00267
G1 X49.789 Y47.476 E.0022
G1 X49.945 Y47.149 E.00238
G3 X50.421 Y46.796 I1.1 J.985 E.00392
G1 X50.776 Y46.754 E.00234
G1 X51.06 Y46.823 E.00192
G1 X51.378 Y47.044 E.00254
G3 X57.223 Y57.738 I-16.417 J15.916 E.0809
G3 X58.034 Y62.72 I-35.419 J8.325 E.03313
G1 X58.174 Y63.109 E.00271
G1 X58.435 Y63.363 E.00239
G2 X59.087 Y63.509 I.753 J-1.832 E.0044
G1 X63.633 Y63.518 E.02981
G3 X66.536 Y64.052 I-.145 J8.947 E.01945
G1 X67.192 Y64.364 E.00476
G1 X67.714 Y64.698 E.00406
G1 X68.316 Y65.213 E.0052
G1 X68.752 Y65.711 E.00434
G1 X69.176 Y66.351 E.00504
G3 X70.02 Y68.78 I-6.512 J3.623 E.01694
M73 P2 R6
G3 X70.224 Y70.124 I-9.093 J2.069 E.00893
G3 X70.217 Y71.108 I-3.192 J.469 E.00648
G1 X70.1 Y71.328 E.00163
G1 X69.839 Y71.571 E.00234
G1 X69.447 Y71.728 E.00277
G1 X69.092 Y71.734 E.00233
G1 X68.784 Y71.631 E.00213
G1 X68.823 Y71.468 F21000
;TYPE:Inner wall
G1 F3000
G1 X68.8 Y71.461 E.00016
G3 X68.448 Y71.105 I.615 J-.962 E.00331
G1 X68.371 Y70.741 E.00244
G2 X68.027 Y68.537 I-12.96 J.89 E.01465
G1 X67.737 Y67.71 E.00574
G1 X67.433 Y67.133 E.00428
G1 X67.074 Y66.659 E.0039
G1 X66.637 Y66.264 E.00387
G1 X66.106 Y65.937 E.00408
G1 X65.445 Y65.68 E.00465
G2 X63.255 Y65.406 I-2.174 J8.465 E.01451
G1 X59.3 Y65.412 E.02594
G2 X58.542 Y65.584 I-.012 J1.707 E.00514
G1 X58.269 Y65.821 E.00237
G1 X58.09 Y66.233 E.00295
G1 X58.054 Y66.51 E.00183
G3 X58.022 Y68.967 I-74.497 J.239 E.01611
G3 X57.738 Y70.655 I-7.325 J-.366 E.01125
G3 X56.928 Y72.086 I-4.127 J-1.391 E.01085
G1 X56.503 Y72.468 E.00375
G3 X55.163 Y73.069 I-2.014 J-2.695 E.00971
G1 X54.935 Y73.036 E.00151
G1 X54.685 Y72.902 E.00186
G1 X54.501 Y72.693 E.00183
G1 X54.396 Y72.357 E.00231
G1 X54.425 Y72.092 E.00175
G1 X54.578 Y71.792 E.0022
G1 X54.755 Y71.656 E.00147
G2 X55.656 Y71.161 I-1.273 J-3.391 E.00676
G1 X55.981 Y70.773 E.00332
G2 X56.398 Y69.591 I-2.831 J-1.662 E.00827
G2 X56.505 Y67.303 I-18.411 J-2.007 E.01503
G2 X55.723 Y58.878 I-40.346 J-.508 E.05559
G2 X52.489 Y51.111 I-21.277 J4.304 E.05553
G2 X50.049 Y48.113 I-22.785 J16.056 E.02537
G1 X49.936 Y47.788 E.00226
G1 X49.952 Y47.519 E.00177
G1 X50.082 Y47.248 E.00196
G3 X50.47 Y46.958 I.986 J.913 E.0032
G1 X50.766 Y46.923 E.00195
G1 X50.991 Y46.977 E.00152
G1 X51.269 Y47.17 E.00222
G3 X57.061 Y57.778 I-16.302 J15.787 E.08023
G3 X57.869 Y62.739 I-35.261 J8.286 E.03299
G1 X58.019 Y63.167 E.00297
G1 X58.323 Y63.485 E.00289
G2 X59.086 Y63.675 I.831 J-1.708 E.0052
G1 X63.627 Y63.684 E.02978
G3 X66.474 Y64.206 I-.14 J8.783 E.01906
G1 X67.111 Y64.509 E.00463
G1 X67.614 Y64.831 E.00392
G1 X68.199 Y65.331 E.00504
G1 X68.619 Y65.812 E.00419
G3 X69.857 Y68.813 I-5.736 J4.122 E.02148
G3 X70.058 Y70.137 I-8.878 J2.027 E.00879
G1 X70.09 Y70.827 E.00453
G1 X70.01 Y71.143 E.00214
G1 X69.749 Y71.429 E.00254
G1 X69.414 Y71.562 E.00236
G1 X69.117 Y71.568 E.00195
G1 X68.838 Y71.473 E.00194
G1 X68.881 Y71.313 F21000
G1 F3000
G1 X68.636 Y71.092 E.00216
G1 X68.536 Y70.726 E.00249
G2 X67.885 Y67.634 I-9.802 J.45 E.02081
G1 X67.566 Y67.034 E.00445
G1 X67.108 Y66.465 E.00479
G1 X66.725 Y66.123 E.00337
G1 X66.167 Y65.782 E.00429
G1 X65.483 Y65.519 E.00481
G2 X63.256 Y65.24 I-2.216 J8.666 E.01476
G1 X59.3 Y65.246 E.02594
G1 X58.85 Y65.293 E.00297
G1 X58.374 Y65.488 E.00337
G1 X58.069 Y65.82 E.00296
G2 X57.888 Y66.51 I1.414 J.739 E.00471
G3 X57.856 Y68.959 I-74.255 J.239 E.01606
G3 X57.579 Y70.603 I-7.136 J-.354 E.01096
G3 X56.807 Y71.971 I-3.907 J-1.304 E.01037
G3 X55.451 Y72.838 I-2.651 J-2.652 E.01063
G1 X55.071 Y72.888 E.00251
G1 X54.79 Y72.77 E.002
G1 X54.593 Y72.495 E.00222
G1 X54.566 Y72.204 E.00192
G1 X54.648 Y71.993 E.00148
G1 X54.856 Y71.787 E.00192
G2 X55.767 Y71.285 I-1.206 J-3.265 E.00685
G1 X56.109 Y70.879 E.00348
G2 X56.435 Y70.171 I-2.888 J-1.757 E.00512
G2 X56.635 Y68.907 I-5.09 J-1.457 E.00841
G2 X56.037 Y59.592 I-42.352 J-1.955 E.06134
G2 X53.79 Y52.946 I-23.119 J4.115 E.04618
G2 X50.271 Y48.122 I-19.413 J10.463 E.03928
G3 X50.11 Y47.662 I.594 J-.465 E.00325
M73 P3 R6
G3 X50.519 Y47.119 I.735 J.128 E.00463
G1 X50.837 Y47.11 E.00208
G1 X51.16 Y47.297 E.00245
G3 X56.9 Y57.817 I-16.249 J15.691 E.07954
G3 X57.704 Y62.757 I-35.102 J8.248 E.03285
G1 X57.863 Y63.224 E.00323
G1 X57.971 Y63.385 E.00127
G1 X58.279 Y63.658 E.0027
G2 X59.086 Y63.841 I.916 J-2.171 E.00545
G1 X63.622 Y63.85 E.02975
G3 X66.411 Y64.36 I-.135 J8.62 E.01868
G3 X68.082 Y65.449 I-2.022 J4.928 E.01316
G1 X68.487 Y65.913 E.00404
G3 X69.685 Y68.8 I-5.522 J3.983 E.02068
G3 X69.893 Y70.149 I-8.925 J2.066 E.00896
G1 X69.936 Y70.729 E.00381
G1 X69.864 Y71.065 E.00226
G1 X69.658 Y71.286 E.00198
G1 X69.381 Y71.397 E.00196
G1 X69.143 Y71.401 E.00156
G1 X68.895 Y71.317 E.00172
G1 E-1
G1 Z.3 F21000
G1 X66.74 Y64.312 Z.3
G1 X58.855 Y63.653
G1 X58.662 Y63.616
G1 X58.529 Y63.578
G1 X58.381 Y63.515
G1 X58.223 Y63.408
G1 X58.153 Y63.335
G1 X58.057 Y63.222
G1 X57.968 Y63.053
G1 X51.267 Y47.152
G1 X50.852 Y47.165
G1 Z.1
G1 E1 F1800
;TYPE:Bottom surface
;WIDTH:0.188444
G1 F6300
G3 X52.604 Y49.153 I-12.931 J13.161 E.01749
G1 X50.676 Y47.226 E.01798
G2 X50.489 Y47.274 I-.028 J.278 E.00131
G1 X53.307 Y50.093 E.02629
G3 X53.785 Y50.806 I-5.278 J4.047 E.00566
G1 X50.361 Y47.383 E.03193
G2 X50.27 Y47.528 I.147 J.194 E.00115
G1 X54.197 Y51.455 E.03663
G1 X54.522 Y52.016 E.00428
G1 X50.231 Y47.725 E.04002
G1 X50.306 Y47.968 E.00168
G1 X50.864 Y48.595 E.00554
G1 X54.796 Y52.526 E.03667
G1 X55.05 Y53.016 E.00364
G1 X52.062 Y50.029 E.02786
G3 X52.692 Y50.894 I-11.487 J9.015 E.00706
G1 X55.255 Y53.458 E.02391
G1 X55.457 Y53.896 E.00318
G1 X53.133 Y51.572 E.02168
G3 X53.485 Y52.16 I-4.974 J3.375 E.00452
G1 X55.628 Y54.303 E.01999
G3 X55.79 Y54.701 I-5.051 J2.288 E.00284
G1 X53.797 Y52.708 E.01859
M73 P4 R6
G3 X54.062 Y53.209 I-4.835 J2.878 E.00374
G1 X55.929 Y55.076 E.01741
G1 X56.068 Y55.451 E.00264
G1 X54.297 Y53.68 E.01652
G1 X54.495 Y54.114 E.00315
G1 X56.187 Y55.807 E.01578
G1 X56.301 Y56.156 E.00242
G1 X54.676 Y54.532 E.01515
G1 X54.841 Y54.933 E.00286
G1 X56.41 Y56.502 E.01463
G1 X56.499 Y56.827 E.00223
G1 X54.989 Y55.316 E.01409
G1 X55.126 Y55.69 E.00263
G1 X56.589 Y57.153 E.01364
G1 X56.678 Y57.478 E.00223
G1 X55.25 Y56.05 E.01332
G1 X55.366 Y56.402 E.00245
G1 X56.767 Y57.803 E.01307
G3 X56.839 Y58.112 I-3.438 J.966 E.00209
G1 X55.472 Y56.744 E.01275
G1 X55.57 Y57.079 E.0023
G1 X56.909 Y58.417 E.01248
G1 X56.978 Y58.723 E.00207
G1 X55.661 Y57.406 E.01228
G1 X55.738 Y57.719 E.00212
G1 X57.036 Y59.017 E.01211
G1 X57.093 Y59.31 E.00197
G1 X55.815 Y58.032 E.01192
G1 X55.891 Y58.345 E.00212
G1 X57.15 Y59.603 E.01174
G3 X57.198 Y59.888 I-4.83 J.97 E.0019
G1 X55.968 Y58.658 E.01147
G3 X56.037 Y58.962 I-3.642 J.982 E.00206
G1 X57.244 Y60.17 E.01126
G1 X57.291 Y60.452 E.00189
G1 X56.097 Y59.258 E.01114
G1 X56.156 Y59.554 E.00199
G1 X57.329 Y60.727 E.01094
G1 X57.363 Y60.997 E.00179
G1 X56.205 Y59.839 E.0108
G1 X56.253 Y60.123 E.0019
G1 X57.397 Y61.267 E.01067
G1 X57.431 Y61.537 E.00179
G1 X56.301 Y60.407 E.01054
G1 X56.349 Y60.691 E.0019
G1 X57.464 Y61.807 E.0104
G1 X57.498 Y62.077 E.00179
G1 X56.387 Y60.966 E.01036
G1 X56.421 Y61.236 E.0018
G1 X57.532 Y62.347 E.01036
G1 X57.566 Y62.616 E.00179
G1 X56.455 Y61.506 E.01036
G1 X56.489 Y61.776 E.0018
G1 X57.739 Y63.026 E.01166
G1 E-1 F3000
G1 Z.3 F21000
G1 X58.223 Y63.408 Z.3
G1 X58.381 Y63.515
G1 X58.529 Y63.578
G1 X58.662 Y63.616
G1 X58.855 Y63.653
G1 X66.933 Y64.663
G1 Z.1
G1 E1 F1800
G1 F6300
G1 X68.642 Y66.372 E.01594
G3 X68.948 Y66.915 I-2.114 J1.551 E.00412
G1 X66.641 Y64.607 E.02152
G2 X66.226 Y64.429 I-.987 J1.721 E.00299
G1 X69.138 Y67.341 E.02716
G3 X69.285 Y67.724 I-2.259 J1.086 E.00271
G1 X65.867 Y64.306 E.03188
M73 P5 R6
G2 X65.55 Y64.225 I-.555 J1.514 E.00216
G1 X69.385 Y68.059 E.03576
G3 X69.473 Y68.384 I-1.821 J.67 E.00222
G1 X65.243 Y64.154 E.03945
G2 X64.952 Y64.099 I-.453 J1.6 E.00196
G1 X69.534 Y68.681 E.04273
G1 X69.594 Y68.978 E.002
G1 X67.775 Y67.158 E.01697
G1 X67.684 Y66.985 E.00129
G1 X67.311 Y66.486 E.00411
G1 X66.869 Y66.073 E.00399
G1 X66.374 Y65.757 E.00387
G1 X64.677 Y64.061 E.01582
G2 X64.405 Y64.025 I-.374 J1.793 E.00181
G1 X65.952 Y65.571 E.01442
G1 X65.56 Y65.416 E.00278
G1 X64.153 Y64.009 E.01312
G1 X63.901 Y63.993 E.00167
G1 X65.245 Y65.336 E.01253
G1 X64.938 Y65.266 E.00207
G1 X63.649 Y63.977 E.01203
G2 X63.41 Y63.974 I-.144 J2.022 E.00158
G1 X64.654 Y65.218 E.01161
G1 X64.385 Y65.185 E.00179
G1 X63.172 Y63.973 E.01131
G1 X62.935 Y63.972 E.00156
G1 X64.118 Y65.154 E.01103
G1 X63.87 Y65.143 E.00163
G1 X62.698 Y63.97 E.01094
G1 X62.461 Y63.969 E.00156
G1 X63.623 Y65.132 E.01084
G1 X63.376 Y65.121 E.00163
G1 X62.223 Y63.968 E.01075
G1 X61.986 Y63.967 E.00156
G1 X63.135 Y65.116 E.01071
G1 X62.899 Y65.116 E.00155
G1 X61.749 Y63.966 E.01073
G1 X61.512 Y63.965 E.00156
G1 X62.663 Y65.117 E.01074
G1 X62.428 Y65.117 E.00155
G1 X61.274 Y63.964 E.01076
G1 X61.037 Y63.963 E.00156
G1 X62.192 Y65.118 E.01077
G1 X61.957 Y65.118 E.00155
G1 X60.8 Y63.962 E.01079
G1 X60.563 Y63.961 E.00156
G1 X61.721 Y65.119 E.0108
G1 X61.485 Y65.119 E.00155
G1 X60.325 Y63.959 E.01082
G1 X60.088 Y63.958 E.00156
G1 X61.25 Y65.12 E.01083
G1 X61.014 Y65.12 E.00155
G1 X59.851 Y63.957 E.01085
G1 X59.614 Y63.956 E.00156
G1 X60.779 Y65.121 E.01086
G1 X60.543 Y65.121 E.00155
G1 X59.376 Y63.955 E.01088
G1 X59.139 Y63.954 E.00156
G1 X60.307 Y65.122 E.0109
G1 X60.072 Y65.123 E.00155
G1 X58.902 Y63.953 E.01091
G3 X58.604 Y63.891 I-.034 J-.587 E.00203
G1 X59.836 Y65.123 E.01149
G1 X59.6 Y65.124 E.00155
G1 X56.523 Y62.047 E.0287
G1 X56.558 Y62.317 E.0018
G1 X59.365 Y65.124 E.02618
G2 X59.142 Y65.137 I-.058 J.911 E.00148
G1 X56.584 Y62.579 E.02386
M73 P6 R6
G1 X56.607 Y62.838 E.00172
G1 X58.932 Y65.164 E.02169
G1 X58.726 Y65.194 E.00137
G1 X56.63 Y63.098 E.01955
G1 X56.653 Y63.357 E.00172
G1 X58.564 Y65.267 E.01782
G1 X58.401 Y65.341 E.00118
G1 X56.676 Y63.616 E.01609
G1 X56.689 Y63.865 E.00164
G1 X58.254 Y65.431 E.01461
G1 X58.134 Y65.547 E.0011
G1 X56.701 Y64.114 E.01337
G1 X56.714 Y64.363 E.00164
G1 X58.023 Y65.672 E.01221
G2 X57.936 Y65.821 I.248 J.245 E.00115
G1 X56.727 Y64.612 E.01127
G1 X56.74 Y64.861 E.00164
G1 X57.871 Y65.992 E.01055
G2 X57.812 Y66.169 I.362 J.219 E.00124
G1 X56.753 Y65.11 E.00988
G1 X56.766 Y65.359 E.00164
G1 X57.782 Y66.376 E.00948
G2 X57.763 Y66.592 I.833 J.185 E.00144
G1 X56.776 Y65.605 E.0092
G1 X56.781 Y65.846 E.00159
G1 X57.76 Y66.825 E.00913
G1 X57.756 Y67.058 E.00154
G1 X56.785 Y66.087 E.00906
G1 X56.79 Y66.327 E.00159
G1 X57.753 Y67.291 E.00899
G1 X57.75 Y67.524 E.00154
G1 X56.794 Y66.568 E.00892
G3 X56.794 Y66.804 I-4.432 J.109 E.00155
G1 X57.747 Y67.757 E.0089
