; generated by SuperSlicer 2.5.59 on 2023-02-04 at 19:14:49 UTC


;
;

;
;
; 

; external perimeters extrusion width = 0.40mm
; perimeters extrusion width = 0.46mm
; infill extrusion width = 0.64mm
; solid infill extrusion width = 0.56mm
; top infill extrusion width = 0.40mm
; first layer extrusion width = 0.50mm

; object:{"name":"pip_rotating_hanger","id":"pip_rotating_hanger.STL id:0 copy 0","object_center":[60.000004,60.000140,0.000000],"boundingbox_center":[60.000004,60.000140,6.312659],"boundingbox_size":[34.265345,91.342701,12.625319]}
; plater:{"center":[60.000004,60.000140,0.000000],"boundingbox_center":[60.000004,60.000140,6.312659],"boundingbox_size":[34.265345,91.342701,12.625319]}

M73 P0 R29
;TYPE:Custom
; custom gcode: start_gcode
START_PRINT T_BED=60 T_EXTRUDER=200
; custom gcode end: start_gcode
M107
G21 ; set units to millimeters
G90 ; use absolute coordinates
M82 ; use absolute distances for extrusion
G92 E0
; custom gcode: start_filament_gcode
; Filament gcode

    PRESSURE_ADVANCE_SELECT FILAMENT=PLA
; custom gcode end: start_filament_gcode
;_TOOLCHANGE 0
M104 S200 ; set temperature
M109 S200 ; set temperature and wait for it to be reached
M190 S60 ; set bed temperature and wait for it to be reached
;LAYER_CHANGE
;Z:0.2
;HEIGHT:0.2
G1 Z0.2 F12000
M73 P0 R29
G1 E-0.8 F3000
M204 S2000
G1 X42.299 Y21.849 F12000
G1 E0 F1800
;TYPE:Skirt
;WIDTH:0.52
G1 X41.698 Y23.014 E0.04991
G1 X41.148 Y24.317 E0.10379
G1 X40.601 Y25.961 E0.16976
G1 X40.196 Y27.645 E0.23573
G1 X39.937 Y29.358 E0.3017
G1 X39.819 Y31.298 E0.37571
G1 X39.829 Y89.077 E2.57609
G1 X39.977 Y90.982 E2.64885
G1 X40.243 Y92.586 E2.71079
G1 X40.555 Y93.877 E2.76136
G1 X41.052 Y95.426 E2.8233
G1 X41.672 Y96.93 E2.88524
G1 X42.41 Y98.379 E2.94717
G1 X43.262 Y99.764 E3.00911
G1 X44.223 Y101.076 E3.07104
G1 X45.286 Y102.307 E3.13298
G1 X46.444 Y103.449 E3.19491
G1 X47.69 Y104.494 E3.25685
G1 X49.016 Y105.436 E3.31879
G1 X50.413 Y106.268 E3.38072
G1 X51.873 Y106.985 E3.44266
G1 X53.385 Y107.583 E3.50459
G1 X54.941 Y108.058 E3.56653
G1 X56.529 Y108.406 E3.62846
G1 X58.141 Y108.626 E3.6904
G1 X59.765 Y108.715 E3.75233
G1 X61.391 Y108.674 E3.81427
G1 X63.008 Y108.502 E3.87621
G1 X64.606 Y108.202 E3.93814
G1 X66.459 Y107.681 E4.01143
G1 X67.705 Y107.221 E4.06201
G1 X69.185 Y106.547 E4.12394
G1 X70.607 Y105.757 E4.18588
G1 X71.96 Y104.855 E4.24782
G1 X73.462 Y103.652 E4.32111
G1 X74.637 Y102.528 E4.38304
G1 X75.527 Y101.542 E4.43362
G1 X76.526 Y100.259 E4.49556
G1 X77.419 Y98.9 E4.55749
G1 X78.201 Y97.473 E4.61943
G1 X78.865 Y95.989 E4.68136
G1 X79.493 Y94.17 E4.75466
G1 X79.888 Y92.592 E4.81659
G1 X80.181 Y90.421 E4.90002
G1 X80.181 Y29.578 E7.21707
G1 X80.113 Y28.703 E7.25047
G1 X79.799 Y27.002 E7.31636
G1 X79.34 Y25.332 E7.38233
G1 X78.86 Y24.001 E7.43621
G1 X78.148 Y22.422 E7.50218
G1 X77.304 Y20.909 E7.56815
G1 X76.333 Y19.474 E7.63412
G1 X75.243 Y18.128 E7.70009
G1 X74.042 Y16.879 E7.76606
G1 X72.739 Y15.738 E7.83203
G1 X71.343 Y14.713 E7.89801
G1 X69.864 Y13.81 E7.96398
G1 X68.022 Y12.91 E8.04204
G1 X66.401 Y12.298 E8.10801
G1 X64.734 Y11.827 E8.17399
G1 X63.033 Y11.5 E8.23996
G1 X61.31 Y11.32 E8.30593
G1 X59.896 Y11.282 E8.3598
G1 X58.166 Y11.371 E8.42577
G1 X56.45 Y11.607 E8.49174
G1 X54.76 Y11.989 E8.55772
G1 X52.812 Y12.626 E8.63578
G1 X51.222 Y13.315 E8.70175
G1 X49.698 Y14.138 E8.76772
G1 X48.249 Y15.088 E8.8337
G1 X46.887 Y16.158 E8.89967
G1 X45.846 Y17.116 E8.95354
G1 X44.666 Y18.384 E9.01951
G1 X43.599 Y19.749 E9.08548
G1 X42.493 Y21.475 E9.16355
G1 X42.299 Y21.849 E9.17961
G1 X42.722 Y22.068 F12000
G1 F1800
G1 X42.137 Y23.199 E9.2281
G1 X41.491 Y24.762 E9.29251
G1 X41.055 Y26.108 E9.34639
G1 X40.661 Y27.753 E9.4108
G1 X40.409 Y29.426 E9.47522
G1 X40.297 Y31.298 E9.54664
G1 X40.306 Y89.077 E11.74702
G1 X40.448 Y90.907 E11.81694
G1 X40.707 Y92.474 E11.87741
G1 X41.019 Y93.765 E11.92799
G1 X41.505 Y95.277 E11.98847
G1 X42.111 Y96.745 E12.04895
G1 X42.833 Y98.159 E12.10942
G1 X43.667 Y99.511 E12.1699
G1 X44.606 Y100.792 E12.23038
G1 X45.644 Y101.993 E12.29085
G1 X46.776 Y103.107 E12.35133
G1 X47.994 Y104.126 E12.41181
G1 X49.289 Y105.045 E12.47228
G1 X50.654 Y105.856 E12.53276
G1 X52.08 Y106.556 E12.59324
G1 X53.557 Y107.138 E12.65372
G1 X55.077 Y107.601 E12.71419
G1 X56.628 Y107.939 E12.77467
G1 X58.202 Y108.152 E12.83515
G1 X59.787 Y108.239 E12.89562
G1 X61.375 Y108.197 E12.9561
G1 X62.954 Y108.028 E13.01658
G1 X64.768 Y107.673 E13.08695
G1 X66.294 Y107.234 E13.14743
G1 X67.78 Y106.674 E13.20791
G1 X68.984 Y106.115 E13.25848
G1 X70.372 Y105.342 E13.31896
G1 X71.902 Y104.306 E13.38934
G1 X73.135 Y103.305 E13.44981
G1 X74.283 Y102.208 E13.51029
G1 X75.173 Y101.222 E13.56087
G1 X76.148 Y99.969 E13.62134
G1 X77.019 Y98.641 E13.68182
G1 X77.78 Y97.247 E13.7423
G1 X78.522 Y95.555 E13.81267
G1 X79.031 Y94.05 E13.87315
M73 P1 R29
G1 X79.418 Y92.51 E13.93362
G1 X79.704 Y90.421 E14.01394
G1 X79.704 Y29.578 E16.33099
G1 X79.644 Y28.786 E16.36121
G1 X79.338 Y27.125 E16.42555
G1 X78.891 Y25.493 E16.48997
G1 X78.307 Y23.906 E16.55439
G1 X77.588 Y22.375 E16.61881
G1 X76.742 Y20.91 E16.68322
G1 X75.773 Y19.523 E16.74764
G1 X74.69 Y18.225 E16.81206
G1 X73.701 Y17.213 E16.86593
G1 X72.427 Y16.1 E16.93035
G1 X71.063 Y15.099 E16.99477
G1 X69.618 Y14.219 E17.05919
G1 X67.85 Y13.355 E17.13414
G1 X66.268 Y12.756 E17.19856
G1 X64.641 Y12.295 E17.26298
G1 X62.98 Y11.974 E17.3274
G1 X61.298 Y11.797 E17.39182
G1 X59.606 Y11.764 E17.45623
G1 X58.194 Y11.847 E17.51011
G1 X56.519 Y12.079 E17.57452
G1 X54.869 Y12.454 E17.63894
G1 X53.258 Y12.968 E17.70336
G1 X51.446 Y13.737 E17.77832
G1 X49.956 Y14.539 E17.84274
G1 X48.541 Y15.465 E17.90716
G1 X47.21 Y16.509 E17.97157
G1 X46.169 Y17.467 E18.02545
G1 X45.018 Y18.707 E18.08986
G1 X43.818 Y20.267 E18.16482
G1 X42.915 Y21.697 E18.22924
G1 X42.722 Y22.068 E18.24517
G92 E0
G1 E-0.8 F3000
; printing object pip_rotating_hanger.STL id:0 copy 0
; acceleration to travel
M204 S4000
G1 X51.605 Y48.966 F12000
; decel to extrusion
M204 S2000
G1 X56.047 Y62.415
; end travel
G1 E0 F1800
;TYPE:Internal perimeter
;WIDTH:0.5
G1 X64.09 Y62.426 E0.29346
G1 X64.09 Y66.749 E0.45117
G1 X64.148 Y67.923 E0.49406
G1 X64.329 Y69.127 E0.5385
G1 X64.627 Y70.308 E0.58295
G1 X65.042 Y71.454 E0.6274
G1 X65.565 Y72.548 E0.67167
G1 X66.101 Y73.442 E0.70966
G1 X65.641 Y74.237 E0.74318
G1 X64.597 Y73.868 E0.7836
G1 X63.29 Y73.525 E0.83291
G1 X61.953 Y73.298 E0.88239
G1 X60.601 Y73.19 E0.93187
G1 X59.244 Y73.203 E0.98136
G1 X57.895 Y73.336 E1.03084
G1 X56.562 Y73.588 E1.08032
G1 X55.257 Y73.957 E1.1298
G1 X53.99 Y74.44 E1.17928
G1 X53.445 Y74.705 E1.20139
G1 X53.263 Y74.472 E1.21217
G1 X53.543 Y74.138 E1.22808
G1 X54.189 Y73.199 E1.26966
G1 X54.746 Y72.204 E1.31125
G1 X55.208 Y71.162 E1.35283
G1 X55.571 Y70.082 E1.39442
G1 X55.833 Y68.973 E1.436
G1 X55.991 Y67.844 E1.47759
G1 X56.042 Y66.747 E1.51768
G1 X56.047 Y62.415 E1.67574
G1 X55.59 Y61.957 F12000
G1 F1800
G1 X64.547 Y61.97 E2.00253
G1 X64.547 Y66.737 E2.17648
G1 X64.603 Y67.877 E2.21813
G1 X64.777 Y69.037 E2.26092
G1 X65.065 Y70.174 E2.30371
G1 X65.464 Y71.277 E2.34651
G1 X65.968 Y72.332 E2.38917
G1 X66.616 Y73.412 E2.43512
G1 X66.553 Y73.572 E2.44141
G1 X65.938 Y74.638 E2.48628
G1 X65.905 Y74.686 E2.48841
G1 X65.801 Y74.778 E2.4935
G1 X64.462 Y74.305 E2.5453
G1 X63.193 Y73.972 E2.59317
G1 X61.896 Y73.752 E2.64117
G1 X60.585 Y73.648 E2.68917
G1 X59.269 Y73.66 E2.73717
G1 X57.96 Y73.789 E2.78517
G1 X56.667 Y74.033 E2.83317
G1 X55.401 Y74.391 E2.88118
G1 X54.172 Y74.86 E2.92918
G1 X52.989 Y75.436 E2.97718
G1 X51.862 Y76.114 E3.02518
G1 X50.799 Y76.89 E3.07318
G1 X49.809 Y77.756 E3.12118
G1 X48.9 Y78.707 E3.16919
G1 X48.079 Y79.735 E3.21719
G1 X47.352 Y80.832 E3.26519
G1 X46.725 Y81.988 E3.31319
G1 X46.203 Y83.196 E3.36119
G1 X45.79 Y84.445 E3.4092
G1 X45.489 Y85.726 E3.4572
G1 X45.303 Y87.028 E3.5052
G1 X45.233 Y88.342 E3.5532
G1 X45.28 Y89.657 E3.6012
G1 X45.443 Y90.962 E3.6492
G1 X45.722 Y92.248 E3.6972
G1 X46.113 Y93.504 E3.74521
G1 X46.613 Y94.721 E3.79321
G1 X47.22 Y95.888 E3.84121
G1 X47.928 Y96.997 E3.88921
G1 X48.731 Y98.039 E3.93721
G1 X49.623 Y99.006 E3.98522
G1 X50.598 Y99.89 E4.03322
G1 X51.647 Y100.684 E4.08122
G1 X52.762 Y101.382 E4.12922
G1 X53.935 Y101.978 E4.17722
G1 X55.156 Y102.468 E4.22522
G1 X56.415 Y102.848 E4.27323
G1 X57.703 Y103.115 E4.32123
G1 X59.01 Y103.267 E4.36923
G1 X60.325 Y103.303 E4.41723
G1 X61.638 Y103.221 E4.46523
G1 X62.939 Y103.024 E4.51323
G1 X64.217 Y102.712 E4.56124
G1 X65.463 Y102.288 E4.60924
G1 X66.666 Y101.756 E4.65724
G1 X67.817 Y101.119 E4.70524
G1 X68.907 Y100.382 E4.75324
G1 X69.928 Y99.552 E4.80124
G1 X70.871 Y98.634 E4.84925
G1 X71.729 Y97.637 E4.89725
G1 X72.495 Y96.568 E4.94525
G1 X73.163 Y95.435 E4.99325
G1 X73.729 Y94.247 E5.04125
G1 X74.187 Y93.013 E5.08926
G1 X74.533 Y91.748 E5.13713
G1 X74.798 Y90.319 E5.19015
G1 X75.089 Y90.307 E5.20077
G1 X75.265 Y90.336 E5.20728
G1 X75.297 Y90.485 E5.21285
G1 X75.295 Y90.522 E5.21419
G1 X75.088 Y91.71 E5.25819
G1 X74.78 Y92.905 E5.30323
G1 X74.377 Y94.072 E5.34827
G1 X73.881 Y95.203 E5.39331
G1 X73.296 Y96.29 E5.43835
G1 X72.626 Y97.326 E5.4834
G1 X71.875 Y98.306 E5.52844
G1 X71.047 Y99.222 E5.57348
G1 X70.149 Y100.069 E5.61852
G1 X69.185 Y100.841 E5.66356
G1 X68.163 Y101.533 E5.7086
G1 X67.089 Y102.141 E5.75364
G1 X65.969 Y102.66 E5.79868
G1 X64.811 Y103.088 E5.84372
G1 X63.623 Y103.422 E5.88877
G1 X62.411 Y103.659 E5.93381
G1 X61.184 Y103.798 E5.97885
G1 X59.951 Y103.839 E6.02389
G1 X58.718 Y103.78 E6.06893
G1 X57.493 Y103.622 E6.11397
G1 X56.285 Y103.367 E6.15901
G1 X55.102 Y103.015 E6.20406
G1 X53.951 Y102.57 E6.2491
G1 X52.839 Y102.034 E6.29414
G1 X51.774 Y101.41 E6.33918
G1 X50.762 Y100.702 E6.38422
G1 X49.81 Y99.916 E6.42926
G1 X48.925 Y99.056 E6.4743
G1 X48.111 Y98.128 E6.51934
G1 X47.375 Y97.137 E6.56438
G1 X46.72 Y96.09 E6.60943
G1 X46.152 Y94.994 E6.65447
G1 X45.673 Y93.856 E6.69951
G1 X45.287 Y92.684 E6.74455
G1 X44.997 Y91.484 E6.78959
G1 X44.804 Y90.265 E6.83463
G1 X44.709 Y89.034 E6.87967
G1 X44.713 Y87.799 E6.92472
G1 X44.817 Y86.569 E6.96976
G1 X45.019 Y85.351 E7.0148
G1 X45.318 Y84.154 E7.05984
G1 X45.712 Y82.984 E7.10488
G1 X46.199 Y81.849 E7.14992
G1 X46.775 Y80.758 E7.19496
G1 X47.437 Y79.716 E7.24
G1 X48.181 Y78.73 E7.28504
G1 X49.001 Y77.808 E7.33009
G1 X49.894 Y76.953 E7.37519
G1 X51.695 Y75.478 E7.46012
G1 X52.475 Y74.703 E7.50024
G1 X53.178 Y73.861 E7.54028
G1 X53.8 Y72.957 E7.58031
G1 X54.336 Y72 E7.62035
G1 X54.781 Y70.997 E7.66039
G1 X55.131 Y69.957 E7.70042
G1 X55.383 Y68.889 E7.74046
G1 X55.536 Y67.802 E7.78049
G1 X55.585 Y66.736 E7.81944
G1 X55.59 Y61.957 E7.9938
G1 X55.134 Y61.499 F12000
G1 F1800
G1 X65.004 Y61.513 E8.35393
G1 X65.004 Y66.726 E8.54412
G1 X65.059 Y67.832 E8.58453
G1 X65.226 Y68.947 E8.62566
G1 X65.502 Y70.04 E8.6668
G1 X65.886 Y71.1 E8.70794
G1 X66.372 Y72.115 E8.74899
G1 X67.008 Y73.178 E8.7942
G1 X67.039 Y73.262 E8.79746
G1 X67.059 Y73.359 E8.80108
G1 X67.062 Y73.459 E8.80471
G1 X67.05 Y73.557 E8.80833
G1 X67.022 Y73.653 E8.81196
G1 X66.966 Y73.772 E8.81677
G1 X66.325 Y74.882 E8.86355
G1 X66.25 Y74.99 E8.86835
G1 X66.181 Y75.062 E8.87198
G1 X66.102 Y75.122 E8.8756
G1 X66.014 Y75.169 E8.87922
G1 X65.92 Y75.201 E8.88285
G1 X65.822 Y75.217 E8.88647
G1 X65.723 Y75.218 E8.89009
G1 X65.637 Y75.205 E8.89327
G1 X64.328 Y74.742 E8.94394
G1 X63.097 Y74.419 E8.99037
G1 X61.84 Y74.206 E9.0369
G1 X60.569 Y74.105 E9.08342
G1 X59.294 Y74.117 E9.12994
G1 X58.025 Y74.242 E9.17646
G1 X56.772 Y74.479 E9.22298
G1 X55.545 Y74.825 E9.2695
G1 X54.354 Y75.28 E9.31602
G1 X53.207 Y75.838 E9.36254
G1 X52.115 Y76.495 E9.40906
G1 X51.085 Y77.247 E9.45559
G1 X50.126 Y78.087 E9.50211
G1 X49.244 Y79.008 E9.54863
G1 X48.448 Y80.005 E9.59515
G1 X47.744 Y81.067 E9.64167
G1 X47.136 Y82.188 E9.68819
G1 X46.63 Y83.359 E9.73471
G1 X46.23 Y84.569 E9.78123
G1 X45.939 Y85.811 E9.82775
G1 X45.759 Y87.073 E9.87427
G1 X45.691 Y88.346 E9.9208
G1 X45.736 Y89.62 E9.96732
G1 X45.894 Y90.885 E10.01384
G1 X46.164 Y92.132 E10.06036
G1 X46.543 Y93.349 E10.10688
G1 X47.028 Y94.528 E10.1534
G1 X47.616 Y95.659 E10.19992
G1 X48.302 Y96.734 E10.24644
G1 X49.081 Y97.744 E10.29296
G1 X49.945 Y98.681 E10.33949
G1 X50.89 Y99.538 E10.38601
G1 X51.906 Y100.307 E10.43253
G1 X52.987 Y100.984 E10.47905
G1 X54.124 Y101.562 E10.52557
G1 X55.307 Y102.037 E10.57209
G1 X56.528 Y102.405 E10.61861
G1 X57.776 Y102.664 E10.66513
G1 X59.043 Y102.811 E10.71165
G1 X60.317 Y102.845 E10.75818
G1 X61.59 Y102.766 E10.8047
G1 X62.851 Y102.575 E10.85122
G1 X64.089 Y102.273 E10.89774
G1 X65.296 Y101.862 E10.94426
G1 X66.462 Y101.346 E10.99078
G1 X67.578 Y100.729 E11.0373
G1 X68.634 Y100.015 E11.08382
G1 X69.623 Y99.21 E11.13034
G1 X70.537 Y98.321 E11.17687
G1 X71.369 Y97.354 E11.22339
G1 X72.111 Y96.318 E11.26991
G1 X72.759 Y95.22 E11.31643
G1 X73.307 Y94.068 E11.36295
G1 X73.751 Y92.873 E11.40947
G1 X74.087 Y91.645 E11.45591
G1 X74.34 Y90.28 E11.50657
G1 X74.372 Y90.199 E11.50975
G1 X74.423 Y90.114 E11.51338
G1 X74.486 Y90.037 E11.517
G1 X74.561 Y89.972 E11.52062
G1 X74.645 Y89.919 E11.52425
G1 X74.737 Y89.881 E11.52787
G1 X74.818 Y89.861 E11.53094
G1 X75.117 Y89.848 E11.54184
G1 X75.24 Y89.858 E11.54634
G1 X75.342 Y89.885 E11.5502
G1 X75.438 Y89.929 E11.55406
G1 X75.526 Y89.988 E11.55792
G1 X75.602 Y90.062 E11.56178
G1 X75.665 Y90.147 E11.56564
G1 X75.712 Y90.242 E11.5695
G1 X75.743 Y90.343 E11.57337
G1 X75.756 Y90.448 E11.57723
G1 X75.75 Y90.572 E11.58175
G1 X75.536 Y91.806 E11.62747
G1 X75.218 Y93.037 E11.67385
G1 X74.803 Y94.239 E11.72024
G1 X74.292 Y95.403 E11.76662
G1 X73.69 Y96.522 E11.813
G1 X73 Y97.59 E11.85938
G1 X72.226 Y98.599 E11.90576
G1 X71.374 Y99.542 E11.95215
G1 X70.449 Y100.414 E11.99853
G1 X69.457 Y101.209 E12.04491
G1 X68.404 Y101.922 E12.09129
G1 X67.298 Y102.547 E12.13768
G1 X66.145 Y103.082 E12.18406
G1 X64.952 Y103.523 E12.23044
G1 X63.728 Y103.867 E12.27682
G1 X62.481 Y104.111 E12.3232
G1 X61.218 Y104.255 E12.36958
G1 X59.947 Y104.296 E12.41597
G1 X58.677 Y104.235 E12.46235
G1 X57.417 Y104.073 E12.50873
G1 X56.173 Y103.81 E12.55511
G1 X54.954 Y103.448 E12.60149
G1 X53.769 Y102.99 E12.64788
G1 X52.624 Y102.437 E12.69426
G1 X51.527 Y101.795 E12.74064
G1 X50.485 Y101.066 E12.78702
G1 X49.505 Y100.257 E12.8334
G1 X48.593 Y99.371 E12.87979
G1 X47.755 Y98.415 E12.92617
G1 X46.997 Y97.395 E12.97255
G1 X46.323 Y96.317 E13.01893
G1 X45.737 Y95.189 E13.06531
G1 X45.244 Y94.017 E13.1117
M73 P2 R29
G1 X44.847 Y92.809 E13.15808
G1 X44.548 Y91.574 E13.20446
G1 X44.349 Y90.318 E13.25084
G1 X44.252 Y89.051 E13.29722
G1 X44.256 Y87.779 E13.34361
G1 X44.363 Y86.513 E13.38999
G1 X44.571 Y85.259 E13.43637
G1 X44.879 Y84.025 E13.48275
G1 X45.285 Y82.82 E13.52913
G1 X45.786 Y81.652 E13.57552
G1 X46.379 Y80.528 E13.6219
G1 X47.061 Y79.455 E13.66828
G1 X47.827 Y78.44 E13.71466
G1 X48.671 Y77.49 E13.76104
G1 X49.59 Y76.61 E13.80746
G1 X51.388 Y75.139 E13.89224
G1 X52.138 Y74.394 E13.93078
G1 X52.814 Y73.584 E13.96927
G1 X53.412 Y72.715 E14.00776
G1 X53.927 Y71.795 E14.04625
G1 X54.355 Y70.831 E14.08474
G1 X54.691 Y69.831 E14.12322
G1 X54.934 Y68.804 E14.16171
G1 X55.08 Y67.76 E14.2002
G1 X55.128 Y66.725 E14.238
G1 X55.134 Y61.499 E14.42866
G1 X54.781 Y61.042 F12000
;TYPE:External perimeter
G1 F1800
G1 X55.239 Y61.042 E14.44539
G1 X65.42 Y61.057 E14.81684
G1 X65.461 Y61.152 E14.82062
G1 X65.461 Y66.715 E15.02358
G1 X65.514 Y67.787 E15.06275
G1 X65.675 Y68.857 E15.10223
G1 X65.94 Y69.906 E15.14171
G1 X66.308 Y70.923 E15.18119
G1 X66.775 Y71.899 E15.22064
G1 X67.422 Y72.979 E15.26661
G1 X67.481 Y73.137 E15.27275
G1 X67.514 Y73.306 E15.27904
G1 X67.52 Y73.479 E15.28534
G1 X67.499 Y73.65 E15.29163
G1 X67.451 Y73.816 E15.29793
G1 X67.371 Y73.984 E15.30474
G1 X66.711 Y75.126 E15.35285
G1 X66.605 Y75.28 E15.35966
G1 X66.486 Y75.404 E15.36595
G1 X66.349 Y75.509 E15.37224
G1 X66.196 Y75.589 E15.37853
G1 X66.033 Y75.645 E15.38483
G1 X65.863 Y75.674 E15.39112
G1 X65.691 Y75.676 E15.39741
G1 X65.525 Y75.651 E15.40351
G1 X64.193 Y75.18 E15.45507
G1 X63 Y74.866 E15.50007
G1 X61.783 Y74.66 E15.54511
G1 X60.553 Y74.562 E15.59015
G1 X59.318 Y74.574 E15.63519
G1 X58.09 Y74.695 E15.68023
G1 X56.877 Y74.924 E15.72527
