; HEADER_BLOCK_START
; generated by OrcaSlicer 1.6.3 on 2023-06-16 at 08:27:30
; total layer number: 53
; HEADER_BLOCK_END

; THUMBNAIL_BLOCK_START
; THUMBNAIL_BLOCK_END

; external perimeters extrusion width = 0.40mm
; perimeters extrusion width = 0.45mm
; infill extrusion width = 0.45mm
; solid infill extrusion width = 0.40mm
; top infill extrusion width = 0.40mm
; first layer extrusion width = 0.50mm

; EXECUTABLE_BLOCK_START
EXCLUDE_OBJECT_DEFINE NAME=probe_holder.stl_id_0_copy_0 CENTER=60,60 POLYGON=[[46.8,55.8],[46.8018,55.7392],[46.8055,55.6955],[46.8094,55.663],[46.8111,55.6511],[46.8218,55.5921],[46.8284,55.5634],[46.83,55.557],[46.8489,55.491],[46.8534,55.4776],[46.8618,55.4539],[46.8672,55.4397],[46.8856,55.3952],[46.8865,55.3933],[46.9046,55.3548],[46.9096,55.3448],[46.9251,55.3158],[46.934,55.3],[46.9485,55.2758],[46.9578,55.2609],[46.9618,55.2546],[46.9721,55.2391],[46.975,55.2348],[46.991,55.2122],[46.9918,55.2111],[46.9977,55.2032],[47.0208,55.1732],[47.0229,55.1706],[47.0257,55.1672],[47.0307,55.1612],[47.0462,55.1429],[47.0472,55.1417],[47.0545,55.1335],[47.0569,55.1309],[47.0722,55.1141],[47.085,55.1009],[47.0888,55.097],[47.0926,55.0932],[47.1079,55.0782],[47.1248,55.0624],[47.1309,55.0569],[47.1385,55.05],[47.1534,55.0372],[47.1625,55.0296],[47.1699,55.0235],[47.1733,55.0208],[47.1743,55.0199],[47.209,54.9933],[47.212,54.9912],[47.2122,54.991],[47.2411,54.9708],[47.2445,54.9685],[47.2541,54.9622],[47.2609,54.9578],[47.2776,54.9473],[47.2841,54.9434],[47.3,54.934],[47.3154,54.9253],[47.3441,54.91],[47.3548,54.9046],[47.363,54.9006],[47.3657,54.8992],[47.3883,54.8887],[47.3933,54.8865],[47.4079,54.8801],[47.4164,54.8765],[47.4192,54.8753],[47.4391,54.8674],[47.4457,54.8649],[47.4539,54.8618],[47.4747,54.8544],[47.4903,54.8492],[47.491,54.8489],[47.495,54.8476],[47.5282,54.8377],[47.5323,54.8365],[47.5381,54.8349],[47.557,54.83],[47.5595,54.8294],[47.5665,54.8276],[47.5824,54.824],[47.5921,54.8219],[47.6074,54.8187],[47.6207,54.8162],[47.6371,54.8134],[47.6397,54.8129],[47.6442,54.8122],[47.6631,54.8094],[47.6696,54.8085],[47.6915,54.8059],[47.6955,54.8055],[47.7103,54.804],[47.7312,54.8024],[47.7432,54.8016],[47.7566,54.8009],[47.8,54.8],[72.2,54.8],[72.2542,54.8015],[72.2568,54.8016],[72.2787,54.8031],[72.2872,54.8038],[72.3045,54.8055],[72.3085,54.8059],[72.3369,54.8094],[72.337,54.8094],[72.3603,54.8129],[72.3629,54.8134],[72.3657,54.8138],[72.3748,54.8154],[72.3926,54.8187],[72.4079,54.8219],[72.4173,54.8239],[72.4335,54.8276],[72.443,54.83],[72.4505,54.8319],[72.462,54.8349],[72.4718,54.8377],[72.509,54.8489],[72.5097,54.8492],[72.5264,54.8548],[72.5332,54.8572],[72.5461,54.8618],[72.5495,54.863],[72.5609,54.8674],[72.5808,54.8753],[72.5836,54.8765],[72.6067,54.8865],[72.6117,54.8887],[72.6143,54.8899],[72.6343,54.8992],[72.6357,54.8999],[72.6452,54.9045],[72.6547,54.9094],[72.6559,54.91],[72.6778,54.9215],[72.6867,54.9264],[72.6917,54.9293],[72.7,54.934],[72.7191,54.9453],[72.7224,54.9473],[72.738,54.957],[72.746,54.9622],[72.7598,54.9713],[72.7649,54.9749],[72.788,54.9912],[72.7996,54.9997],[72.8268,55.0208],[72.8301,55.0235],[72.8348,55.0274],[72.8368,55.0289],[72.8466,55.0372],[72.8691,55.0569],[72.876,55.063],[72.8836,55.0701],[72.9007,55.0865],[72.9074,55.0932],[72.9119,55.0977],[72.9278,55.1141],[72.9431,55.1309],[72.9463,55.1344],[72.9538,55.1429],[72.9599,55.1499],[72.9693,55.1612],[72.9771,55.1706],[72.9792,55.1732],[73.0023,55.2032],[73.0082,55.2111],[73.009,55.2122],[73.0138,55.2189],[73.025,55.2348],[73.0394,55.2564],[73.0422,55.2608],[73.0515,55.2758],[73.0621,55.2933],[73.0664,55.3006],[73.0954,55.3548],[73.1033,55.3709],[73.1135,55.3933],[73.1374,55.4518],[73.1382,55.4539],[73.1509,55.4905],[73.151,55.491],[73.1647,55.5367],[73.17,55.557],[73.1782,55.5921],[73.1843,55.6237],[73.1906,55.663],[73.1945,55.6955],[73.1961,55.7113],[73.2,55.8],[73.2,64.2],[73.1996,64.2294],[73.199,64.2448],[73.1975,64.2703],[73.1962,64.2873],[73.1945,64.3045],[73.1911,64.333],[73.1906,64.337],[73.1901,64.3402],[73.185,64.3727],[73.1848,64.3738],[73.1782,64.4079],[73.1752,64.4214],[73.17,64.443],[73.1663,64.4576],[73.1605,64.4784],[73.1515,64.5076],[73.151,64.509],[73.1401,64.5411],[73.1382,64.5462],[73.1204,64.5909],[73.1135,64.6067],[73.111,64.6123],[73.1073,64.6205],[73.099,64.6379],[73.0954,64.6452],[73.0821,64.671],[73.0789,64.6769],[73.0739,64.6861],[73.0678,64.6968],[73.066,64.7],[73.0422,64.7392],[73.0406,64.7417],[73.0361,64.7485],[73.0216,64.77],[73.0171,64.7765],[73.009,64.7878],[73.0002,64.7998],[72.9835,64.8214],[72.9792,64.8268],[72.9697,64.8383],[72.9537,64.8573],[72.9534,64.8576],[72.9431,64.8691],[72.9249,64.8889],[72.9191,64.8949],[72.9127,64.9015],[72.9071,64.9072],[72.9026,64.9116],[72.8835,64.9299],[72.8691,64.9432],[72.8602,64.9511],[72.8499,64.96],[72.8465,64.9629],[72.8364,64.9714],[72.8268,64.9792],[72.8267,64.9792],[72.8267,64.9793],[72.7917,65.0062],[72.7878,65.009],[72.77,65.0217],[72.7675,65.0233],[72.7391,65.0423],[72.7234,65.0521],[72.7165,65.0563],[72.7,65.066],[72.6959,65.0684],[72.691,65.0712],[72.6451,65.0955],[72.6374,65.0992],[72.6201,65.1075],[72.6099,65.1121],[72.6067,65.1136],[72.588,65.1216],[72.5691,65.1294],[72.5545,65.1351],[72.5461,65.1382],[72.5406,65.1402],[72.5272,65.1449],[72.5118,65.1501],[72.509,65.1511],[72.4863,65.1581],[72.4679,65.1634],[72.4583,65.1661],[72.4445,65.1696],[72.4429,65.17],[72.436,65.1717],[72.4079,65.1781],[72.4034,65.1791],[72.3926,65.1813],[72.3793,65.1838],[72.3746,65.1846],[72.3584,65.1874],[72.3369,65.1906],[72.3215,65.1926],[72.3045,65.1945],[72.2892,65.196],[72.2795,65.1968],[72.2403,65.1992],[72.2294,65.1996],[72.2,65.2],[47.8,65.2],[47.7706,65.1996],[47.7597,65.1992],[47.7205,65.1968],[47.7108,65.196],[47.6955,65.1945],[47.6785,65.1926],[47.6631,65.1906],[47.6417,65.1874],[47.6254,65.1846],[47.6207,65.1838],[47.6074,65.1813],[47.5967,65.1791],[47.5921,65.1781],[47.564,65.1717],[47.5571,65.17],[47.5555,65.1696],[47.5418,65.1661],[47.5321,65.1634],[47.5137,65.1581],[47.491,65.1511],[47.4882,65.1501],[47.4728,65.1449],[47.4594,65.1402],[47.4539,65.1382],[47.4455,65.1351],[47.4309,65.1294],[47.412,65.1216],[47.3933,65.1136],[47.3901,65.1121],[47.3799,65.1075],[47.3626,65.0992],[47.3549,65.0955],[47.344,65.09],[47.309,65.0712],[47.3041,65.0684],[47.3,65.066],[47.2835,65.0563],[47.261,65.0423],[47.2324,65.0233],[47.23,65.0217],[47.2122,65.009],[47.2083,65.0062],[47.1733,64.9793],[47.1733,64.9792],[47.1724,64.9785],[47.1636,64.9714],[47.1535,64.9629],[47.1501,64.96],[47.1398,64.9511],[47.1309,64.9432],[47.1165,64.93],[47.0974,64.9116],[47.093,64.9072],[47.0929,64.9071],[47.0873,64.9015],[47.0809,64.8949],[47.0751,64.8889],[47.0569,64.8691],[47.0466,64.8576],[47.0463,64.8573],[47.0302,64.8383],[47.0208,64.8268],[47.0165,64.8214],[46.9998,64.7998],[46.991,64.7878],[46.9829,64.7765],[46.9784,64.77],[46.9639,64.7485],[46.9594,64.7417],[46.9578,64.7391],[46.934,64.7],[46.9322,64.6968],[46.9261,64.6861],[46.9211,64.6769],[46.9179,64.671],[46.9046,64.6453],[46.901,64.6379],[46.8927,64.6205],[46.889,64.6123],[46.8865,64.6067],[46.8796,64.5909],[46.8618,64.5462],[46.86,64.5411],[46.8489,64.509],[46.8485,64.5076],[46.8395,64.4784],[46.8337,64.4576],[46.83,64.443],[46.8248,64.4214],[46.8222,64.4097],[46.8218,64.4079],[46.8152,64.3738],[46.815,64.3727],[46.8094,64.337],[46.8089,64.333],[46.8055,64.3045],[46.8038,64.2873],[46.8025,64.2703],[46.801,64.2448],[46.8004,64.2294],[46.8,64.2],[46.8,55.8]]
M73 P0 R8
;TYPE:Custom
START_PRINT T_BED=110 T_EXTRUDER=260
G90
G21
M83 ; use relative distances for extrusion
; Filament gcode

    PRESSURE_ADVANCE_SELECT FILAMENT=ABS
M106 S0
;LAYER_CHANGE
;Z:0.2
;HEIGHT:0.2
;BEFORE_LAYER_CHANGE
;0.2
G92 E0

;AFTER_LAYER_CHANGE
;0.2
M204 S500
; printing object probe holder.stl id:0 copy 0
EXCLUDE_OBJECT_START NAME=probe_holder.stl_id_0_copy_0
G1 E-.5 F3000
G1 Z.2 F21000
G1 X56.985 Y59.379
G1 E.5 F1800
;TYPE:Inner wall
;WIDTH:0.64071
G1 F3000
G1 X56.95 Y59.274 E.00506
;WIDTH:0.599689
G1 X56.915 Y59.17 E.00471
;WIDTH:0.558667
G1 X56.88 Y59.066 E.00436
;WIDTH:0.517645
G1 X56.649 Y58.647 E.01747
;WIDTH:0.499999
G1 X56.534 Y58.527 E.00586
G1 X56.27 Y58.35 E.01119
G1 X55.852 Y58.242 E.01518
G1 X55.476 Y57.537 E.02811
G1 X54.986 Y56.913 E.02792
G1 X54.488 Y56.464 E.02361
G1 X54.582 Y56.467 E.00334
G1 X55.234 Y56.762 E.02518
G1 X56.351 Y57.375 E.04482
G1 X56.793 Y57.464 E.01588
G1 X58.426 Y57.464 E.0575
G1 X58.02 Y57.756 E.01762
G1 X57.548 Y58.271 E.02458
G1 X57.379 Y58.544 E.01131
;WIDTH:0.546903
G1 X57.247 Y58.822 E.01194
;WIDTH:0.593807
G1 X57.116 Y59.1 E.01305
;WIDTH:0.64071
G1 X57.01 Y59.324 E.0114
G1 E-.5
G1 Z.4 F21000
G1 X64.094 Y58.253
G1 Z.2
G1 E.5 F1800
;WIDTH:0.499999
G1 F3000
G1 X63.942 Y58.272 E.00537
G1 X63.541 Y58.466 E.01569
G1 X63.343 Y58.656 E.00964
G1 X63.134 Y59.063 E.01611
;WIDTH:0.491645
G1 X63.136 Y59.168 E.00363
;WIDTH:0.458289
G1 X63.138 Y59.274 E.00336
;WIDTH:0.424932
G1 X63.14 Y59.379 E.00309
;WIDTH:0.391575
G1 X63.157 Y59.964 E.01572
;WIDTH:0.378961
G1 X63.146 Y60.482 E.01341
;WIDTH:0.419307
G1 X63.146 Y60.651 E.00488
;WIDTH:0.459653
G1 X63.146 Y60.819 E.00541
;WIDTH:0.499999
G1 X63.146 Y60.988 E.00593
G1 X63.245 Y61.202 E.00831
G1 X63.428 Y61.436 E.01046
G1 X63.733 Y61.651 E.01312
G1 X64.15 Y61.761 E.0152
G1 X64.345 Y62.128 E.01462
G1 X64.676 Y62.681 E.02267
G1 X65.201 Y63.274 E.02787
G1 X65.513 Y63.536 E.01433
G1 X65.392 Y63.536 E.00424
G1 X65.099 Y63.41 E.01123
G1 X64.642 Y63.182 E.01797
G1 X63.655 Y62.628 E.03984
G1 X63.205 Y62.536 E.01616
G1 X61.478 Y62.536 E.06078
G1 X61.655 Y62.419 E.00748
G1 X62.13 Y62.005 E.02218
G1 X62.45 Y61.584 E.01857
G1 X62.739 Y60.996 E.02308
G1 X62.763 Y60.819 E.00627
;WIDTH:0.459653
G1 X62.787 Y60.643 E.00571
;WIDTH:0.419307
G1 X62.811 Y60.466 E.00516
;WIDTH:0.378961
G1 X62.836 Y59.818 E.01679
;WIDTH:0.405955
G1 X62.809 Y59.575 E.00683
;WIDTH:0.4488
G1 X62.783 Y59.332 E.00764
;WIDTH:0.491645
G1 X62.756 Y59.089 E.00845
;WIDTH:0.499999
G1 X62.521 Y58.544 E.02087
G1 X62.352 Y58.271 E.01131
G1 X61.88 Y57.756 E.02458
G1 X61.467 Y57.464 E.01781
G1 X62.729 Y57.464 E.04441
G1 X63.423 Y57.443 E.02443
G1 X63.786 Y57.306 E.01367
G1 X64.758 Y56.758 E.03926
G1 X65.385 Y56.468 E.02433
G1 X65.511 Y56.464 E.00444
G1 X65.056 Y56.863 E.02128
G1 X64.687 Y57.299 E.02012
G1 X64.366 Y57.793 E.02071
G1 X64.155 Y58.245 E.01758
G1 X64.153 Y58.245 E.00007
G1 E-.5
G1 Z.4 F21000
G1 X71.593 Y56.41
G1 Z.2
G1 E.5 F1800
;WIDTH:0.386356
G1 F3000
G1 X71.593 Y57.028 E.01634
G1 X71.412 Y56.817 E.00734
G1 X70.919 Y56.41 E.01692
G1 X71.533 Y56.41 E.01624
G1 E-.5
G1 Z.4 F21000
G1 X68.991 Y56.007
G1 Z.2
G1 E.5 F1800
;WIDTH:0.499999
G1 F3000
G1 X71.993 Y56.01 E.10566
G1 X71.991 Y58.317 E.08121
G1 X71.62 Y57.675 E.0261
G1 X71.004 Y56.978 E.03274
G1 X70.39 Y56.527 E.02681
G1 X69.578 Y56.152 E.03149
G1 X69.049 Y56.021 E.01917
G1 E-.5
G1 Z.4 F21000
G1 X70.944 Y63.588
G1 Z.2
G1 E.5 F1800
;WIDTH:0.396682
G1 F3000
G1 X71.588 Y63.007 E.02362
G1 X71.588 Y63.588 E.01583
G1 X71.004 Y63.588 E.0159
G1 E-.5
G1 Z.4 F21000
G1 X68.743 Y64.012
G1 Z.2
G1 E.5 F1800
;WIDTH:0.462544
G1 F3000
G1 X68.751 Y64.011 E.00026
;WIDTH:0.499999
G1 X69.456 Y63.887 E.02519
G1 X70.121 Y63.623 E.0252
G1 X70.632 Y63.317 E.02094
G1 X71.016 Y62.983 E.01791
G1 X71.421 Y62.589 E.01991
G1 X71.765 Y62.107 E.02083
G1 X71.993 Y61.65 E.01795
G1 X71.993 Y63.993 E.08245
G1 X69.346 Y63.993 E.09316
G1 X68.803 Y64.01 E.01912
G1 E-.5
M73 P1 R8
G1 Z.4 F21000
G1 X55.903 Y61.747
G1 Z.2
G1 E.5 F1800
G1 F3000
G1 X56.058 Y61.728 E.00551
G1 X56.458 Y61.535 E.0156
G1 X56.638 Y61.366 E.00868
G1 X56.861 Y60.964 E.01619
;WIDTH:0.537545
G1 X56.898 Y60.806 E.00618
;WIDTH:0.575091
G1 X56.934 Y60.648 E.00665
;WIDTH:0.612636
G1 X56.97 Y60.49 E.00712
G1 X57.032 Y60.65 E.00752
;WIDTH:0.575091
G1 X57.093 Y60.81 E.00702
;WIDTH:0.537545
G1 X57.154 Y60.97 E.00653
;WIDTH:0.499999
G1 X57.372 Y61.458 E.01879
G1 X57.746 Y61.976 E.0225
G1 X58.121 Y62.33 E.01815
G1 X58.438 Y62.536 E.0133
G1 X56.576 Y62.556 E.06556
G1 X56.217 Y62.691 E.01347
G1 X55.223 Y63.244 E.04006
G1 X54.583 Y63.533 E.02471
G1 X54.488 Y63.536 E.00335
G1 X55.045 Y63.017 E.0268
G1 X55.368 Y62.629 E.01776
G1 X55.66 Y62.163 E.01936
G1 X55.845 Y61.756 E.01572
G1 E-.5
G1 Z.4 F21000
G1 X61.311 Y62.095
G1 Z.2
G1 E.5 F1800
G1 F3000
G1 X61.256 Y62.137 E.00242
G1 X60.845 Y62.338 E.01612
;WIDTH:0.533638
G1 X60.368 Y62.489 E.0189
G1 X59.653 Y62.496 E.027
;WIDTH:0.545243
G1 X59.457 Y62.478 E.00761
G1 X58.906 Y62.276 E.02271
;WIDTH:0.499999
G1 X58.421 Y61.985 E.01991
G1 X58.107 Y61.695 E.01502
G1 X57.781 Y61.253 E.01934
G1 X57.595 Y60.851 E.0156
G1 X57.468 Y60.331 E.01883
G1 X57.45 Y59.871 E.01623
G1 X57.558 Y59.271 E.02144
G1 X57.797 Y58.728 E.02087
G1 X58.175 Y58.234 E.02189
G1 X58.634 Y57.87 E.02061
G1 X59.176 Y57.622 E.02099
;WIDTH:0.52077
G1 X59.741 Y57.498 E.02127
;WIDTH:0.532973
G1 X60.357 Y57.513 E.02326
G1 X61.098 Y57.779 E.02972
;WIDTH:0.499999
G1 X61.608 Y58.123 E.02165
G1 X62.001 Y58.564 E.0208
G1 X62.342 Y59.271 E.02761
G1 X62.451 Y59.871 E.02145
G1 X62.416 Y60.429 E.01969
G1 X62.247 Y60.997 E.02086
G1 X61.972 Y61.48 E.01955
G1 X61.683 Y61.808 E.01538
G1 X61.358 Y62.058 E.01443
G1 X60.946 Y61.783 F21000
;TYPE:Outer wall
G1 F3000
G1 X60.718 Y61.899 E.009
G1 X60.247 Y62.026 E.01719
G1 X59.653 Y62.026 E.02087
G1 X59.132 Y61.878 E.01908
G1 X58.721 Y61.64 E.01673
G1 X58.468 Y61.415 E.01188
G1 X58.19 Y61.049 E.01619
G1 X58.036 Y60.731 E.01242
G1 X57.923 Y60.299 E.01573
G1 X57.902 Y59.933 E.01291
G1 X57.977 Y59.455 E.017
G1 X58.215 Y58.912 E.02087
G1 X58.565 Y58.491 E.01927
G1 X58.945 Y58.214 E.01655
G1 X59.266 Y58.07 E.0124
G1 X59.833 Y57.956 E.02034
G1 X60.382 Y57.999 E.0194
G1 X60.938 Y58.207 E.02087
G1 X61.374 Y58.527 E.01906
G1 X61.685 Y58.912 E.0174
G1 X61.923 Y59.455 E.02087
G1 X62 Y59.964 E.0181
G1 X61.953 Y60.43 E.01649
G1 X61.844 Y60.781 E.01292
G1 X61.62 Y61.188 E.01638
G1 X61.395 Y61.453 E.01223
G1 X61.042 Y61.733 E.01584
G1 X60.999 Y61.755 E.0017
G1 X60.946 Y61.834
G1 E-.5
G1 Z.4 F21000
G1 X64.14 Y58.711
G1 Z.2
G1 E.5 F1800
;TYPE:Inner wall
G1 F3000
G1 X63.955 Y58.75 E.00663
G1 X63.754 Y58.883 E.00849
G1 X63.57 Y59.189 E.01256
G1 X63.543 Y59.377 E.0067
G1 X63.545 Y60.678 E.04578
G1 X63.638 Y60.97 E.01079
G1 X63.816 Y61.169 E.00938
G1 X64.065 Y61.287 E.0097
G1 X64.469 Y61.307 E.01426
G1 X64.553 Y61.546 E.0089
G1 X64.926 Y62.246 E.02791
G1 X65.209 Y62.594 E.0158
G1 X65.688 Y63.097 E.02443
G1 X66.242 Y63.494 E.02399
G1 X66.896 Y63.804 E.02547
;WIDTH:0.505448
G1 X67.563 Y63.99 E.02466
G1 X67.443 Y63.991 E.00427
;WIDTH:0.503807
G1 X66.869 Y63.993 E.02037
;WIDTH:0.499999
G1 X65.287 Y63.993 E.05567
G1 X64.893 Y63.818 E.01516
G1 X64.16 Y63.434 E.02913
G1 X63.475 Y63.048 E.02768
G1 X63.205 Y62.993 E.0097
G1 X60.937 Y62.993 E.07981
;WIDTH:0.526514
G1 X59.653 Y62.98 E.0478
G1 X58.962 Y62.993 E.02573
;WIDTH:0.499999
G1 X56.662 Y63.005 E.08096
G1 X56.447 Y63.086 E.00808
G1 X55.906 Y63.401 E.02204
G1 X55.423 Y63.655 E.01918
G1 X54.676 Y63.993 E.02889
G1 X53.373 Y63.993 E.04584
;WIDTH:0.51163
G1 X52.481 Y63.987 E.03221
G1 X52.575 Y63.962 E.00353
;WIDTH:0.508737
G1 X53.457 Y63.655 E.03348
;WIDTH:0.499999
G1 X53.965 Y63.363 E.02062
G1 X54.258 Y63.132 E.01313
G1 X54.694 Y62.724 E.02102
G1 X55.055 Y62.279 E.02016
G1 X55.315 Y61.837 E.01808
G1 X55.538 Y61.307 E.02022
G1 X55.944 Y61.285 E.01429
G1 X56.183 Y61.17 E.00936
G1 X56.372 Y60.952 E.01013
G1 X56.457 Y60.621 E.01202
G1 X56.457 Y59.803 E.02881
G1 X56.431 Y59.192 E.0215
G1 X56.229 Y58.868 E.01346
G1 X55.939 Y58.714 E.01154
G1 X55.531 Y58.693 E.0144
G1 X55.467 Y58.496 E.00728
G1 X55.243 Y58.042 E.01783
G1 X55.008 Y57.681 E.01515
G1 X54.528 Y57.094 E.0267
G1 X53.965 Y56.637 E.02552
G1 X53.349 Y56.295 E.02478
G1 X52.809 Y56.1 E.02019
G1 X52.3 Y55.998 E.01827
G1 X54.57 Y56.007 E.07988
G1 X54.771 Y56.05 E.00723
G1 X55.447 Y56.358 E.02616
G1 X56.527 Y56.954 E.04341
G1 X56.793 Y57.007 E.00953
G1 X59.115 Y57.007 E.08172
;WIDTH:0.516444
G1 X60.645 Y57.012 E.05578
;WIDTH:0.510671
G1 X61.238 Y57.007 E.02136
;WIDTH:0.499999
G1 X63.336 Y56.995 E.07384
G1 X63.554 Y56.912 E.0082
G1 X64.554 Y56.348 E.04039
G1 X65.293 Y56.007 E.02865
G1 X66.623 Y56.008 E.04681
