; HEADER_BLOCK_START
; generated by OrcaSlicer 1.7.0-beta on 2023-10-02 at 23:42:28
; total layer number: 53
; HEADER_BLOCK_END

; THUMBNAIL_BLOCK_START
; THUMBNAIL_BLOCK_END

; external perimeters extrusion width = 0.40mm
; perimeters extrusion width = 0.46mm
; infill extrusion width = 0.64mm
; solid infill extrusion width = 0.56mm
; top infill extrusion width = 0.40mm
; first layer extrusion width = 0.50mm

; EXECUTABLE_BLOCK_START
EXCLUDE_OBJECT_DEFINE NAME=Probe_holder_d2f_1_.STL_id_0_copy_0 CENTER=60,60 POLYGON=[[46.8,55.8],[46.8018,55.7392],[46.8055,55.6955],[46.8094,55.663],[46.8111,55.6511],[46.8218,55.5921],[46.8284,55.5634],[46.83,55.557],[46.8489,55.491],[46.8534,55.4776],[46.8618,55.4539],[46.8672,55.4397],[46.8856,55.3952],[46.8865,55.3933],[46.9046,55.3548],[46.9096,55.3448],[46.9251,55.3158],[46.934,55.3],[46.9485,55.2758],[46.9578,55.2609],[46.9618,55.2546],[46.9721,55.2391],[46.975,55.2348],[46.991,55.2122],[46.9918,55.2111],[46.9977,55.2032],[47.0208,55.1732],[47.0229,55.1706],[47.0257,55.1672],[47.0307,55.1611],[47.0462,55.1429],[47.0472,55.1417],[47.0545,55.1335],[47.0569,55.1309],[47.0722,55.1141],[47.085,55.1008],[47.0888,55.097],[47.0926,55.0932],[47.1079,55.0782],[47.1248,55.0624],[47.1309,55.0569],[47.1385,55.05],[47.1534,55.0372],[47.1624,55.0296],[47.1699,55.0235],[47.1733,55.0208],[47.1743,55.0199],[47.209,54.9933],[47.2122,54.991],[47.2411,54.9707],[47.2445,54.9685],[47.2541,54.9622],[47.2609,54.9578],[47.2776,54.9473],[47.2841,54.9434],[47.3,54.934],[47.3154,54.9253],[47.3441,54.91],[47.3441,54.9099],[47.3548,54.9046],[47.363,54.9006],[47.3657,54.8992],[47.3883,54.8887],[47.3933,54.8865],[47.4079,54.8801],[47.4164,54.8765],[47.4192,54.8753],[47.4391,54.8674],[47.4457,54.8649],[47.4539,54.8618],[47.4747,54.8544],[47.4903,54.8492],[47.491,54.8489],[47.495,54.8476],[47.5282,54.8377],[47.5323,54.8365],[47.5381,54.8349],[47.557,54.83],[47.5595,54.8294],[47.5665,54.8276],[47.5824,54.824],[47.5921,54.8219],[47.6074,54.8187],[47.6207,54.8162],[47.6371,54.8134],[47.6397,54.8129],[47.6442,54.8122],[47.6631,54.8094],[47.6696,54.8085],[47.6915,54.8059],[47.6955,54.8055],[47.7103,54.804],[47.7312,54.8024],[47.7432,54.8016],[47.7566,54.8009],[47.8,54.8],[72.2,54.8],[72.2542,54.8015],[72.2568,54.8016],[72.2787,54.8031],[72.2872,54.8038],[72.3045,54.8055],[72.3085,54.8059],[72.337,54.8094],[72.3603,54.8129],[72.3629,54.8134],[72.3656,54.8138],[72.3748,54.8154],[72.3925,54.8187],[72.4079,54.8219],[72.4173,54.8239],[72.4335,54.8276],[72.4429,54.83],[72.4505,54.8319],[72.462,54.8349],[72.4622,54.835],[72.4718,54.8377],[72.509,54.8489],[72.5097,54.8492],[72.5264,54.8548],[72.5333,54.8572],[72.5461,54.8618],[72.5495,54.863],[72.5609,54.8674],[72.5808,54.8753],[72.5836,54.8765],[72.6067,54.8865],[72.6117,54.8887],[72.6143,54.8899],[72.6343,54.8992],[72.6357,54.8999],[72.6452,54.9045],[72.6547,54.9094],[72.6559,54.91],[72.6778,54.9215],[72.6867,54.9264],[72.6917,54.9293],[72.7,54.934],[72.7191,54.9453],[72.7224,54.9473],[72.738,54.957],[72.7391,54.9577],[72.746,54.9622],[72.7598,54.9713],[72.7649,54.9748],[72.7878,54.991],[72.788,54.9912],[72.7995,54.9997],[72.8268,55.0208],[72.8301,55.0235],[72.8348,55.0274],[72.8368,55.0289],[72.8466,55.0372],[72.8691,55.0569],[72.8759,55.063],[72.8835,55.0701],[72.9007,55.0865],[72.9074,55.0932],[72.9119,55.0977],[72.9278,55.1141],[72.9431,55.1309],[72.9463,55.1344],[72.9538,55.1429],[72.9599,55.1499],[72.9693,55.1611],[72.9771,55.1706],[72.9792,55.1732],[73.0023,55.2032],[73.0082,55.2111],[73.009,55.2122],[73.0138,55.2189],[73.025,55.2348],[73.0394,55.2564],[73.0422,55.2608],[73.0515,55.2758],[73.0621,55.2933],[73.066,55.3],[73.0663,55.3006],[73.0954,55.3548],[73.1033,55.3709],[73.1135,55.3933],[73.1374,55.4518],[73.1382,55.4539],[73.1509,55.4905],[73.1647,55.5367],[73.17,55.557],[73.1781,55.5921],[73.1843,55.6237],[73.1906,55.663],[73.1945,55.6955],[73.1961,55.7113],[73.2,55.8],[73.2,64.2],[73.1996,64.2294],[73.199,64.2448],[73.1975,64.2703],[73.1962,64.2873],[73.1945,64.3045],[73.1911,64.333],[73.1906,64.337],[73.1901,64.3402],[73.185,64.3727],[73.1848,64.3738],[73.1781,64.4079],[73.1752,64.4214],[73.17,64.443],[73.1662,64.4576],[73.1604,64.4784],[73.1515,64.5076],[73.151,64.509],[73.14,64.5411],[73.1382,64.5462],[73.1204,64.5909],[73.1135,64.6067],[73.111,64.6123],[73.1073,64.6205],[73.099,64.6379],[73.0954,64.6452],[73.0821,64.671],[73.0789,64.6769],[73.0739,64.6861],[73.0678,64.6968],[73.066,64.7],[73.0422,64.7392],[73.0406,64.7417],[73.0361,64.7485],[73.0216,64.77],[73.0171,64.7765],[73.009,64.7878],[73.0002,64.7998],[72.9835,64.8214],[72.9792,64.8268],[72.9697,64.8383],[72.9537,64.8573],[72.9534,64.8576],[72.9431,64.8691],[72.9249,64.8889],[72.9191,64.8949],[72.9127,64.9015],[72.907,64.9072],[72.9026,64.9116],[72.8835,64.9299],[72.8691,64.9431],[72.8602,64.9511],[72.8499,64.96],[72.847,64.9625],[72.8465,64.9629],[72.8364,64.9714],[72.8267,64.9792],[72.7917,65.0062],[72.7878,65.009],[72.77,65.0217],[72.7675,65.0233],[72.739,65.0423],[72.7235,65.0521],[72.7165,65.0563],[72.7,65.066],[72.6959,65.0684],[72.691,65.0712],[72.6451,65.0955],[72.6374,65.0992],[72.6201,65.1075],[72.6099,65.1121],[72.6067,65.1135],[72.588,65.1216],[72.5691,65.1294],[72.5545,65.1351],[72.5461,65.1382],[72.5406,65.1402],[72.5272,65.1449],[72.5118,65.1501],[72.509,65.1511],[72.4863,65.1581],[72.4679,65.1634],[72.4583,65.1661],[72.4445,65.1696],[72.4429,65.1701],[72.436,65.1717],[72.4079,65.1781],[72.4034,65.1791],[72.3926,65.1813],[72.3793,65.1838],[72.3746,65.1846],[72.3584,65.1874],[72.3369,65.1906],[72.3215,65.1926],[72.3045,65.1945],[72.2895,65.196],[72.2795,65.1968],[72.2403,65.1992],[72.2294,65.1996],[72.2,65.2],[47.8,65.2],[47.7706,65.1996],[47.7597,65.1992],[47.7205,65.1968],[47.7105,65.196],[47.6955,65.1945],[47.6785,65.1926],[47.6631,65.1906],[47.6417,65.1874],[47.6254,65.1846],[47.6207,65.1838],[47.6074,65.1813],[47.5966,65.1791],[47.5921,65.1781],[47.564,65.1717],[47.5571,65.1701],[47.5555,65.1696],[47.5418,65.1661],[47.5321,65.1634],[47.5137,65.1581],[47.491,65.1511],[47.4882,65.1501],[47.4728,65.1449],[47.4594,65.1402],[47.4539,65.1382],[47.4455,65.1351],[47.4309,65.1294],[47.412,65.1216],[47.3933,65.1135],[47.3901,65.1121],[47.3799,65.1075],[47.3626,65.0992],[47.3549,65.0955],[47.344,65.09],[47.309,65.0712],[47.3041,65.0684],[47.3,65.066],[47.2835,65.0563],[47.261,65.0423],[47.2609,65.0422],[47.2324,65.0233],[47.23,65.0217],[47.2122,65.009],[47.2083,65.0062],[47.1733,64.9792],[47.1724,64.9785],[47.1636,64.9714],[47.1535,64.9629],[47.153,64.9625],[47.1501,64.96],[47.1398,64.9511],[47.1309,64.9431],[47.1165,64.9299],[47.0974,64.9116],[47.093,64.9072],[47.0929,64.9071],[47.0873,64.9015],[47.0809,64.8949],[47.0751,64.8889],[47.0569,64.8691],[47.0466,64.8576],[47.0463,64.8573],[47.0302,64.8383],[47.0208,64.8268],[47.0165,64.8214],[46.9998,64.7998],[46.991,64.7878],[46.9829,64.7765],[46.9784,64.77],[46.9639,64.7485],[46.9594,64.7417],[46.9578,64.7391],[46.934,64.7],[46.9322,64.6968],[46.9261,64.6861],[46.9211,64.6769],[46.9179,64.671],[46.9046,64.6453],[46.901,64.6379],[46.8927,64.6205],[46.889,64.6123],[46.8865,64.6067],[46.8796,64.5909],[46.8618,64.5461],[46.86,64.5411],[46.8489,64.509],[46.8485,64.5076],[46.8395,64.4784],[46.8338,64.4576],[46.83,64.443],[46.8248,64.4214],[46.8222,64.4097],[46.8218,64.4079],[46.8152,64.3738],[46.815,64.3727],[46.8094,64.337],[46.8089,64.333],[46.8055,64.3045],[46.8038,64.2873],[46.8025,64.2703],[46.801,64.2448],[46.8004,64.2294],[46.8,64.2],[46.8,55.8]]
M73 P0 R8
;TYPE:Custom
START_PRINT T_BED=110 T_EXTRUDER=260
G90
G21
M83 ; use relative distances for extrusion
; Filament gcode

    PRESSURE_ADVANCE_SELECT FILAMENT=ABS
M106 S0
;LAYER_CHANGE
;Z:0.2
;HEIGHT:0.2
;BEFORE_LAYER_CHANGE
;0.2
G92 E0

;AFTER_LAYER_CHANGE
;0.2
;_SET_FAN_SPEED_CHANGING_LAYER
SET_VELOCITY_LIMIT ACCEL=1000 ACCEL_TO_DECEL=500
SET_VELOCITY_LIMIT SQUARE_CORNER_VELOCITY=9
G1 E-.5 F3000
G1 Z.2 F21000
G1 X45.738 Y53.082
G1 Z.2
G1 E.5 F1800
;TYPE:Skirt
;WIDTH:0.5
G1 F3000
G1 X46.249 Y52.759 E.02128
G1 X46.942 Y52.496 E.02609
G1 X47.8 Y52.386 E.03045
G1 X72.2 Y52.386 E.85873
G1 X73.346 Y52.585 E.04092
G1 X73.773 Y52.77 E.01639
G1 X74.4 Y53.19 E.02656
G1 X74.766 Y53.551 E.01808
G1 X75.249 Y54.265 E.03034
G1 X75.462 Y54.798 E.0202
G1 X75.607 Y55.596 E.02855
G1 X75.572 Y64.729 E.32143
G1 X75.435 Y65.286 E.02018
G1 X75.027 Y66.113 E.03246
G1 X74.4 Y66.81 E.033
G1 X73.678 Y67.277 E.03025
G1 X72.786 Y67.563 E.03296
G1 X72.2 Y67.614 E.02071
G1 X47.521 Y67.601 E.86853
G1 X46.938 Y67.502 E.02084
G1 X46.061 Y67.136 E.03343
G1 X45.337 Y66.563 E.0325
G1 X44.759 Y65.751 E.03507
G1 X44.496 Y65.058 E.0261
G1 X44.39 Y64.353 E.0251
G1 X44.394 Y55.571 E.30908
G1 X44.585 Y54.654 E.03294
G1 X45.012 Y53.833 E.03258
G1 X45.71 Y53.111 E.03535
G1 X46.009 Y53.45 F21000
G1 F3000
G1 X46.46 Y53.165 E.0188
G1 X47.06 Y52.938 E.02257
G1 X47.8 Y52.843 E.02625
G1 X72.2 Y52.843 E.85873
G1 X73.248 Y53.036 E.03751
G1 X74.108 Y53.542 E.03512
G1 X74.426 Y53.856 E.01572
G1 X74.838 Y54.467 E.02592
G1 X75.027 Y54.938 E.01786
G1 X75.151 Y55.62 E.02439
G1 X75.121 Y64.654 E.31796
G1 X75 Y65.146 E.01782
G1 X74.646 Y65.86 E.02805
G1 X74.108 Y66.458 E.02831
G1 X73.477 Y66.866 E.02648
G1 X72.711 Y67.112 E.02828
G1 X72.2 Y67.157 E.01807
G1 X47.8 Y67.157 E.85873
G1 X47.049 Y67.059 E.02667
G1 X46.289 Y66.74 E.02899
G1 X45.664 Y66.244 E.02808
G1 X45.165 Y65.54 E.03038
G1 X44.938 Y64.94 E.02258
G1 X44.846 Y64.329 E.02174
G1 X44.851 Y55.598 E.30729
G1 X45.014 Y54.812 E.02826
G1 X45.382 Y54.101 E.02815
G1 X45.981 Y53.479 E.0304
; printing object Probe_holder_d2f(1).STL id:0 copy 0
G1 E-.5
EXCLUDE_OBJECT_START NAME=Probe_holder_d2f_1_.STL_id_0_copy_0
G1 Z.4 F21000
G1 X72.273 Y55.671 Z.4
G1 Z.2
G1 E.5 F1800
;TYPE:Outer wall
G1 F3000
G1 X72.32 Y55.715 E.00226
G1 X72.35 Y55.828 E.00411
G1 X72.351 Y58.275 E.08612
G1 X72.4 Y60.243 E.06929
G1 X72.351 Y61.725 E.0522
G1 X72.35 Y64.184 E.08652
G1 X72.33 Y64.267 E.00301
G1 X72.284 Y64.317 E.00239
G1 X72.184 Y64.35 E.00372
G1 X65.211 Y64.35 E.2454
G1 X64.258 Y63.901 E.03707
G1 X63.293 Y63.35 E.0391
G1 X56.704 Y63.35 E.2319
G1 X55.757 Y63.885 E.03828
G1 X54.757 Y64.35 E.03883
G1 X47.824 Y64.35 E.24399
M73 P1 R8
G1 X47.713 Y64.319 E.00407
G1 X47.67 Y64.266 E.00239
G1 X47.65 Y64.171 E.0034
G1 X47.649 Y61.725 E.08609
G1 X47.6 Y59.757 E.0693
G1 X47.649 Y58.275 E.05219
G1 X47.65 Y55.822 E.08634
G1 X47.672 Y55.728 E.00338
G1 X47.735 Y55.67 E.00304
G1 X47.829 Y55.65 E.00336
G1 X54.753 Y55.65 E.24371
G1 X55.587 Y56.028 E.03222
G1 X56.095 Y56.296 E.02019
G1 X56.704 Y56.65 E.02481
G1 X63.296 Y56.65 E.23199
G1 X63.898 Y56.295 E.02461
G1 X64.395 Y56.028 E.01984
G1 X65.213 Y55.65 E.03173
G1 X65.587 Y55.65 E.01316
G1 X72.171 Y55.65 E.2317
G1 X72.234 Y55.663 E.00225
G1 E-.5
G1 Z.4 F21000
G1 X72.069 Y55.948 Z.4
G1 X71.367 Y64.254
G1 X70.374 Y63.653
G1 Z.2
G1 E.5 F1800
;TYPE:Inner wall
G1 F3000
G1 X70.767 Y63.4 E.01645
G1 X71.129 Y63.105 E.01642
G1 X71.359 Y62.879 E.01136
G1 X71.851 Y62.299 E.02677
G1 X71.85 Y63.85 E.05459
G1 X70.432 Y63.85 E.04991
G1 X70.385 Y63.691 E.00582
G1 E-.5
G1 Z.4 F21000
G1 X72.7 Y61.446 Z.4
G1 X70.41 Y56.208
G1 Z.2
G1 E.5 F1800
G1 F3000
G1 X70.428 Y56.15 E.00214
G1 X71.85 Y56.15 E.05004
G1 X71.851 Y57.432 E.04511
G1 X71.664 Y57.495 E.00694
G1 X71.487 Y57.261 E.01033
G1 X70.965 Y56.75 E.02572
G1 X70.369 Y56.343 E.02538
G1 X70.399 Y56.246 E.00357
G1 E-.5
G1 Z.4 F21000
G1 X67.239 Y56.747 Z.4
G1 X67.037 Y56.784
G1 X66.851 Y56.825
G1 X66.595 Y56.891
G1 X66.421 Y56.944
G1 X66.214 Y57.015
G1 X66.005 Y57.097
G1 X65.798 Y57.189
G1 X65.586 Y57.294
G1 X65.378 Y57.411
G1 X65.17 Y57.55
G1 X63.664 Y58.814
G1 X63.668 Y59.054
G1 X63.9 Y59.05
G1 Z.2
G1 E.5 F1800
;TYPE:Outer wall
G1 F3000
G1 X64.73 Y59.05 E.02922
G1 X64.779 Y58.863 E.00679
G1 X64.928 Y58.478 E.01454
G1 X65.035 Y58.259 E.00859
G1 X65.253 Y57.9 E.01476
G1 X65.389 Y57.716 E.00804
G1 X65.677 Y57.39 E.01531
G1 X65.843 Y57.233 E.00805
G1 X66.18 Y56.967 E.01511
G1 X66.521 Y56.756 E.01413
G1 X66.95 Y56.554 E.01666
G1 X67.552 Y56.376 E.0221
G1 X68.005 Y56.311 E.01614
G1 X68.442 Y56.302 E.01536
G1 X68.875 Y56.344 E.01532
G1 X69.255 Y56.426 E.01368
G1 X69.524 Y56.508 E.00988
G1 X70.106 Y56.77 E.02248
G1 X70.646 Y57.138 E.023
G1 X71.111 Y57.592 E.02287
G1 X71.37 Y57.935 E.01512
G1 X71.494 Y58.131 E.00817
G1 X71.688 Y58.515 E.01515
G1 X71.773 Y58.734 E.00826
G1 X71.884 Y59.147 E.01502
G1 X71.918 Y59.372 E.00801
G1 X71.944 Y59.813 E.01557
G1 X71.943 Y60.208 E.01388
G1 X71.919 Y60.613 E.01428
G1 X71.883 Y60.853 E.00855
G1 X71.771 Y61.271 E.01525
G1 X71.688 Y61.485 E.00805
G1 X71.49 Y61.875 E.01538
G1 X71.25 Y62.234 E.01523
G1 X70.992 Y62.538 E.01403
G1 X70.794 Y62.733 E.00976
G1 X70.473 Y62.995 E.01459
G1 X70.125 Y63.219 E.01456
G1 X69.91 Y63.332 E.00857
G1 X69.51 Y63.497 E.01523
G1 X69.093 Y63.615 E.01524
G1 X68.659 Y63.683 E.01545
G1 X68.21 Y63.7 E.01581
G1 X67.574 Y63.629 E.02252
G1 X66.974 Y63.455 E.02199
G1 X66.744 Y63.357 E.0088
G1 X66.376 Y63.161 E.01468
G1 X66.185 Y63.036 E.00804
G1 X65.838 Y62.763 E.01554
G1 X65.53 Y62.454 E.01535
G1 X65.259 Y62.108 E.01547
G1 X64.938 Y61.547 E.02275
G1 X64.779 Y61.138 E.01545
G1 X64.729 Y60.95 E.00684
G1 X63.9 Y60.95 E.02919
G1 X63.9 Y59.09 E.06546
G1 X63.4 Y58.55 F21000
;TYPE:Inner wall
G1 F3000
G1 X63.4 Y61.45 E.10206
G1 X64.364 Y61.45 E.03392
G1 X64.486 Y61.763 E.01181
G1 X64.843 Y62.388 E.02534
G1 X65.155 Y62.786 E.01781
G1 X65.505 Y63.137 E.01744
G1 X65.893 Y63.443 E.01738
G1 X66.217 Y63.642 E.01338
G1 X66.165 Y63.85 E.00753
G1 X65.317 Y63.85 E.02984
G1 X64.494 Y63.46 E.03206
G1 X63.426 Y62.85 E.04327
G1 X60.463 Y62.85 E.10428
G1 X60.443 Y62.598 E.0089
G1 X60.606 Y62.571 E.00582
G1 X61.147 Y62.367 E.02037
G1 X61.392 Y62.224 E.00997
G1 X61.692 Y62 E.0132
G1 X61.996 Y61.69 E.01525
G1 X62.317 Y61.2 E.02063
G1 X62.485 Y60.78 E.01592
G1 X62.577 Y60.367 E.0149
G1 X62.603 Y59.933 E.0153
G1 X62.523 Y59.351 E.02066
G1 X62.375 Y58.925 E.01587
G1 X62.179 Y58.564 E.01449
G1 X62.036 Y58.364 E.00862
G1 X61.758 Y58.058 E.01455
G1 X61.283 Y57.706 E.02083
G1 X60.879 Y57.516 E.01571
G1 X60.424 Y57.386 E.01665
G1 X60.457 Y57.15 E.0084
G1 X63.432 Y57.15 E.10471
G1 X64.143 Y56.73 E.02906
G1 X64.618 Y56.476 E.01896
G1 X65.323 Y56.15 E.02734
G1 X65.587 Y56.15 E.00929
G1 X66.171 Y56.15 E.02055
G1 X66.228 Y56.349 E.00729
G1 X65.892 Y56.557 E.0139
G1 X65.516 Y56.855 E.01689
G1 X65.317 Y57.042 E.00962
G1 X64.999 Y57.402 E.0169
G1 X64.837 Y57.622 E.0096
G1 X64.596 Y58.018 E.01632
G1 X64.469 Y58.277 E.01016
G1 X64.364 Y58.55 E.0103
G1 X63.44 Y58.55 E.0325
G1 X62.943 Y58.093 F21000
G1 F3000
G1 X62.943 Y58.58 E.01714
G1 X62.736 Y58.633 E.00751
G1 X62.567 Y58.321 E.01248
G1 X62.393 Y58.077 E.01055
G1 X61.966 Y57.607 E.02234
G1 X63.557 Y57.607 E.05599
G1 X64.355 Y57.136 E.0326
G1 X64.505 Y57.289 E.00753
G1 X64.195 Y57.798 E.02098
G1 X64.05 Y58.093 E.01157
G1 X62.983 Y58.093 E.03756
G1 E-.5
G1 Z.4 F21000
G1 X62.747 Y61.377 Z.4
G1 Z.2
G1 E.5 F1800
G1 F3000
G1 X62.943 Y61.435 E.00719
G1 X62.943 Y61.907 E.0166
G1 X64.042 Y61.907 E.03867
G1 X64.495 Y62.702 E.0322
G1 X64.347 Y62.85 E.00737
G1 X63.548 Y62.393 E.03241
G1 X61.947 Y62.393 E.05633
G1 X62.353 Y61.978 E.02043
G1 X62.725 Y61.411 E.02388
G1 E-.5
G1 Z.4 F21000
G1 X49.576 Y63.85 Z.4
G1 Z.2
G1 E.5 F1800
G1 F3000
G1 X48.15 Y63.85 E.0502
G1 X48.149 Y62.568 E.04512
M73 P2 R8
G1 X48.336 Y62.505 E.00694
G1 X48.506 Y62.73 E.00993
G1 X48.857 Y63.095 E.01781
G1 X49.436 Y63.541 E.02571
G1 X49.628 Y63.641 E.00761
G1 X49.586 Y63.811 E.00616
G1 E-.5
G1 Z.4 F21000
G1 X48.97 Y62.334 Z.4
G1 X48.89 Y62.14
G1 X48.814 Y61.93
G1 X48.492 Y60.965
G1 X48.443 Y60.783
G1 X48.402 Y60.589
G1 X48.373 Y60.394
G1 X48.358 Y60.224
G1 X48.35 Y60
G1 X48.356 Y59.803
G1 X48.373 Y59.606
G1 X48.402 Y59.411
G1 X48.44 Y59.229
G1 X48.494 Y59.027
G1 X48.814 Y58.07
G1 X48.887 Y57.869
G1 X48.956 Y57.702
G1 X49.071 Y57.45
G1 X49.628 Y56.355
G1 Z.2
G1 E.5 F1800
G1 F3000
G1 X49.418 Y56.473 E.00848
G1 X49.036 Y56.751 E.01661
G1 X48.69 Y57.069 E.01654
G1 X48.337 Y57.493 E.01944
G1 X48.149 Y57.431 E.00695
G1 X48.15 Y56.15 E.04507
G1 X49.574 Y56.15 E.05012
G1 X49.617 Y56.316 E.00604
G1 E-.5
G1 Z.4 F21000
