; HEADER_BLOCK_START
; generated by OrcaSlicer 1.6.3 on 2023-07-16 at 20:46:56
; total layer number: 53
; HEADER_BLOCK_END

; THUMBNAIL_BLOCK_START
; THUMBNAIL_BLOCK_END

; external perimeters extrusion width = 0.40mm
; perimeters extrusion width = 0.45mm
; infill extrusion width = 0.45mm
; solid infill extrusion width = 0.40mm
; top infill extrusion width = 0.40mm
; first layer extrusion width = 0.50mm

; external perimeters extrusion width = 0.40mm
; perimeters extrusion width = 0.45mm
; infill extrusion width = 0.45mm
; solid infill extrusion width = 0.40mm
; top infill extrusion width = 0.40mm
; first layer extrusion width = 0.50mm

; EXECUTABLE_BLOCK_START
EXCLUDE_OBJECT_DEFINE NAME=Probe_holder_d2f.STL_id_0_copy_0 CENTER=60,67.7 POLYGON=[[46.8,63.5],[46.8018,63.4392],[46.8055,63.3955],[46.8094,63.363],[46.8111,63.3511],[46.8219,63.2921],[46.8284,63.2634],[46.83,63.257],[46.8489,63.191],[46.8534,63.1776],[46.8618,63.1539],[46.8672,63.1397],[46.8856,63.0952],[46.8865,63.0933],[46.9046,63.0548],[46.9096,63.0448],[46.9251,63.0158],[46.934,63],[46.9485,62.9758],[46.9578,62.9609],[46.9618,62.9546],[46.9721,62.9391],[46.975,62.9348],[46.991,62.9122],[46.9918,62.9111],[46.9977,62.9032],[47.0208,62.8732],[47.0229,62.8706],[47.0257,62.8672],[47.0307,62.8611],[47.0462,62.8429],[47.0472,62.8417],[47.0545,62.8335],[47.0569,62.8309],[47.0722,62.8141],[47.085,62.8008],[47.0888,62.797],[47.0926,62.7932],[47.1079,62.7782],[47.1248,62.7624],[47.1309,62.7569],[47.1385,62.75],[47.1534,62.7372],[47.1624,62.7296],[47.1699,62.7235],[47.1733,62.7208],[47.1743,62.7199],[47.209,62.6933],[47.2122,62.691],[47.2411,62.6707],[47.2445,62.6685],[47.2541,62.6622],[47.2609,62.6578],[47.2776,62.6473],[47.2841,62.6434],[47.3,62.634],[47.3154,62.6253],[47.3441,62.61],[47.3442,62.6099],[47.3548,62.6046],[47.363,62.6006],[47.3657,62.5992],[47.3883,62.5887],[47.3933,62.5864],[47.4079,62.5801],[47.4164,62.5765],[47.4192,62.5753],[47.4391,62.5674],[47.4457,62.5649],[47.4539,62.5618],[47.4747,62.5544],[47.4903,62.5492],[47.491,62.5489],[47.495,62.5476],[47.5282,62.5377],[47.5323,62.5365],[47.5381,62.5349],[47.557,62.53],[47.5595,62.5294],[47.5665,62.5276],[47.5824,62.524],[47.5921,62.5219],[47.6074,62.5187],[47.6207,62.5162],[47.6371,62.5134],[47.6397,62.5129],[47.6442,62.5122],[47.6631,62.5094],[47.6696,62.5085],[47.6915,62.5059],[47.6955,62.5055],[47.7103,62.504],[47.7312,62.5024],[47.7432,62.5016],[47.7566,62.5009],[47.8,62.5],[72.2,62.5],[72.2542,62.5015],[72.2568,62.5016],[72.2787,62.5031],[72.2872,62.5038],[72.3045,62.5055],[72.3085,62.5059],[72.337,62.5094],[72.3603,62.5129],[72.3629,62.5134],[72.3657,62.5138],[72.3748,62.5154],[72.3926,62.5187],[72.4079,62.5219],[72.4173,62.5239],[72.4335,62.5276],[72.443,62.53],[72.4505,62.5319],[72.462,62.5349],[72.4622,62.535],[72.4718,62.5377],[72.509,62.5489],[72.5097,62.5492],[72.5264,62.5548],[72.5333,62.5572],[72.5461,62.5618],[72.5495,62.563],[72.5609,62.5674],[72.5808,62.5753],[72.5836,62.5765],[72.6067,62.5864],[72.6117,62.5887],[72.6143,62.5899],[72.6343,62.5992],[72.6357,62.5999],[72.6452,62.6045],[72.6547,62.6094],[72.6559,62.61],[72.6778,62.6215],[72.6867,62.6264],[72.6917,62.6292],[72.7,62.634],[72.7191,62.6453],[72.7224,62.6473],[72.738,62.657],[72.7391,62.6577],[72.746,62.6622],[72.7598,62.6713],[72.7649,62.6748],[72.7878,62.691],[72.788,62.6912],[72.7995,62.6997],[72.8268,62.7208],[72.8301,62.7235],[72.8348,62.7274],[72.8368,62.7289],[72.8466,62.7372],[72.8691,62.7569],[72.876,62.763],[72.8835,62.7701],[72.9007,62.7865],[72.9074,62.7932],[72.9119,62.7977],[72.9278,62.8141],[72.9431,62.8309],[72.9463,62.8344],[72.9538,62.8429],[72.9599,62.8499],[72.9693,62.8611],[72.9771,62.8706],[72.9792,62.8732],[73.0023,62.9032],[73.0082,62.9111],[73.009,62.9122],[73.0138,62.9189],[73.025,62.9348],[73.0394,62.9564],[73.0422,62.9608],[73.0515,62.9758],[73.0621,62.9932],[73.066,63],[73.0663,63.0006],[73.0954,63.0548],[73.1033,63.0709],[73.1135,63.0933],[73.1374,63.1518],[73.1382,63.1539],[73.1509,63.1905],[73.1647,63.2367],[73.17,63.257],[73.1782,63.2921],[73.1843,63.3237],[73.1906,63.363],[73.1945,63.3955],[73.1961,63.4113],[73.2,63.5],[73.2,71.9],[73.1996,71.9294],[73.199,71.9448],[73.1975,71.9703],[73.1962,71.9873],[73.1945,72.0045],[73.1911,72.033],[73.1906,72.037],[73.1901,72.0402],[73.185,72.0727],[73.1848,72.0738],[73.1782,72.1079],[73.1752,72.1214],[73.17,72.143],[73.1662,72.1576],[73.1604,72.1784],[73.1515,72.2076],[73.151,72.209],[73.14,72.241],[73.1382,72.2462],[73.1204,72.2909],[73.1135,72.3067],[73.111,72.3123],[73.1073,72.3205],[73.099,72.3379],[73.0954,72.3452],[73.0821,72.371],[73.0789,72.3769],[73.0739,72.3861],[73.0678,72.3968],[73.066,72.4],[73.0422,72.4392],[73.0406,72.4417],[73.0361,72.4485],[73.0216,72.47],[73.0171,72.4765],[73.009,72.4878],[73.0002,72.4997],[72.9835,72.5214],[72.9792,72.5268],[72.9697,72.5383],[72.9537,72.5572],[72.9534,72.5576],[72.9431,72.5691],[72.9249,72.5889],[72.9191,72.5949],[72.9127,72.6015],[72.907,72.6072],[72.9026,72.6116],[72.8835,72.6299],[72.8691,72.6431],[72.8602,72.6511],[72.8499,72.66],[72.847,72.6625],[72.8465,72.6629],[72.8364,72.6713],[72.8267,72.6792],[72.7917,72.7062],[72.7878,72.709],[72.77,72.7217],[72.7676,72.7233],[72.739,72.7423],[72.7235,72.7521],[72.7165,72.7563],[72.7,72.766],[72.6959,72.7684],[72.691,72.7712],[72.6451,72.7955],[72.6374,72.7992],[72.6201,72.8075],[72.6099,72.8121],[72.6067,72.8135],[72.588,72.8216],[72.5691,72.8294],[72.5545,72.8351],[72.5461,72.8382],[72.5406,72.8402],[72.5272,72.8449],[72.5118,72.8501],[72.509,72.8511],[72.4863,72.8581],[72.4679,72.8634],[72.4583,72.8661],[72.4445,72.8696],[72.4429,72.87],[72.436,72.8717],[72.4079,72.8781],[72.4034,72.8791],[72.3926,72.8813],[72.3793,72.8838],[72.3746,72.8846],[72.3584,72.8874],[72.3369,72.8906],[72.3215,72.8926],[72.3045,72.8945],[72.2895,72.896],[72.2795,72.8968],[72.2403,72.8992],[72.2294,72.8996],[72.2,72.9],[47.8,72.9],[47.7706,72.8996],[47.7597,72.8992],[47.7205,72.8968],[47.7105,72.896],[47.6955,72.8945],[47.6785,72.8926],[47.6631,72.8906],[47.6417,72.8874],[47.6254,72.8846],[47.6207,72.8838],[47.6074,72.8813],[47.5966,72.8791],[47.5921,72.8781],[47.564,72.8717],[47.5571,72.87],[47.5555,72.8696],[47.5418,72.8661],[47.5321,72.8634],[47.5137,72.8581],[47.491,72.8511],[47.4882,72.8501],[47.4728,72.8449],[47.4594,72.8402],[47.4539,72.8382],[47.4455,72.8351],[47.4309,72.8294],[47.412,72.8216],[47.3933,72.8135],[47.3901,72.8121],[47.3799,72.8075],[47.3626,72.7992],[47.3549,72.7955],[47.344,72.79],[47.309,72.7712],[47.3041,72.7684],[47.3,72.766],[47.2835,72.7563],[47.261,72.7423],[47.2609,72.7422],[47.2324,72.7233],[47.23,72.7217],[47.2122,72.709],[47.2083,72.7062],[47.1733,72.6792],[47.1724,72.6785],[47.1636,72.6713],[47.1535,72.6629],[47.153,72.6625],[47.1501,72.66],[47.1398,72.6511],[47.1309,72.6431],[47.1165,72.6299],[47.0974,72.6116],[47.093,72.6072],[47.0929,72.6071],[47.0873,72.6015],[47.0809,72.5949],[47.0751,72.5889],[47.0569,72.5691],[47.0466,72.5576],[47.0463,72.5572],[47.0302,72.5383],[47.0208,72.5268],[47.0165,72.5214],[46.9998,72.4997],[46.991,72.4878],[46.9829,72.4765],[46.9784,72.47],[46.9639,72.4485],[46.9594,72.4417],[46.9578,72.4391],[46.934,72.4],[46.9322,72.3968],[46.9261,72.3861],[46.9211,72.3769],[46.9179,72.371],[46.9046,72.3453],[46.901,72.3379],[46.8927,72.3205],[46.889,72.3123],[46.8865,72.3067],[46.8796,72.2909],[46.8618,72.2461],[46.86,72.241],[46.8489,72.209],[46.8485,72.2076],[46.8396,72.1784],[46.8338,72.1576],[46.83,72.143],[46.8248,72.1214],[46.8222,72.1097],[46.8219,72.1079],[46.8152,72.0738],[46.815,72.0727],[46.8094,72.037],[46.8089,72.033],[46.8055,72.0045],[46.8038,71.9873],[46.8025,71.9703],[46.801,71.9448],[46.8004,71.9294],[46.8,71.9],[46.8,63.5]]
EXCLUDE_OBJECT_DEFINE NAME=omron_d2f-5_microswitch_probe_body_x1_rev3.STL_id_1_copy_0 CENTER=60,52.3 POLYGON=[[46.8,48.1],[46.8022,48.0344],[46.803,48.0231],[46.8086,47.9695],[46.8117,47.9475],[46.8192,47.905],[46.8226,47.8888],[46.8341,47.8412],[46.8373,47.8293],[46.8488,47.7915],[46.8531,47.7784],[46.8681,47.7372],[46.8715,47.7288],[46.8761,47.7173],[46.8981,47.6681],[46.9032,47.6576],[46.9064,47.6511],[46.9306,47.6059],[46.934,47.6],[46.9532,47.5682],[46.9675,47.546],[46.9682,47.545],[47.0067,47.4912],[47.0085,47.4889],[47.0484,47.4404],[47.0533,47.4349],[47.0713,47.4151],[47.0929,47.3929],[47.102,47.3839],[47.1408,47.3481],[47.1538,47.3369],[47.1912,47.3067],[47.1997,47.3002],[47.2206,47.2849],[47.2445,47.2685],[47.2469,47.2669],[47.267,47.2539],[47.3,47.234],[47.3057,47.2307],[47.3283,47.2182],[47.3581,47.2029],[47.3908,47.1876],[47.4173,47.1761],[47.4709,47.1557],[47.4732,47.1549],[47.4929,47.1483],[47.5226,47.1392],[47.5412,47.1341],[47.5917,47.1219],[47.6056,47.1191],[47.6599,47.1099],[47.6695,47.1086],[47.6842,47.1067],[47.6958,47.1055],[47.7426,47.1017],[47.7436,47.1016],[47.8,47.1],[72.2,47.1],[72.2563,47.1016],[72.2573,47.1016],[72.3042,47.1055],[72.3154,47.1067],[72.3305,47.1086],[72.3401,47.1099],[72.3943,47.1191],[72.4084,47.122],[72.4588,47.1341],[72.4774,47.1392],[72.5071,47.1483],[72.5269,47.1549],[72.5287,47.1555],[72.5827,47.1761],[72.6092,47.1876],[72.6418,47.2029],[72.6717,47.2182],[72.7,47.234],[72.733,47.2539],[72.7535,47.2671],[72.755,47.2681],[72.7794,47.2849],[72.8003,47.3002],[72.8088,47.3067],[72.8462,47.3369],[72.8578,47.3468],[72.8593,47.3481],[72.898,47.3839],[72.9071,47.3929],[72.9467,47.4349],[72.9516,47.4404],[72.9915,47.4889],[72.9935,47.4914],[73.0314,47.5443],[73.0325,47.546],[73.0468,47.5682],[73.066,47.6],[73.0694,47.6058],[73.0936,47.6511],[73.0969,47.6577],[73.1019,47.6681],[73.1239,47.7173],[73.1285,47.7287],[73.1319,47.7372],[73.1468,47.7783],[73.1512,47.7915],[73.1521,47.7943],[73.1624,47.8285],[73.1659,47.8412],[73.1772,47.8876],[73.1808,47.9051],[73.1883,47.9475],[73.1915,47.9695],[73.197,48.0231],[73.1978,48.0345],[73.2,48.1],[73.2,56.5],[73.1978,56.5656],[73.1978,56.5658],[73.1915,56.6305],[73.183,56.6838],[73.1807,56.6956],[73.1659,56.7588],[73.1617,56.7742],[73.1584,56.7854],[73.1578,56.7873],[73.1423,56.8348],[73.1416,56.8366],[73.1239,56.8827],[73.0968,56.9424],[73.0936,56.9489],[73.066,57],[73.0468,57.0318],[73.0373,57.0467],[73.0366,57.0479],[73.0291,57.0592],[73.0068,57.0908],[73.0052,57.093],[72.9932,57.1089],[72.9514,57.1598],[72.9513,57.1599],[72.9071,57.2071],[72.8581,57.2529],[72.8569,57.2539],[72.8088,57.2934],[72.7794,57.315],[72.763,57.3264],[72.7625,57.3268],[72.7479,57.3365],[72.7172,57.3559],[72.7159,57.3566],[72.6997,57.3662],[72.6421,57.397],[72.6416,57.3972],[72.5844,57.4232],[72.5827,57.4239],[72.5209,57.4471],[72.5204,57.4473],[72.5071,57.4517],[72.4612,57.4653],[72.4602,57.4655],[72.4588,57.4659],[72.4131,57.4769],[72.4024,57.4793],[72.4019,57.4794],[72.3482,57.489],[72.3474,57.4891],[72.3305,57.4915],[72.3042,57.4946],[72.2875,57.4962],[72.2871,57.4962],[72.2462,57.4989],[72.2455,57.499],[72.2,57.5],[47.8,57.5],[47.7546,57.499],[47.7536,57.4989],[47.7129,57.4962],[47.7124,57.4962],[47.6958,57.4946],[47.6695,57.4915],[47.6516,57.4889],[47.5981,57.4794],[47.5975,57.4793],[47.5869,57.4769],[47.5412,57.4659],[47.5398,57.4656],[47.5386,57.4652],[47.4929,57.4517],[47.4796,57.4473],[47.479,57.4471],[47.4173,57.4239],[47.4154,57.4231],[47.3585,57.3972],[47.3578,57.3969],[47.3003,57.3662],[47.2839,57.3566],[47.2827,57.3558],[47.2521,57.3365],[47.2375,57.3268],[47.2368,57.3263],[47.2206,57.315],[47.1912,57.2934],[47.1431,57.254],[47.1416,57.2527],[47.0929,57.2071],[47.0487,57.1599],[47.0486,57.1598],[47.0068,57.1089],[47.0067,57.1088],[46.9945,57.0925],[46.9933,57.0909],[46.9709,57.0592],[46.9633,57.0476],[46.9627,57.0468],[46.9532,57.0318],[46.934,57],[46.9064,56.9489],[46.9032,56.9424],[46.8761,56.8827],[46.8681,56.8628],[46.8584,56.8368],[46.8575,56.8341],[46.8428,56.7895],[46.8407,56.7824],[46.8341,56.7588],[46.8193,56.6956],[46.817,56.6838],[46.8086,56.6305],[46.8022,56.5658],[46.8022,56.5656],[46.8,56.5],[46.8,48.1]]
M73 P0 R15
;TYPE:Custom
START_PRINT T_BED=110 T_EXTRUDER=260
G90
G21
M83 ; use relative distances for extrusion
; Filament gcode

    PRESSURE_ADVANCE_SELECT FILAMENT=ABS
M106 S0
;LAYER_CHANGE
;Z:0.2
;HEIGHT:0.2
;BEFORE_LAYER_CHANGE
;0.2
G92 E0

;AFTER_LAYER_CHANGE
;0.2
SET_VELOCITY_LIMIT ACCEL_TO_DECEL=500
M204 S1000
G1 E-.5 F3000
G1 Z.2 F21000
G1 X45.114 Y45.684
G1 E.5 F1800
;TYPE:Skirt
;WIDTH:0.5
G1 F3000
G1 X45.755 Y45.122 E.02999
G1 X46.243 Y44.84 E.01985
G1 X47.05 Y44.566 E.03
G1 X47.609 Y44.492 E.01984
G1 X72.391 Y44.492 E.87215
G1 X72.95 Y44.566 E.01984
G1 X73.757 Y44.84 E.03
G1 X74.616 Y45.414 E.03638
G1 X75.178 Y46.055 E.03
G1 X75.46 Y46.543 E.01985
G1 X75.636 Y46.982 E.01664
G1 X75.802 Y47.818 E.02998
G1 X75.814 Y56.538 E.30689
G1 X75.61 Y72.052 E.54605
G1 X75.435 Y72.986 E.03343
G1 X75.06 Y73.762 E.03035
G1 X74.766 Y74.149 E.01712
G1 X74.353 Y74.549 E.02022
G1 X73.678 Y74.977 E.02812
G1 X72.786 Y75.263 E.03296
G1 X72.2 Y75.314 E.02071
G1 X47.8 Y75.314 E.85873
G1 X47 Y75.218 E.02836
G1 X46.578 Y75.087 E.01556
G1 X45.661 Y74.56 E.03722
G1 X45.063 Y73.938 E.03035
G1 X44.759 Y73.451 E.0202
G1 X44.496 Y72.758 E.0261
G1 X44.386 Y71.938 E.02912
G1 X44.186 Y56.538 E.54203
G1 X44.186 Y48.1 E.29696
G1 X44.248 Y47.44 E.02332
G1 X44.394 Y46.896 E.01984
G1 X44.771 Y46.131 E.03001
G1 X45.077 Y45.731 E.01773
G1 X45.458 Y45.985 F21000
G1 F3000
G1 X45.458 Y45.985 E.00001
G1 X46.009 Y45.502 E.02579
G1 X46.445 Y45.25 E.01774
G1 X47.14 Y45.014 E.0258
G1 X47.639 Y44.948 E.01774
G1 X72.361 Y44.948 E.87005
G1 X72.861 Y45.014 E.01774
G1 X73.555 Y45.25 E.0258
G1 X74.315 Y45.758 E.03218
G1 X74.798 Y46.309 E.0258
G1 X75.05 Y46.745 E.01774
G1 X75.346 Y47.848 E.04017
G1 X75.357 Y56.532 E.30563
G1 X75.154 Y72.028 E.54542
G1 X75.027 Y72.762 E.02622
G1 X74.866 Y73.177 E.01564
G1 X74.368 Y73.909 E.03118
G1 X73.477 Y74.566 E.03897
G1 X72.711 Y74.812 E.02828
G1 X72.2 Y74.857 E.01807
G1 X47.8 Y74.857 E.85873
G1 X47.111 Y74.775 E.02442
G1 X46.69 Y74.64 E.01556
G1 X46.289 Y74.44 E.01577
G1 X45.707 Y73.988 E.02594
G1 X45.382 Y73.599 E.01785
G1 X45.049 Y72.984 E.0246
G1 X44.849 Y72.081 E.03255
G1 X44.643 Y56.532 E.54728
G1 X44.654 Y47.848 E.30563
G1 X44.95 Y46.745 E.04017
G1 X45.424 Y46.035 E.03006
; printing object Probe_holder_d2f.STL id:0 copy 0
EXCLUDE_OBJECT_START NAME=Probe_holder_d2f.STL_id_0_copy_0
G1 E-.5
G1 Z.4 F21000
G1 X60.609 Y65.659
G1 Z.2
G1 E.5 F1800
;TYPE:Outer wall
G1 F3000
G1 X60.704 Y65.685 E.00345
G1 X61.025 Y65.837 E.01252
G1 X61.421 Y66.131 E.01735
G1 X61.646 Y66.378 E.01179
G1 X61.754 Y66.529 E.00651
G1 X61.916 Y66.828 E.01198
G1 X62.034 Y67.169 E.01268
G1 X62.101 Y67.652 E.01719
G1 X62.08 Y67.997 E.01217
G1 X62.006 Y68.332 E.01205
G1 X61.871 Y68.668 E.01274
G1 X61.604 Y69.075 E.01716
G1 X61.362 Y69.322 E.01216
G1 X61.115 Y69.507 E.01085
G1 X60.931 Y69.614 E.0075
G1 X60.476 Y69.786 E.01714
G1 X60.121 Y69.844 E.01263
G1 X59.774 Y69.844 E.01221
G1 X59.301 Y69.751 E.01698
G1 X58.963 Y69.611 E.01287
G1 X58.679 Y69.435 E.01177
G1 X58.535 Y69.319 E.0065
G1 X58.296 Y69.075 E.01201
G1 X58.029 Y68.668 E.01716
G1 X57.896 Y68.337 E.01253
G1 X57.85 Y68.163 E.00635
G1 X57.803 Y67.828 E.01191
G1 X57.812 Y67.467 E.01269
G1 X57.919 Y66.991 E.01717
G1 X58.061 Y66.671 E.01233
G1 X58.335 Y66.28 E.01682
G1 X58.603 Y66.023 E.01305
G1 X58.875 Y65.838 E.01158
G1 X59.043 Y65.75 E.00667
G1 X59.355 Y65.634 E.01171
G1 X59.538 Y65.589 E.00664
G1 X59.87 Y65.55 E.01175
G1 X60.362 Y65.589 E.01739
G1 X60.552 Y65.642 E.00692
G1 X60.623 Y65.644
G1 E-.5
G1 Z.4 F21000
G1 X60 Y65.636
G1 X59.868 Y65.636
G1 X59.716 Y65.643
G1 X59.547 Y65.658
G1 X59.373 Y65.681
G1 X59.206 Y65.713
G1 X59.039 Y65.753
G1 X58.862 Y65.806
G1 X58.69 Y65.868
G1 X58.534 Y65.935
G1 X58.364 Y66.02
G1 X58.176 Y66.13
G1 X58.036 Y66.226
G1 X57.878 Y66.349
G1 X57.814 Y66.542
G1 X57.762 Y66.729
G1 X57.718 Y66.917
G1 X57.253 Y69.23
G1 Z.2
G1 E.5 F1800
;TYPE:Inner wall
G1 F3000
G1 X57.547 Y69.678 E.01887
G1 X57.953 Y70.093 E.02043
G1 X56.452 Y70.093 E.05281
G1 X55.656 Y70.543 E.0322
G1 X55.508 Y70.395 E.00735
G1 X55.958 Y69.607 E.03194
G1 X57.057 Y69.607 E.03867
G1 X57.057 Y69.288 E.01122
G1 X57.195 Y69.247 E.00508
G1 E-.5
G1 Z.4 F21000
G1 X57.967 Y65.307
