; generated by SuperSlicer 2.5.59 on 2023-01-28 at 22:09:51 UTC


;
;

;
;
; 

; external perimeters extrusion width = 0.40mm
; perimeters extrusion width = 0.46mm
; infill extrusion width = 0.64mm
; solid infill extrusion width = 0.56mm
; top infill extrusion width = 0.40mm
; first layer extrusion width = 0.50mm

; external perimeters extrusion width = 0.40mm
; perimeters extrusion width = 0.46mm
; infill extrusion width = 0.64mm
; solid infill extrusion width = 0.56mm
; top infill extrusion width = 0.40mm
; first layer extrusion width = 0.50mm

; object:{"name":"Probe_Retainer","id":"Probe_Retainer.stl id:0 copy 0","object_center":[45.795384,65.368676,0.000000],"boundingbox_center":[45.795384,65.368676,10.370099],"boundingbox_size":[26.000000,30.800003,20.740198]}
; object:{"name":"Probe_Retainer_rotated","id":"Probe_Retainer_rotated.stl id:1 copy 0","object_center":[72.729617,51.232322,0.000000],"boundingbox_center":[72.729617,51.232322,9.999500],"boundingbox_size":[28.950001,24.002001,19.999001]}
; plater:{"center":[60.000001,60.000000,0.000000],"boundingbox_center":[60.000001,60.000000,10.370099],"boundingbox_size":[54.409233,41.537356,20.740198]}

M73 P0 R31
;TYPE:Custom
; custom gcode: start_gcode
START_PRINT T_BED=110 T_EXTRUDER=240
; custom gcode end: start_gcode
M107
G21 ; set units to millimeters
G90 ; use absolute coordinates
M82 ; use absolute distances for extrusion
G92 E0
; custom gcode: start_filament_gcode
; Filament gcode

    PRESSURE_ADVANCE_SELECT FILAMENT=ABS
; custom gcode end: start_filament_gcode
;_TOOLCHANGE 0
M104 S240 ; set temperature
M109 S240 ; set temperature and wait for it to be reached
M190 S110 ; set bed temperature and wait for it to be reached
;LAYER_CHANGE
;Z:0.2
;HEIGHT:0.2
G1 Z0.2 F12000
M73 P0 R31
G1 E-0.5 F3000
M204 S2000
G1 X31.518 Y47.199 F12000
G1 E0 F1800
;TYPE:Skirt
;WIDTH:0.52
G1 X30.736 Y47.8 E0.03677
G1 X30.108 Y48.56 E0.07356
G1 X29.664 Y49.441 E0.11032
G1 X29.428 Y50.399 E0.14711
G1 X29.387 Y50.974 E0.16862
G1 X29.385 Y80.28 E1.26141
G1 X29.666 Y81.702 E1.31546
G1 X30.509 Y83.002 E1.37323
G1 X31.862 Y83.898 E1.43377
G1 X33.284 Y84.18 E1.48781
G1 X58.307 Y84.18 E2.42089
G1 X59.634 Y83.934 E2.47122
G1 X60.399 Y83.561 E2.50297
G1 X88.503 Y65.636 E3.74593
G1 X89.813 Y64.196 E3.81854
G1 X90.22 Y62.532 E3.8824
G1 X90.21 Y40.052 E4.72068
G1 X90.008 Y38.852 E4.76604
G1 X89.463 Y37.756 E4.81169
G1 X88.168 Y36.635 E4.87554
G1 X86.508 Y36.214 E4.9394
G1 X84.493 Y36.182 E5.01456
G1 X83.689 Y36.257 E5.04467
G1 X32.896 Y46.653 E6.97795
G1 X32.268 Y46.838 E7.00237
G1 X31.518 Y47.199 E7.0334
G1 X31.772 Y47.603 F12000
G1 F1800
G1 X31.074 Y48.137 E7.06619
G1 X30.512 Y48.814 E7.09899
G1 X30.115 Y49.598 E7.13177
G1 X29.902 Y50.452 E7.16458
G1 X29.864 Y50.974 E7.1841
G1 X29.862 Y80.28 E8.27688
G1 X30.111 Y81.531 E8.32447
G1 X30.846 Y82.664 E8.37482
G1 X32.033 Y83.453 E8.42795
G1 X33.284 Y83.702 E8.47553
G1 X58.307 Y83.702 E9.4086
G1 X59.464 Y83.489 E9.45247
G1 X60.142 Y83.158 E9.48062
G1 X88.246 Y65.234 E10.72359
G1 X89.337 Y64.073 E10.78299
G1 X89.743 Y62.529 E10.84255
G1 X89.733 Y40.053 E11.68065
G1 X89.512 Y38.876 E11.72531
G1 X88.042 Y37.11 E11.81099
G1 X86.501 Y36.691 E11.87054
G1 X84.485 Y36.659 E11.94571
G1 X83.784 Y36.725 E11.97195
G1 X32.992 Y47.121 E13.90523
G1 X32.425 Y47.288 E13.92725
G1 X31.772 Y47.603 E13.9543
G92 E0
G1 E-0.5 F3000
; printing object Probe_Retainer.stl id:0 copy 0
; acceleration to travel
M204 S4000
G1 X41.121 Y69.343 F12000
; decel to extrusion
M204 S2000
G1 X45.795 Y80.214
; end travel
G1 E0 F1800
;TYPE:External perimeter
;WIDTH:0.5
G1 X33.35 Y80.214 E0.44462
G1 X33.352 Y51.217 E1.48056
;TYPE:Internal perimeter
G1 X33.809 Y51.211 E1.49689
G1 X33.807 Y79.757 E2.51671
G1 X57.783 Y79.757 E3.37328
M73 P1 R31
G1 X57.782 Y76.786 E3.47943
G1 X44.539 Y60.868 E4.21916
G1 X44.36 Y60.61 E4.23039
G1 X44.213 Y60.293 E4.24287
G1 X44.123 Y59.955 E4.25536
G1 X44.096 Y59.642 E4.26659
G1 X44.096 Y50.983 E4.57595
G1 X34.515 Y50.983 E4.91822
G1 X34.495 Y51.44 E4.93457
G1 X43.639 Y51.44 E5.26124
G1 X43.639 Y59.662 E5.55499
G1 X43.671 Y60.034 E5.56835
G1 X43.782 Y60.449 E5.58367
G1 X43.962 Y60.838 E5.599
G1 X44.175 Y61.145 E5.61235
G1 X47.342 Y64.951 E5.78924
G1 X47.189 Y65.179 E5.79902
G1 X46.66 Y65.012 E5.81883
G1 X46.261 Y64.954 E5.83325
G1 X45.864 Y64.963 E5.84743
G1 X45.462 Y65.036 E5.86202
G1 X45.081 Y65.174 E5.87649
G1 X44.729 Y65.371 E5.8909
G1 X44.414 Y65.622 E5.90531
G1 X44.143 Y65.922 E5.91973
G1 X43.925 Y66.261 E5.93414
G1 X43.765 Y66.631 E5.94856
G1 X43.667 Y67.023 E5.96297
G1 X43.657 Y67.146 E5.96737
G1 X44.115 Y67.164 E5.98371
G1 X44.12 Y67.097 E5.98611
G1 X44.2 Y66.779 E5.99786
G1 X44.33 Y66.477 E6.0096
G1 X44.508 Y66.2 E6.02134
G1 X44.728 Y65.956 E6.03309
G1 X44.985 Y65.751 E6.04483
G1 X45.272 Y65.591 E6.05657
G1 X45.582 Y65.479 E6.06834
G1 X45.91 Y65.419 E6.08026
G1 X46.233 Y65.412 E6.0918
G1 X46.558 Y65.459 E6.10354
G1 X46.872 Y65.558 E6.11529
G1 X47.165 Y65.706 E6.12703
G1 X47.43 Y65.901 E6.13877
G1 X47.637 Y66.112 E6.14934
G1 X54.329 Y74.156 E6.52317
G1 X54.498 Y74.395 E6.53364
G1 X54.64 Y74.689 E6.54528
G1 X54.733 Y75.001 E6.55693
G1 X54.775 Y75.324 E6.56857
G1 X54.763 Y75.65 E6.58021
G1 X54.7 Y75.97 E6.59185
G1 X54.586 Y76.275 E6.60349
G1 X54.424 Y76.558 E6.61513
G1 X54.219 Y76.811 E6.62678
G1 X53.976 Y77.028 E6.63842
G1 X53.701 Y77.202 E6.65006
G1 X53.401 Y77.331 E6.6617
G1 X53.085 Y77.409 E6.67334
G1 X52.793 Y77.433 E6.68381
G1 X46.307 Y77.433 E6.91554
G1 X46.325 Y76.976 E6.93188
;TYPE:External perimeter
G1 X52.774 Y76.976 E7.1623
G1 X53.011 Y76.956 E7.17079
G1 X53.255 Y76.896 E7.17978
G1 X53.487 Y76.797 E7.18878
G1 X53.699 Y76.662 E7.19777
G1 X53.887 Y76.494 E7.20676
G1 X54.046 Y76.299 E7.21576
G1 X54.171 Y76.08 E7.22475
G1 X54.259 Y75.844 E7.23375
G1 X54.308 Y75.597 E7.24274
G1 X54.316 Y75.346 E7.25174
G1 X54.284 Y75.096 E7.26073
G1 X54.213 Y74.855 E7.26972
G1 X54.103 Y74.628 E7.27872
G1 X53.966 Y74.434 E7.28721
G1 X47.298 Y66.418 E7.65971
G1 X47.13 Y66.247 E7.66827
G1 X46.925 Y66.097 E7.67735
G1 X46.698 Y65.982 E7.68642
G1 X46.456 Y65.906 E7.69549
G1 X46.205 Y65.87 E7.70456
G1 X45.956 Y65.875 E7.71346
G1 X45.701 Y65.922 E7.72271
G1 X45.462 Y66.008 E7.73178
G1 X45.241 Y66.132 E7.74085
G1 X45.042 Y66.29 E7.74993
G1 X44.872 Y66.479 E7.759
G1 X44.735 Y66.692 E7.76807
G1 X44.634 Y66.926 E7.77715
G1 X44.573 Y67.172 E7.78622
G1 X44.553 Y67.411 E7.79478
G1 X44.553 Y75.432 E8.08136
G1 X44.571 Y75.662 E8.0896
G1 X44.628 Y75.9 E8.09834
G1 X44.722 Y76.126 E8.10707
G1 X44.849 Y76.334 E8.1158
G1 X45.008 Y76.52 E8.12454
G1 X45.194 Y76.679 E8.13327
G1 X45.403 Y76.807 E8.14201
G1 X45.628 Y76.9 E8.15074
G1 X45.868 Y76.958 E8.15955
;TYPE:Internal perimeter
G1 X45.85 Y77.415 E8.17589
G1 X45.794 Y77.41 E8.1779
G1 X45.487 Y77.336 E8.1892
G1 X45.194 Y77.215 E8.20051
G1 X44.925 Y77.05 E8.21181
G1 X44.684 Y76.845 E8.22311
G1 X44.479 Y76.604 E8.23442
G1 X44.313 Y76.334 E8.24572
G1 X44.192 Y76.042 E8.25703
G1 X44.118 Y75.734 E8.26833
G1 X44.096 Y75.45 E8.2785
G1 X44.096 Y67.621 E8.55822
G1 X43.639 Y67.602 E8.57457
G1 X43.639 Y75.24 E8.84744
G1 X43.231 Y75.24 E8.86201
G1 X43.231 Y54.269 E9.61121
G1 X43.204 Y53.931 E9.62331
G1 X43.114 Y53.554 E9.63718
G1 X42.965 Y53.195 E9.65106
G1 X42.762 Y52.864 E9.66493
G1 X42.51 Y52.569 E9.67881
G1 X42.215 Y52.316 E9.69268
G1 X41.883 Y52.113 E9.70655
G1 X41.525 Y51.965 E9.72043
G1 X41.147 Y51.874 E9.73431
G1 X41.037 Y51.866 E9.73823
G1 X41.019 Y52.323 E9.75458
G1 X41.075 Y52.327 E9.75658
G1 X41.383 Y52.401 E9.76788
G1 X41.675 Y52.522 E9.77919
G1 X41.945 Y52.687 E9.79049
G1 X42.186 Y52.893 E9.8018
G1 X42.391 Y53.133 E9.8131
G1 X42.557 Y53.403 E9.8244
G1 X42.678 Y53.696 E9.83571
G1 X42.751 Y54.003 E9.84701
G1 X42.774 Y54.287 E9.85718
G1 X42.774 Y75.45 E10.61326
G1 X42.751 Y75.734 E10.62343
G1 X42.678 Y76.042 E10.63474
G1 X42.557 Y76.334 E10.64604
G1 X42.391 Y76.604 E10.65735
G1 X42.186 Y76.845 E10.66865
G1 X41.945 Y77.05 E10.67995
G1 X41.675 Y77.215 E10.69126
G1 X41.383 Y77.336 E10.70256
G1 X41.075 Y77.41 E10.71387
G1 X41.019 Y77.415 E10.71587
G1 X41.001 Y76.958 E10.73221
;TYPE:External perimeter
G1 X41.241 Y76.9 E10.74102
G1 X41.467 Y76.807 E10.74976
G1 X41.676 Y76.679 E10.75849
G1 X41.862 Y76.52 E10.76722
G1 X42.02 Y76.334 E10.77596
G1 X42.148 Y76.126 E10.78469
G1 X42.242 Y75.9 E10.79343
G1 X42.299 Y75.662 E10.80216
G1 X42.317 Y75.432 E10.8104
G1 X42.317 Y54.305 E11.5652
G1 X42.299 Y54.075 E11.57344
G1 X42.242 Y53.837 E11.58218
G1 X42.148 Y53.611 E11.59091
G1 X42.02 Y53.403 E11.59965
G1 X41.862 Y53.217 E11.60838
G1 X41.676 Y53.058 E11.61711
G1 X41.467 Y52.931 E11.62585
G1 X41.241 Y52.837 E11.63458
G1 X41.004 Y52.78 E11.64332
G1 X40.774 Y52.762 E11.65156
G1 X37.132 Y52.762 E11.78167
G1 X36.902 Y52.78 E11.78991
G1 X36.664 Y52.837 E11.79865
G1 X36.438 Y52.931 E11.80738
G1 X36.23 Y53.058 E11.81611
G1 X36.044 Y53.217 E11.82485
G1 X35.885 Y53.403 E11.83358
G1 X35.757 Y53.611 E11.84232
G1 X35.664 Y53.837 E11.85105
G1 X35.607 Y54.075 E11.85978
G1 X35.588 Y54.305 E11.86803
G1 X35.588 Y75.432 E12.62282
G1 X35.607 Y75.662 E12.63107
G1 X35.664 Y75.9 E12.6398
G1 X35.757 Y76.126 E12.64853
G1 X35.885 Y76.334 E12.65727
G1 X36.044 Y76.52 E12.666
G1 X36.23 Y76.679 E12.67474
G1 X36.438 Y76.807 E12.68347
G1 X36.664 Y76.9 E12.6922
G1 X36.902 Y76.957 E12.70094
G1 X37.132 Y76.976 E12.70918
G1 X40.545 Y76.976 E12.83113
;TYPE:Internal perimeter
G1 X40.563 Y77.433 E12.84747
G1 X37.114 Y77.433 E12.9707
G1 X36.83 Y77.41 E12.98087
G1 X36.522 Y77.336 E12.99217
G1 X36.23 Y77.215 E13.00348
G1 X35.96 Y77.05 E13.01478
G1 X35.72 Y76.845 E13.02609
G1 X35.514 Y76.604 E13.03739
G1 X35.349 Y76.334 E13.0487
G1 X35.228 Y76.042 E13.06
G1 X35.154 Y75.734 E13.07131
G1 X35.131 Y75.45 E13.08147
G1 X35.131 Y54.287 E13.83756
G1 X35.154 Y54.003 E13.84772
G1 X35.228 Y53.696 E13.85903
G1 X35.349 Y53.403 E13.87033
G1 X35.514 Y53.133 E13.88164
G1 X35.72 Y52.893 E13.89294
G1 X35.96 Y52.687 E13.90425
G1 X36.23 Y52.522 E13.91555
G1 X36.522 Y52.401 E13.92685
G1 X36.83 Y52.327 E13.93816
G1 X37.114 Y52.305 E13.94833
G1 X40.563 Y52.305 E14.07156
G1 X40.581 Y51.848 E14.0879
G1 X37.096 Y51.848 E14.21242
G1 X36.758 Y51.874 E14.22451
G1 X36.381 Y51.965 E14.23839
G1 X36.022 Y52.113 E14.25226
G1 X35.691 Y52.316 E14.26614
G1 X35.395 Y52.569 E14.28001
G1 X35.143 Y52.864 E14.29389
G1 X34.94 Y53.195 E14.30776
G1 X34.792 Y53.554 E14.32164
G1 X34.701 Y53.932 E14.33551
G1 X34.674 Y54.269 E14.34761
G1 X34.674 Y75.468 E15.10497
G1 X34.701 Y75.806 E15.11707
G1 X34.792 Y76.183 E15.13094
G1 X34.94 Y76.542 E15.14482
G1 X35.143 Y76.873 E15.15869
G1 X35.395 Y77.169 E15.17256
G1 X35.691 Y77.421 E15.18644
G1 X36.022 Y77.624 E15.20031
G1 X36.381 Y77.772 E15.21419
G1 X36.758 Y77.863 E15.22806
G1 X37.096 Y77.89 E15.24016
G1 X40.81 Y77.89 E15.37284
G1 X41.147 Y77.863 E15.38493
G1 X41.525 Y77.772 E15.39881
G1 X41.883 Y77.624 E15.41268
G1 X42.215 Y77.421 E15.42656
G1 X42.51 Y77.169 E15.44043
G1 X42.762 Y76.873 E15.45431
G1 X42.965 Y76.542 E15.46818
G1 X43.114 Y76.183 E15.48206
G1 X43.204 Y75.806 E15.49593
G1 X43.213 Y75.696 E15.49986
G1 X43.657 Y75.696 E15.51571
G1 X43.665 Y75.806 E15.51965
G1 X43.756 Y76.183 E15.53352
G1 X43.905 Y76.542 E15.54739
G1 X44.108 Y76.873 E15.56127
G1 X44.36 Y77.169 E15.57514
G1 X44.655 Y77.421 E15.58902
G1 X44.986 Y77.624 E15.60289
G1 X45.345 Y77.772 E15.61677
G1 X45.723 Y77.863 E15.63064
G1 X46.06 Y77.89 E15.64274
G1 X52.811 Y77.89 E15.88393
G1 X53.159 Y77.862 E15.89638
G1 X53.547 Y77.765 E15.91067
G1 X53.915 Y77.608 E15.92496
G1 X54.252 Y77.394 E15.93925
G1 X54.551 Y77.127 E15.95354
G1 X54.803 Y76.817 E15.96783
G1 X55.001 Y76.469 E15.98212
G1 X55.141 Y76.095 E15.99641
G1 X55.219 Y75.702 E16.0107
G1 X55.233 Y75.303 E16.02498
G1 X55.164 Y74.765 E16.04434
G1 X55.415 Y74.656 E16.05414
G1 X57.325 Y76.951 E16.1608
G1 X57.326 Y79.3 E16.24471
G1 X34.264 Y79.3 E17.06861
G1 X34.266 Y51.668 E18.05577
;WIDTH:0.348935
G1 X34.058 Y50.983 E18.07363
;WIDTH:0.5
G1 X34.038 Y50.983 E18.07437
;WIDTH:0.373785
G1 X33.405 Y50.767 E18.09223
;TYPE:External perimeter
;WIDTH:0.5
G1 X33.451 Y50.694 E18.0953
G1 X33.604 Y50.571 E18.10232
G1 X33.815 Y50.526 E18.11003
G1 X34.287 Y50.526 E18.12689
G1 X44.553 Y50.526 E18.49365
G1 X44.553 Y59.622 E18.81864
G1 X44.575 Y59.876 E18.82774
G1 X44.645 Y60.137 E18.83738
G1 X44.758 Y60.382 E18.84703
G1 X44.903 Y60.591 E18.85613
G1 X58.239 Y76.62 E19.60105
G1 X58.241 Y80.214 E19.72944
G1 X45.795 Y80.214 E20.17405
;WIPE_START
M204 S4000
G1 X45.595 Y79.867 F12000
;WIPE_END
G92 E0
G1 E-0.5 F3000
; acceleration to travel
G1 X51.978 Y76.311 F12000
; decel to extrusion
M204 S2000
G1 X55.17 Y74.533
; end travel
G1 E0 F1800
;TYPE:Gap fill
;WIDTH:0.705026
G1 X55.138 Y74.476 E0.00337
G1 X55.075 Y74.371 E0.00971
;WIDTH:0.658646
G1 X55.011 Y74.266 E0.01561
G1 X54.916 Y74.122 E0.02393
;WIDTH:0.620582
G1 X54.819 Y73.995 E0.03113
;WIDTH:0.594769
G1 X54.708 Y73.851 E0.03897
G1 X51.357 Y69.823 E0.26501
G1 X48.005 Y65.794 E0.49105
G1 X47.99 Y65.777 E0.49202
G1 X47.883 Y65.658 E0.49896
;WIDTH:0.621079
G1 X47.775 Y65.538 E0.50623
G1 X47.652 Y65.42 E0.51395
;WIDTH:0.658944
G1 X47.555 Y65.341 E0.51997
;WIDTH:0.710167
G1 X47.411 Y65.226 E0.52957
G1 X46.815 Y64.76 F12000
;TYPE:Solid infill
;WIDTH:0.609984
G1 F2400
G1 X43.341 Y61.287 E0.74365
G1 X43.341 Y61.933 F12000
G1 F2400
G1 X46.228 Y64.82 E0.92158
G1 X45.642 Y64.88 F12000
G1 F2400
G1 X43.341 Y62.58 E1.06336
G1 X43.341 Y63.226 F12000
G1 F2400
G1 X45.127 Y65.011 E1.1734
G1 X44.72 Y65.251 F12000
G1 F2400
G1 X43.341 Y63.872 E1.25838
G1 X43.341 Y64.519 F12000
G1 F2400
G1 X44.334 Y65.511 E1.31953
G1 X44.049 Y65.873 F12000
G1 F2400
G1 X43.341 Y65.165 E1.36316
G92 E0
G1 E-0.5 F3000
; acceleration to travel
M204 S4000
G1 X44.146 Y63.055 F12000
; decel to extrusion
M204 S2000
G1 X44.542 Y62.018
; end travel
G1 E0 F1800
;TYPE:Gap fill
;WIDTH:0.14292
G1 X44.229 Y61.676 E0.00362
;WIDTH:0.223673
G1 X43.917 Y61.333 E0.01017
G1 X43.906 Y61.321 E0.0104
G1 X43.842 Y61.236 E0.01191
;WIDTH:0.265133
G1 X43.777 Y61.151 E0.01377
;WIDTH:0.303618
G1 X43.712 Y61.066 E0.01594
;WIDTH:0.349295
G1 X43.6 Y60.93 E0.02017
G1 X43.561 Y60.783 E0.02381
;WIDTH:0.255274
G1 X43.522 Y60.636 E0.02634
;WIDTH:0.181874
G1 X43.499 Y60.54 E0.02741
G1 X43.481 Y60.341 E0.02958
G92 E0
G1 E-0.5 F3000
; acceleration to travel
M204 S4000
G1 X42.882 Y54.533 F12000
; decel to extrusion
M204 S2000
G1 X42.578 Y51.577
; end travel
G1 E0 F1800
;TYPE:Solid infill
;WIDTH:0.65
G1 F2400
G1 X43.502 Y52.501 E0.06069
; acceleration to travel
M204 S4000
G1 X43.408 Y53.186 F12000
; decel to extrusion
M204 S2000
G1 X43.362 Y53.523
; end travel
;TYPE:Gap fill
;WIDTH:0.14292
G1 F1800
G1 X43.344 Y53.407 E0.0616
;WIDTH:0.190297
G1 X43.326 Y53.292 E0.06295
;WIDTH:0.237673
G1 X43.307 Y53.177 E0.06472
;WIDTH:0.285049
G1 X43.289 Y53.061 E0.06693
;WIDTH:0.353206
G1 X43.24 Y52.879 E0.07151
G1 X43.115 Y52.739 E0.07606
;WIDTH:0.293676
G1 X43.05 Y52.656 E0.07813
G1 X43.03 Y52.634 E0.0787
G1 X42.438 Y52.042 E0.09512
G1 X42.408 Y52.016 E0.09589
;WIDTH:0.326996
G1 X42.252 Y51.903 E0.10018
;WIDTH:0.40218
G1 X42.115 Y51.829 E0.10456
;WIDTH:0.336869
G1 X41.958 Y51.791 E0.10825
;WIDTH:0.25067
G1 X41.802 Y51.754 E0.11086
;WIDTH:0.16447
G1 X41.646 Y51.716 E0.11238
G92 E0
G1 E-0.5 F3000
; acceleration to travel
M204 S4000
G1 X36.968 Y51.624 F12000
; decel to extrusion
M204 S2000
G1 X34.587 Y51.577
; end travel
G1 E0 F1800
;TYPE:Solid infill
;WIDTH:0.65
G1 F2400
G1 X35.403 Y52.393 E0.05363
G1 X35.102 Y52.739 F12000
M73 P2 R30
G1 F2400
G1 X34.403 Y52.04 E0.09953
G92 E0
G1 E-0.5 F3000
; acceleration to travel
M204 S4000
G1 X49.593 Y69.075 F12000
; decel to extrusion
M204 S2000
G1 X57.188 Y77.592
; end travel
G1 E0 F1800
;WIDTH:0.536818
G1 F2400
G1 X55.349 Y75.753 E0.09976
G1 X55.213 Y76.264 F12000
G1 F2400
G1 X57.188 Y78.239 E0.20688
G1 X57.189 Y78.885 F12000
G1 F2400
G1 X55.007 Y76.704 E0.32522
G1 X54.739 Y77.082 F12000
G1 F2400
G1 X56.819 Y79.163 E0.43807
G1 X56.173 Y79.163 F12000
G1 F2400
G1 X54.423 Y77.413 E0.53299
G1 X54.049 Y77.685 F12000
G1 F2400
G1 X55.527 Y79.163 E0.61313
G1 X54.88 Y79.163 F12000
G1 F2400
G1 X53.582 Y77.864 E0.68356
G1 X53.07 Y77.999 F12000
G1 F2400
G1 X54.234 Y79.163 E0.7467
