; generated by PrusaSlicer 2.6.0-beta2+win64 on 2023-05-29 at 05:06:16 UTC


;
;

;
;
; TODO: check the size of the extruder and the y-bar clearance. Optimize & test supports.

; external perimeters extrusion width = 0.42mm
; perimeters extrusion width = 0.44mm
; infill extrusion width = 0.44mm
; solid infill extrusion width = 0.44mm
; top infill extrusion width = 0.44mm
; first layer extrusion width = 0.56mm

M190 S110 ; set bed temperature and wait for it to be reached
M104 S250 ; set temperature
;TYPE:Custom
START_PRINT T_BED=110 T_EXTRUDER=250
M109 S250 ; set temperature and wait for it to be reached
G21 ; set units to millimeters
G90 ; use absolute coordinates
M83 ; use relative distances for extrusion
; Filament gcode

    PRESSURE_ADVANCE_SELECT FILAMENT=ABS
M107
;LAYER_CHANGE
;Z:0.2
;HEIGHT:0.2
;BEFORE_LAYER_CHANGE
;0.2
G92 E0

G1 Z.2 F12000
;AFTER_LAYER_CHANGE
;0.2
G1 E-.5 F3000
G1 Z.6 F12000
M204 S3000
G1 X43.065 Y51.2
G1 Z.2
G1 E.5 F1800
M204 S1000
;TYPE:Skirt/Brim
;WIDTH:0.56
G1 X44.138 Y50.307 E.05558
G1 X45.324 Y49.68 E.05341
G1 X45.985 Y49.453 E.02783
G1 X47.406 Y49.21 E.0574
G1 X72.2 Y49.198 E.98714
G1 X73.218 Y49.277 E.04065
G1 X74.45 Y49.594 E.05065
G1 X75.658 Y50.177 E.0534
G1 X76.274 Y50.605 E.02986
G1 X77.275 Y51.578 E.05558
G1 X78.049 Y52.738 E.05552
G1 X78.561 Y54.034 E.05548
G1 X78.713 Y54.718 E.0279
G1 X78.802 Y55.8 E.04322
G1 X78.748 Y65.035 E.36769
G1 X78.424 Y66.4 E.05586
G1 X77.823 Y67.659 E.05554
G1 X76.935 Y68.8 E.05756
G1 X75.863 Y69.692 E.05552
G1 X75.262 Y70.049 E.02783
G1 X74.016 Y70.547 E.05342
G1 X72.589 Y70.79 E.05763
G1 X47.428 Y70.791 E1.00175
G1 X46.269 Y70.622 E.04663
G1 X45.601 Y70.424 E.02774
G1 X44.342 Y69.824 E.05553
G1 X43.237 Y68.971 E.05558
G1 X42.308 Y67.863 E.05757
G1 X41.68 Y66.676 E.05347
G1 X41.453 Y66.015 E.02783
G1 X41.211 Y64.617 E.05649
G1 X41.245 Y55.023 E.38197
G1 X41.576 Y53.599 E.05821
G1 X42.177 Y52.341 E.05551
G1 X43.028 Y51.247 E.05518
M204 S7000
M204 S3000
G1 X43.434 Y51.563 F12000
M204 S1000
G1 F1800
G1 X44.427 Y50.736 E.05145
G1 X45.516 Y50.16 E.04905
G1 X46.125 Y49.95 E.02565
G1 X47.438 Y49.726 E.05303
G1 X72.2 Y49.715 E.98587
G1 X73.14 Y49.788 E.03754
G1 X74.276 Y50.081 E.04671
G1 X75.386 Y50.616 E.04906
G1 X75.956 Y51.013 E.02766
G1 X76.879 Y51.91 E.05124
G1 X77.592 Y52.98 E.05119
G1 X78.064 Y54.174 E.05112
G1 X78.203 Y54.805 E.02572
G1 X78.285 Y55.8 E.03975
G1 X78.235 Y64.972 E.36518
G1 X77.937 Y66.226 E.05132
G1 X77.384 Y67.386 E.05116
G1 X76.563 Y68.441 E.05322
G1 X75.574 Y69.263 E.0512
G1 X75.02 Y69.592 E.02565
G1 X73.875 Y70.049 E.04908
G1 X72.556 Y70.274 E.05327
G1 X47.508 Y70.278 E.99725
G1 X46.862 Y70.212 E.02585
G1 X45.775 Y69.938 E.04463
G1 X44.615 Y69.384 E.05118
G1 X43.596 Y68.598 E.05124
G1 X42.737 Y67.574 E.05321
G1 X42.16 Y66.484 E.0491
G1 X41.95 Y65.875 E.02565
G1 X41.728 Y64.586 E.05208
G1 X41.758 Y55.086 E.37823
G1 X42.063 Y53.774 E.05363
G1 X42.616 Y52.614 E.05116
G1 X43.397 Y51.61 E.05064
M204 S7000
M204 S3000
G1 X43.803 Y51.926 F12000
M204 S1000
G1 F1800
G1 X44.715 Y51.165 E.04729
G1 X45.708 Y50.64 E.04472
G1 X46.265 Y50.448 E.02346
G1 X47.47 Y50.242 E.04867
G1 X70.134 Y50.232 E.90234
G1 X73.021 Y50.293 E.11497
G1 X74.052 Y50.55 E.0423
G1 X74.643 Y50.797 E.0255
G1 X75.639 Y51.422 E.04682
G1 X76.483 Y52.242 E.04685
G1 X77.135 Y53.222 E.04686
G1 X77.566 Y54.315 E.04678
G1 X77.768 Y55.8 E.05967
G1 X77.722 Y64.909 E.36267
G1 X77.451 Y66.051 E.04673
G1 X76.944 Y67.114 E.04689
G1 X76.19 Y68.083 E.04888
G1 X75.285 Y68.834 E.04682
G1 X74.778 Y69.135 E.02347
G1 X73.735 Y69.552 E.04472
G1 X72.524 Y69.758 E.04891
G1 X47.535 Y69.761 E.9949
G1 X46.94 Y69.701 E.02381
G1 X45.949 Y69.451 E.04069
G1 X44.887 Y68.945 E.04684
G1 X43.955 Y68.226 E.04687
G1 X43.166 Y67.286 E.04886
G1 X42.641 Y66.292 E.04476
G1 X42.448 Y65.735 E.02347
G1 X42.244 Y64.556 E.04764
G1 X42.271 Y55.148 E.37457
G1 X42.55 Y53.948 E.04905
G1 X43.056 Y52.887 E.0468
G1 X43.766 Y51.973 E.04608
M204 S7000
M204 S3000
G1 X44.172 Y52.289 F12000
M204 S1000
G1 F1800
G1 X45.004 Y51.594 E.04316
G1 X45.9 Y51.121 E.04034
G1 X46.405 Y50.946 E.02128
G1 X47.502 Y50.758 E.04431
G1 X70.134 Y50.749 E.90106
G1 X72.943 Y50.804 E.11186
G1 X73.878 Y51.036 E.03835
G1 X74.418 Y51.263 E.02332
G1 X75.322 Y51.83 E.04249
G1 X76.086 Y52.575 E.04249
G1 X76.677 Y53.463 E.04247
G1 X77.068 Y54.455 E.04245
G1 X77.251 Y55.8 E.05404
G1 X77.251 Y64.2 E.33444
G1 X77.192 Y64.969 E.03071
G1 X76.946 Y65.927 E.03938
G1 X76.477 Y66.886 E.0425
G1 X75.818 Y67.724 E.04244
G1 X74.997 Y68.405 E.04247
G1 X74.537 Y68.677 E.02128
G1 X73.595 Y69.054 E.0404
G1 X72.205 Y69.251 E.05589
G1 X47.562 Y69.245 E.98113
G1 X47.018 Y69.19 E.02177
G1 X46.123 Y68.964 E.03675
G1 X45.16 Y68.505 E.04247
G1 X44.313 Y67.854 E.04253
G1 X43.595 Y66.997 E.04451
G1 X43.121 Y66.1 E.04039
G1 X42.946 Y65.595 E.02128
G1 X42.76 Y64.525 E.04324
G1 X42.763 Y55.43 E.36211
G1 X43.036 Y54.122 E.0532
G1 X43.495 Y53.159 E.04247
G1 X44.135 Y52.336 E.04151
M204 S7000
M204 S3000
G1 X44.522 Y52.705 F12000
M204 S1000
G1 F1800
G1 X44.867 Y52.343 E.01991
G1 X45.658 Y51.805 E.03809
G1 X46.596 Y51.429 E.04023
G1 X47.779 Y51.267 E.04754
G1 X70.134 Y51.266 E.89004
G1 X72.864 Y51.315 E.10871
G1 X73.703 Y51.523 E.03441
G1 X74.194 Y51.729 E.0212
G1 X75.004 Y52.238 E.03809
G1 X75.69 Y52.907 E.03815
G1 X76.22 Y53.705 E.03814
G1 X76.57 Y54.595 E.03808
G1 X76.734 Y55.8 E.04842
G1 X76.734 Y64.2 E.33444
G1 X76.676 Y64.922 E.02884
G1 X76.294 Y66.146 E.05105
G1 X75.794 Y66.963 E.03814
G1 X75.133 Y67.657 E.03816
G1 X74.342 Y68.196 E.03811
G1 X73.404 Y68.571 E.04022
G1 X72.205 Y68.734 E.04818
G1 X47.537 Y68.726 E.98212
G1 X46.297 Y68.477 E.05035
G1 X45.387 Y68.038 E.04023
G1 X44.634 Y67.445 E.03816
G1 X43.804 Y66.342 E.05496
G1 X43.429 Y65.403 E.04026
G1 X43.273 Y64.437 E.03896
G1 X43.319 Y55.112 E.37127
G1 X43.706 Y53.854 E.0524
G1 X44.206 Y53.037 E.03814
G1 X44.481 Y52.748 E.01588
M204 S7000
M204 S3000
G1 X44.88 Y53.087 F12000
M204 S1000
G1 F1800
G1 X45.11 Y52.817 E.01412
G1 X45.825 Y52.302 E.03508
G1 X46.78 Y51.915 E.04103
G1 X47.78 Y51.784 E.04015
G1 X70.134 Y51.783 E.89
G1 X72.786 Y51.826 E.1056
G1 X73.398 Y51.966 E.025
G1 X74.006 Y52.213 E.02613
G1 X74.74 Y52.688 E.03481
G1 X75.333 Y53.286 E.03353
G1 X75.788 Y53.994 E.03351
G1 X76.085 Y54.779 E.03342
G1 X76.217 Y55.8 E.04099
G1 X76.17 Y64.807 E.35861
G1 X75.944 Y65.653 E.03486
G1 X75.466 Y66.539 E.04008
G1 X74.89 Y67.183 E.0344
G1 X74.175 Y67.698 E.03508
G1 X73.22 Y68.085 E.04103
G1 X72.205 Y68.217 E.04075
G1 X47.616 Y68.212 E.97898
G1 X46.602 Y68.034 E.04099
G1 X45.628 Y67.579 E.0428
G1 X44.817 Y66.89 E.04237
G1 X44.302 Y66.175 E.03508
G1 X43.961 Y65.38 E.03444
G1 X43.789 Y64.407 E.03934
G1 X43.795 Y55.501 E.35458
G1 X43.966 Y54.602 E.03643
G1 X44.421 Y53.628 E.0428
G1 X44.841 Y53.133 E.02585
M204 S7000
; printing object probe holder.stl id:0 copy 0
G1 E-.5 F3000
G1 Z.6 F12000
M204 S3000
G1 X62.931 Y58.67
G1 Z.2
G1 E.5 F1800
M204 S1000
;TYPE:Perimeter
;WIDTH:0.669839
G1 X62.708 Y58.246 E.02313
G1 X62.329 Y57.769 E.02941
G1 X62.976 Y57.769 E.03123
G1 X63.105 Y57.743 E.00635
;WIDTH:0.630664
G1 X63.233 Y57.717 E.00591
;WIDTH:0.591488
G1 X63.362 Y57.691 E.00556
;WIDTH:0.552313
G1 X63.491 Y57.665 E.00516
;WIDTH:0.515089
G1 X63.881 Y57.515 E.01519
G1 X64.533 Y57.136 E.02742
G1 X64.336 Y57.405 E.01212
G1 X63.994 Y58.016 E.02546
G1 X63.646 Y58.106 E.01307
;WIDTH:0.550977
G1 X63.533 Y58.156 E.00483
;WIDTH:0.590598
G1 X63.419 Y58.207 E.00527
;WIDTH:0.630219
G1 X63.306 Y58.258 E.00561
;WIDTH:0.669839
G1 X63.193 Y58.308 E.00596
G1 X62.967 Y58.621 E.01864
M204 S7000
G1 E-.5 F3000
G1 Z.6 F12000
M204 S3000
G1 X62.335 Y62.23
G1 Z.2
G1 E.5 F1800
M204 S1000
;WIDTH:0.670822
G1 X62.566 Y61.957 E.01729
G1 X62.924 Y61.346 E.03424
G1 X63.17 Y61.67 E.01967
G1 X63.285 Y61.724 E.00614
;WIDTH:0.631442
G1 X63.4 Y61.779 E.00578
;WIDTH:0.592061
G1 X63.515 Y61.834 E.00539
;WIDTH:0.55268
G1 X63.63 Y61.889 E.005
;WIDTH:0.515285
G1 X63.994 Y61.984 E.01368
G1 X64.525 Y62.854 E.03707
G1 X63.864 Y62.476 E.02769
G1 X63.49 Y62.335 E.01454
;WIDTH:0.55268
G1 X63.361 Y62.309 E.00517
;WIDTH:0.592061
G1 X63.232 Y62.283 E.00556
;WIDTH:0.631442
G1 X63.103 Y62.257 E.00596
;WIDTH:0.670822
G1 X62.973 Y62.23 E.00642
G1 X62.395 Y62.23 E.02794
M204 S7000
G1 E-.5 F3000
G1 Z.6 F12000
M204 S3000
G1 X61.85 Y61.737
G1 X61.807 Y61.785
G1 X61.78 Y61.813
G1 X61.641 Y61.943
G1 X61.527 Y62.035
G1 X61.477 Y62.075
G1 X61.358 Y62.156
G1 X61.32 Y62.181
G1 X61.289 Y62.2
G1 X61.177 Y62.264
G1 X61.139 Y62.285
G1 X61.105 Y62.302
G1 X60.988 Y62.357
G1 X60.95 Y62.374
G1 X60.913 Y62.389
G1 X60.792 Y62.434
G1 X60.749 Y62.449
G1 X60.596 Y62.493
G1 X60.55 Y62.505
G1 X60.417 Y62.527
G1 X60.346 Y62.537
G1 X60.14 Y62.552
G1 X59.95 Y62.557
G1 X59.807 Y62.553
G1 X59.76 Y62.552
G1 X59.598 Y62.541
G1 X59.553 Y62.537
G1 X59.389 Y62.513
G1 X59.347 Y62.504
G1 X59.309 Y62.495
G1 X59.186 Y62.459
G1 X59.139 Y62.445
G1 X58.994 Y62.391
G1 X58.945 Y62.372
G1 X58.8 Y62.305
G1 X58.758 Y62.284
G1 X58.614 Y62.202
G1 X58.579 Y62.181
G1 X58.419 Y62.072
G1 X58.259 Y61.944
G1 X58.12 Y61.812
G1 X58.095 Y61.787
G1 X58.009 Y61.692
G1 X57.979 Y61.658
G1 X57.955 Y61.629
G1 X57.877 Y61.527
G1 X57.851 Y61.493
G1 X57.829 Y61.461
G1 X57.759 Y61.353
G1 X57.733 Y61.312
G1 X57.659 Y61.176
G1 X57.635 Y61.13
G1 X57.569 Y60.983
G1 X57.552 Y60.941
G1 X57.496 Y60.783
G1 X57.484 Y60.745
G1 X57.435 Y60.561
G1 X57.398 Y60.357
G1 X57.379 Y60.165
G1 X57.378 Y60.13
G1 X57.375 Y60.001
G1 X57.374 Y59.957
G1 X57.376 Y59.919
G1 X57.383 Y59.791
G1 X57.386 Y59.748
G1 X57.391 Y59.709
G1 X57.409 Y59.582
G1 X57.416 Y59.535
G1 X57.45 Y59.382
G1 X57.462 Y59.333
G1 X57.509 Y59.178
G1 X57.523 Y59.135
G1 X57.585 Y58.979
G1 X57.601 Y58.944
G1 X57.632 Y58.881
G1 X57.021 Y58.58
G1 Z.2
G1 E.5 F1800
M204 S1000
;WIDTH:0.646866
G1 X56.764 Y58.284 E.01823
G1 X56.633 Y58.227 E.00664
;WIDTH:0.602278
G1 X56.501 Y58.169 E.00621
;WIDTH:0.55769
G1 X56.37 Y58.111 E.00568
;WIDTH:0.51459
G1 X56.001 Y58.021 E.01379
G1 X55.829 Y57.675 E.01403
G1 X55.5 Y57.169 E.02192
G1 X56.282 Y57.594 E.03232
;WIDTH:0.55642
G1 X56.51 Y57.649 E.00927
;WIDTH:0.601643
G1 X56.738 Y57.703 E.01008
;WIDTH:0.646866
G1 X56.966 Y57.758 E.01091
G1 X57.596 Y57.758 E.0293
G1 X57.317 Y58.09 E.02017
G1 X57.052 Y58.529 E.02385
M204 S7000
G1 E-.5 F3000
G1 Z.6 F12000
M204 S3000
G1 X55.504 Y62.827
G1 Z.2
G1 E.5 F1800
M204 S1000
;WIDTH:0.514696
G1 X55.656 Y62.607 E.00971
G1 X56.005 Y61.984 E.02594
G1 X56.143 Y61.96 E.00509
;WIDTH:0.55652
G1 X56.35 Y61.879 E.00879
;WIDTH:0.601993
G1 X56.558 Y61.797 E.00962
;WIDTH:0.647466
G1 X56.765 Y61.715 E.01036
G1 X57.016 Y61.395 E.01893
G1 X57.227 Y61.785 E.02064
G1 X57.592 Y62.242 E.02722
G1 X56.967 Y62.242 E.02909
G1 X56.814 Y62.273 E.00727
;WIDTH:0.602581
G1 X56.661 Y62.304 E.00673
;WIDTH:0.557696
G1 X56.508 Y62.335 E.00619
;WIDTH:0.514696
G1 X56.138 Y62.473 E.01434
G1 X55.557 Y62.797 E.02416
M204 S7000
G1 E-.5 F3000
G1 Z.6 F12000
M204 S3000
G1 X59.931 Y62.589
G1 Z.2
G1 E.5 F1800
M204 S1000
;WIDTH:0.373774
G1 X59.873 Y62.591 E.00148
;WIDTH:0.390473
G1 X59.682 Y62.582 E.00512
;WIDTH:0.423958
G1 X59.491 Y62.572 E.00561
;WIDTH:0.457443
G1 X59.301 Y62.562 E.00607
;WIDTH:0.491629
G1 X59.19 Y62.545 E.00388
;WIDTH:0.525814
G1 X59.079 Y62.527 E.00418
;WIDTH:0.559999
G1 X58.968 Y62.51 E.00447
G1 X58.43 Y62.224 E.02426
G1 X57.982 Y61.841 E.02347
G1 X57.69 Y61.465 E.01895
G1 X57.413 Y60.906 E.02484
;WIDTH:0.59089
G1 X57.333 Y60.656 E.01107
;WIDTH:0.62178
G1 X57.252 Y60.406 E.01171
G1 X57.236 Y59.855 E.02457
;WIDTH:0.620009
G1 X57.302 Y59.348 E.02272
G1 X57.408 Y59.098 E.01207
;WIDTH:0.590004
G1 X57.513 Y58.848 E.01142
;WIDTH:0.559999
G1 X57.747 Y58.45 E.01838
G1 X58.169 Y57.979 E.02518
G1 X58.659 Y57.634 E.02386
G1 X59.065 Y57.454 E.01768
G1 X59.239 Y57.445 E.00694
;WIDTH:0.5193
G1 X59.413 Y57.436 E.00639
;WIDTH:0.478601
G1 X59.587 Y57.427 E.00584
;WIDTH:0.437902
G1 X59.761 Y57.417 E.0053
;WIDTH:0.397203
G1 X59.935 Y57.408 E.00475
;WIDTH:0.399487
G1 X60.224 Y57.416 E.00794
;WIDTH:0.442471
G1 X60.514 Y57.424 E.00893
;WIDTH:0.481647
G1 X60.621 Y57.434 E.00363
;WIDTH:0.520823
G1 X60.728 Y57.444 E.00395
;WIDTH:0.559999
G1 X60.834 Y57.454 E.00424
G1 X61.36 Y57.706 E.02322
G1 X61.864 Y58.105 E.02559
G1 X62.22 Y58.544 E.0225
;WIDTH:0.603512
G1 X62.403 Y58.9 E.01728
;WIDTH:0.647024
G1 X62.586 Y59.256 E.01862
;WIDTH:0.689614
G1 X62.644 Y59.411 E.00824
G1 X62.694 Y59.963 E.0276
;WIDTH:0.682809
G1 X62.656 Y60.528 E.0279
G1 X62.577 Y60.71 E.00978
;WIDTH:0.641873
G1 X62.499 Y60.893 E.00917
;WIDTH:0.600936
G1 X62.42 Y61.075 E.00852
;WIDTH:0.559999
G1 X62.125 Y61.592 E.0237
G1 X61.81 Y61.949 E.01896
G1 X61.355 Y62.299 E.02285
G1 X60.909 Y62.517 E.01976
G1 X60.778 Y62.53 E.00524
;WIDTH:0.513443
G1 X60.646 Y62.542 E.0048
;WIDTH:0.466887
G1 X60.515 Y62.555 E.0043
;WIDTH:0.420331
G1 X60.383 Y62.568 E.00385
;WIDTH:0.373774
G1 X59.991 Y62.586 E.01
M204 S7000
G1 E-.5 F3000
G1 Z.6 F12000
M204 S3000
G1 X59.999 Y62.942
G1 X59.537 Y62.932
G1 X59.066 Y62.924
G1 X56.578 Y62.924
G1 X51.46 Y64.215
G1 X48.076 Y63.336
G1 X47.934 Y57.617
G1 X48 Y57.357
G1 X48.256 Y57.423
G1 Z.2
G1 E.5 F1800
M204 S1000
;WIDTH:0.692118
G1 X48.261 Y56.263 E.05798
G1 X49.571 Y56.263 E.06548
G1 X49.274 Y56.439 E.01726
G1 X48.663 Y56.944 E.03962
G1 X48.295 Y57.377 E.02841
M204 S7000
G1 E-.5 F3000
G1 Z.6 F12000
M204 S3000
G1 X48.537 Y57.477
G1 X48.491 Y57.577
G1 X48.471 Y57.625
G1 X48.401 Y57.803
G1 X48.383 Y57.853
G1 X48.322 Y58.028
G1 X48.306 Y58.08
G1 X48.257 Y58.245
G1 X48.24 Y58.303
G1 X48.195 Y58.478
G1 X48.184 Y58.526
G1 X48.146 Y58.703
G1 X48.137 Y58.748
G1 X48.105 Y58.927
G1 X48.098 Y58.969
G1 X48.072 Y59.149
G1 X48.068 Y59.188
G1 X48.048 Y59.371
G1 X48.033 Y59.563
G1 X48.031 Y59.593
G1 X48.022 Y59.78
G1 X48.021 Y59.813
G1 X48.019 Y59.998
G1 X48.019 Y60.031
G1 X48.021 Y60.189
G1 X48.022 Y60.218
G1 X48.031 Y60.409
G1 X48.033 Y60.436
G1 X48.048 Y60.63
G1 X48.073 Y60.852
G1 X48.105 Y61.074
G1 X48.146 Y61.298
G1 X48.195 Y61.523
G1 X48.257 Y61.755
G1 X48.322 Y61.972
G1 X48.401 Y62.197
G1 X48.49 Y62.422
G1 X48.591 Y62.647
G1 X48.63 Y62.713
G1 X48.722 Y62.856
G1 X48.751 Y62.885
G1 X48.896 Y63.027
G1 X48.93 Y63.057
G1 X49.08 Y63.187
G1 X49.118 Y63.218
G1 X49.273 Y63.336
G1 X49.311 Y63.363
G1 X49.46 Y63.435
G1 X49.496 Y63.451
G1 X49.536 Y63.468
G1 X49.665 Y63.508
G1 X49.593 Y63.738
G1 Z.2
G1 E.5 F1800
M204 S1000
;WIDTH:0.690492
G1 X48.26 Y63.738 E.06647
G1 X48.255 Y62.575 E.05799
G1 X48.649 Y63.043 E.0305
G1 X49.134 Y63.462 E.03196
G1 X49.542 Y63.707 E.02373
M204 S7000
G1 E-.5 F3000
G1 Z.6 F12000
M204 S3000
G1 X49.487 Y63.971
G1 X55.307 Y63.636
G1 X56.578 Y62.924
G1 X63.42 Y62.924
G1 X65.992 Y63.95
G1 X66.374 Y64.028
G1 X66.42 Y63.803
G1 Z.2
G1 E.5 F1800
M204 S1000
;WIDTH:0.559999
G1 X65.391 Y63.803 E.04097
G1 X64.985 Y63.652 E.01725
G1 X64.515 Y63.418 E.0209
G1 X63.547 Y62.869 E.04431
G1 X63.233 Y62.803 E.01277
G1 X61.144 Y62.803 E.08317
G1 X60.93 Y62.827 E.00857
;WIDTH:0.512228
G1 X60.717 Y62.851 E.00775
;WIDTH:0.464457
G1 X60.503 Y62.875 E.00699
;WIDTH:0.416685
G1 X60.227 Y62.89 E.00795
;WIDTH:0.385488
G1 X59.95 Y62.906 E.00732
;WIDTH:0.381586
G1 X59.424 Y62.892 E.01372
;WIDTH:0.42619
G1 X59.299 Y62.87 E.00375
;WIDTH:0.470793
G1 X59.173 Y62.848 E.00421
;WIDTH:0.515396
G1 X59.048 Y62.825 E.00462
;WIDTH:0.559999
G1 X58.922 Y62.803 E.00509
G1 X56.764 Y62.803 E.08592
G1 X56.451 Y62.869 E.01274
G1 X55.489 Y63.408 E.0439
G1 X54.642 Y63.803 E.03721
G1 X53.58 Y63.803 E.04228
G1 X53.982 Y63.579 E.01832
G1 X54.59 Y63.106 E.03067
G1 X55.131 Y62.496 E.03246
G1 X55.448 Y61.97 E.02445
G1 X55.657 Y61.497 E.02059
G1 X56.001 Y61.486 E.0137
G1 X56.313 Y61.359 E.01341
G1 X56.559 Y61.08 E.01481
G1 X56.624 Y60.91 E.00725
;WIDTH:0.587249
G1 X56.649 Y60.621 E.01216
;WIDTH:0.614499
G1 X56.674 Y60.331 E.01281
G1 X56.672 Y59.816 E.02267
;WIDTH:0.620009
G1 X56.677 Y59.279 E.02386
G1 X56.605 Y59.076 E.00957
;WIDTH:0.590004
G1 X56.533 Y58.873 E.00907
;WIDTH:0.559999
G1 X56.313 Y58.641 E.01273
G1 X56.037 Y58.521 E.01198
G1 X55.672 Y58.503 E.01455
G1 X55.414 Y57.945 E.02448
G1 X54.948 Y57.278 E.03239
G1 X54.28 Y56.629 E.03708
G1 X53.581 Y56.197 E.03272
G1 X54.581 Y56.197 E.03981
G1 X55.004 Y56.354 E.01796
G1 X55.744 Y56.737 E.03317
