; generated by SuperSlicer 2.5.59 on 2023-01-12 at 01:17:14 UTC


;
;

;
;
; 

; external perimeters extrusion width = 0.40mm
; perimeters extrusion width = 0.46mm
; infill extrusion width = 0.64mm
; solid infill extrusion width = 0.56mm
; top infill extrusion width = 0.40mm
; first layer extrusion width = 0.50mm

; object:{"name":"Probe_Block","id":"Probe_Block.stl id:0 copy 0","object_center":[60.000001,60.000000,0.000000],"boundingbox_center":[60.000001,60.000000,5.000000],"boundingbox_size":[23.160004,20.500000,10.000000]}
; plater:{"center":[60.000001,60.000000,0.000000],"boundingbox_center":[60.000001,60.000000,5.000000],"boundingbox_size":[23.160004,20.500000,10.000000]}

M73 P0 R16
;TYPE:Custom
; custom gcode: start_gcode
START_PRINT T_BED=110 T_EXTRUDER=240
; custom gcode end: start_gcode
M107
G21 ; set units to millimeters
G90 ; use absolute coordinates
M83 ; use relative distances for extrusion
; custom gcode: start_filament_gcode
; Filament gcode

    PRESSURE_ADVANCE_SELECT FILAMENT=ABS
; custom gcode end: start_filament_gcode
;_TOOLCHANGE 0
M109 S240 ; set temperature and wait for it to be reached
M190 S110 ; set bed temperature and wait for it to be reached
;LAYER_CHANGE
;Z:0.2
;HEIGHT:0.2
G1 Z0.2 F12000
G92 E0
M73 P0 R16
G1 E-0.5 F1800
M204 S2000
G1 X47.082 Y47.072 F12000
G1 E0.5 F1800
;TYPE:Skirt
;WIDTH:0.52
G1 X46.081 Y48.073 E0.05168
G1 X45.436 Y49.617 E0.06107
G1 X45.371 Y50.309 E0.02538
G1 X45.376 Y69.302 E0.69316
G1 X45.688 Y70.793 E0.05559
G1 X46.614 Y72.15 E0.05994
G1 X47.877 Y72.982 E0.05519
G1 X49.369 Y73.294 E0.05563
G1 X70.571 Y73.293 E0.77379
G1 X71.38 Y73.206 E0.02968
G1 X72.745 Y72.652 E0.05379
G1 X74.27 Y70.85 E0.08615
G1 X74.63 Y69.237 E0.06032
G1 X74.629 Y50.315 E0.69057
M73 P0 R16
G1 X74.464 Y49.221 E0.04036
G1 X73.515 Y47.576 E0.06933
G1 X72.667 Y46.91 E0.03936
G1 X71.739 Y46.511 E0.03686
G1 X70.713 Y46.346 E0.03792
G1 X66.777 Y46.263 E0.14367
G1 X56.331 Y46.263 E0.38124
G1 X49.095 Y46.356 E0.2641
G1 X48.084 Y46.563 E0.03765
G1 X47.088 Y47.066 E0.04075
G1 X47.082 Y47.072 E0.00028
G1 X47.364 Y47.455 F12000
G1 F1800
G1 X46.477 Y48.34 E0.04571
G1 X45.906 Y49.698 E0.05376
G1 X45.848 Y50.309 E0.02242
G1 X45.853 Y69.302 E0.69316
G1 X46.125 Y70.602 E0.04845
G1 X46.951 Y71.813 E0.0535
G1 X48.068 Y72.545 E0.04875
G1 X49.369 Y72.817 E0.04849
G1 X70.571 Y72.816 E0.77379
G1 X71.291 Y72.737 E0.02645
G1 X72.482 Y72.254 E0.04688
G1 X73.828 Y70.673 E0.07578
G1 X74.153 Y69.237 E0.05373
G1 X74.152 Y50.315 E0.69057
G1 X74.008 Y49.362 E0.03518
G1 X73.169 Y47.905 E0.06137
G1 X72.421 Y47.318 E0.03469
G1 X71.612 Y46.971 E0.03213
G1 X70.703 Y46.823 E0.03361
G1 X66.767 Y46.74 E0.14367
G1 X56.331 Y46.74 E0.38087
G1 X49.137 Y46.831 E0.26256
G1 X48.244 Y47.013 E0.03328
G1 X47.364 Y47.455 E0.03595
G1 E-0.5
; printing object Probe_Block.stl id:0 copy 0
; acceleration to travel
M204 S4000
G1 X59.846 Y55.048 F12000
; decel to extrusion
M204 S2000
G1 X66.088 Y58.845
; end travel
M73 P1 R16
G1 E0.5 F1800
;TYPE:Internal perimeter
;WIDTH:0.5
G1 X66.167 Y58.856 E0.00279
G1 X66.726 Y58.871 E0.01958
G1 X67.262 Y58.826 E0.01879
G1 X67.8 Y58.717 E0.01921
G1 X68.334 Y58.544 E0.01961
G1 X68.824 Y58.32 E0.01885
G1 X69.292 Y58.038 E0.0191
G1 X69.293 Y67.956 E0.34679
G1 X50.712 Y67.957 E0.64968
G1 X50.708 Y51.677 E0.56925
G1 X52.195 Y51.676 E0.05197
G1 X51.881 Y52.419 E0.02821
G1 X51.721 Y52.958 E0.01966
G1 X51.627 Y53.503 E0.01934
G1 X51.596 Y54.053 E0.01926
G1 X51.628 Y54.603 E0.01926
G1 X51.722 Y55.145 E0.01926
G1 X51.877 Y55.673 E0.01924
G1 X52.086 Y56.168 E0.01878
G1 X52.362 Y56.658 E0.01966
G1 X52.687 Y57.106 E0.01934
G1 X53.06 Y57.511 E0.01926
G1 X53.476 Y57.872 E0.01926
G1 X53.931 Y58.182 E0.01926
G1 X54.418 Y58.439 E0.01925
G1 X54.93 Y58.638 E0.01921
G1 X55.461 Y58.778 E0.0192
G1 X56.007 Y58.856 E0.01927
G1 X56.566 Y58.871 E0.01958
G1 X57.102 Y58.826 E0.01879
G1 X57.64 Y58.717 E0.01921
G1 X58.174 Y58.544 E0.01961
G1 X58.664 Y58.32 E0.01885
G1 X59.146 Y58.03 E0.01968
G1 X59.584 Y57.692 E0.01932
G1 X59.978 Y57.307 E0.01926
G1 X60.326 Y56.881 E0.01926
G1 X60.623 Y56.417 E0.01926
G1 X60.865 Y55.923 E0.01922
G1 X61.046 Y55.417 E0.0188
G1 X61.174 Y54.869 E0.01967
G1 X61.236 Y54.32 E0.01933
G1 X61.236 Y53.769 E0.01925
G1 X61.172 Y53.222 E0.01926
G1 X61.047 Y52.686 E0.01926
G1 X60.862 Y52.168 E0.01923
G1 X60.622 Y51.68 E0.01904
G1 X62.353 Y51.679 E0.06055
G1 X62.041 Y52.419 E0.02808
G1 X61.881 Y52.958 E0.01966
G1 X61.787 Y53.503 E0.01934
G1 X61.756 Y54.053 E0.01926
G1 X61.788 Y54.603 E0.01926
G1 X61.882 Y55.146 E0.01926
G1 X62.037 Y55.673 E0.01924
G1 X62.246 Y56.168 E0.01878
G1 X62.522 Y56.658 E0.01966
G1 X62.847 Y57.106 E0.01935
G1 X63.22 Y57.511 E0.01926
G1 X63.636 Y57.872 E0.01926
G1 X64.091 Y58.182 E0.01925
G1 X64.578 Y58.439 E0.01925
G1 X65.09 Y58.638 E0.01921
G1 X65.621 Y58.778 E0.0192
G1 X66.088 Y58.845 E0.01648
G1 X66.153 Y58.393 F12000
G1 F1800
G1 X66.205 Y58.4 E0.00186
G1 X66.713 Y58.414 E0.01775
G1 X67.197 Y58.372 E0.01698
G1 X67.684 Y58.274 E0.01739
G1 X68.168 Y58.117 E0.01777
G1 X68.611 Y57.915 E0.01703
G1 X69.048 Y57.652 E0.01784
G1 X69.443 Y57.346 E0.01748
G1 X69.749 Y57.048 E0.01493
G1 X69.75 Y68.413 E0.39739
G1 X50.255 Y68.414 E0.68164
G1 X50.251 Y51.22 E0.6012
G1 X53.089 Y51.218 E0.09923
G1 X52.745 Y51.692 E0.02048
G1 X52.501 Y52.126 E0.01741
G1 X52.312 Y52.573 E0.01698
G1 X52.167 Y53.062 E0.01783
G1 X52.082 Y53.555 E0.01749
G1 X52.054 Y54.053 E0.01743
G1 X52.083 Y54.55 E0.01743
G1 X52.168 Y55.042 E0.01743
G1 X52.308 Y55.519 E0.01742
G1 X52.498 Y55.967 E0.01698
G1 X52.747 Y56.411 E0.01782
G1 X53.041 Y56.816 E0.01749
G1 X53.379 Y57.183 E0.01743
G1 X53.756 Y57.509 E0.01743
G1 X54.167 Y57.79 E0.01743
G1 X54.608 Y58.022 E0.01742
G1 X55.071 Y58.203 E0.01738
G1 X55.552 Y58.329 E0.01738
G1 X56.045 Y58.4 E0.01743
G1 X56.553 Y58.414 E0.01775
G1 X57.037 Y58.372 E0.01698
G1 X57.524 Y58.274 E0.01739
G1 X58.008 Y58.117 E0.01777
G1 X58.451 Y57.915 E0.01703
G1 X58.888 Y57.652 E0.01784
G1 X59.283 Y57.346 E0.01748
G1 X59.64 Y56.998 E0.01743
G1 X59.955 Y56.612 E0.01743
G1 X60.224 Y56.192 E0.01743
G1 X60.443 Y55.746 E0.0174
G1 X60.607 Y55.288 E0.01699
G1 X60.723 Y54.791 E0.01784
G1 X60.779 Y54.294 E0.01748
G1 X60.779 Y53.796 E0.01743
G1 X60.721 Y53.301 E0.01743
G1 X60.608 Y52.815 E0.01743
G1 X60.44 Y52.347 E0.01741
G1 X60.226 Y51.911 E0.01699
G1 X59.785 Y51.223 E0.02857
G1 X63.246 Y51.222 E0.12102
G1 X62.905 Y51.692 E0.0203
G1 X62.661 Y52.126 E0.01741
G1 X62.472 Y52.573 E0.01698
G1 X62.327 Y53.062 E0.01783
G1 X62.242 Y53.555 E0.01749
G1 X62.214 Y54.053 E0.01743
G1 X62.243 Y54.55 E0.01743
G1 X62.328 Y55.042 E0.01743
G1 X62.468 Y55.519 E0.01741
G1 X62.658 Y55.967 E0.01698
G1 X62.907 Y56.411 E0.01782
G1 X63.201 Y56.816 E0.01749
G1 X63.539 Y57.183 E0.01743
G1 X63.916 Y57.509 E0.01743
G1 X64.327 Y57.79 E0.01743
G1 X64.768 Y58.022 E0.01742
G1 X65.231 Y58.203 E0.01738
G1 X65.712 Y58.329 E0.01738
G1 X66.153 Y58.393 E0.01557
G1 X66.218 Y57.94 F12000
G1 F1800
G1 X66.244 Y57.944 E0.00093
G1 X66.699 Y57.956 E0.01592
G1 X67.132 Y57.919 E0.01518
G1 X67.568 Y57.831 E0.01556
G1 X68.002 Y57.691 E0.01593
G1 X68.397 Y57.51 E0.01521
G1 X68.789 Y57.274 E0.016
G1 X69.143 Y57 E0.01563
G1 X69.463 Y56.689 E0.0156
G1 X69.745 Y56.343 E0.0156
G1 X69.943 Y56.033 E0.01288
G1 X70.206 Y56.11 E0.00958
G1 X70.207 Y68.87 E0.44617
G1 X49.798 Y68.872 E0.7136
G1 X49.794 Y50.764 E0.63315
G1 X54.261 Y50.76 E0.1562
G1 X53.695 Y51.248 E0.02615
G1 X53.393 Y51.578 E0.01565
G1 X53.131 Y51.939 E0.0156
G1 X52.912 Y52.328 E0.01559
G1 X52.743 Y52.728 E0.01518
G1 X52.613 Y53.166 E0.01599
G1 X52.537 Y53.607 E0.01564
G1 X52.512 Y54.053 E0.0156
G1 X52.537 Y54.498 E0.0156
G1 X52.614 Y54.938 E0.0156
G1 X52.74 Y55.365 E0.01559
G1 X52.909 Y55.765 E0.01518
G1 X53.133 Y56.164 E0.01599
G1 X53.396 Y56.526 E0.01564
G1 X53.698 Y56.854 E0.0156
G1 X54.035 Y57.146 E0.0156
G1 X54.403 Y57.398 E0.0156
G1 X54.798 Y57.606 E0.0156
G1 X55.213 Y57.767 E0.01556
G1 X55.643 Y57.88 E0.01556
G1 X56.084 Y57.944 E0.01559
G1 X56.539 Y57.956 E0.01592
G1 X56.972 Y57.919 E0.01518
G1 X57.408 Y57.831 E0.01556
G1 X57.842 Y57.691 E0.01593
G1 X58.237 Y57.51 E0.01521
G1 X58.629 Y57.274 E0.016
G1 X58.983 Y57 E0.01563
G1 X59.303 Y56.689 E0.0156
G1 X59.585 Y56.343 E0.0156
G1 X59.825 Y55.968 E0.0156
G1 X60.022 Y55.568 E0.01558
G1 X60.168 Y55.159 E0.01518
G1 X60.272 Y54.713 E0.016
G1 X60.322 Y54.269 E0.01563
G1 X60.322 Y53.823 E0.0156
G1 X60.27 Y53.379 E0.0156
G1 X60.169 Y52.945 E0.0156
G1 X60.019 Y52.525 E0.01559
G1 X59.827 Y52.136 E0.01518
G1 X59.58 Y51.75 E0.016
G1 X59.297 Y51.404 E0.01564
G1 X58.976 Y51.093 E0.01562
G1 X58.872 Y51.014 E0.00457
G1 X58.956 Y50.766 E0.00916
G1 X64.416 Y50.765 E0.19088
G1 X63.855 Y51.248 E0.02589
G1 X63.553 Y51.578 E0.01565
G1 X63.291 Y51.939 E0.0156
G1 X63.072 Y52.328 E0.01559
G1 X62.903 Y52.728 E0.01518
G1 X62.773 Y53.166 E0.01599
G1 X62.697 Y53.607 E0.01564
G1 X62.672 Y54.053 E0.0156
G1 X62.697 Y54.498 E0.0156
G1 X62.774 Y54.938 E0.0156
G1 X62.9 Y55.365 E0.01559
G1 X63.069 Y55.765 E0.01518
G1 X63.293 Y56.164 E0.01599
G1 X63.556 Y56.526 E0.01564
G1 X63.858 Y56.854 E0.0156
G1 X64.195 Y57.146 E0.0156
G1 X64.563 Y57.398 E0.0156
G1 X64.958 Y57.606 E0.0156
G1 X65.373 Y57.767 E0.01556
G1 X65.803 Y57.88 E0.01556
G1 X66.218 Y57.94 E0.01466
G1 E-0.5
; acceleration to travel
M204 S4000
G1 X68.702 Y54.025 F12000
; decel to extrusion
M204 S2000
G1 X69.943 Y52.067
; end travel
G1 E0.5 F1800
M73 P2 R15
G1 X69.74 Y51.75 E0.01316
G1 X69.457 Y51.404 E0.01564
G1 X69.136 Y51.093 E0.01562
G1 X69.031 Y51.013 E0.00464
G1 X69.115 Y50.764 E0.00917
G1 X70.206 Y50.767 E0.03814
G1 X70.206 Y51.99 E0.04277
G1 X69.943 Y52.067 E0.00958
G1 E-0.5
; acceleration to travel
M204 S4000
G1 X60.998 Y55.688 F12000
; decel to extrusion
M204 S2000
G1 X56.526 Y57.499
; end travel
G1 E0.5 F1800
;TYPE:External perimeter
G1 X56.907 Y57.466 E0.01337
G1 X57.292 Y57.388 E0.01374
G1 X57.676 Y57.264 E0.0141
G1 X58.024 Y57.105 E0.01338
G1 X58.371 Y56.896 E0.01417
G1 X58.683 Y56.655 E0.01379
G1 X58.965 Y56.38 E0.01377
G1 X59.214 Y56.075 E0.01377
G1 X59.427 Y55.743 E0.01377
G1 X59.6 Y55.39 E0.01377
G1 X59.728 Y55.029 E0.01338
G1 X59.821 Y54.635 E0.01416
G1 X59.865 Y54.243 E0.01379
G1 X59.865 Y53.849 E0.01377
G1 X59.819 Y53.458 E0.01377
G1 X59.73 Y53.074 E0.01377
G1 X59.597 Y52.704 E0.01377
G1 X59.428 Y52.36 E0.01337
G1 X59.21 Y52.019 E0.01416
G1 X58.96 Y51.714 E0.01379
G1 X58.677 Y51.44 E0.01378
G1 X58.364 Y51.2 E0.0138
G1 X58.033 Y51.003 E0.01347
G1 X57.654 Y50.841 E0.01438
G1 X57.267 Y50.742 E0.01399
G1 X56.879 Y50.699 E0.01365
G1 X56.154 Y50.688 E0.02535
G1 X55.762 Y50.716 E0.01376
G1 X55.372 Y50.784 E0.01382
G1 X54.993 Y50.915 E0.01404
G1 X54.638 Y51.096 E0.01392
G1 X54.321 Y51.312 E0.01343
G1 X54.014 Y51.577 E0.01417
G1 X53.747 Y51.868 E0.01379
G1 X53.516 Y52.187 E0.01377
G1 X53.322 Y52.53 E0.01377
G1 X53.174 Y52.882 E0.01337
G1 X53.059 Y53.27 E0.01416
G1 X52.992 Y53.659 E0.01379
G1 X52.969 Y54.052 E0.01377
G1 X52.992 Y54.445 E0.01377
G1 X53.06 Y54.834 E0.01377
G1 X53.171 Y55.211 E0.01377
G1 X53.32 Y55.564 E0.01337
G1 X53.518 Y55.917 E0.01416
G1 X53.75 Y56.236 E0.01379
G1 X54.016 Y56.526 E0.01377
G1 X54.314 Y56.784 E0.01377
G1 X54.64 Y57.006 E0.01377
G1 X54.988 Y57.189 E0.01377
G1 X55.354 Y57.332 E0.01374
G1 X55.734 Y57.432 E0.01374
G1 X56.123 Y57.488 E0.01375
G1 X56.526 Y57.499 E0.01409
;WIPE_START
M204 S4000
G1 X56.742 Y57.835 F12000
;WIPE_END
G1 E-0.5 F1800
; acceleration to travel
G1 X63.103 Y57.604 F12000
; decel to extrusion
M204 S2000
G1 X66.283 Y57.488
; end travel
G1 E0.5 F1800
G1 X66.686 Y57.499 E0.01409
G1 X67.067 Y57.466 E0.01337
G1 X67.452 Y57.388 E0.01374
G1 X67.836 Y57.264 E0.0141
G1 X68.184 Y57.105 E0.01338
G1 X68.531 Y56.896 E0.01417
G1 X68.843 Y56.655 E0.01379
G1 X69.125 Y56.38 E0.01377
G1 X69.374 Y56.075 E0.01377
G1 X69.587 Y55.743 E0.01377
G1 X69.76 Y55.39 E0.01377
G1 X69.888 Y55.029 E0.01338
G1 X69.981 Y54.635 E0.01416
G1 X70.025 Y54.243 E0.01379
G1 X70.025 Y53.849 E0.01377
G1 X69.979 Y53.458 E0.01377
G1 X69.89 Y53.074 E0.01377
G1 X69.757 Y52.704 E0.01377
G1 X69.588 Y52.36 E0.01337
G1 X69.37 Y52.019 E0.01416
G1 X69.12 Y51.714 E0.01379
G1 X68.837 Y51.44 E0.01378
G1 X68.524 Y51.2 E0.0138
G1 X68.192 Y51.003 E0.01348
G1 X67.814 Y50.841 E0.01439
G1 X67.426 Y50.743 E0.01399
G1 X67.039 Y50.7 E0.01364
G1 X66.181 Y50.699 E0.02998
G1 X65.922 Y50.717 E0.00909
G1 X65.533 Y50.785 E0.01381
G1 X65.153 Y50.915 E0.01404
G1 X64.798 Y51.096 E0.01392
G1 X64.481 Y51.312 E0.01343
G1 X64.174 Y51.577 E0.01418
G1 X63.907 Y51.868 E0.01379
G1 X63.676 Y52.187 E0.01377
G1 X63.482 Y52.53 E0.01377
G1 X63.334 Y52.882 E0.01337
G1 X63.219 Y53.27 E0.01416
G1 X63.152 Y53.659 E0.01379
G1 X63.129 Y54.052 E0.01377
G1 X63.152 Y54.446 E0.01377
G1 X63.22 Y54.834 E0.01377
G1 X63.331 Y55.211 E0.01377
G1 X63.48 Y55.564 E0.01337
G1 X63.678 Y55.917 E0.01416
G1 X63.91 Y56.236 E0.01379
G1 X64.176 Y56.526 E0.01377
G1 X64.474 Y56.784 E0.01377
G1 X64.8 Y57.006 E0.01377
G1 X65.148 Y57.189 E0.01377
G1 X65.514 Y57.332 E0.01374
G1 X65.894 Y57.432 E0.01374
G1 X66.283 Y57.488 E0.01375
;WIPE_START
M204 S4000
G1 X66.46 Y57.847 F12000
;WIPE_END
G1 E-0.5 F1800
; acceleration to travel
G1 X62.152 Y65.501 F12000
; decel to extrusion
M204 S2000
G1 X59.998 Y69.328
; end travel
G1 E0.5 F1800
G1 X49.421 Y69.329 E0.36983
G1 X49.385 Y69.313 E0.00139
G1 X49.341 Y69.249 E0.00269
G1 X49.337 Y50.331 E0.66148
G1 X49.451 Y50.307 E0.00408
G1 X54.857 Y50.302 E0.18902
G1 X56.335 Y50.229 E0.05176
G1 X56.815 Y50.238 E0.01678
G1 X57.803 Y50.297 E0.03462
G1 X58.798 Y50.309 E0.03479
G1 X64.726 Y50.308 E0.20728
G1 X65.228 Y50.297 E0.01754
G1 X66.214 Y50.235 E0.03457
G1 X66.695 Y50.228 E0.0168
G1 X67.179 Y50.249 E0.01696
G1 X68.172 Y50.305 E0.03476
G1 X70.6 Y50.311 E0.0849
G1 X70.663 Y50.328 E0.0023
G1 X70.664 Y69.189 E0.65947
G1 X70.618 Y69.304 E0.00434
G1 X70.547 Y69.327 E0.00259
G1 X59.998 Y69.328 E0.36887
;WIPE_START
M204 S4000
G1 X59.798 Y68.982 F12000
;WIPE_END
G1 E-0.5 F1800
; acceleration to travel
G1 X65.998 Y62.483 F12000
; decel to extrusion
M204 S2000
G1 X69.155 Y59.175
; end travel
G1 E0.5 F1800
;TYPE:Solid infill
;WIDTH:0.503904
G1 F2400
G1 X68.56 Y58.579 E0.02966
G1 X68.099 Y58.764 F12000
G1 F2400
G1 X69.155 Y59.821 E0.05266
G1 X69.155 Y60.467 F12000
G1 F2400
G1 X67.576 Y58.888 E0.07872
G1 X67.011 Y58.969 F12000
G1 F2400
G1 X69.155 Y61.114 E0.10688
G1 X69.155 Y61.76 F12000
G1 F2400
G1 X66.395 Y59 E0.13758
G1 X65.672 Y58.924 F12000
G1 F2400
G1 X69.155 Y62.407 E0.17358
G1 X69.155 Y63.053 F12000
G1 F2400
G1 X64.737 Y58.635 E0.22019
G1 E-0.5 F1800
; acceleration to travel
M204 S4000
G1 X62.917 Y56.815 F12000
; decel to extrusion
M204 S2000
G1 X62.007 Y55.905
; end travel
G1 E0.5 F1800
G1 F2400
G1 X61.291 Y55.189 E0.03568
G1 X61.099 Y55.643 F12000
G1 F2400
G1 X69.155 Y63.7 E0.40149
G1 X69.155 Y64.346 F12000
G1 F2400
G1 X60.907 Y56.098 E0.41106
G1 X60.706 Y56.543 F12000
G1 F2400
G1 X69.155 Y64.992 E0.4211
G1 X69.155 Y65.639 F12000
G1 F2400
G1 X60.453 Y56.937 E0.43368
G1 X60.148 Y57.278 F12000
G1 F2400
G1 X69.156 Y66.285 E0.44888
G1 X69.156 Y66.932 F12000
G1 F2400
G1 X59.839 Y57.616 E0.46428
G1 X59.495 Y57.918 F12000
G1 F2400
G1 X69.156 Y67.578 E0.48142
G1 X68.75 Y67.819 F12000
G1 F2400
G1 X59.111 Y58.18 E0.48035
G1 X58.727 Y58.443 F12000
G1 F2400
G1 X68.104 Y67.819 E0.46728
M73 P3 R15
G1 X67.457 Y67.819 F12000
G1 F2400
G1 X58.261 Y58.623 E0.45828
G1 X57.796 Y58.804 F12000
G1 F2400
G1 X66.811 Y67.819 E0.44928
G1 X66.165 Y67.819 F12000
G1 F2400
G1 X57.256 Y58.911 E0.44396
G1 X56.691 Y58.992 F12000
G1 F2400
G1 X65.518 Y67.819 E0.43991
G1 X64.872 Y67.819 F12000
G1 F2400
G1 X56.015 Y58.962 E0.44139
G1 X55.264 Y58.858 F12000
G1 F2400
G1 X64.225 Y67.819 E0.4466
G1 X63.579 Y67.819 F12000
G1 F2400
G1 X54.269 Y58.509 E0.46398
G1 E-0.5 F1800
; acceleration to travel
M204 S4000
G1 X52.015 Y56.686 F12000
; decel to extrusion
M204 S2000
G1 X50.888 Y55.774
; end travel
G1 E0.5 F1800
G1 F2400
G1 X62.933 Y67.819 E0.60027
G1 X62.286 Y67.82 F12000
G1 F2400
G1 X50.847 Y56.38 E0.5701
G1 X50.847 Y57.026 F12000
G1 F2400
G1 X61.64 Y67.82 E0.53788
G1 X60.994 Y67.82 F12000
G1 F2400
G1 X50.847 Y57.673 E0.50566
G1 X50.847 Y58.319 F12000
G1 F2400
G1 X60.347 Y67.82 E0.47344
