; HEADER_BLOCK_START
; generated by OrcaSlicer 1.7.0-beta on 2023-09-22 at 07:09:56
; total layer number: 133
; HEADER_BLOCK_END

; THUMBNAIL_BLOCK_START
; THUMBNAIL_BLOCK_END

; external perimeters extrusion width = 0.40mm
; perimeters extrusion width = 0.46mm
; infill extrusion width = 0.64mm
; solid infill extrusion width = 0.56mm
; top infill extrusion width = 0.40mm
; support material extrusion width = 0.46mm
; first layer extrusion width = 0.50mm

; EXECUTABLE_BLOCK_START
EXCLUDE_OBJECT_DEFINE NAME=PulleyMountlefttop.stl_id_0_copy_0 CENTER=60,60 POLYGON=[[8.39584,35.182],[8.40816,35.0255],[8.44479,34.873],[8.50484,34.728],[8.58682,34.5942],[8.68874,34.4749],[13.103,30.0607],[13.1758,29.9947],[13.2223,29.9587],[13.2545,29.9363],[13.3386,29.8859],[13.3561,29.8768],[13.4274,29.8439],[13.501,29.8167],[13.5199,29.8108],[13.615,29.787],[13.6536,29.7801],[13.7119,29.7726],[13.8101,29.7678],[70.1902,29.7678],[70.2883,29.7726],[70.3466,29.7801],[70.3853,29.787],[70.4803,29.8108],[70.4992,29.8167],[70.5728,29.8439],[70.6441,29.8768],[70.6617,29.8859],[107.644,49.8772],[107.778,49.9592],[107.897,50.0611],[111.311,53.4753],[111.413,53.5946],[111.495,53.7284],[111.555,53.8734],[111.592,54.026],[111.604,54.1824],[111.604,85.3536],[111.592,85.51],[111.555,85.6626],[111.495,85.8075],[111.413,85.9413],[111.311,86.0607],[107.897,89.4749],[107.778,89.5768],[107.644,89.6588],[107.499,89.7188],[107.346,89.7555],[107.19,89.7678],[37.7728,90.2322],[33.6306,90.2322],[30.7017,87.3033],[8.50484,44.8075],[8.44479,44.6626],[8.40816,44.51],[8.39584,44.3536],[8.39584,35.182]]
M73 P0 R45
;TYPE:Custom
START_PRINT T_BED=110 T_EXTRUDER=260
G90
G21
M83 ; use relative distances for extrusion
; Filament gcode

    PRESSURE_ADVANCE_SELECT FILAMENT=ABS
M106 S0
;LAYER_CHANGE
;Z:0.2
;HEIGHT:0.2
;BEFORE_LAYER_CHANGE
;0.2
G92 E0

;AFTER_LAYER_CHANGE
;0.2
;_SET_FAN_SPEED_CHANGING_LAYER
SET_VELOCITY_LIMIT ACCEL=1000 ACCEL_TO_DECEL=500
SET_VELOCITY_LIMIT SQUARE_CORNER_VELOCITY=9
G1 E-.5 F3000
G1 Z.2 F21000
G1 X12.153 Y28.252
G1 Z.2
G1 E.5 F1800
;TYPE:Skirt
;WIDTH:0.5
G1 F3000
G1 X13.204 Y27.817 E.04003
G1 X13.81 Y27.754 E.02146
G1 X70.197 Y27.754 E1.98449
G1 X70.892 Y27.838 E.02461
G1 X71.614 Y28.112 E.02719
G1 X108.621 Y48.116 E1.48051
G1 X109.322 Y48.637 E.03075
G1 X112.746 Y52.064 E.17048
G1 X113.282 Y52.801 E.03206
G1 X113.578 Y53.696 E.03318
G1 X113.618 Y54.183 E.01719
G1 X113.617 Y85.369 E1.09758
G1 X113.465 Y86.299 E.03317
G1 X113.032 Y87.137 E.03318
G1 X109.309 Y90.91 E.18655
G1 X108.572 Y91.445 E.03207
G1 X107.677 Y91.741 E.03317
G1 X107.209 Y91.782 E.01651
G1 X34.003 Y92.246 E2.57645
G1 X31.943 Y91.393 E.0785
G1 X29.541 Y88.991 E.11954
G1 X29.021 Y88.283 E.03092
G1 X6.704 Y45.707 E1.69178
G1 X6.422 Y44.84 E.03208
G1 X6.382 Y44.354 E.01719
G1 X6.382 Y35.182 E.32278
G1 X6.422 Y34.695 E.01719
G1 X6.718 Y33.8 E.03318
G1 X7.254 Y33.063 E.03207
G1 X11.678 Y28.637 E.22025
G1 X12.122 Y28.277 E.02009
G1 X12.407 Y28.632 F21000
G1 F3000
G1 X13.293 Y28.265 E.03375
G1 X13.81 Y28.211 E.01831
G1 X70.197 Y28.211 E1.98449
G1 X70.788 Y28.283 E.02093
G1 X71.397 Y28.514 E.02293
G1 X108.404 Y48.518 E1.48051
G1 X108.999 Y48.961 E.0261
G1 X112.423 Y52.387 E.17048
G1 X112.874 Y53.008 E.02703
G1 X113.126 Y53.767 E.02815
G1 X113.161 Y54.183 E.01467
G1 X113.16 Y85.369 E1.09758
G1 X113.03 Y86.158 E.02814
G1 X112.663 Y86.869 E.02815
G1 X108.986 Y90.587 E.18403
G1 X108.364 Y91.038 E.02704
G1 X107.605 Y91.29 E.02814
G1 X107.206 Y91.325 E.0141
G1 X34.003 Y91.789 E2.57634
M73 P0 R44
G1 X32.266 Y91.07 E.06618
G1 X29.864 Y88.668 E.11954
G1 X29.425 Y88.071 E.02607
G1 X7.111 Y45.5 E1.69159
G1 X6.874 Y44.769 E.02705
G1 X6.839 Y44.354 E.01467
G1 X6.839 Y35.182 E.32278
G1 X6.874 Y34.767 E.01467
G1 X7.126 Y34.008 E.02814
G1 X7.577 Y33.386 E.02704
G1 X12.002 Y28.96 E.22025
G1 X12.376 Y28.657 E.01693
; printing object PulleyMountlefttop.stl id:0 copy 0
G1 E-.5
EXCLUDE_OBJECT_START NAME=PulleyMountlefttop.stl_id_0_copy_0
G1 Z.4 F21000
G1 X40.122 Y60.709 Z.4
G1 Z.2
G1 E.5 F1800
;TYPE:Support
G1 F3000
G1 X40.519 Y60.79 E.01426
G1 X40.905 Y60.911 E.01426
G1 X41.277 Y61.071 E.01426
G1 X41.632 Y61.268 E.01426
G1 X41.964 Y61.499 E.01426
G1 X42.271 Y61.763 E.01426
G1 X42.55 Y62.057 E.01426
G1 X42.798 Y62.377 E.01426
G1 X43.013 Y62.721 E.01426
G1 X43.191 Y63.085 E.01426
G1 X43.332 Y63.464 E.01426
G1 X43.433 Y63.857 E.01426
G1 X43.495 Y64.257 E.01426
G1 X43.515 Y64.662 E.01426
G1 X43.495 Y65.066 E.01426
G1 X43.433 Y65.467 E.01426
G1 X43.332 Y65.859 E.01426
G1 X43.191 Y66.239 E.01426
G1 X43.013 Y66.602 E.01426
G1 X42.798 Y66.946 E.01426
G1 X42.55 Y67.266 E.01426
G1 X42.271 Y67.56 E.01426
G1 X41.964 Y67.824 E.01426
G1 X41.631 Y68.055 E.01426
G1 X41.277 Y68.252 E.01426
G1 X40.905 Y68.412 E.01426
G1 X40.519 Y68.533 E.01426
G1 X40.122 Y68.615 E.01426
G1 X39.719 Y68.655 E.01426
G1 X39.314 Y68.655 E.01426
G1 X38.928 Y68.616 E.01363
G1 X38.512 Y68.533 E.01493
G1 X38.127 Y68.412 E.01421
G1 X37.755 Y68.252 E.01426
G1 X37.401 Y68.055 E.01426
G1 X37.068 Y67.824 E.01426
G1 X36.761 Y67.56 E.01426
G1 X36.482 Y67.266 E.01426
G1 X36.234 Y66.946 E.01426
G1 X36.02 Y66.602 E.01426
G1 X35.841 Y66.239 E.01426
G1 X35.701 Y65.859 E.01426
G1 X35.599 Y65.467 E.01426
G1 X35.538 Y65.066 E.01426
G1 X35.517 Y64.662 E.01426
G1 X35.538 Y64.257 E.01426
G1 X35.599 Y63.857 E.01426
G1 X35.701 Y63.464 E.01426
G1 X35.841 Y63.085 E.01426
G1 X36.02 Y62.721 E.01426
G1 X36.234 Y62.377 E.01426
G1 X36.482 Y62.057 E.01426
G1 X36.761 Y61.763 E.01426
G1 X37.068 Y61.499 E.01426
G1 X37.401 Y61.268 E.01426
G1 X37.755 Y61.071 E.01426
G1 X38.127 Y60.911 E.01426
G1 X38.514 Y60.79 E.01426
G1 X38.911 Y60.709 E.01426
G1 X39.314 Y60.668 E.01426
G1 X39.719 Y60.668 E.01426
G1 X40.054 Y60.702 E.01184
G1 X43.03 Y63.94 F21000
G1 F3000
G1 X43.085 Y64.299 E.01279
G1 X43.103 Y64.662 E.01279
G1 X43.085 Y65.025 E.01279
G1 X43.03 Y65.384 E.01279
G1 X42.939 Y65.735 E.01279
G1 X42.813 Y66.076 E.01279
G1 X42.653 Y66.402 E.01279
G1 X42.46 Y66.711 E.01279
G1 X42.238 Y66.998 E.01279
G1 X41.988 Y67.262 E.01279
G1 X41.712 Y67.498 E.01279
G1 X41.414 Y67.706 E.01279
G1 X41.096 Y67.882 E.01279
G1 X40.762 Y68.025 E.01279
G1 X40.415 Y68.134 E.01279
G1 X40.059 Y68.207 E.01279
G1 X39.698 Y68.244 E.01279
G1 X39.334 Y68.244 E.01279
G1 X38.99 Y68.209 E.01219
G1 X38.615 Y68.134 E.01346
G1 X38.27 Y68.025 E.01271
G1 X37.936 Y67.882 E.01279
G1 X37.619 Y67.706 E.01279
G1 X37.32 Y67.498 E.01279
G1 X37.045 Y67.262 E.01279
G1 X36.794 Y66.998 E.01279
G1 X36.572 Y66.711 E.01279
G1 X36.38 Y66.402 E.01279
G1 X36.22 Y66.076 E.01279
G1 X36.094 Y65.735 E.01279
G1 X36.002 Y65.384 E.01279
G1 X35.947 Y65.025 E.01279
G1 X35.929 Y64.662 E.01279
G1 X35.947 Y64.299 E.01279
G1 X36.002 Y63.94 E.01279
G1 X36.094 Y63.588 E.01279
G1 X36.22 Y63.247 E.01279
G1 X36.38 Y62.921 E.01279
G1 X36.572 Y62.612 E.01279
G1 X36.794 Y62.325 E.01279
G1 X37.045 Y62.062 E.01279
G1 X37.32 Y61.825 E.01279
G1 X37.619 Y61.617 E.01279
G1 X37.936 Y61.441 E.01279
G1 X38.27 Y61.298 E.01279
G1 X38.617 Y61.189 E.01279
G1 X38.973 Y61.116 E.01279
G1 X39.334 Y61.079 E.01279
G1 X39.698 Y61.079 E.01279
G1 X40.059 Y61.116 E.01279
G1 X40.415 Y61.189 E.01279
G1 X40.762 Y61.298 E.01279
G1 X41.096 Y61.441 E.01279
G1 X41.414 Y61.617 E.01279
G1 X41.712 Y61.825 E.01279
G1 X41.988 Y62.062 E.01279
G1 X42.238 Y62.325 E.01279
G1 X42.46 Y62.612 E.01279
G1 X42.653 Y62.921 E.01279
G1 X42.813 Y63.247 E.01279
G1 X42.939 Y63.588 E.01279
G1 X43.03 Y63.94 E.01279
G1 X42.532 Y64.042 F21000
G1 F3000
G1 X42.579 Y64.35 E.01098
G1 X42.595 Y64.662 E.01098
G1 X42.579 Y64.973 E.01098
G1 X42.532 Y65.281 E.01098
G1 X42.454 Y65.583 E.01098
G1 X42.345 Y65.876 E.01097
G1 X42.208 Y66.156 E.01098
G1 X42.043 Y66.42 E.01098
G1 X41.852 Y66.667 E.01097
G1 X41.637 Y66.893 E.01098
G1 X41.401 Y67.096 E.01097
G1 X41.145 Y67.274 E.01098
G1 X40.872 Y67.426 E.01097
G1 X40.585 Y67.549 E.01098
G1 X40.288 Y67.642 E.01098
G1 X39.982 Y67.705 E.01098
G1 X39.672 Y67.736 E.01097
G1 X39.36 Y67.736 E.01098
G1 X39.066 Y67.706 E.01041
G1 X38.741 Y67.641 E.01165
G1 X38.447 Y67.549 E.01086
G1 X38.16 Y67.426 E.01098
G1 X37.888 Y67.274 E.01098
G1 X37.632 Y67.096 E.01098
G1 X37.395 Y66.893 E.01097
G1 X37.18 Y66.667 E.01098
G1 X36.989 Y66.42 E.01098
G1 X36.824 Y66.156 E.01097
G1 X36.687 Y65.876 E.01098
G1 X36.579 Y65.583 E.01097
G1 X36.501 Y65.281 E.01098
G1 X36.453 Y64.973 E.01097
G1 X36.438 Y64.662 E.01098
G1 X36.453 Y64.35 E.01098
G1 X36.501 Y64.042 E.01097
G1 X36.579 Y63.74 E.01098
G1 X36.687 Y63.448 E.01098
G1 X36.824 Y63.168 E.01098
G1 X36.989 Y62.903 E.01098
G1 X37.18 Y62.656 E.01098
G1 X37.395 Y62.43 E.01098
G1 X37.632 Y62.227 E.01097
G1 X37.888 Y62.049 E.01098
G1 X38.16 Y61.898 E.01098
G1 X38.447 Y61.775 E.01098
G1 X38.744 Y61.681 E.01097
G1 X39.05 Y61.618 E.01098
G1 X39.36 Y61.587 E.01098
G1 X39.672 Y61.587 E.01098
G1 X39.982 Y61.618 E.01098
G1 X40.288 Y61.681 E.01098
G1 X40.585 Y61.775 E.01098
G1 X40.872 Y61.898 E.01098
G1 X41.145 Y62.049 E.01098
G1 X41.401 Y62.227 E.01098
G1 X41.637 Y62.43 E.01097
G1 X41.852 Y62.656 E.01098
G1 X42.043 Y62.903 E.01098
G1 X42.208 Y63.168 E.01098
G1 X42.345 Y63.448 E.01097
G1 X42.454 Y63.74 E.01098
G1 X42.532 Y64.042 E.01098
G1 X42.034 Y64.144 F21000
G1 F3000
G1 X42.073 Y64.402 E.00916
G1 X42.086 Y64.662 E.00916
G1 X42.073 Y64.922 E.00916
G1 X42.034 Y65.179 E.00916
G1 X41.968 Y65.431 E.00916
G1 X41.878 Y65.675 E.00916
G1 X41.763 Y65.909 E.00916
G1 X41.626 Y66.13 E.00916
G1 X41.466 Y66.336 E.00916
G1 X41.287 Y66.524 E.00916
G1 X41.089 Y66.694 E.00916
G1 X40.876 Y66.843 E.00916
G1 X40.648 Y66.969 E.00916
G1 X40.409 Y67.072 E.00916
G1 X40.16 Y67.15 E.00916
G1 X39.905 Y67.202 E.00916
G1 X39.646 Y67.228 E.00916
G1 X39.386 Y67.228 E.00916
G1 X39.142 Y67.204 E.00863
G1 X38.868 Y67.148 E.00984
G1 X38.624 Y67.072 E.00901
G1 X38.384 Y66.969 E.00916
G1 X38.157 Y66.843 E.00916
G1 X37.943 Y66.694 E.00916
G1 X37.745 Y66.524 E.00916
G1 X37.566 Y66.336 E.00916
G1 X37.407 Y66.13 E.00916
G1 X37.269 Y65.909 E.00916
G1 X37.154 Y65.675 E.00916
G1 X37.064 Y65.431 E.00916
G1 X36.999 Y65.179 E.00916
G1 X36.959 Y64.922 E.00916
G1 X36.946 Y64.662 E.00916
G1 X36.959 Y64.402 E.00916
G1 X36.999 Y64.144 E.00916
G1 X37.064 Y63.892 E.00916
G1 X37.154 Y63.648 E.00916
G1 X37.269 Y63.414 E.00916
G1 X37.407 Y63.193 E.00916
G1 X37.566 Y62.987 E.00916
G1 X37.745 Y62.799 E.00916
G1 X37.943 Y62.629 E.00916
G1 X38.157 Y62.481 E.00916
G1 X38.384 Y62.354 E.00916
G1 X38.624 Y62.251 E.00916
G1 X38.872 Y62.174 E.00916
G1 X39.127 Y62.121 E.00916
G1 X39.386 Y62.095 E.00916
G1 X39.646 Y62.095 E.00916
G1 X39.905 Y62.121 E.00916
G1 X40.16 Y62.174 E.00916
G1 X40.409 Y62.251 E.00916
G1 X40.648 Y62.354 E.00916
G1 X40.876 Y62.48 E.00916
G1 X41.089 Y62.629 E.00916
G1 X41.287 Y62.799 E.00916
G1 X41.466 Y62.987 E.00916
G1 X41.626 Y63.193 E.00916
G1 X41.763 Y63.414 E.00916
G1 X41.878 Y63.648 E.00916
G1 X41.968 Y63.892 E.00916
G1 X42.034 Y64.144 E.00916
G1 X41.536 Y64.247 F21000
G1 F3000
G1 X41.578 Y64.662 E.01468
G1 X41.536 Y65.077 E.01468
G1 X41.411 Y65.475 E.01468
G1 X41.208 Y65.839 E.01468
G1 X40.936 Y66.156 E.01468
G1 X40.607 Y66.411 E.01468
G1 X40.232 Y66.595 E.01468
G1 X39.828 Y66.699 E.01468
G1 X39.412 Y66.721 E.01468
G1 X38.994 Y66.656 E.01486
G1 X38.608 Y66.512 E.0145
G1 X38.254 Y66.292 E.01468
G1 X37.952 Y66.004 E.01468
G1 X37.714 Y65.662 E.01468
G1 X37.549 Y65.279 E.01468
G1 X37.497 Y65.077 E.00735
G1 X37.455 Y64.662 E.01468
G1 X37.497 Y64.247 E.01468
G1 X37.622 Y63.849 E.01468
G1 X37.824 Y63.484 E.01468
G1 X38.096 Y63.167 E.01468
G1 X38.426 Y62.912 E.01468
G1 X38.8 Y62.728 E.01468
G1 X39.204 Y62.624 E.01468
G1 X39.621 Y62.603 E.01468
G1 X40.033 Y62.666 E.01468
G1 X40.424 Y62.811 E.01468
G1 X40.778 Y63.031 E.01468
G1 X41.08 Y63.319 E.01468
G1 X41.208 Y63.484 E.00735
G1 X41.411 Y63.849 E.01468
G1 X41.536 Y64.247 E.01468
G1 X41.037 Y64.349 F21000
G1 F3000
G1 X41.069 Y64.662 E.01106
G1 X41.037 Y64.974 E.01106
G1 X40.943 Y65.274 E.01106
G1 X40.791 Y65.549 E.01106
G1 X40.586 Y65.787 E.01106
G1 X40.338 Y65.98 E.01106
G1 X40.056 Y66.118 E.01106
G1 X39.751 Y66.197 E.01106
G1 X39.437 Y66.213 E.01106
G1 X39.121 Y66.163 E.01127
G1 X38.832 Y66.056 E.01084
G1 X38.565 Y65.89 E.01106
G1 X38.338 Y65.673 E.01106
G1 X38.158 Y65.415 E.01106
G1 X38.089 Y65.274 E.00554
G1 X37.995 Y64.974 E.01106
G1 X37.963 Y64.662 E.01106
G1 X37.995 Y64.349 E.01106
G1 X38.089 Y64.049 E.01106
G1 X38.241 Y63.774 E.01106
G1 X38.446 Y63.536 E.01106
G1 X38.695 Y63.344 E.01106
G1 X38.977 Y63.205 E.01106
G1 X39.281 Y63.126 E.01106
G1 X39.595 Y63.111 E.01106
G1 X39.905 Y63.158 E.01106
G1 X40.2 Y63.267 E.01106
G1 X40.467 Y63.433 E.01106
G1 X40.695 Y63.65 E.01106
G1 X40.791 Y63.774 E.00554
G1 X40.943 Y64.049 E.01106
G1 X41.037 Y64.349 E.01106
G1 X40.539 Y64.451 F21000
G1 F3000
G1 X40.561 Y64.662 E.00744
G1 X40.539 Y64.872 E.00744
G1 X40.476 Y65.074 E.00744
G1 X40.373 Y65.258 E.00744
G1 X40.236 Y65.419 E.00744
G1 X40.069 Y65.548 E.00744
G1 X39.879 Y65.641 E.00744
G1 X39.674 Y65.694 E.00744
G1 X39.463 Y65.705 E.00744
G1 X39.247 Y65.671 E.00769
G1 X39.056 Y65.599 E.00718
G1 X38.877 Y65.488 E.00744
G1 X38.724 Y65.342 E.00744
G1 X38.603 Y65.169 E.00744
G1 X38.493 Y64.872 E.01113
G1 X38.472 Y64.662 E.00744
G1 X38.493 Y64.451 E.00744
G1 X38.556 Y64.25 E.00744
G1 X38.659 Y64.065 E.00744
G1 X38.797 Y63.904 E.00744
G1 X38.964 Y63.775 E.00743
G1 X39.153 Y63.682 E.00744
G1 X39.358 Y63.629 E.00744
G1 X39.569 Y63.618 E.00744
G1 X39.778 Y63.65 E.00744
G1 X39.976 Y63.724 E.00744
G1 X40.156 Y63.836 E.00744
G1 X40.309 Y63.981 E.00744
G1 X40.429 Y64.155 E.00744
G1 X40.539 Y64.451 E.01113
G1 X40.041 Y64.554 F21000
G1 F3000
G1 X40.041 Y64.77 E.0076
G1 X39.956 Y64.968 E.0076
G1 X39.8 Y65.117 E.00759
G1 X39.597 Y65.191 E.0076
G1 X39.374 Y65.178 E.00787
G1 X39.188 Y65.085 E.00731
G1 X39.047 Y64.922 E.00759
G1 X38.991 Y64.769 E.00571
G1 X38.991 Y64.554 E.00759
G1 X39.076 Y64.355 E.00759
G1 X39.233 Y64.207 E.00759
G1 X39.435 Y64.132 E.0076
G1 X39.65 Y64.143 E.00759
G1 X39.844 Y64.238 E.0076
G1 X39.985 Y64.401 E.0076
G1 X40.041 Y64.554 E.00571
G1 E-.5
G1 Z.4 F21000
G1 X44.444 Y62.58 Z.4
G1 X55.225 Y57.746
G1 X62.902 Y54.304
G1 Z.2
G1 E.5 F1800
;TYPE:Support interface
G1 F3000
G1 X63.507 Y53.728 E.02942
G1 X63.112 Y53.335 E.01961
G1 X62.966 Y53.241 E.00613
G1 X62.751 Y53.156 E.00812
G1 X62.751 Y54.448 E.04549
G1 X61.834 Y55.322 E.04458
G1 X61.834 Y53.289 E.07156
G1 X61.651 Y53.431 E.00816
G1 X60.917 Y54.131 E.03569
G1 X60.917 Y56.195 E.07267
G1 X60 Y57.069 E.04458
G1 X60 Y55.004 E.07267
G1 X59.083 Y55.878 E.04458
G1 X59.083 Y57.943 E.07267
G1 X58.166 Y58.817 E.04458
G1 X58.166 Y56.752 E.07267
G1 X57.249 Y57.626 E.04458
G1 X57.249 Y59.69 E.07267
G1 X56.332 Y60.564 E.04458
G1 X56.332 Y58.499 E.07267
G1 X55.415 Y59.373 E.04458
G1 X55.415 Y61.438 E.07267
G1 X54.498 Y62.312 E.04458
G1 X54.498 Y60.247 E.07267
G1 X53.58 Y61.12 E.04458
G1 X53.58 Y63.185 E.07267
G1 X52.663 Y64.059 E.04458
G1 X52.663 Y61.994 E.07267
G1 X51.746 Y62.868 E.04458
G1 X51.746 Y64.933 E.07267
G1 X50.829 Y65.806 E.04458
G1 X50.829 Y63.742 E.07267
G1 X49.912 Y64.615 E.04458
G1 X49.912 Y66.315 E.05982
G1 X49.507 Y66.304 E.01428
G1 X49.319 Y66.238 E.00701
G1 X49.164 Y66.112 E.00701
G1 X49.104 Y66.032 E.00352
G1 X49.03 Y65.847 E.00701
G1 X49.022 Y65.648 E.00701
G1 X49.044 Y65.55 E.00352
G1 X49.134 Y65.372 E.00701
G1 X49.761 Y64.759 E.03087
G1 E-.5
G1 Z.4 F21000
G1 X53.166 Y65.388 Z.4
G1 X55.659 Y65.848
G1 X57.249 Y66.141
G1 Z.2
G1 E.5 F1800
G1 F3000
G1 X57.249 Y66.315 E.00613
G1 X58.166 Y66.315 E.03228
G1 X58.166 Y65.267 E.03688
G1 X59.083 Y64.393 E.04458
G1 X59.083 Y66.315 E.06763
G1 X59.756 Y66.309 E.02368
G1 X59.894 Y66.254 E.00525
G1 X60 Y66.161 E.00495
G1 X60 Y63.52 E.09296
G1 X60.917 Y62.646 E.04458
G1 X60.917 Y65.287 E.09296
G1 X61.834 Y64.414 E.04458
G1 X61.834 Y61.772 E.09296
G1 X62.751 Y60.899 E.04458
G1 X62.751 Y63.54 E.09296
G1 X63.668 Y62.666 E.04458
G1 X63.668 Y60.025 E.09296
G1 X64.585 Y59.151 E.04458
G1 X64.585 Y61.793 E.09296
G1 X65.502 Y60.922 E.0445
G1 X65.502 Y58.277 E.09308
G1 X66.42 Y57.404 E.04458
G1 X66.42 Y60.499 E.10893
G1 X66.542 Y60.483 E.00434
G1 X66.836 Y60.487 E.01036
G1 X67.068 Y60.526 E.00826
G1 X67.337 Y60.614 E.00996
G1 X67.337 Y57.435 E.11186
