; HEADER_BLOCK_START
; generated by OrcaSlicer 1.7.0-beta on 2023-09-23 at 17:00:36
; total layer number: 82
; HEADER_BLOCK_END

; THUMBNAIL_BLOCK_START
; THUMBNAIL_BLOCK_END

; external perimeters extrusion width = 0.40mm
; perimeters extrusion width = 0.46mm
; infill extrusion width = 0.64mm
; solid infill extrusion width = 0.56mm
; top infill extrusion width = 0.40mm
; first layer extrusion width = 0.50mm

; EXECUTABLE_BLOCK_START
EXCLUDE_OBJECT_DEFINE NAME=PulleyMountleftbottom.stl_id_0_copy_0 CENTER=59.6359,47.719 POLYGON=[[8.0319,63.3655],[8.04421,63.209],[8.08085,63.0564],[8.14089,62.9115],[30.3374,20.4157],[33.2664,17.4868],[37.4085,17.4868],[106.826,17.9512],[106.982,17.9636],[107.135,18.0002],[107.28,18.0602],[107.413,18.1422],[107.533,18.2441],[110.947,21.6584],[111.049,21.7777],[111.131,21.9115],[111.191,22.0564],[111.228,22.209],[111.24,22.3655],[111.24,35.9508],[111.225,36.1245],[111.18,36.2928],[111.106,36.4508],[111.006,36.5936],[90.9473,57.2441],[70.5332,77.6584],[70.4604,77.7243],[70.4139,77.7603],[70.3816,77.7827],[70.2976,77.8331],[70.2801,77.8423],[70.2088,77.8751],[70.1351,77.9023],[70.1162,77.9082],[70.0212,77.932],[69.9825,77.9389],[69.9242,77.9464],[69.8261,77.9512],[13.4461,77.9512],[13.348,77.9464],[13.2897,77.9389],[13.251,77.932],[13.1559,77.9082],[13.1371,77.9023],[13.0634,77.8751],[12.9921,77.8423],[12.9746,77.8331],[12.8905,77.7827],[12.8583,77.7603],[12.8118,77.7243],[12.739,77.6584],[8.32479,73.2441],[8.22289,73.1248],[8.14089,72.991],[8.08085,72.8461],[8.04421,72.6935],[8.0319,72.537],[8.0319,63.3655]]
M73 P0 R45
;TYPE:Custom
START_PRINT T_BED=110 T_EXTRUDER=260
G90
G21
M83 ; use relative distances for extrusion
; Filament gcode

    PRESSURE_ADVANCE_SELECT FILAMENT=ABS
M106 S0
;LAYER_CHANGE
;Z:0.2
;HEIGHT:0.2
;BEFORE_LAYER_CHANGE
;0.2
G92 E0

;AFTER_LAYER_CHANGE
;0.2
;_SET_FAN_SPEED_CHANGING_LAYER
SET_VELOCITY_LIMIT ACCEL=1000 ACCEL_TO_DECEL=500
SET_VELOCITY_LIMIT SQUARE_CORNER_VELOCITY=9
G1 E-.5 F3000
G1 Z.2 F21000
G1 X28.656 Y19.436
G1 Z.2
G1 E.5 F1800
;TYPE:Skirt
;WIDTH:0.5
G1 F3000
G1 X29.177 Y18.728 E.03092
G1 X31.579 Y16.326 E.11954
G1 X33.639 Y15.473 E.0785
G1 X37.055 Y15.473 E.12022
G1 X106.861 Y15.938 E2.45678
G1 X107.742 Y16.081 E.03141
G1 X108.584 Y16.505 E.03318
G1 X108.957 Y16.82 E.01719
G1 X112.371 Y20.234 E.16993
G1 X112.686 Y20.607 E.01718
G1 X113.11 Y21.449 E.03318
G1 X113.253 Y22.35 E.03209
G1 X113.253 Y35.968 E.47928
G1 X113.077 Y36.965 E.03563
G1 X112.394 Y38.058 E.04534
G1 X92.401 Y58.638 E1.00981
G1 X71.957 Y79.083 E1.01753
G1 X71.483 Y79.467 E.02149
G1 X70.433 Y79.902 E.04
G1 X69.826 Y79.965 E.02148
G1 X13.446 Y79.965 E1.98423
G1 X12.839 Y79.902 E.02148
G1 X11.789 Y79.467 E.04001
G1 X11.315 Y79.083 E.02147
G1 X6.901 Y74.668 E.2197
G1 X6.452 Y74.091 E.02574
G1 X6.059 Y73.024 E.04002
G1 X6.018 Y63.365 E.33992
G1 X6.109 Y62.64 E.02574
G1 X6.362 Y61.967 E.02529
G1 X28.638 Y19.471 E1.68862
G1 X29.043 Y19.683 F21000
G1 F3000
G1 X29.061 Y19.648 E.00141
G1 X29.5 Y19.051 E.02607
G1 X31.902 Y16.649 E.11954
G1 X33.639 Y15.93 E.06618
G1 X37.052 Y15.93 E.12011
G1 X106.858 Y16.395 E2.45678
G1 X107.601 Y16.516 E.02649
G1 X108.315 Y16.874 E.02814
G1 X108.634 Y17.143 E.01467
G1 X112.048 Y20.557 E.16993
G1 X112.317 Y20.876 E.01466
G1 X112.675 Y21.591 E.02815
G1 X112.796 Y22.35 E.02706
G1 X112.795 Y35.968 E.47928
G1 X112.647 Y36.809 E.03004
G1 X112.067 Y37.739 E.03861
G1 X92.073 Y58.32 E1.00981
G1 X71.634 Y78.759 E1.0173
G1 X71.229 Y79.087 E.01833
G1 X70.344 Y79.453 E.03372
G1 X69.826 Y79.508 E.01833
G1 X13.446 Y79.508 E1.98423
G1 X12.928 Y79.453 E.01833
G1 X12.043 Y79.087 E.03373
G1 X11.638 Y78.759 E.01832
G1 X7.224 Y74.345 E.2197
G1 X6.842 Y73.852 E.02196
G1 X6.51 Y72.952 E.03374
G1 X6.475 Y63.365 E.3374
G1 X6.554 Y62.746 E.02196
G1 X6.767 Y62.179 E.02132
G1 X29.024 Y19.719 E1.68722
; printing object PulleyMountleftbottom.stl id:0 copy 0
M73 P0 R44
G1 E-.5
EXCLUDE_OBJECT_START NAME=PulleyMountleftbottom.stl_id_0_copy_0
G1 Z.4 F21000
G1 X90.215 Y35.705 Z.4
G1 Z.2
G1 E.5 F1800
;TYPE:Outer wall
;WIDTH:0.585841
G1 F3000
G1 X90.05 Y35.802 E.00798
G1 X89.99 Y35.972 E.00756
G1 X89.987 Y56.436 E.85546
G1 X69.722 Y76.699 E1.19799
G1 X13.55 Y76.699 E2.34815
G1 X9.282 Y72.429 E.25239
G1 X9.285 Y63.466 E.37468
G1 X12.547 Y60.205 E.19283
G1 X16.426 Y60.199 E.16216
G1 X17.009 Y60.112 E.02461
G1 X17.537 Y59.883 E.02407
G1 X17.977 Y59.544 E.02322
G1 X32.395 Y45.126 E.85237
G1 X32.769 Y44.626 E.02613
G1 X32.981 Y44.09 E.02406
G1 X33.052 Y43.54 E.02322
G1 X33.047 Y26.644 E.7063
G1 X32.952 Y25.634 E.04241
G1 X32.869 Y25.477 E.00741
;WIDTH:0.565293
G1 X32.734 Y25.366 E.00703
;WIDTH:0.539325
G1 X32.463 Y25.079 E.0151
;WIDTH:0.585841
G1 X32.055 Y24.55 E.0279
G1 X31.586 Y24.045 E.0288
G1 X31.585 Y23.878 E.00699
;WIDTH:0.593305
G1 X31.576 Y22.679 E.05083
;WIDTH:0.591608
G1 X31.532 Y22.14 E.02285
;WIDTH:0.564077
G1 X31.488 Y21.6 E.02171
;WIDTH:0.576962
G1 X31.523 Y21.385 E.00897
;WIDTH:0.617379
G1 X31.558 Y21.17 E.00965
;WIDTH:0.657796
G1 X31.594 Y20.955 E.01033
G1 X32.205 Y20.329 E.04139
;WIDTH:0.621042
G1 X33.218 Y19.319 E.06369
;WIDTH:0.657495
G1 X33.806 Y18.743 E.03894
G1 X33.971 Y18.714 E.00792
;WIDTH:0.622683
G1 X34.135 Y18.685 E.00747
;WIDTH:0.58787
G1 X34.628 Y18.632 E.02077
;WIDTH:0.574683
G1 X35.093 Y18.683 E.01918
;WIDTH:0.603017
G1 X35.559 Y18.733 E.0202
G1 X35.98 Y18.728 E.01816
;WIDTH:0.585841
G1 X36.897 Y18.735 E.03834
G1 X37.508 Y19.296 E.03464
G1 X37.935 Y19.608 E.02212
;WIDTH:0.542276
G1 X38.233 Y19.901 E.01606
;WIDTH:0.556614
G1 X38.515 Y20.263 E.01815
;WIDTH:0.585841
G1 X38.798 Y20.624 E.01919
G1 X39.774 Y21.62 E.05828
G1 X39.968 Y21.701 E.00879
G1 X89.362 Y21.701 E2.06486
G1 X89.537 Y21.622 E.00802
G1 X91.958 Y19.203 E.14306
G1 X106.722 Y19.202 E.61716
G1 X109.989 Y22.469 E.19314
G1 X109.989 Y23.933 E.0612
G1 X109.988 Y35.7 E.49187
G1 X90.981 Y35.701 E.79457
G1 X90.255 Y35.705 E.03037
G1 E-.5
G1 Z.4 F21000
G1 X99.419 Y28.621 Z.4
G1 Z.2
G1 E.5 F1800
G1 F3000
G1 X99.2 Y28.391 E.01327
G1 X98.866 Y27.726 E.03112
G1 X98.743 Y26.992 E.03112
G1 X98.832 Y26.317 E.02844
G1 X98.866 Y26.177 E.00605
G1 X99.154 Y25.578 E.02777
G1 X99.651 Y25.024 E.03112
G1 X100.29 Y24.641 E.03112
G1 X101.013 Y24.464 E.03112
G1 X101.467 Y24.464 E.01898
G1 X102.115 Y24.612 E.02777
G1 X102.765 Y24.974 E.03112
G1 X103.28 Y25.511 E.03112
G1 X103.614 Y26.177 E.03113
G1 X103.74 Y26.951 E.03281
G1 X103.638 Y27.649 E.02946
G1 X103.326 Y28.325 E.03112
G1 X102.887 Y28.815 E.02752
G1 X102.765 Y28.929 E.00697
G1 X102.19 Y29.261 E.02777
G1 X101.467 Y29.438 E.03112
G1 X101.013 Y29.438 E.01898
G1 X100.365 Y29.291 E.02777
G1 X99.715 Y28.929 E.03112
G1 X99.447 Y28.649 E.01618
G1 X98.792 Y28.672 F21000
;TYPE:Inner wall
;WIDTH:0.499999
G1 F3000
G1 X98.703 Y28.541 E.00554
G1 X98.415 Y27.943 E.02338
G1 X98.316 Y27.513 E.01553
G1 X98.243 Y27.016 E.01767
G1 X98.338 Y26.243 E.02743
G1 X98.415 Y25.96 E.01033
G1 X98.703 Y25.361 E.02338
G1 X98.833 Y25.171 E.00809
G1 X99.285 Y24.684 E.02338
G1 X99.465 Y24.541 E.00809
G1 X100.04 Y24.208 E.02338
G1 X100.254 Y24.124 E.00809
G1 X100.902 Y23.977 E.02338
G1 X101.407 Y23.957 E.01778
G1 X102.226 Y24.124 E.02943
G1 X102.44 Y24.208 E.00809
G1 X103.015 Y24.541 E.02338
G1 X103.195 Y24.684 E.00809
G1 X103.647 Y25.171 E.02338
G1 X103.776 Y25.361 E.00809
G1 X104.065 Y25.96 E.02339
G1 X104.133 Y26.179 E.00809
G1 X104.24 Y26.951 E.02743
G1 X104.133 Y27.723 E.02743
G1 X104.065 Y27.943 E.00809
G1 X103.777 Y28.541 E.02338
G1 X103.254 Y29.155 E.02838
G1 X103.015 Y29.362 E.0111
G1 X102.44 Y29.694 E.02338
G1 X102.226 Y29.778 E.00809
G1 X101.578 Y29.926 E.02338
G1 X101.073 Y29.945 E.01778
G1 X100.254 Y29.778 E.02943
G1 X100.04 Y29.694 E.00809
G1 X99.465 Y29.362 E.02338
G1 X99.285 Y29.218 E.00809
G1 X98.833 Y28.731 E.02338
G1 X98.815 Y28.705 E.00114
G1 X98.42 Y28.928 F21000
G1 F3000
G1 X98.292 Y28.74 E.008
G1 X98.003 Y28.141 E.02338
G1 X97.895 Y27.791 E.01289
G1 X97.796 Y27.134 E.02338
G1 X97.796 Y26.768 E.01289
G1 X97.895 Y26.111 E.02338
G1 X98.003 Y25.761 E.01289
G1 X98.292 Y25.163 E.02338
G1 X98.498 Y24.86 E.01289
G1 X98.95 Y24.373 E.02338
G1 X99.236 Y24.145 E.01289
G1 X99.811 Y23.813 E.02338
G1 X100.152 Y23.679 E.01289
G1 X100.8 Y23.531 E.02338
G1 X101.407 Y23.5 E.02138
G1 X102.328 Y23.679 E.03302
G1 X102.669 Y23.813 E.01289
G1 X103.244 Y24.145 E.02338
G1 X103.53 Y24.373 E.01289
G1 X103.982 Y24.86 E.02338
G1 X104.188 Y25.163 E.01289
G1 X104.477 Y25.761 E.02339
G1 X104.585 Y26.111 E.01289
G1 X104.697 Y26.951 E.02983
G1 X104.585 Y27.791 E.02983
G1 X104.477 Y28.141 E.01289
G1 X104.188 Y28.74 E.02338
G1 X103.982 Y29.042 E.01289
G1 X103.53 Y29.529 E.02338
G1 X103.244 Y29.758 E.01289
G1 X102.669 Y30.09 E.02338
G1 X102.328 Y30.224 E.01289
G1 X101.68 Y30.372 E.02338
G1 X101.073 Y30.402 E.02138
G1 X100.152 Y30.224 E.03302
G1 X99.812 Y30.09 E.01289
G1 X99.236 Y29.758 E.02338
G1 X98.95 Y29.529 E.01289
G1 X98.498 Y29.042 E.02338
G1 X98.442 Y28.961 E.00348
G1 X98.047 Y29.183 F21000
G1 F3000
G1 X97.88 Y28.938 E.01045
G1 X97.592 Y28.34 E.02338
G1 X97.443 Y27.859 E.01768
G1 X97.344 Y27.203 E.02338
G1 X97.344 Y26.7 E.01768
G1 X97.443 Y26.043 E.02338
G1 X97.592 Y25.563 E.01768
G1 X97.88 Y24.964 E.02338
G1 X98.163 Y24.549 E.01768
G1 X98.615 Y24.062 E.02338
G1 X99.008 Y23.749 E.01768
G1 X99.583 Y23.417 E.02338
G1 X100.051 Y23.233 E.01768
G1 X100.698 Y23.085 E.02338
G1 X101.407 Y23.043 E.02497
G1 X101.782 Y23.085 E.01328
G1 X102.429 Y23.233 E.02338
G1 X102.897 Y23.417 E.01768
G1 X103.472 Y23.749 E.02338
G1 X103.865 Y24.062 E.01768
G1 X104.317 Y24.549 E.02338
G1 X104.6 Y24.964 E.01768
G1 X104.888 Y25.563 E.02339
G1 X105.037 Y26.043 E.01768
G1 X105.136 Y26.7 E.02338
G1 X105.154 Y26.951 E.00887
G1 X105.037 Y27.859 E.03223
G1 X104.888 Y28.34 E.01768
G1 X104.6 Y28.938 E.02338
G1 X104.317 Y29.353 E.01768
G1 X103.865 Y29.84 E.02338
G1 X103.472 Y30.154 E.01768
G1 X102.897 Y30.486 E.02338
G1 X102.429 Y30.669 E.01768
G1 X101.782 Y30.817 E.02338
G1 X101.073 Y30.859 E.02497
G1 X100.698 Y30.817 E.01329
G1 X100.051 Y30.669 E.02338
G1 X99.583 Y30.486 E.01768
G1 X99.008 Y30.154 E.02338
G1 X98.615 Y29.84 E.01768
G1 X98.163 Y29.353 E.02338
G1 X98.07 Y29.217 E.00582
G1 X97.675 Y29.439 F21000
G1 F3000
G1 X97.468 Y29.136 E.0129
G1 X97.18 Y28.538 E.02338
G1 X96.992 Y27.928 E.02248
G1 X96.892 Y27.271 E.02338
G1 X96.873 Y26.812 E.01616
G1 X96.982 Y26.038 E.02749
G1 X97.114 Y25.515 E.019
G1 X97.468 Y24.766 E.02915
G1 X97.828 Y24.238 E.02248
G1 X98.28 Y23.751 E.02338
G1 X98.779 Y23.353 E.02248
G1 X99.354 Y23.021 E.02338
G1 X99.949 Y22.788 E.02248
G1 X100.597 Y22.64 E.02338
G1 X101.073 Y22.586 E.01689
G1 X101.883 Y22.64 E.02857
G1 X102.531 Y22.788 E.02338
G1 X103.126 Y23.021 E.02248
G1 X103.701 Y23.353 E.02338
G1 X104.173 Y23.722 E.02109
G1 X104.652 Y24.238 E.02478
G1 X104.981 Y24.703 E.02004
G1 X105.3 Y25.365 E.02585
G1 X105.489 Y25.975 E.02248
G1 X105.588 Y26.632 E.02338
G1 X105.611 Y26.951 E.01127
G1 X105.489 Y27.928 E.03463
G1 X105.3 Y28.538 E.02248
G1 X105.012 Y29.136 E.02338
G1 X104.652 Y29.664 E.02248
G1 X104.2 Y30.151 E.02338
G1 X103.701 Y30.549 E.02248
G1 X103.126 Y30.882 E.02338
G1 X102.531 Y31.115 E.02247
G1 X101.884 Y31.263 E.02338
G1 X101.407 Y31.316 E.01689
G1 X100.597 Y31.263 E.02857
G1 X99.949 Y31.115 E.02338
G1 X99.354 Y30.882 E.02248
G1 X98.779 Y30.549 E.02338
G1 X98.28 Y30.151 E.02248
G1 X97.828 Y29.664 E.02338
G1 X97.697 Y29.472 E.00817
G1 E-.5
G1 Z.4 F21000
G1 X72.483 Y33.662 Z.4
G1 Z.2
G1 E.5 F1800
;TYPE:Outer wall
;WIDTH:0.585841
G1 F3000
G1 X72.477 Y33.672 E.00046
G1 X72.336 Y33.791 E.00774
G1 X71.656 Y33.807 E.02841
G1 X69.412 Y33.807 E.0938
G1 X67.937 Y33.807 E.06168
G1 X67.755 Y33.737 E.00815
G1 X65.549 Y29.943 E.18347
G1 X65.516 Y29.765 E.00759
G1 X65.549 Y29.672 E.00412
G1 X67.702 Y25.943 E.17998
G1 X67.836 Y25.827 E.00743
G1 X67.937 Y25.807 E.00429
G1 X72.242 Y25.807 E.17998
G1 X72.424 Y25.877 E.00815
G1 X72.477 Y25.943 E.00353
G1 X74.63 Y29.672 E.17998
G1 X74.66 Y29.864 E.00815
G1 X72.503 Y33.628 E.18134
G1 X72.84 Y33.997 F21000
;TYPE:Inner wall
;WIDTH:0.499999
G1 F3000
G1 X72.68 Y34.171 E.00832
G1 X72.392 Y34.293 E.01102
G1 X69.412 Y34.307 E.10485
G1 X67.937 Y34.307 E.05193
G1 X67.632 Y34.244 E.01097
G1 X67.42 Y34.108 E.00887
G1 X67.269 Y33.922 E.00845
G1 X65.116 Y30.193 E.15152
G1 X65.015 Y29.866 E.01207
G1 X65.041 Y29.602 E.00933
G1 X65.116 Y29.422 E.00687
G1 X67.269 Y25.693 E.15152
G1 X67.42 Y25.507 E.00845
G1 X67.651 Y25.363 E.00958
G1 X67.937 Y25.307 E.01026
G1 X72.242 Y25.307 E.15152
G1 X72.529 Y25.363 E.01026
G1 X72.759 Y25.507 E.00958
G1 X72.91 Y25.693 E.00845
G1 X75.063 Y29.422 E.15152
G1 X75.159 Y29.7 E.01037
G1 X75.134 Y30.027 E.01153
G1 X74.585 Y31.021 E.03997
G1 X72.91 Y33.922 E.11788
G1 X72.868 Y33.968 E.00222
G1 X73.212 Y34.268 F21000
G1 F3000
G1 X73.073 Y34.441 E.00782
G1 X72.739 Y34.66 E.01405
G1 X72.352 Y34.76 E.01405
G1 X69.412 Y34.765 E.10347
G1 X67.937 Y34.765 E.05193
G1 X67.675 Y34.736 E.00927
G1 X67.358 Y34.62 E.01187
G1 X67.113 Y34.448 E.01055
G1 X66.873 Y34.15 E.01345
G1 X64.72 Y30.422 E.15152
G1 X64.577 Y30.036 E.0145
G1 X64.571 Y29.613 E.01486
G1 X64.72 Y29.193 E.01569
G1 X66.873 Y25.465 E.15152
G1 X67.113 Y25.167 E.01345
G1 X67.481 Y24.938 E.01525
G1 X67.937 Y24.85 E.01634
G1 X72.242 Y24.85 E.15152
G1 X72.698 Y24.938 E.01634
G1 X73.066 Y25.167 E.01525
G1 X73.306 Y25.465 E.01345
G1 X75.459 Y29.193 E.15152
G1 X75.583 Y29.497 E.01154
G1 X75.621 Y29.884 E.01369
G1 X75.542 Y30.248 E.01314
G1 X73.306 Y34.15 E.15826
G1 X73.237 Y34.236 E.00389
G1 X73.563 Y34.552 F21000
G1 F3000
G1 X73.382 Y34.778 E.01017
G1 X73.043 Y35.019 E.01465
G1 X72.569 Y35.19 E.01774
G1 X71.656 Y35.222 E.03213
G1 X69.412 Y35.222 E.07897
G1 X67.937 Y35.222 E.05193
G1 X67.577 Y35.183 E.01272
G1 X67.143 Y35.023 E.01629
G1 X66.807 Y34.787 E.01447
G1 X66.477 Y34.379 E.01846
G1 X64.324 Y30.65 E.15152
G1 X64.139 Y30.173 E.01803
G1 X64.101 Y29.711 E.01629
G1 X64.16 Y29.358 E.0126
G1 X64.324 Y28.965 E.01501
G1 X66.477 Y25.236 E.15152
G1 X66.807 Y24.828 E.01845
G1 X67.311 Y24.514 E.02093
G1 X67.646 Y24.419 E.01223
G1 X67.937 Y24.393 E.01029
G1 X72.242 Y24.393 E.15152
G1 X72.868 Y24.514 E.02242
G1 X73.372 Y24.828 E.02093
G1 X73.702 Y25.236 E.01845
G1 X75.855 Y28.965 E.15152
G1 X76.026 Y29.381 E.01584
G1 X76.08 Y29.751 E.01315
G1 X76.043 Y30.16 E.01448
G1 X75.907 Y30.553 E.01461
G1 X75.377 Y31.478 E.03754
G1 X73.702 Y34.379 E.11788
G1 X73.588 Y34.521 E.00642
G1 X73.951 Y34.804 F21000
G1 F3000
G1 X73.802 Y35.005 E.00879
G1 X73.38 Y35.352 E.01924
G1 X72.98 Y35.548 E.01568
G1 X72.434 Y35.67 E.01968
G1 X69.412 Y35.679 E.10636
G1 X67.937 Y35.679 E.05193
G1 X67.48 Y35.629 E.01617
G1 X66.963 Y35.445 E.01931
G1 X66.5 Y35.126 E.01979
G1 X66.138 Y34.701 E.01966
G1 X63.929 Y30.879 E.15537
G1 X63.709 Y30.341 E.02045
G1 X63.642 Y29.83 E.01812
G1 X63.719 Y29.236 E.02109
G1 X63.929 Y28.736 E.01908
G1 X66.081 Y25.008 E.15152
G1 X66.5 Y24.489 E.02346
G1 X67.142 Y24.089 E.0266
G1 X67.569 Y23.983 E.01551
;WIDTH:0.470924
G1 X67.937 Y23.96 E.01214
;WIDTH:0.453311
G1 X72.242 Y23.96 E.13604
;WIDTH:0.499999
G1 X73.037 Y24.089 E.02836
G1 X73.679 Y24.489 E.0266
G1 X74.098 Y25.008 E.02346
G1 X76.251 Y28.736 E.15152
G1 X76.468 Y29.265 E.02013
G1 X76.536 Y29.735 E.01671
G1 X76.49 Y30.256 E.01841
G1 X76.328 Y30.731 E.01767
G1 X74.098 Y34.607 E.15738
G1 X73.975 Y34.772 E.00723
G1 E-.5
G1 Z.4 F21000
G1 X55.454 Y36.655 Z.4
G1 X54.67 Y36.744
M73 P1 R44
G1 X53.893 Y36.884
G1 X53.127 Y37.074
G1 X52.375 Y37.313
G1 X51.64 Y37.6
G1 X50.925 Y37.934
G1 X50.233 Y38.314
G1 X49.567 Y38.738
G1 X48.931 Y39.204
G1 X48.325 Y39.71
G1 X47.754 Y40.254
G1 X47.218 Y40.835
G1 X46.711 Y41.464
G1 X46.267 Y42.092
G1 X45.854 Y42.765
G1 X45.485 Y43.463
G1 X45.459 Y43.521
G1 X45.766 Y43.658
G1 Z.2
G1 E.5 F1800
;TYPE:Outer wall
;WIDTH:0.585841
G1 F3000
G1 X45.784 Y43.618 E.00184
G1 X46.141 Y42.939 E.03208
G1 X46.542 Y42.285 E.03208
G1 X46.935 Y41.728 E.02847
G1 X47.467 Y41.061 E.03567
G1 X47.951 Y40.535 E.0299
G1 X48.542 Y39.966 E.03428
G1 X49.131 Y39.474 E.03208
G1 X49.75 Y39.02 E.03208
G1 X50.397 Y38.608 E.03208
G1 X51.069 Y38.238 E.03208
G1 X51.764 Y37.912 E.03208
G1 X52.479 Y37.633 E.03208
G1 X53.148 Y37.419 E.02937
G1 X53.955 Y37.214 E.03479
G1 X54.71 Y37.078 E.03208
