; HEADER_BLOCK_START
; generated by OrcaSlicer 1.7.0-beta on 2023-09-23 at 11:42:35
; total layer number: 125
; HEADER_BLOCK_END

; THUMBNAIL_BLOCK_START
; THUMBNAIL_BLOCK_END

; external perimeters extrusion width = 0.40mm
; perimeters extrusion width = 0.46mm
; infill extrusion width = 0.64mm
; solid infill extrusion width = 0.56mm
; top infill extrusion width = 0.40mm
; first layer extrusion width = 0.50mm

; EXECUTABLE_BLOCK_START
EXCLUDE_OBJECT_DEFINE NAME=PulleyMountlefttop.stl_id_0_copy_0 CENTER=60,60 POLYGON=[[8.39584,35.182],[8.40816,35.0255],[8.44479,34.873],[8.50484,34.728],[8.58682,34.5942],[8.68874,34.4749],[13.103,30.0607],[13.1758,29.9947],[13.2223,29.9587],[13.2545,29.9363],[13.3386,29.8859],[13.3561,29.8768],[13.4274,29.8439],[13.501,29.8167],[13.5199,29.8108],[13.615,29.787],[13.6536,29.7801],[13.7119,29.7726],[13.8101,29.7678],[70.1902,29.7678],[70.2883,29.7726],[70.3466,29.7801],[70.3853,29.787],[70.4803,29.8108],[70.4992,29.8167],[70.5728,29.8439],[70.6441,29.8768],[70.6617,29.8859],[107.644,49.8772],[107.778,49.9592],[107.897,50.0611],[111.311,53.4753],[111.413,53.5946],[111.495,53.7284],[111.555,53.8734],[111.592,54.026],[111.604,54.1824],[111.604,85.3536],[111.592,85.51],[111.555,85.6626],[111.495,85.8075],[111.413,85.9413],[111.311,86.0607],[107.897,89.4749],[107.778,89.5768],[107.644,89.6588],[107.499,89.7188],[107.346,89.7555],[107.19,89.7678],[37.7728,90.2322],[33.6306,90.2322],[30.7017,87.3033],[8.50484,44.8075],[8.44479,44.6626],[8.40816,44.51],[8.39584,44.3536],[8.39584,35.182]]
M73 P0 R44
;TYPE:Custom
START_PRINT T_BED=110 T_EXTRUDER=260
G90
G21
M83 ; use relative distances for extrusion
; Filament gcode

    PRESSURE_ADVANCE_SELECT FILAMENT=ABS
M106 S0
;LAYER_CHANGE
;Z:0.2
;HEIGHT:0.2
;BEFORE_LAYER_CHANGE
;0.2
G92 E0

;AFTER_LAYER_CHANGE
;0.2
;_SET_FAN_SPEED_CHANGING_LAYER
SET_VELOCITY_LIMIT ACCEL=1000 ACCEL_TO_DECEL=500
SET_VELOCITY_LIMIT SQUARE_CORNER_VELOCITY=9
G1 E-.5 F3000
G1 X12.153 Y28.252 F21000
G1 Z.2
G1 E.5 F1800
;TYPE:Skirt
;WIDTH:0.5
G1 F3000
G1 X13.204 Y27.817 E.04003
G1 X13.81 Y27.754 E.02146
G1 X70.197 Y27.754 E1.98449
G1 X70.892 Y27.838 E.02461
G1 X71.614 Y28.112 E.02719
G1 X108.621 Y48.116 E1.48051
G1 X109.322 Y48.637 E.03075
G1 X112.746 Y52.064 E.17048
G1 X113.282 Y52.801 E.03206
G1 X113.578 Y53.696 E.03318
G1 X113.618 Y54.183 E.01719
G1 X113.617 Y85.369 E1.09758
G1 X113.465 Y86.299 E.03317
G1 X113.032 Y87.137 E.03318
G1 X109.309 Y90.91 E.18655
G1 X108.572 Y91.445 E.03207
G1 X107.677 Y91.741 E.03317
G1 X107.209 Y91.782 E.01651
G1 X34.003 Y92.246 E2.57645
G1 X31.943 Y91.393 E.0785
G1 X29.541 Y88.991 E.11954
G1 X29.021 Y88.283 E.03092
G1 X6.704 Y45.707 E1.69178
G1 X6.422 Y44.84 E.03208
G1 X6.382 Y44.354 E.01719
G1 X6.382 Y35.182 E.32278
G1 X6.422 Y34.695 E.01719
G1 X6.718 Y33.8 E.03318
G1 X7.254 Y33.063 E.03207
G1 X11.678 Y28.637 E.22025
G1 X12.122 Y28.277 E.02009
G1 X12.407 Y28.632 F21000
G1 F3000
G1 X13.293 Y28.265 E.03375
G1 X13.81 Y28.211 E.01831
G1 X70.197 Y28.211 E1.98449
G1 X70.788 Y28.283 E.02093
G1 X71.397 Y28.514 E.02293
G1 X108.404 Y48.518 E1.48051
G1 X108.999 Y48.961 E.0261
G1 X112.423 Y52.387 E.17048
G1 X112.874 Y53.008 E.02703
G1 X113.126 Y53.767 E.02815
G1 X113.161 Y54.183 E.01467
G1 X113.16 Y85.369 E1.09758
G1 X113.03 Y86.158 E.02814
G1 X112.663 Y86.869 E.02815
G1 X108.986 Y90.587 E.18403
G1 X108.364 Y91.038 E.02704
G1 X107.605 Y91.29 E.02814
G1 X107.206 Y91.325 E.0141
G1 X34.003 Y91.789 E2.57634
G1 X32.266 Y91.07 E.06618
G1 X29.864 Y88.668 E.11954
G1 X29.425 Y88.071 E.02607
G1 X7.111 Y45.5 E1.69159
G1 X6.874 Y44.769 E.02705
G1 X6.839 Y44.354 E.01467
G1 X6.839 Y35.182 E.32278
G1 X6.874 Y34.767 E.01467
G1 X7.126 Y34.008 E.02814
G1 X7.577 Y33.386 E.02704
G1 X12.002 Y28.96 E.22025
G1 X12.376 Y28.657 E.01693
; printing object PulleyMountlefttop.stl id:0 copy 0
G1 E-.5
EXCLUDE_OBJECT_START NAME=PulleyMountlefttop.stl_id_0_copy_0
G1 X33.248 Y82.383 F21000
G1 E.5 F1800
;TYPE:Outer wall
;WIDTH:0.585841
G1 F3000
G1 X33.337 Y82.294 E.00524
G1 X33.416 Y82.102 E.00869
G1 X33.414 Y64.144 E.75069
G1 X33.331 Y63.577 E.02395
G1 X33.098 Y63.032 E.02478
G1 X32.759 Y62.593 E.02321
G1 X18.314 Y48.151 E.85387
G1 X17.84 Y47.801 E.02463
G1 X17.305 Y47.589 E.02407
G1 X16.755 Y47.518 E.02319
G1 X12.911 Y47.514 E.16068
G1 X9.647 Y44.249 E.19299
G1 X9.647 Y35.286 E.3747
G1 X13.908 Y31.023 E.25196
G1 X70.082 Y31.018 E2.34827
G1 X89.43 Y50.361 E1.14367
G1 X89.929 Y50.734 E.02604
G1 X90.468 Y50.948 E.02425
G1 X91.016 Y51.018 E.02312
G1 X107.086 Y51.019 E.67175
G1 X110.354 Y54.294 E.1934
G1 X110.354 Y56.604 E.09658
G1 X110.353 Y85.249 E1.19747
G1 X107.079 Y88.518 E.1934
G1 X92.325 Y88.517 E.61677
G1 X89.881 Y86.079 E.14433
G1 X89.71 Y86.018 E.00759
G1 X40.327 Y86.018 E2.06435
G1 X40.14 Y86.097 E.0085
G1 X37.255 Y88.982 E.17056
G1 X34.148 Y88.982 E.12987
G1 X31.952 Y86.786 E.12987
G1 X31.952 Y83.679 E.12987
G1 X33.22 Y82.411 E.07497
G1 E-.5
G1 X33.355 Y82.55 F21000
G1 X70.178 Y83.341
G1 X70.729 Y83.341
G1 X71.277 Y83.286
G1 X100.863 Y78.035
G1 X100.964 Y78.361
G1 E.5 F1800
G1 F3000
G1 X101.009 Y78.342 E.00205
G1 X101.751 Y78.275 E.03112
G1 X102.199 Y78.342 E.01898
G1 X102.818 Y78.585 E.02777
G1 X103.407 Y79.04 E.03112
G1 X103.837 Y79.648 E.03112
G1 X104.068 Y80.355 E.03112
G1 X104.104 Y80.768 E.01731
G1 X104.002 Y81.465 E.02946
G1 X103.69 Y82.141 E.03112
G1 X103.193 Y82.695 E.03112
G1 X102.554 Y83.078 E.03112
G1 X101.831 Y83.255 E.03112
G1 X101.088 Y83.211 E.03112
G1 X100.391 Y82.951 E.03112
G1 X99.801 Y82.496 E.03112
G1 X99.372 Y81.888 E.03112
G1 X99.141 Y81.18 E.03112
G1 X99.129 Y80.436 E.03112
G1 X99.337 Y79.721 E.03112
G1 X99.746 Y79.099 E.03112
G1 X100.321 Y78.625 E.03112
G1 X100.927 Y78.376 E.0274
G1 X100.897 Y77.861 F21000
;TYPE:Inner wall
;WIDTH:0.499999
G1 F3000
G1 X101.051 Y77.826 E.00555
G1 X101.713 Y77.776 E.02338
G1 X102.215 Y77.832 E.01778
G1 X103.001 Y78.119 E.02943
G1 X103.2 Y78.234 E.00809
G1 X103.719 Y78.649 E.02338
G1 X103.875 Y78.817 E.00809
G1 X104.25 Y79.366 E.02338
G1 X104.349 Y79.573 E.00809
G1 X104.545 Y80.208 E.02338
G1 X104.604 Y80.768 E.01981
G1 X104.497 Y81.54 E.02743
G1 X104.429 Y81.759 E.00809
G1 X104.141 Y82.358 E.02338
G1 X104.011 Y82.548 E.00809
G1 X103.559 Y83.035 E.02338
G1 X103.38 Y83.178 E.00809
G1 X102.804 Y83.511 E.02338
G1 X102.59 Y83.595 E.00809
G1 X101.942 Y83.742 E.02338
G1 X101.713 Y83.76 E.00809
G1 X101.051 Y83.71 E.02338
G1 X100.826 Y83.659 E.00809
G1 X100.208 Y83.416 E.02338
G1 X100.009 Y83.301 E.00809
G1 X99.489 Y82.887 E.02338
G1 X99.333 Y82.718 E.00809
G1 X98.959 Y82.169 E.02338
G1 X98.859 Y81.962 E.00809
G1 X98.663 Y81.327 E.02338
G1 X98.629 Y81.1 E.00809
G1 X98.629 Y80.436 E.02338
G1 X98.663 Y80.208 E.00809
G1 X98.859 Y79.573 E.02338
G1 X98.959 Y79.366 E.00809
G1 X99.333 Y78.817 E.02338
G1 X99.489 Y78.649 E.00809
G1 X100.009 Y78.234 E.02338
G1 X100.208 Y78.119 E.00809
G1 X100.826 Y77.877 E.02338
G1 X100.858 Y77.87 E.00114
G1 X100.795 Y77.42 F21000
G1 F3000
G1 X101.017 Y77.37 E.008
G1 X101.679 Y77.32 E.02338
G1 X102.283 Y77.38 E.02137
G1 X103.168 Y77.694 E.03302
G1 X103.485 Y77.877 E.01289
G1 X104.004 Y78.291 E.02338
G1 X104.253 Y78.56 E.01289
G1 X104.627 Y79.109 E.02338
G1 X104.786 Y79.439 E.01289
G1 X104.982 Y80.073 E.02338
G1 X105.062 Y80.768 E.0246
G1 X104.949 Y81.608 E.02983
G1 X104.841 Y81.958 E.01289
G1 X104.553 Y82.556 E.02338
G1 X104.346 Y82.859 E.01289
G1 X103.894 Y83.346 E.02338
G1 X103.608 Y83.574 E.01289
G1 X103.033 Y83.906 E.02338
G1 X102.692 Y84.04 E.01289
G1 X102.044 Y84.188 E.02338
G1 X101.679 Y84.215 E.01289
G1 X101.017 Y84.166 E.02338
G1 X100.659 Y84.084 E.01289
G1 X100.041 Y83.842 E.02338
G1 X99.724 Y83.658 E.01289
G1 X99.204 Y83.244 E.02338
G1 X98.955 Y82.976 E.01289
G1 X98.581 Y82.427 E.02338
G1 X98.422 Y82.097 E.01289
G1 X98.226 Y81.462 E.02338
G1 X98.172 Y81.1 E.01289
G1 X98.172 Y80.436 E.02338
G1 X98.226 Y80.073 E.01289
G1 X98.422 Y79.439 E.02338
G1 X98.581 Y79.109 E.01289
G1 X98.955 Y78.56 E.02338
G1 X99.204 Y78.291 E.01289
G1 X99.724 Y77.877 E.02338
G1 X100.041 Y77.694 E.01289
G1 X100.659 Y77.451 E.02338
G1 X100.756 Y77.429 E.00348
G1 X100.693 Y76.98 F21000
G1 F3000
G1 X100.982 Y76.914 E.01045
G1 X101.645 Y76.864 E.02338
G1 X102.022 Y76.878 E.01329
G1 X102.529 Y76.965 E.01808
G1 X103.334 Y77.269 E.03031
G1 X103.77 Y77.52 E.01768
G1 X104.289 Y77.934 E.02338
G1 X104.631 Y78.302 E.01768
G1 X105.005 Y78.851 E.02338
G1 X105.223 Y79.304 E.01768
G1 X105.419 Y79.939 E.02338
G1 X105.519 Y80.768 E.0294
G1 X105.401 Y81.676 E.03223
G1 X105.253 Y82.156 E.01768
G1 X104.964 Y82.755 E.02338
G1 X104.681 Y83.17 E.01768
G1 X104.23 Y83.657 E.02338
G1 X103.837 Y83.97 E.01768
G1 X103.261 Y84.302 E.02338
G1 X102.794 Y84.486 E.01768
G1 X102.146 Y84.634 E.02338
G1 X101.645 Y84.671 E.01768
G1 X100.982 Y84.622 E.02338
G1 X100.492 Y84.51 E.01768
G1 X99.874 Y84.267 E.02338
G1 X99.439 Y84.016 E.01768
G1 X98.92 Y83.602 E.02338
G1 X98.578 Y83.233 E.01768
G1 X98.203 Y82.684 E.02338
G1 X97.985 Y82.232 E.01768
G1 X97.79 Y81.597 E.02338
G1 X97.715 Y81.1 E.01768
G1 X97.715 Y80.436 E.02338
G1 X97.79 Y79.939 E.01768
G1 X97.986 Y79.304 E.02338
G1 X98.204 Y78.851 E.01768
G1 X98.578 Y78.302 E.02338
G1 X98.92 Y77.934 E.01768
G1 X99.439 Y77.52 E.02338
G1 X99.874 Y77.269 E.01768
G1 X100.492 Y77.026 E.02338
G1 X100.654 Y76.989 E.00583
G1 X100.536 Y76.544 F21000
G1 F3000
G1 X100.787 Y76.476 E.00915
G1 X101.611 Y76.409 E.02909
G1 X102.09 Y76.426 E.01689
G1 X102.645 Y76.523 E.01981
G1 X103.501 Y76.843 E.03219
G1 X104.055 Y77.162 E.02248
G1 X104.574 Y77.577 E.02338
G1 X105.008 Y78.045 E.02248
G1 X105.383 Y78.594 E.02338
G1 X105.66 Y79.169 E.02247
G1 X105.856 Y79.804 E.02338
G1 X105.97 Y80.608 E.02857
G1 X105.976 Y80.768 E.00564
G1 X105.853 Y81.744 E.03463
G1 X105.665 Y82.354 E.02248
G1 X105.376 Y82.953 E.02338
G1 X105.016 Y83.481 E.02248
G1 X104.565 Y83.968 E.02338
G1 X104.065 Y84.366 E.02248
G1 X103.49 Y84.698 E.02338
G1 X102.895 Y84.931 E.02248
G1 X102.248 Y85.079 E.02338
G1 X101.771 Y85.133 E.01689
G1 X100.948 Y85.077 E.02901
G1 X100.326 Y84.935 E.02248
G1 X99.707 Y84.693 E.02338
G1 X99.154 Y84.373 E.02248
G1 X98.635 Y83.959 E.02338
G1 X98.2 Y83.491 E.02248
G1 X97.826 Y82.942 E.02338
G1 X97.556 Y82.389 E.02167
G1 X97.353 Y81.732 E.0242
G1 X97.267 Y81.302 E.01541
G1 X97.258 Y80.436 E.0305
G1 X97.318 Y79.93 E.01791
G1 X97.549 Y79.169 E.02799
G1 X97.77 Y78.68 E.01888
G1 X98.2 Y78.045 E.02702
G1 X98.558 Y77.641 E.019
G1 X99.154 Y77.162 E.02689
G1 X99.573 Y76.901 E.01739
G1 X100.325 Y76.6 E.02851
G1 X100.497 Y76.554 E.00626
G1 E-.5
G1 X71.277 Y72.538 F21000
G1 X70.729 Y72.482
G1 X70.178 Y72.482
G1 X69.631 Y72.538
G1 X69.091 Y72.649
G1 X68.566 Y72.813
G1 X68.06 Y73.031
G1 X67.578 Y73.298
G1 X67.553 Y73.315
G1 X67.746 Y73.593
G1 E.5 F1800
;TYPE:Outer wall
;WIDTH:0.585841
G1 F3000
G1 X68.657 Y73.14 E.04255
G1 X69.655 Y72.876 E.04313
G1 X70.62 Y72.821 E.04044
G1 X71.758 Y72.983 E.04805
G1 X72.724 Y73.346 E.04313
G1 X73.553 Y73.863 E.04084
G1 X74.305 Y74.57 E.04313
G1 X74.899 Y75.413 E.04313
G1 X75.31 Y76.359 E.04313
G1 X75.529 Y77.423 E.04541
G1 X75.529 Y78.4 E.04084
G1 X75.327 Y79.412 E.04313
G1 X74.925 Y80.362 E.04313
G1 X74.34 Y81.212 E.04313
G1 X73.597 Y81.927 E.04313
G1 X72.724 Y82.477 E.04313
G1 X71.758 Y82.841 E.04313
G1 X70.739 Y83.002 E.04313
G1 X69.709 Y82.956 E.04313
G1 X68.728 Y82.708 E.04231
G1 X68.221 Y82.497 E.02293
G1 X67.768 Y82.247 E.02165
G1 X66.961 Y81.626 E.04256
G1 X66.285 Y80.847 E.04313
G1 X65.779 Y79.948 E.04313
G1 X65.465 Y78.965 E.04313
G1 X65.355 Y77.939 E.04313
G1 X65.454 Y76.912 E.04313
G1 X65.758 Y75.926 E.04313
G1 X66.253 Y75.021 E.04313
G1 X66.961 Y74.197 E.04541
G1 X67.713 Y73.615 E.03975
G1 X67.504 Y73.165 F21000
;TYPE:Inner wall
;WIDTH:0.499999
G1 F3000
G1 X68.437 Y72.691 E.03682
G1 X69.529 Y72.392 E.03985
G1 X70.595 Y72.322 E.03759
G1 X71.182 Y72.383 E.02076
G1 X71.781 Y72.475 E.02134
G1 X72.401 Y72.687 E.02306
G1 X72.988 Y72.922 E.02227
G1 X73.818 Y73.439 E.03439
G1 X74.649 Y74.207 E.03985
G1 X75.309 Y75.128 E.03985
G1 X75.77 Y76.162 E.03985
G1 X75.96 Y77.01 E.03058
G1 X76.029 Y77.423 E.01475
G1 X76.029 Y78.4 E.03439
G1 X75.817 Y79.512 E.03985
G1 X75.385 Y80.559 E.03985
G1 X74.751 Y81.498 E.03985
G1 X73.941 Y82.289 E.03985
G1 X72.988 Y82.901 E.03985
G1 X71.932 Y83.31 E.03985
G1 X70.815 Y83.497 E.03985
G1 X69.684 Y83.455 E.03985
G1 X68.603 Y83.192 E.03915
G1 X68.026 Y82.957 E.02192
G1 X67.525 Y82.684 E.02007
G1 X66.655 Y82.021 E.0385
G1 X65.905 Y81.173 E.03985
G1 X65.342 Y80.19 E.03985
G1 X64.988 Y79.115 E.03985
G1 X64.858 Y77.99 E.03985
G1 X64.957 Y76.862 E.03985
G1 X65.28 Y75.776 E.03985
G1 X65.816 Y74.779 E.03985
G1 X66.542 Y73.909 E.03985
G1 X67.427 Y73.204 E.03985
G1 X67.469 Y73.183 E.00163
G1 X67.291 Y72.768 F21000
G1 F3000
G1 X68.236 Y72.281 E.03743
G1 X69.415 Y71.949 E.0431
G1 X70.572 Y71.865 E.04083
G1 X70.884 Y71.875 E.01101
G1 X71.85 Y72.023 E.03438
G1 X72.559 Y72.259 E.02631
G1 X73.23 Y72.534 E.02552
G1 X74.059 Y73.051 E.03439
G1 X74.964 Y73.876 E.0431
G1 X75.684 Y74.866 E.0431
G1 X76.19 Y75.982 E.0431
G1 X76.408 Y76.918 E.03383
G1 X76.486 Y77.423 E.018
G1 X76.486 Y78.4 E.03439
G1 X76.264 Y79.604 E.0431
G1 X75.805 Y80.739 E.0431
G1 X75.126 Y81.759 E.0431
G1 X74.256 Y82.62 E.0431
G1 X73.23 Y83.289 E.0431
G1 X72.091 Y83.738 E.0431
G1 X70.884 Y83.948 E.0431
G1 X69.66 Y83.912 E.0431
G1 X68.489 Y83.635 E.04237
G1 X67.847 Y83.378 E.02432
G1 X67.303 Y83.084 E.02176
G1 X66.375 Y82.383 E.04093
G1 X65.558 Y81.47 E.0431
G1 X64.942 Y80.412 E.0431
G1 X64.552 Y79.251 E.0431
G1 X64.403 Y78.036 E.0431
G1 X64.502 Y76.815 E.0431
G1 X64.844 Y75.64 E.0431
G1 X65.416 Y74.557 E.0431
G1 X65.791 Y74.082 E.02129
G1 X66.195 Y73.612 E.02181
G1 X67.148 Y72.842 E.0431
G1 X67.255 Y72.787 E.00426
G1 X66.989 Y72.405 F21000
G1 F3000
G1 X67.157 Y72.3 E.00699
G1 X68.034 Y71.87 E.03438
G1 X68.354 Y71.752 E.012
G1 X69.3 Y71.507 E.03439
G1 X69.637 Y71.455 E.012
G1 X70.613 Y71.406 E.03438
G1 X71.32 Y71.479 E.02502
G1 X71.919 Y71.571 E.02134
G1 X72.718 Y71.83 E.02956
G1 X73.472 Y72.146 E.02876
G1 X74.301 Y72.663 E.03439
G1 X74.571 Y72.872 E.012
G1 X75.279 Y73.545 E.03438
G1 X75.501 Y73.803 E.012
G1 X76.059 Y74.605 E.03438
G1 X76.225 Y74.904 E.012
G1 X76.61 Y75.801 E.03438
G1 X76.712 Y76.127 E.012
G1 X76.909 Y77.084 E.03438
G1 X76.943 Y77.423 E.012
G1 X76.943 Y78.4 E.03439
G1 X76.909 Y78.739 E.012
G1 X76.712 Y79.696 E.03438
G1 X76.61 Y80.022 E.012
G1 X76.225 Y80.92 E.03438
G1 X76.059 Y81.218 E.012
G1 X75.501 Y82.02 E.03438
G1 X75.279 Y82.279 E.012
G1 X74.571 Y82.952 E.03438
G1 X74.301 Y83.16 E.012
G1 X73.472 Y83.677 E.03439
G1 X73.166 Y83.827 E.012
G1 X72.248 Y84.164 E.03438
;WIDTH:0.493245
G1 X71.814 Y84.222 E.01521
;WIDTH:0.453413
G1 X71.379 Y84.28 E.01386
;WIDTH:0.413581
G1 X70.944 Y84.338 E.01252
;WIDTH:0.389338
G1 X69.64 Y84.313 E.03479
;WIDTH:0.426225
G1 X69.218 Y84.234 E.01266
;WIDTH:0.463112
G1 X68.796 Y84.156 E.01388
;WIDTH:0.499999
G1 X68.374 Y84.078 E.0151
G1 X67.669 Y83.798 E.02671
G1 X67.082 Y83.483 E.02346
G1 X66.095 Y82.744 E.04337
G1 X65.848 Y82.509 E.012
G1 X65.212 Y81.768 E.03439
G1 X65.017 Y81.488 E.012
G1 X64.543 Y80.634 E.03438
G1 X64.408 Y80.32 E.012
G1 X64.116 Y79.388 E.03438
G1 X64.047 Y79.054 E.012
G1 X63.948 Y78.082 E.03438
G1 X63.973 Y77.496 E.02066
G1 X64.047 Y76.769 E.02571
G1 X64.116 Y76.435 E.012
G1 X64.408 Y75.503 E.03438
G1 X64.66 Y74.978 E.02048
G1 X65.017 Y74.335 E.02588
G1 X65.444 Y73.784 E.02454
G1 X65.848 Y73.314 E.02181
G1 X66.095 Y73.079 E.012
G1 X66.868 Y72.481 E.03438
G1 X66.955 Y72.427 E.00361
G1 E-.5
G1 X63.854 Y66.676 F21000
G1 E.5 F1800
;TYPE:Outer wall
;WIDTH:0.585841
G1 F3000
G1 X63.983 Y66.378 E.01358
G1 X64.027 Y66.323 E.00293
G1 X67.029 Y63.463 E.17333
G1 X67.308 Y63.321 E.01307
;WIDTH:0.635678
G1 X67.671 Y63.317 E.0166
;WIDTH:0.666061
G1 X67.787 Y63.369 E.0061
;WIDTH:0.696443
G1 X67.903 Y63.421 E.00639
G1 X70.937 Y66.281 E.20978
G1 X71.063 Y66.502 E.01282
;WIDTH:0.655212
G1 X71.071 Y66.678 E.0083
;WIDTH:0.620527
G1 X71.078 Y66.854 E.00783
;WIDTH:0.585841
G1 X70.973 Y67.12 E.01196
M73 P1 R44
G1 X70.785 Y67.282 E.01038
G1 X70.482 Y67.374 E.01321
G1 X69.197 Y67.374 E.05372
G1 X64.447 Y67.374 E.19856
G1 X64.123 Y67.278 E.01412
G1 X63.887 Y67 E.01526
G1 X63.858 Y66.716 E.01197
