; HEADER_BLOCK_START
; generated by OrcaSlicer 1.6.2 on 2023-05-21 at 21:51:46
; total layer number: 76
; HEADER_BLOCK_END

; THUMBNAIL_BLOCK_START
; THUMBNAIL_BLOCK_END

; external perimeters extrusion width = 0.40mm
; perimeters extrusion width = 0.45mm
; infill extrusion width = 0.45mm
; solid infill extrusion width = 0.40mm
; top infill extrusion width = 0.40mm
; first layer extrusion width = 0.50mm

; EXECUTABLE_BLOCK_START
EXCLUDE_OBJECT_DEFINE NAME=pulley_gantry_leftbottom.stl_id_0_copy_0 CENTER=60,60 POLYGON=[[33.3958,38.2958],[35.3958,36.2958],[83.1958,36.2958],[85.1958,38.2958],[86.6042,76.9042],[86.6042,80.8875],[83.7875,83.7042],[79.8042,83.7042],[33.3958,82.2958],[33.3958,38.2958]]
M73 P0 R31
;TYPE:Custom
START_PRINT T_BED=110 T_EXTRUDER=260
G90
G21
M83 ; use relative distances for extrusion
; Filament gcode

    PRESSURE_ADVANCE_SELECT FILAMENT=ABS
M106 S0
;LAYER_CHANGE
;Z:0.2
;HEIGHT:0.2
;BEFORE_LAYER_CHANGE
;0.2
G92 E0

;AFTER_LAYER_CHANGE
;0.2
M204 S1000
G1 E-.5 F3000
G1 Z.2 F21000
G1 X30.757 Y81.132
G1 E.5 F1800
;TYPE:Skirt
;WIDTH:0.5
G1 F3000
G1 X30.482 Y79.896 E.04456
G1 X30.482 Y38.696 E1.44999
G1 X30.875 Y37.234 E.05327
G1 X31.948 Y36.167 E.05327
G1 X33.396 Y35.782 E.05272
G1 X85.196 Y35.782 E1.82304
G1 X86.658 Y36.175 E.05327
G1 X87.725 Y37.248 E.05327
G1 X88.108 Y38.588 E.04906
G1 X89.516 Y76.797 E1.34561
G1 X89.518 Y80.888 E.14397
G1 X88.665 Y82.948 E.0785
G1 X85.848 Y85.765 E.14019
G1 X83.788 Y86.618 E.0785
G1 X79.566 Y86.609 E.14858
G1 X33.158 Y82.8 E1.63878
M73 P0 R30
G1 X31.733 Y82.289 E.05327
G1 X30.795 Y81.178 E.05116
G1 X31.199 Y80.884 F21000
G1 F3000
G1 X31.083 Y80.724 E.00695
G1 X30.939 Y79.896 E.02958
G1 X30.939 Y38.696 E1.44999
G1 X31.331 Y37.365 E.04884
G1 X32.381 Y36.458 E.04884
G1 X33.396 Y36.239 E.03653
G1 X85.196 Y36.239 E1.82304
G1 X86.527 Y36.631 E.04884
G1 X87.434 Y37.681 E.04884
G1 X87.651 Y38.605 E.03341
G1 X89.06 Y76.814 E1.34561
G1 X89.061 Y80.888 E.14337
G1 X88.342 Y82.625 E.06618
G1 X85.525 Y85.442 E.14019
G1 X83.788 Y86.161 E.06618
G1 X79.603 Y86.153 E.14726
G1 X33.195 Y82.345 E1.63878
G1 X31.9 Y81.845 E.04884
G1 X31.234 Y80.932 E.03978
; printing object pulley_gantry_leftbottom.stl id:0 copy 0
EXCLUDE_OBJECT_START NAME=pulley_gantry_leftbottom.stl_id_0_copy_0
G1 E-.5
G1 Z.4 F21000
G1 X81.403 Y74.11
G1 Z.2
G1 E.5 F1800
;TYPE:Inner wall
;WIDTH:0.499999
G1 F3000
G1 X80.736 Y74.048 E.02357
G1 X80.381 Y74.132 E.01283
G1 X80.007 Y74.326 E.01485
G1 X79.792 Y74.506 E.00988
G1 X77.565 Y76.733 E.11081
G1 X77.226 Y77.107 E.01778
G1 X77.032 Y77.481 E.01485
G1 X76.948 Y77.836 E.01283
G1 X77.01 Y78.503 E.02357
G1 X76.959 Y78.46 E.00235
G1 X76.408 Y78.216 E.02119
G1 X76.046 Y78.175 E.01283
G1 X58.591 Y78.175 E.61431
;WIDTH:0.522878
G1 X57.928 Y78.163 E.02451
G1 X57.223 Y78.187 E.02607
G1 X56.518 Y78.163 E.02607
G1 X55.854 Y78.175 E.02451
;WIDTH:0.499999
G1 X48.901 Y78.175 E.24472
;WIDTH:0.522879
G1 X48.238 Y78.163 E.02451
G1 X47.533 Y78.187 E.02607
G1 X46.828 Y78.163 E.02607
G1 X46.164 Y78.175 E.02451
;WIDTH:0.499999
G1 X35.117 Y78.175 E.3888
G1 X35.117 Y40.417 E1.32883
G1 X83.475 Y40.417 E1.70189
G1 X83.475 Y54.083 E.48095
G1 X81.602 Y55.955 E.0932
G1 X81.329 Y56.28 E.01492
G1 X81.129 Y56.732 E.01742
G1 X81.075 Y57.146 E.01466
G1 X81.075 Y73.146 E.56312
G1 X81.116 Y73.508 E.01283
G1 X81.377 Y74.056 E.02135
G1 E-.5
G1 Z.4 F21000
G1 X82.895 Y74.983
G1 Z.2
G1 E.5 F1800
G1 F3000
G1 X81.218 Y74.534 E.06109
G1 X80.79 Y74.502 E.01513
G1 X80.536 Y74.562 E.00916
G1 X80.268 Y74.701 E.01061
G1 X80.115 Y74.829 E.00706
G1 X78.083 Y76.862 E.10114
G1 X77.601 Y77.368 E.02462
G1 X77.462 Y77.636 E.01061
G1 X77.402 Y77.89 E.00916
G1 X77.434 Y78.318 E.01513
G1 X77.883 Y79.995 E.06109
G1 X76.854 Y78.966 E.0512
G1 X76.698 Y78.836 E.00717
G1 X76.305 Y78.661 E.01513
G1 X76.046 Y78.632 E.00916
G1 X34.66 Y78.632 E1.45654
G1 X34.66 Y39.96 E1.361
G1 X83.932 Y39.96 E1.73406
G1 X83.932 Y54.272 E.5037
G1 X81.807 Y56.401 E.10584
G1 X81.6 Y56.758 E.01453
G1 X81.532 Y57.146 E.01386
G1 X81.532 Y72.277 E.53255
G1 X81.561 Y73.405 E.03969
G1 X81.736 Y73.798 E.01513
G1 X81.866 Y73.954 E.00717
G1 X82.853 Y74.94 E.04909
G1 E-.5
G1 Z.4 F21000
G1 X84.561 Y75.969
G1 Z.2
G1 E.5 F1800
;WIDTH:0.48103
G1 F3000
G1 X84.356 Y75.857 E.00787
;WIDTH:0.499999
G1 X81.1 Y74.975 E.11872
G1 X80.843 Y74.956 E.00908
G1 X80.691 Y74.992 E.0055
G1 X80.438 Y75.153 E.01054
G1 X77.975 Y77.63 E.12294
G1 X77.856 Y77.943 E.01177
G1 X77.875 Y78.2 E.00908
G1 X78.751 Y81.458 E.11872
;WIDTH:0.493511
G1 X78.849 Y81.602 E.00603
;WIDTH:0.46787
G1 X78.946 Y81.746 E.00568
G1 X78.831 Y81.612 E.00577
;WIDTH:0.493511
G1 X78.715 Y81.479 E.00612
;WIDTH:0.499999
G1 X76.531 Y79.29 E.10884
G1 X76.201 Y79.107 E.01327
G1 X76.046 Y79.089 E.0055
G1 X34.203 Y79.089 E1.47262
M73 P1 R30
G1 X34.203 Y39.503 E1.39318
G1 X84.389 Y39.503 E1.76623
G1 X84.389 Y54.462 E.52645
G1 X82.249 Y56.602 E.10652
G1 X82.053 Y56.856 E.0113
G1 X81.989 Y57.146 E.01043
G1 X81.989 Y72.277 E.53255
G1 X82.007 Y73.301 E.03604
G1 X82.19 Y73.631 E.01327
G1 X84.383 Y75.811 E.10884
;WIDTH:0.48103
G1 X84.516 Y75.929 E.00601
G1 X84.925 Y76.439 F21000
;WIDTH:0.602742
G1 F3000
G1 X85.746 Y77.26 E.05003
G1 X85.746 Y77.376 E.005
G1 X85.756 Y79.581 E.09506
G1 X84.94 Y76.497 E.1375
G1 E-.5
G1 Z.4 F21000
G1 X85.763 Y79.893
G1 Z.2
G1 E.5 F1800
;WIDTH:0.567982
G1 F3000
G1 X85.788 Y80.226 E.01351
;WIDTH:0.518264
G1 X85.813 Y80.56 E.01223
;WIDTH:0.468545
G1 X83.46 Y82.913 E.10906
G1 X83.372 Y82.913 E.00289
;WIDTH:0.518265
G1 X83.082 Y82.888 E.01062
;WIDTH:0.567984
G1 X82.793 Y82.863 E.01173
G1 X82.968 Y82.746 E.00851
;WIDTH:0.518265
G1 X83.143 Y82.628 E.00771
;WIDTH:0.468545
G1 X85.45 Y80.321 E.10692
;WIDTH:0.518264
G1 X85.606 Y80.107 E.00971
;WIDTH:0.567982
G1 X85.728 Y79.942 E.0083
G1 E-.5
G1 Z.4 F21000
G1 X82.481 Y82.856
G1 Z.2
G1 E.5 F1800
;WIDTH:0.602742
G1 F3000
G1 X80.16 Y82.846 E.10005
G1 X79.339 Y82.025 E.05003
G1 X82.423 Y82.841 E.1375
G1 E-.5
G1 Z.4 F21000
G1 X84.343 Y76.349
G1 Z.2
G1 E.5 F1800
;TYPE:Outer wall
;WIDTH:0.499999
G1 F3000
G1 X84.402 Y76.451 E.00416
G1 X85.275 Y79.71 E.11872
G1 X85.279 Y79.808 E.00347
G1 X85.137 Y80.009 E.00865
G1 X82.831 Y82.316 E.11482
G1 X82.669 Y82.383 E.00616
G1 X79.351 Y81.502 E.12081
G1 X79.249 Y81.443 E.00416
G1 X79.19 Y81.34 E.00416
G1 X78.317 Y78.082 E.11872
G1 X78.35 Y77.892 E.00679
G1 X80.761 Y75.476 E.12013
G1 X80.896 Y75.41 E.00528
G1 X81.253 Y75.489 E.01287
G1 X84.24 Y76.29 E.10884
G1 X84.291 Y76.319 E.00205
G1 X84.366 Y76.343
G1 E-.5
G1 Z.4 F21000
G1 X85.756 Y79.581
G1 Z.2
G1 E.5 F1800
;TYPE:Inner wall
;WIDTH:0.58192
G1 F3000
G1 X85.763 Y79.893 E.01297
G1 E-.5
G1 Z.4 F21000
G1 X76.258 Y79.663
G1 Z.2
G1 E.5 F1800
;TYPE:Outer wall
;WIDTH:0.499999
G1 F3000
G1 X76.208 Y79.613 E.00248
G1 X76.046 Y79.546 E.00616
G1 X33.746 Y79.546 E1.48871
G1 X33.746 Y39.046 E1.42535
G1 X84.846 Y39.046 E1.7984
G1 X84.846 Y54.651 E.5492
G1 X82.513 Y56.984 E.11612
G1 X82.446 Y57.146 E.00616
G1 X82.446 Y73.146 E.56312
G1 X82.513 Y73.308 E.00616
G1 X86.254 Y77.049 E.18621
G1 X86.254 Y77.376 E.01149
G1 X86.254 Y80.743 E.11849
G1 X83.643 Y83.354 E.12998
G1 X79.949 Y83.354 E.12998
G1 X76.3 Y79.705 E.18162
G1 X76.26 Y79.649
G1 E-.5
G1 Z.4 F21000
G1 X84.561 Y75.969
G1 Z.2
G1 E.5 F1800
;TYPE:Inner wall
;WIDTH:0.452182
G1 F3000
G1 X84.646 Y76.046 E.00361
G1 E-.5
G1 Z.4 F21000
G1 X82.793 Y82.863
G1 Z.2
G1 E.5 F1800
;WIDTH:0.581918
G1 F3000
G1 X82.481 Y82.856 E.01297
G1 E-.5
G1 Z.4 F21000
G1 X79.03 Y81.823
G1 Z.2
G1 E.5 F1800
;WIDTH:0.452182
G1 F3000
G1 X78.946 Y81.746 E.00361
G1 E-.5
G1 Z.4 F21000
G1 X67.171 Y70.565
G1 Z.2
G1 E.5 F1800
;WIDTH:0.499999
G1 F3000
G1 X66.673 Y70.449 E.01798
G1 X65.997 Y70.16 E.02588
G1 X65.381 Y69.759 E.02588
G1 X64.844 Y69.256 E.02588
G1 X64.662 Y69.039 E.00997
G1 X64.347 Y68.581 E.01956
G1 X64.07 Y68.013 E.02225
G1 X63.856 Y67.309 E.02587
G1 X63.768 Y66.579 E.02588
G1 X63.808 Y65.845 E.02588
G1 X63.975 Y65.129 E.02588
G1 X64.263 Y64.453 E.02588
G1 X64.665 Y63.837 E.02587
G1 X65.167 Y63.3 E.02588
G1 X65.755 Y62.859 E.02588
G1 X66.384 Y62.539 E.02482
G1 X67.005 Y62.342 E.02292
G1 X67.389 Y62.264 E.01381
G1 X67.997 Y62.219 E.02146
G1 X68.574 Y62.263 E.02036
G1 X69.295 Y62.431 E.02604
G1 X69.971 Y62.719 E.02588
G1 X70.587 Y63.121 E.02587
G1 X71.124 Y63.623 E.02588
G1 X71.565 Y64.211 E.02588
G1 X71.898 Y64.867 E.02587
G1 X72.111 Y65.57 E.02588
G1 X72.199 Y66.3 E.02588
G1 X72.16 Y67.034 E.02588
G1 X71.993 Y67.75 E.02587
G1 X71.704 Y68.427 E.02588
G1 X71.303 Y69.043 E.02588
G1 X70.8 Y69.579 E.02587
G1 X70.212 Y70.021 E.02588
G1 X69.557 Y70.353 E.02587
G1 X68.853 Y70.567 E.02588
G1 X68.123 Y70.655 E.02587
G1 X67.389 Y70.615 E.02588
G1 X67.229 Y70.578 E.00578
G1 X67.266 Y70.121 F21000
G1 F3000
G1 X66.791 Y70.007 E.01717
G1 X66.19 Y69.746 E.02308
G1 X65.643 Y69.384 E.02308
G1 X65.167 Y68.933 E.02308
G1 X65.037 Y68.778 E.00712
G1 X64.736 Y68.342 E.01864
G1 X64.484 Y67.819 E.02041
G1 X64.298 Y67.191 E.02308
G1 X64.224 Y66.539 E.02308
G1 X64.263 Y65.885 E.02308
G1 X64.416 Y65.247 E.02308
G1 X64.678 Y64.646 E.02308
G1 X65.039 Y64.099 E.02308
G1 X65.49 Y63.623 E.02308
G1 X66.017 Y63.233 E.02308
G1 X66.577 Y62.953 E.02202
G1 X67.123 Y62.783 E.02012
G1 X67.702 Y62.695 E.02061
G1 X68.314 Y62.7 E.02154
G1 X68.886 Y62.794 E.02042
G1 X69.456 Y62.983 E.02111
G1 X69.944 Y63.228 E.01923
G1 X70.402 Y63.554 E.0198
G1 X70.8 Y63.946 E.01966
G1 X71.191 Y64.473 E.02308
G1 X71.483 Y65.06 E.02308
G1 X71.67 Y65.689 E.02308
G1 X71.744 Y66.34 E.02308
G1 X71.704 Y66.995 E.02308
G1 X71.551 Y67.632 E.02307
G1 X71.29 Y68.234 E.02308
G1 X70.928 Y68.78 E.02308
G1 X70.477 Y69.256 E.02308
G1 X69.95 Y69.646 E.02308
G1 X69.364 Y69.939 E.02308
G1 X68.735 Y70.126 E.02308
G1 X68.083 Y70.2 E.02307
G1 X67.429 Y70.16 E.02308
G1 X67.324 Y70.135 E.00379
G1 X67.366 Y69.679 F21000
G1 F3000
G1 X66.91 Y69.566 E.01653
G1 X66.383 Y69.332 E.02028
G1 X65.905 Y69.01 E.02028
G1 X65.412 Y68.517 E.02454
G1 X65.126 Y68.103 E.01772
G1 X64.899 Y67.626 E.01858
G1 X64.739 Y67.072 E.02028
G1 X64.679 Y66.499 E.02028
G1 X64.719 Y65.925 E.02028
G1 X64.858 Y65.365 E.02028
G1 X65.092 Y64.839 E.02028
G1 X65.414 Y64.361 E.02028
G1 X65.814 Y63.946 E.02028
G1 X66.28 Y63.607 E.02028
G1 X66.77 Y63.367 E.01922
G1 X67.351 Y63.195 E.02132
G1 X67.917 Y63.135 E.02002
G1 X68.497 Y63.174 E.02046
G1 X69.058 Y63.314 E.02035
G1 X69.585 Y63.548 E.02028
G1 X70.062 Y63.87 E.02028
G1 X70.477 Y64.27 E.02028
G1 X70.816 Y64.735 E.02028
G1 X71.069 Y65.253 E.02028
G1 X71.228 Y65.807 E.02028
G1 X71.289 Y66.38 E.02028
G1 X71.249 Y66.955 E.02028
G1 X71.11 Y67.514 E.02028
G1 X70.876 Y68.04 E.02028
G1 X70.554 Y68.518 E.02028
G1 X70.154 Y68.933 E.02028
G1 X69.688 Y69.272 E.02028
G1 X69.17 Y69.525 E.02028
G1 X68.617 Y69.684 E.02028
G1 X68.044 Y69.745 E.02028
G1 X67.469 Y69.705 E.02028
G1 X67.424 Y69.694 E.00163
G1 X67.486 Y69.244 F21000
;TYPE:Outer wall
G1 F3000
G1 X67.469 Y69.242 E.00058
G1 X66.991 Y69.111 E.01748
G1 X66.542 Y68.898 E.01748
G1 X66.137 Y68.61 E.01748
G1 X65.788 Y68.255 E.01751
G1 X65.503 Y67.841 E.0177
G1 X65.299 Y67.396 E.01723
G1 X65.174 Y66.915 E.01748
G1 X65.134 Y66.42 E.01748
G1 X65.181 Y65.925 E.01748
G1 X65.313 Y65.446 E.01748
G1 X65.526 Y64.998 E.01748
G1 X65.814 Y64.593 E.01748
G1 X66.167 Y64.244 E.01748
G1 X66.576 Y63.962 E.01748
G1 X67.028 Y63.755 E.01748
G1 X67.509 Y63.63 E.01748
G1 X67.996 Y63.591 E.0172
G1 X68.498 Y63.637 E.01776
G1 X69.069 Y63.812 E.02102
G1 X69.426 Y63.982 E.0139
G1 X69.831 Y64.27 E.01748
G1 X70.18 Y64.623 E.01748
G1 X70.462 Y65.032 E.01748
G1 X70.668 Y65.484 E.01748
G1 X70.794 Y65.964 E.01748
G1 X70.833 Y66.46 E.01748
G1 X70.787 Y66.954 E.01748
G1 X70.655 Y67.433 E.01748
G1 X70.442 Y67.882 E.01748
G1 X70.154 Y68.287 E.01748
G1 X69.8 Y68.635 E.01748
G1 X69.391 Y68.917 E.01748
G1 X68.94 Y69.124 E.01748
G1 X68.459 Y69.249 E.01748
G1 X67.964 Y69.289 E.01748
G1 X67.546 Y69.25 E.01479
G1 X67.484 Y69.247
G1 E-.5
G1 Z.4 F21000
G1 X51.589 Y69.588
G1 Z.2
G1 E.5 F1800
;TYPE:Inner wall
G1 F3000
G1 X51.265 Y69.285 E.01562
G1 X50.794 Y68.668 E.02731
G1 X50.461 Y68.013 E.02588
G1 X50.248 Y67.309 E.02588
G1 X50.16 Y66.579 E.02587
G1 X50.199 Y65.845 E.02588
G1 X50.366 Y65.129 E.02587
G1 X50.655 Y64.453 E.02588
G1 X51.014 Y63.897 E.02328
G1 X51.235 Y63.623 E.0124
G1 X51.616 Y63.245 E.01887
G1 X52.143 Y62.861 E.02296
G1 X52.743 Y62.554 E.02373
G1 X53.394 Y62.342 E.02407
G1 X53.78 Y62.264 E.01389
G1 X54.389 Y62.219 E.02149
G1 X54.9 Y62.258 E.01803
G1 X55.54 Y62.391 E.02299
G1 X55.948 Y62.526 E.01513
G1 X56.471 Y62.775 E.02038
G1 X56.978 Y63.121 E.0216
G1 X57.515 Y63.623 E.02587
G1 X57.956 Y64.211 E.02588
G1 X58.289 Y64.867 E.02587
G1 X58.503 Y65.57 E.02588
G1 X58.551 Y65.845 E.00981
G1 X58.597 Y66.44 E.02099
G1 X58.551 Y67.034 E.02099
G1 X58.384 Y67.75 E.02588
G1 X58.099 Y68.42 E.02561
G1 X57.686 Y69.052 E.02655
G1 X57.192 Y69.579 E.02545
G1 X56.604 Y70.021 E.02587
G1 X55.948 Y70.353 E.02588
G1 X55.429 Y70.518 E.01916
G1 X54.97 Y70.615 E.01651
G1 X54.371 Y70.661 E.02113
G1 X53.851 Y70.622 E.01835
G1 X53.506 Y70.567 E.01231
G1 X52.932 Y70.407 E.02098
G1 X52.388 Y70.16 E.02101
G1 X51.772 Y69.759 E.02587
G1 X51.633 Y69.629 E.0067
G1 X51.893 Y69.251 F21000
G1 F3000
G1 X51.588 Y68.962 E.0148
G1 X51.168 Y68.406 E.02451
G1 X50.876 Y67.819 E.02308
G1 X50.689 Y67.191 E.02308
G1 X50.615 Y66.539 E.02308
G1 X50.655 Y65.885 E.02308
G1 X50.808 Y65.247 E.02308
G1 X51.069 Y64.646 E.02308
G1 X51.388 Y64.159 E.02048
G1 X51.882 Y63.623 E.02565
G1 X52.405 Y63.235 E.02292
G1 X52.936 Y62.968 E.02093
G1 X53.512 Y62.784 E.02127
G1 X54.118 Y62.693 E.02156
G1 X54.464 Y62.68 E.01219
G1 X54.972 Y62.724 E.01793
G1 X55.568 Y62.872 E.02161
G1 X56.169 Y63.133 E.02308
G1 X56.716 Y63.495 E.02308
G1 X57.192 Y63.946 E.02307
G1 X57.582 Y64.473 E.02308
G1 X57.875 Y65.06 E.02307
G1 X58.061 Y65.689 E.02308
G1 X58.096 Y65.885 E.00701
G1 X58.14 Y66.44 E.01959
G1 X58.096 Y66.995 E.01959
G1 X57.943 Y67.632 E.02308
G1 X57.685 Y68.227 E.02281
G1 X57.313 Y68.788 E.02371
G1 X56.869 Y69.256 E.0227
G1 X56.342 Y69.646 E.02308
G1 X55.755 Y69.939 E.02308
G1 X55.126 Y70.126 E.02308
G1 X54.475 Y70.2 E.02307
G1 X53.891 Y70.166 E.02057
G1 X53.183 Y70.007 E.02556
G1 X52.581 Y69.746 E.02308
G1 X52.034 Y69.384 E.02307
G1 X51.937 Y69.292 E.00472
G1 X52.201 Y68.918 F21000
G1 F3000
G1 X51.911 Y68.639 E.01415
G1 X51.543 Y68.144 E.02171
G1 X51.29 Y67.626 E.02028
G1 X51.131 Y67.072 E.02028
G1 X51.07 Y66.499 E.02028
G1 X51.11 Y65.925 E.02028
G1 X51.249 Y65.365 E.02028
G1 X51.483 Y64.839 E.02028
G1 X51.763 Y64.421 E.01768
G1 X52.205 Y63.946 E.02284
G1 X52.667 Y63.61 E.02013
G1 X53.13 Y63.382 E.01813
G1 X53.63 Y63.225 E.01847
G1 X54.158 Y63.149 E.01876
G1 X54.728 Y63.161 E.02007
G1 X55.303 Y63.274 E.02064
G1 X55.79 Y63.461 E.01833
G1 X56.079 Y63.607 E.01143
G1 X56.496 Y63.902 E.01797
G1 X56.868 Y64.269 E.01841
G1 X57.207 Y64.735 E.02028
G1 X57.46 Y65.253 E.02028
G1 X57.64 Y65.925 E.02447
G1 X57.683 Y66.44 E.01819
G1 X57.64 Y66.955 E.01819
G1 X57.501 Y67.514 E.02028
G1 X57.27 Y68.034 E.02002
G1 X56.939 Y68.525 E.02086
G1 X56.545 Y68.933 E.01995
G1 X56.079 Y69.272 E.02028
G1 X55.562 Y69.525 E.02028
G1 X55.008 Y69.684 E.02028
G1 X54.435 Y69.745 E.02028
G1 X53.931 Y69.711 E.01777
G1 X53.301 Y69.566 E.02276
G1 X52.774 Y69.332 E.02028
G1 X52.297 Y69.01 E.02028
G1 X52.244 Y68.959 E.00257
G1 X52.492 Y68.574 F21000
;TYPE:Outer wall
G1 F3000
G1 X52.179 Y68.256 E.01569
G1 X51.897 Y67.847 E.01748
G1 X51.691 Y67.396 E.01748
G1 X51.565 Y66.915 E.01748
G1 X51.526 Y66.42 E.01748
G1 X51.572 Y65.925 E.01748
G1 X51.704 Y65.446 E.01748
G1 X51.917 Y64.998 E.01748
G1 X52.205 Y64.593 E.01748
G1 X52.559 Y64.244 E.01748
G1 X52.968 Y63.962 E.01748
G1 X53.419 Y63.755 E.01748
G1 X53.9 Y63.63 E.01748
G1 X54.387 Y63.591 E.0172
G1 X54.888 Y63.636 E.01769
G1 X55.369 Y63.769 E.01756
G1 X55.817 Y63.982 E.01748
G1 X56.222 Y64.27 E.01748
G1 X56.571 Y64.623 E.01748
G1 X56.853 Y65.032 E.01748
G1 X57.06 Y65.484 E.01748
G1 X57.185 Y65.964 E.01748
G1 X57.225 Y66.46 E.01748
G1 X57.178 Y66.954 E.01748
G1 X57.046 Y67.433 E.01748
G1 X56.742 Y68.011 E.02298
G1 X56.54 Y68.292 E.01218
G1 X56.147 Y68.667 E.01912
G1 X55.689 Y68.961 E.01915
G1 X55.331 Y69.124 E.01385
G1 X54.85 Y69.249 E.01748
G1 X54.355 Y69.289 E.01748
