; HEADER_BLOCK_START
; generated by OrcaSlicer 1.6.2 on 2023-05-21 at 18:54:50
; total layer number: 76
; HEADER_BLOCK_END

; THUMBNAIL_BLOCK_START
; THUMBNAIL_BLOCK_END

; external perimeters extrusion width = 0.40mm
; perimeters extrusion width = 0.45mm
; infill extrusion width = 0.45mm
; solid infill extrusion width = 0.40mm
; top infill extrusion width = 0.40mm
; first layer extrusion width = 0.50mm

; EXECUTABLE_BLOCK_START
EXCLUDE_OBJECT_DEFINE NAME=pulley_gantry_lefttop.stl_id_0_copy_0 CENTER=60,60 POLYGON=[[25.0458,40.0458],[27.0458,38.0458],[92.1375,38.0458],[94.9542,40.8625],[94.9542,79.9542],[92.9542,81.9542],[43.5458,81.9542],[25.0458,65.4542],[25.0458,40.0458]]
M73 P0 R31
;TYPE:Custom
START_PRINT T_BED=110 T_EXTRUDER=260
G90
G21
M83 ; use relative distances for extrusion
; Filament gcode

    PRESSURE_ADVANCE_SELECT FILAMENT=ABS
M106 S0
;LAYER_CHANGE
;Z:0.2
;HEIGHT:0.2
;BEFORE_LAYER_CHANGE
;0.2
G92 E0

;AFTER_LAYER_CHANGE
;0.2
M204 S1000
; printing object pulley_gantry_lefttop.stl id:0 copy 0
EXCLUDE_OBJECT_START NAME=pulley_gantry_lefttop.stl_id_0_copy_0
G1 E-.5 F3000
G1 Z.2 F21000
G1 X63.443 Y59.558
G1 E.5 F1800
;TYPE:Inner wall
;WIDTH:0.499999
G1 F3000
G1 X63.05 Y59.61 E.01394
G1 X62.586 Y59.626 E.01636
G1 X61.998 Y59.57 E.02077
G1 X61.38 Y59.413 E.02244
G1 X60.688 Y59.118 E.02649
G1 X60.058 Y58.706 E.02649
G1 X59.509 Y58.191 E.02649
G1 X59.057 Y57.589 E.02649
G1 X58.718 Y56.917 E.02649
G1 X58.499 Y56.197 E.02649
G1 X58.41 Y55.45 E.02649
G1 X58.442 Y54.8 E.02291
G1 X58.499 Y54.424 E.01339
G1 X58.663 Y53.836 E.02146
G1 X58.918 Y53.273 E.02176
G1 X59.33 Y52.643 E.02649
G1 X59.844 Y52.094 E.02649
G1 X60.447 Y51.643 E.02649
G1 X61.118 Y51.303 E.02649
G1 X61.838 Y51.085 E.02649
G1 X62.586 Y50.995 E.02649
G1 X63.337 Y51.036 E.02649
G1 X64.07 Y51.207 E.02649
G1 X64.762 Y51.503 E.02649
G1 X65.392 Y51.915 E.02649
G1 X65.885 Y52.373 E.02369
G1 X66.121 Y52.643 E.01261
G1 X66.464 Y53.143 E.02136
G1 X66.733 Y53.703 E.02185
G1 X66.951 Y54.424 E.02649
G1 X67.041 Y55.171 E.02649
G1 X66.999 Y55.922 E.02649
G1 X66.828 Y56.655 E.02649
G1 X66.532 Y57.347 E.02649
G1 X66.121 Y57.978 E.02649
G1 X65.606 Y58.527 E.02649
G1 X64.982 Y58.993 E.02744
G1 X64.332 Y59.318 E.02555
G1 X63.612 Y59.536 E.02649
G1 X63.502 Y59.551 E.00389
G1 X63.368 Y59.109 F21000
G1 F3000
G1 X62.825 Y59.171 E.01923
G1 X62.153 Y59.129 E.02369
G1 X61.499 Y58.972 E.02369
G1 X60.881 Y58.703 E.02369
G1 X60.32 Y58.331 E.02369
G1 X59.832 Y57.868 E.02369
G1 X59.432 Y57.327 E.02369
G1 X59.132 Y56.724 E.02369
G1 X58.941 Y56.079 E.02369
G1 X58.865 Y55.41 E.02369
G1 X58.897 Y54.84 E.02011
G1 X59.064 Y54.084 E.02724
G1 X59.332 Y53.466 E.02369
G1 X59.704 Y52.905 E.02369
G1 X60.168 Y52.417 E.02369
G1 X60.709 Y52.017 E.02369
G1 X61.311 Y51.717 E.02369
G1 X61.957 Y51.526 E.02369
G1 X62.626 Y51.45 E.02369
G1 X63.297 Y51.491 E.02369
G1 X63.952 Y51.649 E.02369
G1 X64.569 Y51.917 E.02369
G1 X65.13 Y52.289 E.02369
G1 X65.562 Y52.696 E.02089
G1 X66.018 Y53.294 E.02646
G1 X66.319 Y53.896 E.02369
G1 X66.51 Y54.542 E.02369
G1 X66.585 Y55.211 E.02369
G1 X66.544 Y55.883 E.02369
G1 X66.387 Y56.537 E.02369
G1 X66.118 Y57.154 E.02369
G1 X65.746 Y57.715 E.02369
G1 X65.283 Y58.203 E.02369
G1 X64.726 Y58.615 E.02437
G1 X64.139 Y58.904 E.02302
G1 X63.494 Y59.095 E.02369
G1 X63.427 Y59.102 E.00235
G1 X63.31 Y58.66 F21000
G1 F3000
G1 X62.785 Y58.715 E.01857
G1 X62.193 Y58.674 E.02089
G1 X61.617 Y58.53 E.02089
G1 X61.074 Y58.289 E.02089
G1 X60.582 Y57.957 E.02089
G1 X60.155 Y57.545 E.02089
G1 X59.806 Y57.065 E.02089
G1 X59.546 Y56.531 E.02089
G1 X59.382 Y55.96 E.02089
G1 X59.32 Y55.37 E.02089
G1 X59.362 Y54.778 E.02089
G1 X59.505 Y54.202 E.02089
G1 X59.747 Y53.66 E.02089
G1 X60.078 Y53.167 E.02089
G1 X60.491 Y52.74 E.02089
G1 X60.971 Y52.391 E.02089
G1 X61.504 Y52.131 E.02089
G1 X62.075 Y51.968 E.02089
G1 X62.665 Y51.905 E.02089
G1 X63.258 Y51.947 E.02089
G1 X63.834 Y52.09 E.02089
G1 X64.376 Y52.332 E.02089
G1 X64.868 Y52.664 E.02089
G1 X65.239 Y53.02 E.01809
G1 X65.644 Y53.556 E.02366
G1 X65.904 Y54.09 E.02089
G1 X66.068 Y54.66 E.02089
G1 X66.13 Y55.251 E.02089
G1 X66.089 Y55.843 E.02089
G1 X65.945 Y56.419 E.02089
G1 X65.704 Y56.961 E.02089
G1 X65.372 Y57.453 E.02089
G1 X64.96 Y57.88 E.02089
G1 X64.47 Y58.236 E.0213
G1 X63.946 Y58.489 E.02049
G1 X63.375 Y58.653 E.02089
G1 X63.369 Y58.654 E.00021
G1 X63.05 Y58.231 F21000
;TYPE:Outer wall
G1 F3000
G1 X62.745 Y58.26 E.01078
G1 X62.233 Y58.219 E.0181
G1 X61.735 Y58.089 E.01809
G1 X61.268 Y57.875 E.0181
G1 X60.844 Y57.583 E.0181
G1 X60.478 Y57.222 E.01809
G1 X60.181 Y56.802 E.01809
G1 X59.96 Y56.338 E.0181
G1 X59.824 Y55.842 E.01809
G1 X59.776 Y55.33 E.0181
G1 X59.817 Y54.818 E.0181
G1 X59.947 Y54.32 E.0181
G1 X60.161 Y53.853 E.0181
G1 X60.453 Y53.43 E.01809
G1 X60.814 Y53.064 E.0181
G1 X61.233 Y52.766 E.0181
G1 X61.698 Y52.545 E.0181
G1 X62.193 Y52.409 E.01809
G1 X62.705 Y52.361 E.0181
G1 X63.218 Y52.402 E.01809
G1 X63.715 Y52.532 E.0181
G1 X64.183 Y52.746 E.0181
G1 X64.606 Y53.038 E.0181
G1 X64.972 Y53.399 E.0181
G1 X65.27 Y53.818 E.01809
G1 X65.49 Y54.283 E.01809
G1 X65.627 Y54.779 E.01809
G1 X65.675 Y55.29 E.0181
G1 X65.633 Y55.803 E.0181
G1 X65.504 Y56.3 E.01809
G1 X65.29 Y56.768 E.0181
G1 X64.998 Y57.191 E.01809
G1 X64.636 Y57.557 E.0181
G1 X64.214 Y57.857 E.01823
G1 X63.753 Y58.075 E.01796
G1 X63.257 Y58.212 E.0181
G1 X63.11 Y58.226 E.0052
G1 X63.027 Y58.288
G1 E-.5
G1 Z.4 F21000
G1 X77.118 Y59.549
G1 Z.2
G1 E.5 F1800
;TYPE:Inner wall
G1 F3000
G1 X76.946 Y59.585 E.00619
G1 X76.356 Y59.632 E.02082
G1 X75.722 Y59.585 E.02239
G1 X74.989 Y59.413 E.02649
G1 X74.304 Y59.121 E.02622
G1 X73.67 Y58.709 E.02659
G1 X73.118 Y58.191 E.02665
G1 X72.666 Y57.589 E.02649
G1 X72.326 Y56.917 E.02649
G1 X72.108 Y56.197 E.02649
G1 X72.018 Y55.45 E.02649
G1 X72.06 Y54.698 E.02649
G1 X72.231 Y53.965 E.02649
G1 X72.527 Y53.273 E.02649
G1 X72.938 Y52.643 E.02649
G1 X73.453 Y52.094 E.02649
G1 X74.055 Y51.643 E.02649
G1 X74.727 Y51.303 E.02649
G1 X75.447 Y51.085 E.02649
G1 X76.187 Y50.995 E.02622
G1 X76.941 Y51.036 E.02659
G1 X77.679 Y51.207 E.02666
G1 X78.371 Y51.503 E.02649
G1 X79.001 Y51.915 E.02649
G1 X79.215 Y52.094 E.00981
G1 X79.589 Y52.47 E.01868
G1 X80.002 Y53.032 E.02452
G1 X80.342 Y53.703 E.02649
G1 X80.56 Y54.424 E.02649
G1 X80.649 Y55.171 E.02649
G1 X80.608 Y55.922 E.02649
G1 X80.437 Y56.655 E.02649
G1 X80.141 Y57.347 E.02649
G1 X79.729 Y57.978 E.02649
G1 X79.215 Y58.527 E.02649
G1 X78.612 Y58.978 E.02649
G1 X77.999 Y59.291 E.02423
G1 X77.354 Y59.5 E.02385
G1 X77.177 Y59.537 E.00638
G1 X76.99 Y59.098 F21000
G1 F3000
G1 X76.645 Y59.152 E.01229
G1 X76.06 Y59.155 E.02061
G1 X75.499 Y59.077 E.01992
G1 X74.97 Y58.925 E.01939
G1 X74.497 Y58.707 E.01833
G1 X73.932 Y58.333 E.02384
G1 X73.441 Y57.868 E.02381
G1 X73.041 Y57.327 E.02369
G1 X72.74 Y56.724 E.02369
G1 X72.55 Y56.079 E.02369
G1 X72.474 Y55.41 E.02369
G1 X72.515 Y54.738 E.02369
G1 X72.672 Y54.084 E.02369
G1 X72.941 Y53.466 E.02369
G1 X73.313 Y52.905 E.02369
G1 X73.776 Y52.417 E.02369
G1 X74.317 Y52.017 E.02369
G1 X74.92 Y51.717 E.02369
G1 X75.565 Y51.526 E.02369
G1 X76.227 Y51.451 E.02342
G1 X76.903 Y51.491 E.02384
G1 X77.561 Y51.649 E.02381
G1 X78.178 Y51.917 E.02369
G1 X78.739 Y52.289 E.02369
G1 X78.891 Y52.417 E.00701
G1 X79.255 Y52.782 E.01811
G1 X79.627 Y53.294 E.02228
G1 X79.927 Y53.896 E.02369
G1 X80.118 Y54.542 E.02369
G1 X80.194 Y55.211 E.02369
G1 X80.153 Y55.883 E.02369
G1 X79.995 Y56.537 E.02369
G1 X79.727 Y57.154 E.02369
G1 X79.355 Y57.715 E.02369
G1 X78.891 Y58.203 E.02369
G1 X78.35 Y58.604 E.02369
G1 X77.806 Y58.877 E.02143
G1 X77.236 Y59.059 E.02105
G1 X77.049 Y59.088 E.00666
G1 X76.917 Y58.648 F21000
G1 F3000
G1 X76.605 Y58.697 E.0111
G1 X76.1 Y58.7 E.0178
G1 X75.618 Y58.635 E.01712
G1 X75.114 Y58.49 E.01846
G1 X74.652 Y58.273 E.01795
G1 X74.193 Y57.958 E.0196
G1 X73.764 Y57.545 E.02096
G1 X73.415 Y57.065 E.02089
G1 X73.155 Y56.531 E.02089
G1 X72.991 Y55.96 E.02089
G1 X72.929 Y55.37 E.02089
G1 X72.97 Y54.778 E.02089
G1 X73.114 Y54.202 E.02089
G1 X73.355 Y53.66 E.02089
G1 X73.687 Y53.167 E.02089
G1 X74.099 Y52.74 E.02089
G1 X74.58 Y52.391 E.02089
G1 X75.113 Y52.131 E.02089
G1 X75.684 Y51.968 E.02089
G1 X76.266 Y51.906 E.02062
G1 X76.864 Y51.947 E.02108
G1 X77.442 Y52.09 E.02097
G1 X77.985 Y52.332 E.02089
G1 X78.568 Y52.74 E.02508
G1 X78.937 Y53.111 E.0184
G1 X79.253 Y53.556 E.01921
G1 X79.513 Y54.09 E.02089
G1 X79.677 Y54.66 E.02089
G1 X79.739 Y55.251 E.02089
G1 X79.697 Y55.843 E.02089
G1 X79.554 Y56.419 E.02089
G1 X79.313 Y56.961 E.02089
G1 X78.981 Y57.453 E.02089
G1 X78.568 Y57.88 E.02089
G1 X78.088 Y58.229 E.02089
G1 X77.613 Y58.462 E.01863
G1 X77.118 Y58.617 E.01825
G1 X76.976 Y58.639 E.00504
G1 X76.823 Y58.218 F21000
;TYPE:Outer wall
G1 F3000
G1 X76.337 Y58.261 E.01716
G1 X75.826 Y58.217 E.01805
G1 X75.33 Y58.085 E.01809
G1 X74.871 Y57.872 E.0178
G1 X74.454 Y57.583 E.01784
G1 X74.087 Y57.222 E.01812
G1 X73.789 Y56.802 E.01809
G1 X73.569 Y56.338 E.0181
G1 X73.433 Y55.842 E.01809
G1 X73.384 Y55.33 E.0181
G1 X73.426 Y54.818 E.01809
G1 X73.555 Y54.32 E.01809
G1 X73.769 Y53.853 E.0181
G1 X74.062 Y53.43 E.0181
G1 X74.423 Y53.064 E.0181
G1 X74.842 Y52.766 E.0181
G1 X75.306 Y52.545 E.01809
G1 X75.802 Y52.409 E.0181
G1 X76.306 Y52.361 E.01782
G1 X76.826 Y52.402 E.01833
G1 X77.324 Y52.532 E.01812
G1 X77.791 Y52.746 E.01809
G1 X78.245 Y53.064 E.01949
G1 X78.604 Y53.426 E.01794
G1 X78.89 Y53.837 E.01762
G1 X79.112 Y54.32 E.01873
G1 X79.242 Y54.818 E.01809
G1 X79.283 Y55.33 E.0181
G1 X79.235 Y55.842 E.0181
G1 X79.099 Y56.338 E.01809
G1 X78.878 Y56.802 E.0181
G1 X78.581 Y57.222 E.0181
G1 X78.215 Y57.583 E.01809
G1 X77.801 Y57.87 E.01774
G1 X77.344 Y58.082 E.01771
G1 X76.882 Y58.207 E.01687
G1 X76.795 Y58.293
G1 E-.5
G1 Z.4 F21000
G1 X89.425 Y47.515
G1 Z.2
G1 E.5 F1800
;TYPE:Inner wall
G1 F3000
G1 X89.425 Y62.756 E.53637
G1 X89.457 Y63.291 E.01888
G1 X89.625 Y63.744 E.017
G1 X89.893 Y64.1 E.01568
G1 X92.333 Y66.54 E.12143
G1 X92.333 Y78.868 E.43389
G1 X91.868 Y79.333 E.02312
G1 X77.763 Y79.333 E.49642
;WIDTH:0.533067
G1 X77.493 Y79.316 E.01022
;WIDTH:0.566134
G1 X77.222 Y79.3 E.01091
G1 X77.36 Y79.257 E.0058
;WIDTH:0.542086
G1 X77.999 Y79.039 E.02596
;WIDTH:0.499999
G1 X78.599 Y78.732 E.02373
G1 X79.137 Y78.326 E.02373
G1 X79.597 Y77.832 E.02373
G1 X79.963 Y77.266 E.02373
G1 X80.226 Y76.645 E.02373
G1 X80.377 Y75.988 E.02373
G1 X80.411 Y75.315 E.02373
G1 X80.329 Y74.646 E.02373
G1 X80.131 Y74.001 E.02373
G1 X79.789 Y73.351 E.02584
G1 X79.417 Y72.863 E.0216
G1 X78.924 Y72.403 E.02373
G1 X78.358 Y72.037 E.02373
G1 X77.868 Y71.815 E.01891
G1 X77.354 Y71.671 E.01878
G1 X76.946 Y71.611 E.01452
G1 X76.406 Y71.589 E.01901
G1 X75.75 Y71.669 E.02327
G1 X75.093 Y71.869 E.02418
G1 X74.492 Y72.176 E.02374
G1 X73.954 Y72.583 E.02373
G1 X73.495 Y73.076 E.02373
G1 X73.128 Y73.642 E.02373
G1 X72.866 Y74.263 E.02373
G1 X72.715 Y74.92 E.02373
G1 X72.68 Y75.594 E.02373
G1 X72.763 Y76.263 E.02373
G1 X72.961 Y76.907 E.02373
G1 X73.268 Y77.508 E.02373
G1 X73.674 Y78.046 E.02373
G1 X74.168 Y78.505 E.02373
G1 X74.734 Y78.872 E.02373
G1 X75.355 Y79.134 E.02373
;WIDTH:0.54775
G1 X76.01 Y79.309 E.02635
G1 X75.329 Y79.333 E.0265
;WIDTH:0.499999
G1 X52.763 Y79.333 E.79417
;WIDTH:0.533067
G1 X52.493 Y79.316 E.01022
;WIDTH:0.566134
G1 X52.222 Y79.3 E.01091
G1 X52.36 Y79.257 E.0058
;WIDTH:0.542086
G1 X52.999 Y79.039 E.02596
;WIDTH:0.499999
G1 X53.599 Y78.732 E.02373
G1 X54.137 Y78.326 E.02373
G1 X54.597 Y77.832 E.02373
G1 X54.963 Y77.266 E.02373
G1 X55.226 Y76.645 E.02373
G1 X55.377 Y75.988 E.02373
G1 X55.411 Y75.315 E.02373
G1 X55.329 Y74.646 E.02373
G1 X55.131 Y74.001 E.02373
G1 X54.824 Y73.401 E.02373
G1 X54.417 Y72.863 E.02373
G1 X53.924 Y72.403 E.02373
G1 X53.358 Y72.037 E.02373
G1 X52.737 Y71.774 E.02373
G1 X52.08 Y71.623 E.02373
G1 X51.406 Y71.589 E.02373
G1 X50.75 Y71.669 E.02327
G1 X50.093 Y71.869 E.02418
G1 X49.492 Y72.176 E.02374
G1 X48.954 Y72.583 E.02373
G1 X48.495 Y73.076 E.02373
G1 X48.128 Y73.642 E.02373
G1 X47.866 Y74.263 E.02373
G1 X47.715 Y74.92 E.02373
G1 X47.68 Y75.594 E.02373
G1 X47.763 Y76.263 E.02373
G1 X47.961 Y76.907 E.02373
G1 X48.268 Y77.508 E.02373
G1 X48.674 Y78.046 E.02373
G1 X49.168 Y78.505 E.02373
G1 X49.734 Y78.872 E.02373
G1 X50.355 Y79.134 E.02373
;WIDTH:0.54775
G1 X51.01 Y79.309 E.02635
G1 X50.329 Y79.333 E.0265
;WIDTH:0.499999
G1 X44.632 Y79.333 E.2005
G1 X44.167 Y78.868 E.02312
G1 X44.167 Y64.955 E.48968
G1 X44.154 Y64.228 E.02559
G1 X44.018 Y63.759 E.01718
G1 X43.741 Y63.346 E.01749
G1 X43.417 Y63.077 E.01481
G1 X43.003 Y62.893 E.01596
G1 X42.567 Y62.833 E.01547
G1 X27.667 Y62.833 E.5244
G1 X27.667 Y48.671 E.4984
;WIDTH:0.533068
G1 X27.684 Y48.401 E.01022
;WIDTH:0.566136
G1 X27.7 Y48.131 E.01091
G1 X27.743 Y48.268 E.0058
;WIDTH:0.542077
G1 X27.961 Y48.907 E.02595
;WIDTH:0.499999
G1 X28.261 Y49.496 E.02327
G1 X28.674 Y50.046 E.02418
G1 X29.168 Y50.505 E.02374
G1 X29.734 Y50.872 E.02373
G1 X30.355 Y51.134 E.02373
G1 X31.012 Y51.285 E.02373
G1 X31.685 Y51.32 E.02373
G1 X32.354 Y51.237 E.02373
G1 X32.999 Y51.039 E.02373
G1 X33.599 Y50.732 E.02373
G1 X34.137 Y50.326 E.02373
G1 X34.514 Y49.941 E.01895
G1 X34.824 Y49.508 E.01875
G1 X35.017 Y49.152 E.01425
G1 X35.226 Y48.645 E.01928
G1 X35.377 Y47.988 E.02373
G1 X35.411 Y47.315 E.02373
G1 X35.329 Y46.646 E.02373
G1 X35.131 Y46.001 E.02373
G1 X34.824 Y45.401 E.02373
G1 X34.417 Y44.863 E.02373
G1 X33.924 Y44.403 E.02373
G1 X33.358 Y44.037 E.02373
G1 X32.737 Y43.774 E.02373
G1 X32.074 Y43.623 E.02393
G1 X31.399 Y43.589 E.0238
G1 X30.737 Y43.671 E.02346
G1 X30.066 Y43.882 E.02475
G1 X29.492 Y44.176 E.0227
G1 X28.954 Y44.583 E.02373
G1 X28.495 Y45.076 E.02373
G1 X28.128 Y45.642 E.02374
G1 X27.866 Y46.263 E.02372
;WIDTH:0.547752
G1 X27.691 Y46.918 E.02636
G1 X27.667 Y46.237 E.0265
;WIDTH:0.499999
G1 X27.667 Y41.132 E.17967
G1 X28.132 Y40.667 E.02312
G1 X40.46 Y40.667 E.43389
G1 X42.9 Y43.107 E.12143
G1 X43.152 Y43.312 E.01143
G1 X43.607 Y43.518 E.0176
G1 X44.031 Y43.575 E.01505
G1 X85.485 Y43.575 E1.45891
G1 X85.526 Y43.81 E.0084
G1 X85.762 Y44.598 E.02894
G1 X86.132 Y45.333 E.02894
G1 X86.623 Y45.992 E.02894
G1 X87.008 Y46.377 E.01915
G1 X87.295 Y46.607 E.01295
G1 X87.909 Y47.008 E.0258
G1 X88.664 Y47.333 E.02894
G1 X89.366 Y47.501 E.02542
G1 X89.92 Y47.103 F21000
G1 F3000
G1 X89.882 Y47.331 E.00812
G1 X89.885 Y63.056 E.55342
G1 X89.981 Y63.435 E.01377
G1 X90.216 Y63.777 E.01461
G1 X92.79 Y66.351 E.12809
G1 X92.79 Y79.058 E.44721
G1 X92.058 Y79.79 E.03645
G1 X44.442 Y79.79 E1.67577
G1 X43.71 Y79.058 E.03645
G1 X43.71 Y64.955 E.49634
G1 X43.695 Y64.246 E.02494
G1 X43.557 Y63.862 E.01436
G1 X43.298 Y63.554 E.01416
G1 X42.956 Y63.358 E.01387
G1 X42.567 Y63.29 E.0139
G1 X27.21 Y63.29 E.54048
G1 X27.21 Y40.942 E.7865
G1 X27.942 Y40.21 E.03645
G1 X40.649 Y40.21 E.44721
G1 X43.318 Y42.869 E.13259
G1 X43.64 Y43.049 E.01298
G1 X44.031 Y43.118 E.01397
G1 X85.521 Y43.118 E1.46019
G1 X85.897 Y43.08 E.01329
G1 X85.968 Y43.692 E.02169
G1 X86.177 Y44.405 E.02614
G1 X86.506 Y45.071 E.02614
G1 X86.946 Y45.669 E.02614
G1 X87.557 Y46.233 E.02925
G1 X88.102 Y46.593 E.023
G1 X88.782 Y46.892 E.02614
G1 X89.308 Y47.032 E.01915
G1 X89.86 Y47.096 E.01958
G1 E-.5
G1 Z.4 F21000
G1 X90.792 Y46.601
G1 Z.2
G1 E.5 F1800
G1 F3000
G1 X90.426 Y46.996 E.01893
G1 X90.339 Y47.331 E.0122
G1 X90.339 Y62.756 E.54286
G1 X90.376 Y63.192 E.01542
G1 X90.54 Y63.454 E.01085
G1 X93.247 Y66.161 E.13476
G1 X93.247 Y79.247 E.46054
G1 X92.247 Y80.247 E.04977
G1 X44.253 Y80.247 E1.6891
G1 X43.253 Y79.247 E.04977
G1 X43.253 Y64.955 E.503
G1 X43.223 Y64.231 E.02548
G1 X43.07 Y63.967 E.01074
G1 X42.846 Y63.806 E.00973
G1 X42.567 Y63.747 E.01002
G1 X26.753 Y63.747 E.55657
G1 X26.753 Y40.753 E.80925
G1 X27.753 Y39.753 E.04977
G1 X40.839 Y39.753 E.46054
M73 P1 R31
G1 X43.546 Y42.46 E.13476
G1 X43.737 Y42.595 E.00823
G1 X44.031 Y42.661 E.0106
G1 X85.669 Y42.661 E1.4654
G1 X86.004 Y42.574 E.0122
G1 X86.399 Y42.208 E.01893
G1 X86.341 Y42.914 E.02493
G1 X86.409 Y43.574 E.02335
G1 X86.591 Y44.212 E.02334
G1 X86.881 Y44.808 E.02334
G1 X87.269 Y45.346 E.02335
G1 X87.819 Y45.858 E.02645
G1 X88.295 Y46.179 E.02021
G1 X88.901 Y46.45 E.02334
G1 X89.426 Y46.591 E.01915
