; HEADER_BLOCK_START
; generated by OrcaSlicer 1.7.0-beta on 2023-09-22 at 19:02:21
; total layer number: 125
; HEADER_BLOCK_END

; THUMBNAIL_BLOCK_START
; THUMBNAIL_BLOCK_END

; external perimeters extrusion width = 0.40mm
; perimeters extrusion width = 0.46mm
; infill extrusion width = 0.64mm
; solid infill extrusion width = 0.56mm
; top infill extrusion width = 0.40mm
; first layer extrusion width = 0.50mm

; EXECUTABLE_BLOCK_START
EXCLUDE_OBJECT_DEFINE NAME=PulleyMountrightTop.stl_id_0_copy_0 CENTER=60,60 POLYGON=[[8.39584,75.6464],[8.40816,75.49],[8.44479,75.3374],[8.50484,75.1925],[30.7017,32.6967],[33.6306,29.7678],[37.7728,29.7678],[106.89,30.2322],[107.046,30.2445],[107.199,30.2812],[107.344,30.3412],[107.478,30.4232],[107.597,30.5251],[111.311,34.2393],[111.413,34.3587],[111.495,34.4925],[111.555,34.6374],[111.592,34.79],[111.604,34.9464],[111.604,65.8176],[111.592,65.974],[111.555,66.1266],[111.495,66.2716],[111.413,66.4054],[111.311,66.5247],[107.897,69.9389],[107.778,70.0408],[107.644,70.1228],[70.6617,90.1141],[70.6441,90.1232],[70.5728,90.1561],[70.4992,90.1833],[70.4803,90.1892],[70.3853,90.213],[70.3466,90.2199],[70.2883,90.2274],[70.1902,90.2322],[13.8101,90.2322],[13.7119,90.2274],[13.6536,90.2199],[13.615,90.213],[13.5199,90.1892],[13.501,90.1833],[13.4274,90.1561],[13.3561,90.1232],[13.3386,90.1141],[13.2545,90.0637],[13.2223,90.0413],[13.1758,90.0053],[13.103,89.9393],[8.68874,85.5251],[8.58682,85.4058],[8.50484,85.272],[8.44479,85.127],[8.40816,84.9745],[8.39584,84.818],[8.39584,75.6464]]
M73 P0 R44
;TYPE:Custom
START_PRINT T_BED=110 T_EXTRUDER=260
G90
G21
M83 ; use relative distances for extrusion
; Filament gcode

    PRESSURE_ADVANCE_SELECT FILAMENT=ABS
M106 S0
;LAYER_CHANGE
;Z:0.2
;HEIGHT:0.2
;BEFORE_LAYER_CHANGE
;0.2
G92 E0

;AFTER_LAYER_CHANGE
;0.2
;_SET_FAN_SPEED_CHANGING_LAYER
SET_VELOCITY_LIMIT ACCEL=1000 ACCEL_TO_DECEL=500
SET_VELOCITY_LIMIT SQUARE_CORNER_VELOCITY=9
G1 E-.5 F3000
G1 Z.2 F21000
G1 X30.275 Y30.275
G1 Z.2
G1 E.5 F1800
;TYPE:Skirt
;WIDTH:0.5
G1 F3000
G1 X31.943 Y28.607 E.08301
G1 X34.003 Y27.754 E.0785
G1 X37.419 Y27.754 E.12022
G1 X106.909 Y28.218 E2.44568
G1 X107.616 Y28.309 E.02506
G1 X108.648 Y28.785 E.04001
G1 X113.032 Y33.163 E.21804
G1 X113.465 Y34.001 E.03318
G1 X113.617 Y34.931 E.03317
G1 X113.618 Y65.817 E1.08702
G1 X113.527 Y66.543 E.02575
G1 X113.051 Y67.576 E.04002
G1 X109.321 Y71.363 E.18706
G1 X108.621 Y71.884 E.03072
G1 X71.614 Y91.888 E1.48051
G1 X71.052 Y92.12 E.0214
G1 X70.21 Y92.245 E.02997
G1 X13.81 Y92.246 E1.98491
G1 X13.204 Y92.183 E.02145
G1 X12.153 Y91.748 E.04005
G1 X11.679 Y91.364 E.02147
G1 X7.265 Y86.949 E.2197
G1 X6.816 Y86.372 E.02574
G1 X6.422 Y85.305 E.04002
G1 X6.382 Y75.646 E.33992
G1 X6.473 Y74.921 E.02574
G1 X6.726 Y74.248 E.02529
G1 X29.021 Y31.717 E1.69004
G1 X29.541 Y31.009 E.03091
G1 X30.247 Y30.303 E.03512
G1 X30.57 Y30.626 F21000
G1 F3000
G1 X32.266 Y28.93 E.08442
G1 X34.003 Y28.211 E.06618
G1 X37.416 Y28.211 E.12012
G1 X106.906 Y28.675 E2.44568
G1 X107.509 Y28.754 E.02139
G1 X108.38 Y29.155 E.03374
G1 X112.663 Y33.431 E.213
G1 X113.03 Y34.142 E.02815
G1 X113.16 Y34.931 E.02814
G1 X113.161 Y65.817 E1.08702
G1 X113.082 Y66.437 E.02196
G1 X112.681 Y67.307 E.03374
G1 X108.998 Y71.04 E.18455
G1 X108.404 Y71.482 E.02608
G1 X71.397 Y91.486 E1.48051
G1 X70.92 Y91.683 E.01816
G1 X70.21 Y91.787 E.02527
G1 X13.81 Y91.789 E1.98491
G1 X13.293 Y91.735 E.0183
G1 X12.407 Y91.368 E.03377
G1 X12.002 Y91.04 E.01831
G1 X7.588 Y86.626 E.2197
G1 X7.206 Y86.133 E.02196
G1 X6.874 Y85.233 E.03374
G1 X6.839 Y75.646 E.3374
G1 X6.918 Y75.027 E.02196
G1 X7.131 Y74.46 E.02132
G1 X29.425 Y31.929 E1.69004
G1 X29.864 Y31.332 E.02607
G1 X30.542 Y30.655 E.03371
; printing object PulleyMountrightTop.stl id:0 copy 0
G1 E-.5
EXCLUDE_OBJECT_START NAME=PulleyMountrightTop.stl_id_0_copy_0
G1 Z.4 F21000
G1 X89.916 Y33.874 Z.4
G1 Z.2
G1 E.5 F1800
;TYPE:Outer wall
G1 F3000
G1 X92.308 Y31.484 E.11899
G1 X106.789 Y31.486 E.50965
G1 X110.353 Y35.05 E.1774
G1 X110.351 Y65.717 E1.07927
G1 X107.086 Y68.981 E.16247
G1 X91.008 Y68.982 E.56586
G1 X90.729 Y69 E.00984
G1 X90.433 Y69.059 E.0106
G1 X90.158 Y69.152 E.01024
G1 X89.897 Y69.281 E.01024
G1 X89.646 Y69.448 E.0106
G1 X89.436 Y69.633 E.00984
G1 X70.086 Y88.98 E.96302
G1 X13.914 Y88.98 E1.97689
G1 X9.646 Y84.71 E.21248
G1 X9.649 Y75.747 E.31544
G1 X12.911 Y72.486 E.16234
G1 X16.764 Y72.482 E.13559
G1 X17.032 Y72.465 E.00946
G1 X17.339 Y72.405 E.011
G1 X17.605 Y72.315 E.0099
G1 X17.872 Y72.185 E.01044
G1 X18.12 Y72.02 E.01047
G1 X18.335 Y71.831 E.01006
G1 X32.765 Y57.401 E.71823
G1 X32.954 Y57.186 E.01006
G1 X33.118 Y56.938 E.01045
G1 X33.242 Y56.687 E.00986
G1 X33.338 Y56.407 E.01044
G1 X33.397 Y56.115 E.01047
G1 X33.416 Y55.83 E.01006
G1 X33.416 Y37.786 E.63504
G1 X31.952 Y36.321 E.07289
G1 X31.952 Y33.214 E.10933
G1 X34.148 Y31.018 E.10933
G1 X37.255 Y31.018 E.10933
G1 X37.819 Y31.582 E.0281
G1 X40.219 Y33.982 E.11945
G1 X89.807 Y33.982 E1.74518
G1 X89.888 Y33.902 E.004
G1 X89.989 Y34.482 F21000
;TYPE:Inner wall
G1 F3000
G1 X90.014 Y34.482 E.00089
G1 X92.515 Y31.984 E.1244
G1 X106.582 Y31.986 E.49508
G1 X109.853 Y35.257 E.16282
G1 X109.851 Y65.51 E1.06469
G1 X106.879 Y68.481 E.14789
G1 X90.991 Y68.482 E.55914
G1 X90.663 Y68.503 E.01157
G1 X90.303 Y68.575 E.01292
G1 X89.966 Y68.689 E.01254
G1 X89.646 Y68.847 E.01254
G1 X89.341 Y69.051 E.01292
G1 X89.094 Y69.268 E.01157
G1 X69.879 Y88.48 E.95631
G1 X14.122 Y88.48 E1.96232
G1 X10.146 Y84.503 E.1979
G1 X10.149 Y75.954 E.30086
G1 X13.118 Y72.985 E.14777
G1 X16.78 Y72.982 E.12887
G1 X17.096 Y72.962 E.01115
G1 X17.467 Y72.889 E.01331
G1 X17.796 Y72.778 E.01222
G1 X18.121 Y72.619 E.01272
G1 X18.424 Y72.418 E.01281
G1 X18.677 Y72.197 E.01182
G1 X33.131 Y57.743 E.7194
G1 X33.352 Y57.49 E.01182
G1 X33.552 Y57.188 E.01275
G1 X33.704 Y56.88 E.01211
G1 X33.836 Y56.497 E.01424
G1 X34.04 Y56.505 E.00717
G1 X34.172 Y57.015 E.01855
G1 X34.369 Y57.547 E.01997
G1 X34.619 Y58.057 E.01997
G1 X34.919 Y58.538 E.01997
G1 X35.266 Y58.987 E.01997
G1 X35.657 Y59.398 E.01997
G1 X36.088 Y59.768 E.01997
G1 X36.553 Y60.092 E.01997
G1 X37.049 Y60.367 E.01997
G1 X37.571 Y60.591 E.01997
G1 X38.114 Y60.761 E.02003
G1 X38.689 Y60.877 E.02064
G1 X39.232 Y60.932 E.01923
G1 X39.8 Y60.932 E.01997
G1 X40.364 Y60.875 E.01997
G1 X40.922 Y60.76 E.02003
G1 X41.481 Y60.583 E.02064
G1 X41.983 Y60.367 E.01923
G1 X42.479 Y60.092 E.01997
G1 X42.945 Y59.768 E.01997
G1 X43.375 Y59.398 E.01997
G1 X43.766 Y58.987 E.01997
G1 X44.113 Y58.538 E.01997
G1 X44.413 Y58.057 E.01997
G1 X44.663 Y57.547 E.01997
G1 X44.86 Y57.015 E.01997
G1 X45.003 Y56.466 E.01997
G1 X45.089 Y55.905 E.01997
G1 X45.117 Y55.338 E.01997
G1 X45.088 Y54.772 E.01997
G1 X45.003 Y54.211 E.01997
G1 X44.86 Y53.662 E.01997
G1 X44.663 Y53.13 E.01997
G1 X44.413 Y52.62 E.01997
G1 X44.113 Y52.139 E.01997
G1 X43.766 Y51.69 E.01997
G1 X43.375 Y51.279 E.01997
G1 X42.945 Y50.909 E.01997
G1 X42.479 Y50.585 E.01997
G1 X41.983 Y50.31 E.01997
G1 X41.461 Y50.086 E.01997
G1 X40.92 Y49.916 E.01997
G1 X40.364 Y49.802 E.01997
G1 X39.8 Y49.745 E.01997
G1 X39.232 Y49.745 E.01997
G1 X38.668 Y49.802 E.01997
G1 X38.112 Y49.916 E.01997
G1 X37.571 Y50.086 E.01997
G1 X37.049 Y50.31 E.01997
G1 X36.553 Y50.585 E.01997
G1 X36.088 Y50.909 E.01997
G1 X35.657 Y51.279 E.01997
G1 X35.266 Y51.69 E.01997
G1 X34.919 Y52.139 E.01997
G1 X34.619 Y52.62 E.01997
G1 X34.369 Y53.13 E.01997
G1 X34.142 Y53.742 E.023
G1 X33.916 Y53.702 E.00808
G1 X33.916 Y37.578 E.56745
G1 X32.452 Y36.114 E.07289
G1 X32.452 Y33.422 E.09476
G1 X34.356 Y31.518 E.09476
G1 X37.048 Y31.518 E.09476
G1 X37.466 Y31.936 E.02081
G1 X40.012 Y34.482 E.12674
G1 X89.949 Y34.482 E1.75746
G1 X90.091 Y34.939 F21000
G1 F3000
G1 X90.203 Y34.939 E.00395
G1 X92.704 Y32.441 E.1244
G1 X106.393 Y32.443 E.48175
M73 P1 R44
G1 X109.396 Y35.447 E.1495
G1 X109.394 Y65.32 E1.05136
G1 X106.69 Y68.024 E.13457
G1 X90.977 Y68.025 E.553
G1 X90.604 Y68.049 E.01315
G1 X90.185 Y68.132 E.01504
G1 X89.791 Y68.266 E.01465
G1 X89.417 Y68.45 E.01465
G1 X89.062 Y68.687 E.01503
G1 X88.781 Y68.934 E.01315
G1 X69.69 Y88.023 E.95016
G1 X14.311 Y88.023 E1.94899
G1 X10.604 Y84.314 E.18457
G1 X10.606 Y76.144 E.28754
G1 X13.308 Y73.442 E.13446
G1 X16.795 Y73.439 E.12274
G1 X17.155 Y73.416 E.01268
G1 X17.585 Y73.332 E.01542
G1 X17.97 Y73.201 E.01433
G1 X18.349 Y73.017 E.01481
G1 X18.702 Y72.782 E.01495
G1 X18.989 Y72.531 E.01342
G1 X33.465 Y58.055 E.72047
G1 X33.716 Y57.768 E.01342
G1 X33.861 Y57.55 E.00924
G1 X34.219 Y58.279 E.02858
G1 X34.543 Y58.8 E.0216
G1 X34.919 Y59.285 E.0216
G1 X35.342 Y59.73 E.0216
G1 X35.808 Y60.13 E.0216
G1 X36.311 Y60.48 E.0216
G1 X36.848 Y60.778 E.0216
G1 X37.412 Y61.02 E.0216
G1 X38 Y61.205 E.02169
G1 X38.62 Y61.33 E.02227
G1 X39.209 Y61.389 E.02083
G1 X39.823 Y61.389 E.0216
G1 X40.434 Y61.327 E.0216
G1 X41.037 Y61.203 E.02169
G1 X41.64 Y61.011 E.02227
G1 X42.184 Y60.778 E.02083
G1 X42.721 Y60.48 E.0216
G1 X43.225 Y60.13 E.0216
G1 X43.69 Y59.73 E.0216
G1 X44.113 Y59.285 E.0216
G1 X44.489 Y58.8 E.0216
G1 X44.814 Y58.279 E.0216
G1 X45.084 Y57.728 E.0216
G1 X45.297 Y57.152 E.0216
G1 X45.451 Y56.558 E.0216
G1 X45.544 Y55.951 E.0216
G1 X45.575 Y55.338 E.0216
G1 X45.544 Y54.725 E.0216
G1 X45.451 Y54.119 E.0216
G1 X45.297 Y53.525 E.0216
G1 X45.084 Y52.949 E.0216
G1 X44.814 Y52.398 E.0216
G1 X44.489 Y51.877 E.0216
G1 X44.113 Y51.392 E.0216
G1 X43.69 Y50.947 E.0216
G1 X43.225 Y50.547 E.0216
G1 X42.721 Y50.197 E.0216
G1 X42.184 Y49.899 E.0216
G1 X41.62 Y49.657 E.0216
G1 X41.035 Y49.473 E.0216
G1 X40.434 Y49.35 E.0216
G1 X39.823 Y49.287 E.0216
G1 X39.209 Y49.287 E.0216
G1 X38.599 Y49.35 E.0216
G1 X37.997 Y49.473 E.0216
G1 X37.412 Y49.657 E.0216
G1 X36.848 Y49.899 E.0216
G1 X36.311 Y50.197 E.0216
G1 X35.808 Y50.547 E.0216
G1 X35.342 Y50.947 E.0216
G1 X34.919 Y51.392 E.0216
G1 X34.559 Y51.857 E.02071
G1 X34.373 Y51.794 E.0069
G1 X34.373 Y37.414 E.50607
G1 X34.834 Y37.6 E.01749
G1 X35.325 Y37.706 E.01768
G1 X35.827 Y37.727 E.01768
G1 X36.326 Y37.663 E.01768
G1 X36.806 Y37.516 E.01768
G1 X37.255 Y37.29 E.01768
G1 X37.658 Y36.991 E.01768
G1 X38.006 Y36.628 E.01768
G1 X38.287 Y36.212 E.01768
G1 X38.494 Y35.754 E.01768
G1 X38.621 Y35.268 E.01768
G1 X38.664 Y34.768 E.01768
G1 X38.621 Y34.267 E.01768
G1 X38.535 Y33.937 E.01199
G1 X38.717 Y33.833 E.00738
G1 X39.823 Y34.939 E.05505
G1 X90.051 Y34.939 E1.76772
G1 X90.194 Y35.396 F21000
G1 F3000
G1 X90.393 Y35.396 E.007
G1 X92.893 Y32.898 E.12439
G1 X106.203 Y32.9 E.46843
G1 X108.939 Y35.636 E.13617
G1 X108.937 Y65.131 E1.03803
G1 X106.5 Y67.566 E.12124
G1 X90.962 Y67.568 E.54686
G1 X90.544 Y67.595 E.01473
G1 X90.066 Y67.69 E.01715
G1 X89.615 Y67.843 E.01675
G1 X89.188 Y68.053 E.01675
G1 X88.783 Y68.324 E.01715
G1 X88.469 Y68.6 E.01473
G1 X69.5 Y87.566 E.94402
G1 X14.5 Y87.566 E1.93566
G1 X11.061 Y84.125 E.17124
G1 X11.063 Y76.333 E.27421
G1 X13.497 Y73.899 E.12114
G1 X16.81 Y73.896 E.1166
G1 X17.214 Y73.87 E.01422
G1 X17.702 Y73.775 E.01753
G1 X18.145 Y73.625 E.01644
G1 X18.576 Y73.414 E.0169
G1 X18.981 Y73.146 E.01708
G1 X19.302 Y72.865 E.01502
G1 X33.76 Y58.406 E.7196
G1 X34.168 Y59.061 E.02715
G1 X34.572 Y59.583 E.02323
G1 X35.027 Y60.061 E.02323
G1 X35.527 Y60.491 E.02323
G1 X36.069 Y60.869 E.02323
G1 X36.646 Y61.189 E.02323
G1 X37.253 Y61.449 E.02323
G1 X37.886 Y61.648 E.02335
G1 X38.552 Y61.782 E.02391
G1 X39.186 Y61.846 E.02243
G1 X39.846 Y61.846 E.02323
G1 X40.503 Y61.78 E.02323
G1 X41.153 Y61.646 E.02335
G1 X41.8 Y61.44 E.02391
G1 X42.386 Y61.189 E.02243
G1 X42.963 Y60.869 E.02323
G1 X43.505 Y60.491 E.02323
G1 X44.006 Y60.061 E.02323
G1 X44.461 Y59.583 E.02323
G1 X44.865 Y59.061 E.02323
G1 X45.214 Y58.501 E.02323
G1 X45.504 Y57.908 E.02323
G1 X45.734 Y57.289 E.02323
G1 X45.899 Y56.65 E.02323
G1 X45.999 Y55.998 E.02323
G1 X46.033 Y55.338 E.02323
G1 X45.999 Y54.679 E.02323
G1 X45.899 Y54.027 E.02323
G1 X45.734 Y53.388 E.02323
G1 X45.504 Y52.769 E.02323
G1 X45.214 Y52.176 E.02323
G1 X44.865 Y51.616 E.02323
G1 X44.461 Y51.094 E.02323
G1 X44.006 Y50.615 E.02323
G1 X43.505 Y50.185 E.02323
G1 X42.963 Y49.808 E.02323
G1 X42.386 Y49.488 E.02323
G1 X41.779 Y49.228 E.02323
G1 X41.15 Y49.03 E.02323
G1 X40.503 Y48.897 E.02323
G1 X39.846 Y48.83 E.02323
G1 X39.186 Y48.83 E.02323
G1 X38.529 Y48.897 E.02323
G1 X37.883 Y49.03 E.02323
G1 X37.253 Y49.228 E.02323
G1 X36.646 Y49.488 E.02323
G1 X36.069 Y49.808 E.02323
G1 X35.527 Y50.185 E.02323
G1 X34.83 Y50.784 E.03233
G1 X34.83 Y38.066 E.44757
G1 X35.267 Y38.161 E.01573
G1 X35.847 Y38.185 E.02042
G1 X36.422 Y38.112 E.02042
G1 X36.977 Y37.942 E.02042
G1 X37.495 Y37.68 E.02042
G1 X37.962 Y37.335 E.02042
G1 X38.363 Y36.917 E.02042
G1 X38.688 Y36.436 E.02042
G1 X38.927 Y35.907 E.02042
G1 X39.073 Y35.346 E.02042
G1 X39.113 Y34.876 E.01661
G1 X39.634 Y35.396 E.02591
G1 X69.463 Y35.396 E1.04981
M73 P1 R43
G1 X69.488 Y35.643 E.00872
G1 X68.821 Y35.78 E.02397
G1 X68.191 Y35.978 E.02323
G1 X67.584 Y36.238 E.02323
G1 X67.007 Y36.558 E.02323
G1 X66.465 Y36.935 E.02323
G1 X65.965 Y37.365 E.02323
G1 X65.51 Y37.844 E.02323
G1 X65.106 Y38.366 E.02323
G1 X64.757 Y38.926 E.02323
G1 X64.466 Y39.519 E.02323
G1 X64.237 Y40.138 E.02323
G1 X64.071 Y40.777 E.02323
G1 X63.971 Y41.429 E.02323
G1 X63.938 Y42.088 E.02323
G1 X63.971 Y42.748 E.02323
G1 X64.071 Y43.4 E.02323
G1 X64.237 Y44.039 E.02323
G1 X64.466 Y44.658 E.02323
G1 X64.757 Y45.251 E.02323
G1 X65.106 Y45.811 E.02323
G1 X65.51 Y46.333 E.02323
G1 X65.965 Y46.811 E.02323
G1 X66.465 Y47.241 E.02323
G1 X67.007 Y47.619 E.02323
G1 X67.584 Y47.939 E.02323
G1 X68.191 Y48.199 E.02323
G1 X68.824 Y48.398 E.02335
G1 X69.49 Y48.532 E.02391
G1 X70.124 Y48.596 E.02243
G1 X70.788 Y48.596 E.02335
G1 X71.463 Y48.525 E.02391
G1 X72.088 Y48.397 E.02243
G1 X72.717 Y48.199 E.02323
G1 X73.324 Y47.939 E.02323
G1 X73.901 Y47.619 E.02323
G1 X74.443 Y47.241 E.02323
G1 X74.944 Y46.811 E.02323
G1 X75.399 Y46.333 E.02323
G1 X75.803 Y45.811 E.02323
G1 X76.152 Y45.251 E.02323
G1 X76.442 Y44.658 E.02323
G1 X76.672 Y44.039 E.02323
G1 X76.837 Y43.4 E.02323
G1 X76.937 Y42.748 E.02323
G1 X76.971 Y42.088 E.02323
G1 X76.937 Y41.429 E.02323
G1 X76.837 Y40.777 E.02323
G1 X76.672 Y40.138 E.02323
G1 X76.442 Y39.519 E.02323
G1 X76.152 Y38.926 E.02323
G1 X75.803 Y38.366 E.02323
G1 X75.399 Y37.844 E.02323
G1 X74.944 Y37.365 E.02323
G1 X74.443 Y36.935 E.02323
G1 X73.901 Y36.558 E.02323
G1 X73.324 Y36.238 E.02323
G1 X72.717 Y35.978 E.02323
G1 X72.088 Y35.78 E.02323
G1 X71.42 Y35.643 E.02397
G1 X71.445 Y35.396 E.00872
G1 X90.154 Y35.396 E.65841
G1 X90.296 Y35.853 F21000
G1 F3000
G1 X90.582 Y35.853 E.01006
G1 X93.082 Y33.355 E.12439
G1 X106.014 Y33.357 E.45511
G1 X108.482 Y35.825 E.12284
G1 X108.479 Y64.941 E1.02471
G1 X106.311 Y67.109 E.10792
G1 X90.947 Y67.111 E.54072
G1 X90.484 Y67.141 E.01631
G1 X89.947 Y67.247 E.01927
G1 X89.44 Y67.42 E.01885
G1 X88.959 Y67.657 E.01885
G1 X88.504 Y67.961 E.01927
G1 X88.156 Y68.267 E.01631
G1 X75.018 Y81.403 E.65384
G1 X74.838 Y81.303 E.00726
G1 X74.933 Y80.885 E.0151
G1 X74.982 Y80.232 E.02303
G1 X74.933 Y79.58 E.02303
G1 X74.787 Y78.942 E.02303
G1 X74.548 Y78.333 E.02302
G1 X74.221 Y77.766 E.02302
G1 X73.813 Y77.255 E.02303
G1 X73.334 Y76.81 E.02303
G1 X72.793 Y76.441 E.02303
G1 X72.204 Y76.157 E.02303
G1 X71.579 Y75.964 E.02303
G1 X70.932 Y75.867 E.02303
G1 X70.277 Y75.867 E.02302
G1 X69.63 Y75.964 E.02303
G1 X69.002 Y76.158 E.02314
G1 X68.408 Y76.447 E.02325
G1 X67.875 Y76.81 E.02268
G1 X67.396 Y77.255 E.02303
G1 X66.988 Y77.766 E.02303
G1 X66.66 Y78.333 E.02303
G1 X66.421 Y78.942 E.02303
G1 X66.276 Y79.58 E.02303
G1 X66.227 Y80.232 E.02303
G1 X66.276 Y80.888 E.02314
G1 X66.425 Y81.531 E.02325
G1 X66.66 Y82.132 E.02269
G1 X66.988 Y82.698 E.02302
G1 X67.396 Y83.21 E.02303
G1 X67.875 Y83.655 E.02303
G1 X68.416 Y84.023 E.02302
G1 X69.005 Y84.307 E.02302
G1 X69.63 Y84.5 E.02303
G1 X70.277 Y84.597 E.02303
G1 X70.931 Y84.597 E.02302
G1 X71.667 Y84.487 E.02619
G1 X71.757 Y84.664 E.00699
G1 X69.311 Y87.109 E.12172
G1 X14.69 Y87.109 E1.92233
G1 X11.518 Y83.936 E.15791
G1 X11.52 Y76.523 E.26089
G1 X13.687 Y74.356 E.10783
G1 X16.826 Y74.353 E.11047
G1 X17.272 Y74.324 E.01576
G1 X17.82 Y74.218 E.01964
G1 X18.319 Y74.048 E.01855
