; HEADER_BLOCK_START
; generated by OrcaSlicer 1.7.0-beta on 2023-09-22 at 20:44:45
; total layer number: 82
; HEADER_BLOCK_END

; THUMBNAIL_BLOCK_START
; THUMBNAIL_BLOCK_END

; external perimeters extrusion width = 0.40mm
; perimeters extrusion width = 0.46mm
; infill extrusion width = 0.64mm
; solid infill extrusion width = 0.56mm
; top infill extrusion width = 0.40mm
; first layer extrusion width = 0.50mm

; EXECUTABLE_BLOCK_START
EXCLUDE_OBJECT_DEFINE NAME=PulleyMountrightbottom.stl_id_0_copy_0 CENTER=60,60 POLYGON=[[8.396,34.9464],[8.4083,34.79],[8.44492,34.6374],[8.50498,34.4925],[8.58698,34.3587],[8.68888,34.2393],[12.4031,30.5251],[12.5224,30.4232],[12.6562,30.3412],[12.8012,30.2812],[12.9538,30.2445],[13.1102,30.2322],[82.2274,29.7678],[86.3695,29.7678],[89.2985,32.6967],[111.495,75.1925],[111.555,75.3374],[111.592,75.49],[111.604,75.6464],[111.604,84.818],[111.592,84.9744],[111.555,85.127],[111.495,85.272],[111.413,85.4058],[111.311,85.5251],[106.897,89.9393],[106.824,90.0053],[106.778,90.0413],[106.745,90.0637],[106.661,90.1141],[106.644,90.1232],[106.572,90.1561],[106.499,90.1833],[106.48,90.1892],[106.385,90.213],[106.346,90.2199],[106.288,90.2274],[106.19,90.2322],[49.8098,90.2322],[49.7117,90.2274],[49.6534,90.2199],[49.6147,90.213],[49.5196,90.1892],[49.5008,90.1833],[49.4271,90.1561],[49.3558,90.1232],[49.3383,90.1141],[49.2542,90.0637],[49.222,90.0413],[49.1755,90.0053],[49.1027,89.9393],[28.6886,69.5251],[8.62995,48.8746],[8.52998,48.7318],[8.45631,48.5738],[8.41117,48.4054],[8.396,48.2318],[8.396,34.9464]]
M73 P0 R43
;TYPE:Custom
START_PRINT T_BED=110 T_EXTRUDER=260
G90
G21
M83 ; use relative distances for extrusion
; Filament gcode

    PRESSURE_ADVANCE_SELECT FILAMENT=ABS
M106 S0
;LAYER_CHANGE
;Z:0.2
;HEIGHT:0.2
;BEFORE_LAYER_CHANGE
;0.2
G92 E0

;AFTER_LAYER_CHANGE
;0.2
;_SET_FAN_SPEED_CHANGING_LAYER
SET_VELOCITY_LIMIT ACCEL=1000 ACCEL_TO_DECEL=500
SET_VELOCITY_LIMIT SQUARE_CORNER_VELOCITY=9
G1 E-.5 F3000
G1 Z.2 F21000
G1 X12.194 Y28.362
G1 Z.2
G1 E.5 F1800
;TYPE:Skirt
;WIDTH:0.5
G1 F3000
G1 X13.075 Y28.219 E.03141
G1 X85.997 Y27.754 E2.56645
G1 X88.057 Y28.607 E.0785
G1 X90.459 Y31.009 E.11954
G1 X90.98 Y31.717 E.03092
G1 X113.28 Y74.263 E1.69058
G1 X113.577 Y75.16 E.03325
G1 X113.618 Y84.818 E.33992
G1 X113.577 Y85.305 E.01719
G1 X113.184 Y86.372 E.04002
G1 X112.735 Y86.949 E.02574
G1 X108.321 Y91.364 E.2197
G1 X107.847 Y91.748 E.02147
G1 X106.797 Y92.183 E.04001
G1 X106.19 Y92.246 E.02148
G1 X49.81 Y92.246 E1.98423
G1 X49.203 Y92.183 E.02148
G1 X48.153 Y91.748 E.04
G1 X47.678 Y91.364 E.02148
G1 X27.235 Y70.919 E1.01753
G1 X7.242 Y50.339 E1.00981
G1 X6.559 Y49.246 E.04534
G1 X6.383 Y48.249 E.03562
G1 X6.383 Y34.931 E.46872
G1 X6.526 Y34.03 E.03209
G1 X6.949 Y33.188 E.03318
G1 X7.265 Y32.815 E.01719
G1 X10.979 Y29.101 E.18486
G1 X11.352 Y28.785 E.01719
G1 X12.158 Y28.38 E.03176
G1 X12.335 Y28.797 F21000
G1 F3000
G1 X13.078 Y28.676 E.02649
G1 X85.997 Y28.211 E2.56634
G1 X87.734 Y28.93 E.06618
G1 X90.136 Y31.332 E.11954
G1 X90.575 Y31.929 E.02607
G1 X112.875 Y74.475 E1.69058
G1 X113.126 Y75.231 E.02804
G1 X113.161 Y84.818 E.3374
G1 X113.126 Y85.233 E.01467
G1 X112.794 Y86.133 E.03374
G1 X112.412 Y86.626 E.02196
G1 X107.998 Y91.04 E.2197
G1 X107.593 Y91.368 E.01832
G1 X106.708 Y91.734 E.03373
G1 X106.19 Y91.789 E.01833
G1 X49.81 Y91.789 E1.98423
G1 X49.292 Y91.734 E.01833
G1 X48.407 Y91.368 E.03372
G1 X48.002 Y91.04 E.01833
G1 X27.563 Y70.601 E1.0173
G1 X7.569 Y50.02 E1.00981
M73 P0 R42
G1 X6.989 Y49.09 E.03861
G1 X6.84 Y48.249 E.03004
G1 X6.84 Y34.931 E.46872
G1 X6.96 Y34.172 E.02705
G1 X7.319 Y33.457 E.02815
G1 X7.588 Y33.138 E.01466
G1 X11.302 Y29.424 E.18486
G1 X11.621 Y29.155 E.01467
G1 X12.299 Y28.815 E.02673
; printing object PulleyMountrightbottom.stl id:0 copy 0
G1 E-.5
EXCLUDE_OBJECT_START NAME=PulleyMountrightbottom.stl_id_0_copy_0
G1 Z.4 F21000
G1 X29.646 Y47.982 Z.4
G1 Z.2
G1 E.5 F1800
;TYPE:Outer wall
G1 F3000
G1 X9.648 Y47.981 E.70382
G1 X9.647 Y35.05 E.45506
G1 X13.214 Y31.483 E.17753
G1 X27.676 Y31.483 E.50895
G1 X30.178 Y33.982 E.12449
G1 X79.782 Y33.982 E1.74576
G1 X80.869 Y32.871 E.05469
G1 X81.467 Y32.154 E.03287
G1 X81.777 Y31.844 E.01541
G1 X82.146 Y31.562 E.01636
G1 X82.739 Y31.016 E.02835
G1 X84.067 Y31.006 E.04673
G1 X85.028 Y30.931 E.03393
G1 X85.494 Y30.962 E.01644
G1 X85.846 Y30.989 E.01242
G1 X86.803 Y31.969 E.04824
G1 X88.077 Y33.22 E.06281
G1 X88.135 Y34.039 E.0289
G1 X88.06 Y35 E.03391
G1 X88.05 Y36.326 E.04669
G1 X87.571 Y36.841 E.02475
G1 X87.322 Y37.174 E.01462
G1 X86.697 Y37.815 E.0315
G1 X86.618 Y38.407 E.02099
G1 X86.584 Y39.417 E.03558
G1 X86.584 Y55.83 E.57762
G1 X86.603 Y56.115 E.01006
G1 X86.662 Y56.407 E.01047
G1 X86.758 Y56.687 E.01044
G1 X86.882 Y56.938 E.00986
G1 X87.046 Y57.186 E.01045
G1 X87.235 Y57.401 E.01006
G1 X101.665 Y71.831 E.71824
G1 X101.881 Y72.02 E.01006
G1 X102.128 Y72.185 E.01047
G1 X102.395 Y72.315 E.01044
G1 X102.661 Y72.405 E.0099
G1 X102.968 Y72.465 E.011
G1 X103.237 Y72.482 E.00946
G1 X107.089 Y72.486 E.13557
G1 X110.353 Y75.754 E.16259
G1 X110.353 Y84.71 E.31519
G1 X106.085 Y88.98 E.21248
G1 X49.914 Y88.98 E1.97689
G1 X29.649 Y68.717 E1.00858
G1 X29.646 Y48.022 E.72835
G1 X30.146 Y47.482 F21000
;TYPE:Inner wall
G1 F3000
G1 X10.148 Y47.481 E.70381
G1 X10.147 Y35.258 E.43018
G1 X13.421 Y31.983 E.16295
G1 X27.469 Y31.983 E.49438
G1 X29.971 Y34.482 E.12449
G1 X79.993 Y34.482 E1.76044
G1 X80.542 Y33.921 E.02765
G1 X80.726 Y34.026 E.00747
G1 X80.226 Y35.857 E.06679
G1 X83.209 Y38.841 E.14851
G1 X85.945 Y38.093 E.09982
G1 X86.167 Y38.01 E.0083
G1 X86.119 Y38.365 E.0126
G1 X86.084 Y39.409 E.03676
G1 X86.084 Y55.846 E.5785
G1 X86.106 Y56.181 E.01182
G1 X86.178 Y56.538 E.01281
G1 X86.296 Y56.88 E.01272
G1 X86.448 Y57.188 E.01211
G1 X86.648 Y57.49 E.01275
G1 X86.87 Y57.743 E.01182
G1 X101.324 Y72.197 E.7194
G1 X101.576 Y72.418 E.01182
G1 X101.879 Y72.619 E.01281
G1 X102.204 Y72.778 E.01272
G1 X102.533 Y72.889 E.01222
G1 X102.904 Y72.962 E.01331
G1 X103.22 Y72.982 E.01115
G1 X106.881 Y72.985 E.12885
G1 X109.853 Y75.961 E.14802
G1 X109.853 Y84.503 E.30062
G1 X105.878 Y88.48 E.19791
G1 X50.121 Y88.48 E1.96231
G1 X30.149 Y68.51 E.994
G1 X30.146 Y47.522 E.73866
G1 X30.603 Y47.025 F21000
G1 F3000
G1 X10.605 Y47.023 E.70381
G1 X10.604 Y35.447 E.40743
M73 P1 R42
G1 X13.611 Y32.441 E.14963
G1 X27.279 Y32.44 E.48106
G1 X29.782 Y34.939 E.12449
G1 X80.003 Y34.939 E1.76745
G1 X79.715 Y35.992 E.03842
G1 X83.074 Y39.352 E.16719
G1 X85.652 Y38.647 E.09407
G1 X85.627 Y39.401 E.02657
G1 X85.627 Y54.392 E.52757
G1 X85.394 Y54.427 E.00828
G1 X84.351 Y51.118 E.12211
G1 X78.763 Y49.879 E.20145
G1 X74.896 Y54.099 E.20145
G1 X76.617 Y59.558 E.20145
G1 X82.205 Y60.797 E.20145
G1 X85.789 Y56.886 E.1867
G1 X86.051 Y57.417 E.02083
G1 X86.285 Y57.768 E.01485
G1 X86.536 Y58.055 E.01342
G1 X101.011 Y72.531 E.72047
G1 X101.298 Y72.782 E.01342
G1 X101.652 Y73.017 E.01494
G1 X102.03 Y73.201 E.01481
G1 X102.415 Y73.332 E.01433
G1 X102.845 Y73.416 E.01542
G1 X103.205 Y73.439 E.01268
G1 X106.692 Y73.442 E.12271
G1 X109.396 Y76.15 E.1347
G1 X109.396 Y84.314 E.2873
G1 X105.689 Y88.023 E.18458
G1 X50.311 Y88.023 E1.94898
G1 X30.606 Y68.321 E.98068
G1 X30.603 Y47.065 E.74808
G1 E-.5
G1 Z.4 F21000
G1 X52.049 Y46.424 Z.4
G1 X79.404 Y35.396
G1 Z.2
G1 E.5 F1800
G1 F3000
G1 X79.204 Y36.128 E.02669
G1 X82.938 Y39.862 E.18588
G1 X85.17 Y39.252 E.08143
G1 X85.17 Y51.422 E.4283
G1 X84.937 Y51.458 E.00828
G1 X84.708 Y50.729 E.02689
G1 X79.286 Y49.527 E.19543
G1 X79.298 Y49.296 E.00816
G1 X79.418 Y49.282 E.00424
G1 X79.983 Y49.123 E.02066
G1 X80.497 Y48.893 E.0198
G1 X80.981 Y48.58 E.02031
G1 X81.412 Y48.196 E.02031
G1 X81.779 Y47.75 E.02031
G1 X82.074 Y47.254 E.02031
G1 X82.29 Y46.719 E.02031
G1 X82.421 Y46.157 E.02031
G1 X82.466 Y45.578 E.02046
G1 X82.418 Y44.992 E.02067
G1 X82.29 Y44.445 E.0198
G1 X82.074 Y43.909 E.02031
G1 X81.779 Y43.413 E.02031
G1 X81.412 Y42.968 E.02031
G1 X80.981 Y42.584 E.02031
G1 X80.497 Y42.27 E.02031
G1 X79.97 Y42.034 E.02031
G1 X79.409 Y41.88 E.02046
G1 X78.826 Y41.816 E.02067
G1 X78.264 Y41.837 E.0198
G1 X77.697 Y41.947 E.02031
G1 X77.154 Y42.142 E.02031
G1 X76.647 Y42.418 E.02031
G1 X76.188 Y42.768 E.02031
G1 X75.788 Y43.184 E.02031
G1 X75.456 Y43.656 E.02031
G1 X75.2 Y44.173 E.02031
G1 X75.026 Y44.723 E.02031
G1 X74.938 Y45.293 E.02031
G1 X74.938 Y45.87 E.02031
G1 X75.026 Y46.445 E.02046
G1 X75.206 Y47.004 E.02066
G1 X75.456 Y47.508 E.0198
G1 X75.788 Y47.98 E.02031
G1 X76.188 Y48.396 E.02031
G1 X76.647 Y48.746 E.02031
G1 X77.154 Y49.021 E.02031
G1 X77.697 Y49.216 E.02031
G1 X78.264 Y49.326 E.02031
G1 X78.637 Y49.341 E.01313
G1 X74.39 Y53.975 E.22121
G1 X73.774 Y53.078 E.0383
G1 X73.234 Y52.41 E.03023
G1 X72.651 Y51.778 E.03023
G1 X72.029 Y51.186 E.03023
G1 X71.37 Y50.635 E.03024
G1 X70.677 Y50.127 E.03023
G1 X69.952 Y49.666 E.03023
G1 X69.199 Y49.253 E.03024
G1 X68.42 Y48.888 E.03028
G1 X67.601 Y48.57 E.03089
G1 X66.802 Y48.316 E.02953
G1 X65.968 Y48.11 E.03023
G1 X65.122 Y47.957 E.03024
G1 X64.267 Y47.86 E.03028
G1 X63.391 Y47.819 E.03089
G1 X62.552 Y47.832 E.02953
G1 X61.696 Y47.902 E.03023
G1 X60.846 Y48.027 E.03024
G1 X60.004 Y48.206 E.03028
G1 X59.16 Y48.446 E.03089
G1 X58.369 Y48.726 E.02953
G1 X57.579 Y49.065 E.03023
G1 X56.813 Y49.453 E.03024
G1 X56.074 Y49.891 E.03023
G1 X55.364 Y50.375 E.03023
G1 X54.688 Y50.905 E.03024
G1 X54.047 Y51.477 E.03023
G1 X53.444 Y52.089 E.03024
G1 X52.883 Y52.739 E.03023
G1 X52.364 Y53.425 E.03024
G1 X51.891 Y54.143 E.03028
G1 X51.457 Y54.906 E.03089
G1 X51.089 Y55.66 E.02953
G1 X50.763 Y56.457 E.03028
G1 X50.485 Y57.289 E.03089
G1 X50.27 Y58.1 E.02953
G1 X50.104 Y58.943 E.03023
G1 X49.993 Y59.795 E.03023
G1 X49.938 Y60.652 E.03024
G1 X49.938 Y61.511 E.03023
G1 X49.993 Y62.369 E.03024
G1 X50.104 Y63.221 E.03023
G1 X50.271 Y64.065 E.03028
G1 X50.497 Y64.913 E.03089
G1 X50.764 Y65.708 E.02953
G1 X51.089 Y66.503 E.03023
G1 X51.466 Y67.276 E.03024
G1 X51.891 Y68.022 E.03023
G1 X52.364 Y68.739 E.03023
G1 X52.883 Y69.424 E.03024
G1 X53.444 Y70.074 E.03024
G1 X54.047 Y70.687 E.03023
G1 X54.688 Y71.259 E.03024
G1 X55.364 Y71.788 E.03023
G1 X56.074 Y72.273 E.03024
G1 X56.813 Y72.71 E.03023
G1 X57.579 Y73.099 E.03024
G1 X58.369 Y73.437 E.03023
G1 X59.179 Y73.724 E.03023
G1 X60.005 Y73.958 E.03023
G1 X60.846 Y74.137 E.03023
G1 X61.696 Y74.262 E.03024
G1 X62.552 Y74.331 E.03023
G1 X63.411 Y74.345 E.03024
G1 X64.269 Y74.303 E.03023
G1 X65.122 Y74.206 E.03023
G1 X65.968 Y74.054 E.03024
G1 X66.802 Y73.847 E.03023
G1 X67.621 Y73.587 E.03024
G1 X68.421 Y73.275 E.03023
G1 X69.199 Y72.911 E.03024
G1 X69.952 Y72.497 E.03024
G1 X70.677 Y72.036 E.03023
G1 X71.37 Y71.529 E.03023
G1 X72.029 Y70.978 E.03024
G1 X72.651 Y70.385 E.03024
G1 X73.234 Y69.754 E.03023
G1 X73.774 Y69.086 E.03024
G1 X74.27 Y68.384 E.03024
G1 X74.72 Y67.652 E.03024
G1 X75.121 Y66.893 E.03023
G1 X75.472 Y66.109 E.03023
G1 X75.771 Y65.303 E.03023
G1 X76.018 Y64.481 E.03024
G1 X76.211 Y63.643 E.03024
G1 X76.35 Y62.796 E.03023
G1 X76.433 Y61.941 E.03024
G1 X76.461 Y61.082 E.03024
G1 X76.433 Y60.223 E.03024
G1 X76.41 Y59.981 E.00857
G1 X82.364 Y61.301 E.21464
G1 X85.679 Y57.683 E.17269
G1 X85.921 Y58.047 E.01536
G1 X86.202 Y58.368 E.01502
G1 X100.699 Y72.865 E.72153
G1 X101.02 Y73.146 E.01502
G1 X101.424 Y73.414 E.01708
G1 X101.855 Y73.625 E.0169
G1 X102.298 Y73.775 E.01644
G1 X102.787 Y73.87 E.01753
G1 X103.19 Y73.896 E.01422
G1 X106.502 Y73.899 E.11657
G1 X108.939 Y76.34 E.12138
G1 X108.939 Y84.125 E.27398
G1 X105.499 Y87.566 E.17125
G1 X50.5 Y87.566 E1.93565
G1 X31.063 Y68.131 E.96735
G1 X31.06 Y46.568 E.7589
G1 X11.062 Y46.566 E.70381
G1 X11.061 Y35.636 E.38468
G1 X13.8 Y32.898 E.1363
G1 X27.09 Y32.897 E.46774
G1 X29.593 Y35.396 E.12448
G1 X79.364 Y35.396 E1.75162
G1 X78.805 Y35.853 F21000
G1 F3000
G1 X78.693 Y36.263 E.01495
G1 X82.803 Y40.373 E.20456
G1 X84.713 Y39.851 E.06969
G1 X84.713 Y50.262 E.36641
G1 X80.624 Y49.356 E.14741
G1 X81.259 Y48.944 E.02664
G1 X81.742 Y48.514 E.02278
G1 X82.154 Y48.014 E.02278
G1 X82.485 Y47.458 E.02278
G1 X82.727 Y46.857 E.02278
G1 X82.874 Y46.227 E.02278
G1 X82.924 Y45.576 E.02297
G1 X82.871 Y44.921 E.02314
G1 X82.727 Y44.306 E.02223
G1 X82.485 Y43.706 E.02278
G1 X82.154 Y43.15 E.02278
G1 X81.742 Y42.65 E.02278
G1 X81.259 Y42.22 E.02278
G1 X80.716 Y41.868 E.02278
G1 X80.125 Y41.603 E.02278
G1 X79.496 Y41.43 E.02297
G1 X78.842 Y41.358 E.02314
G1 X78.211 Y41.382 E.02223
G1 X77.576 Y41.505 E.02278
G1 X76.967 Y41.724 E.02278
G1 X76.398 Y42.033 E.02278
G1 X75.883 Y42.426 E.02278
G1 X75.434 Y42.892 E.02278
G1 X75.062 Y43.421 E.02278
G1 X74.775 Y44.001 E.02278
G1 X74.579 Y44.619 E.02278
G1 X74.481 Y45.258 E.02278
G1 X74.481 Y45.906 E.02278
G1 X74.58 Y46.551 E.02297
G1 X74.782 Y47.176 E.02313
G1 X75.062 Y47.742 E.02223
G1 X75.434 Y48.272 E.02278
G1 X75.883 Y48.738 E.02278
G1 X76.398 Y49.13 E.02278
G1 X76.967 Y49.44 E.02278
G1 X77.688 Y49.699 E.02699
G1 X74.446 Y53.237 E.16888
G1 X74.139 Y52.802 E.01875
G1 X73.58 Y52.111 E.03128
G1 X72.977 Y51.458 E.03128
G1 X72.334 Y50.845 E.03128
G1 X71.652 Y50.275 E.03128
G1 X70.935 Y49.75 E.03128
G1 X70.185 Y49.273 E.03127
G1 X69.406 Y48.845 E.03128
G1 X68.599 Y48.468 E.03134
G1 X67.754 Y48.139 E.03193
G1 X66.926 Y47.876 E.03056
G1 X66.064 Y47.662 E.03128
G1 X65.189 Y47.505 E.03128
G1 X64.304 Y47.404 E.03134
G1 X63.398 Y47.362 E.03193
G1 X62.53 Y47.376 E.03056
G1 X61.644 Y47.448 E.03127
G1 X60.765 Y47.577 E.03128
G1 X59.894 Y47.763 E.03134
G1 X59.021 Y48.011 E.03193
G1 X58.202 Y48.3 E.03056
G1 X57.386 Y48.65 E.03127
G1 X56.593 Y49.053 E.03128
G1 X55.828 Y49.505 E.03128
G1 X55.094 Y50.006 E.03128
G1 X54.394 Y50.554 E.03128
G1 X53.731 Y51.146 E.03128
G1 X53.108 Y51.779 E.03128
G1 X52.527 Y52.452 E.03127
G1 X51.991 Y53.161 E.03128
G1 X51.501 Y53.904 E.03134
G1 X51.052 Y54.693 E.03193
G1 X50.672 Y55.473 E.03056
G1 X50.335 Y56.297 E.03134
G1 X50.047 Y57.158 E.03193
G1 X49.825 Y57.997 E.03056
G1 X49.653 Y58.869 E.03128
G1 X49.538 Y59.751 E.03128
G1 X49.481 Y60.638 E.03128
G1 X49.481 Y61.526 E.03127
G1 X49.538 Y62.413 E.03128
G1 X49.653 Y63.294 E.03128
G1 X49.825 Y64.168 E.03134
G1 X50.059 Y65.045 E.03193
G1 X50.335 Y65.868 E.03056
G1 X50.672 Y66.69 E.03128
G1 X51.061 Y67.489 E.03128
G1 X51.502 Y68.261 E.03128
G1 X51.991 Y69.003 E.03128
G1 X52.527 Y69.712 E.03128
G1 X53.108 Y70.384 E.03128
G1 X53.731 Y71.018 E.03128
G1 X54.394 Y71.61 E.03128
G1 X55.094 Y72.157 E.03128
G1 X55.828 Y72.659 E.03128
G1 X56.593 Y73.111 E.03128
G1 X57.386 Y73.513 E.03128
G1 X58.202 Y73.863 E.03128
G1 X59.04 Y74.16 E.03128
G1 X59.895 Y74.401 E.03128
G1 X60.764 Y74.587 E.03128
G1 X61.644 Y74.716 E.03128
G1 X62.53 Y74.788 E.03127
G1 X63.418 Y74.802 E.03128
G1 X64.306 Y74.759 E.03128
G1 X65.189 Y74.659 E.03127
G1 X66.064 Y74.501 E.03128
G1 X66.926 Y74.288 E.03128
G1 X67.773 Y74.018 E.03128
G1 X68.601 Y73.695 E.03128
G1 X69.406 Y73.319 E.03128
G1 X70.185 Y72.891 E.03128
G1 X70.935 Y72.414 E.03128
G1 X71.652 Y71.889 E.03128
G1 X72.334 Y71.319 E.03128
G1 X72.977 Y70.706 E.03128
G1 X73.58 Y70.053 E.03128
G1 X74.139 Y69.362 E.03128
G1 X74.652 Y68.636 E.03128
G1 X75.117 Y67.879 E.03128
G1 X75.532 Y67.093 E.03128
G1 X75.895 Y66.282 E.03128
G1 X76.205 Y65.449 E.03128
G1 X76.46 Y64.598 E.03128
G1 X76.66 Y63.732 E.03128
G1 X76.803 Y62.855 E.03127
G1 X76.89 Y61.97 E.03128
G1 X76.918 Y61.082 E.03128
G1 X76.901 Y60.558 E.01845
G1 X82.523 Y61.804 E.20263
G1 X85.632 Y58.411 E.16198
G1 X85.868 Y58.68 E.0126
G1 X100.386 Y73.198 E.7226
G1 X100.741 Y73.509 E.01662
G1 X101.196 Y73.812 E.01921
G1 X101.681 Y74.048 E.01899
G1 X102.18 Y74.218 E.01855
G1 X102.728 Y74.324 E.01964
G1 X103.175 Y74.353 E.01576
G1 X106.312 Y74.356 E.11043
G1 X108.482 Y76.529 E.10807
G1 X108.482 Y83.935 E.26067
G1 X105.31 Y87.109 E.15793
G1 X50.689 Y87.109 E1.92232
G1 X31.52 Y67.942 E.95403
G1 X31.517 Y46.111 E.76832
G1 X11.519 Y46.109 E.70381
G1 X11.518 Y35.825 E.36193
G1 X13.989 Y33.355 E.12298
G1 X26.901 Y33.354 E.45442
G1 X29.404 Y35.853 E.12448
G1 X78.765 Y35.853 E1.7372
G1 E-.5
G1 Z.4 F21000
G1 X20.789 Y39.955 Z.4
G1 Z.2
G1 E.5 F1800
;TYPE:Outer wall
G1 F3000
G1 X20.786 Y39.969 E.00051
G1 X20.649 Y40.317 E.01316
G1 X20.462 Y40.641 E.01316
