; HEADER_BLOCK_START
; generated by OrcaSlicer 1.7.0-beta on 2023-09-18 at 09:30:17
; total layer number: 253
; HEADER_BLOCK_END

; THUMBNAIL_BLOCK_START
; THUMBNAIL_BLOCK_END

; external perimeters extrusion width = 0.40mm
; perimeters extrusion width = 0.46mm
; infill extrusion width = 0.64mm
; solid infill extrusion width = 0.56mm
; top infill extrusion width = 0.40mm
; support material extrusion width = 0.46mm
; first layer extrusion width = 0.50mm

; external perimeters extrusion width = 0.40mm
; perimeters extrusion width = 0.46mm
; infill extrusion width = 0.64mm
; solid infill extrusion width = 0.56mm
; top infill extrusion width = 0.40mm
; support material extrusion width = 0.46mm
; first layer extrusion width = 0.50mm

; EXECUTABLE_BLOCK_START
EXCLUDE_OBJECT_DEFINE NAME=QD_ARM_1_.stl_id_0_copy_0 CENTER=85.7096,57.5208 POLYGON=[[65.7096,28.0507],[65.7097,28.05],[65.7103,28.0442],[65.7277,27.8666],[65.7304,27.8488],[65.7437,27.7919],[65.7817,27.68],[65.791,27.6574],[65.8436,27.5507],[65.8753,27.4996],[65.8876,27.4836],[66.0025,27.3436],[66.1454,27.2263],[66.1571,27.2173],[66.2096,27.1846],[66.3218,27.1293],[66.3322,27.125],[66.4508,27.0847],[66.5126,27.0704],[66.6128,27.0554],[66.7096,27.0507],[104.71,27.0507],[104.806,27.0554],[104.907,27.0704],[104.968,27.0847],[105.087,27.125],[105.097,27.1293],[105.21,27.1846],[105.262,27.2173],[105.274,27.2263],[105.417,27.3436],[105.532,27.4836],[105.544,27.4996],[105.576,27.5507],[105.628,27.6574],[105.638,27.68],[105.676,27.7919],[105.689,27.8488],[105.691,27.8666],[105.699,27.947],[105.709,28.048],[105.71,28.0507],[105.71,53.1147],[105.696,53.3761],[105.655,53.6345],[105.587,53.8873],[94.0579,83.9783],[93.8823,84.3658],[93.6818,84.7409],[93.4572,85.1021],[93.2094,85.4478],[92.9396,85.7766],[92.6488,86.0871],[92.3384,86.3778],[92.0096,86.6477],[91.6638,86.8954],[91.3026,87.1201],[90.9275,87.3206],[90.5401,87.4961],[90.142,87.6459],[89.735,87.7694],[89.3207,87.866],[88.9011,87.9353],[88.4778,87.977],[88.0526,87.9909],[85.0526,87.9909],[84.6275,87.977],[84.2042,87.9353],[83.7846,87.866],[83.3703,87.7694],[82.9633,87.6459],[82.5652,87.4961],[82.1778,87.3206],[81.8026,87.1201],[81.4414,86.8954],[81.0957,86.6477],[80.7669,86.3778],[80.4564,86.0871],[80.1657,85.7766],[79.8958,85.4478],[79.6481,85.1021],[79.4235,84.7409],[79.223,84.3658],[79.0474,83.9783],[65.9258,54.1316],[65.832,53.8873],[65.7642,53.6345],[65.7233,53.3761],[65.7096,53.1147],[65.7096,28.0507]]
EXCLUDE_OBJECT_DEFINE NAME=ServoMount.stl_id_1_copy_0 CENTER=37.8267,49.1261 POLYGON=[[16.7017,34.5511],[16.7393,34.2173],[16.784,34.0778],[16.8502,33.9002],[17.0289,33.6158],[17.1857,33.4568],[17.2664,33.3783],[17.5509,33.1996],[17.8087,33.1042],[17.8679,33.0887],[18.2017,33.0511],[57.4517,33.0511],[57.7855,33.0887],[57.8447,33.1042],[58.1025,33.1996],[58.3869,33.3783],[58.4676,33.4568],[58.6244,33.6158],[58.8031,33.9002],[58.8694,34.0778],[58.9141,34.2173],[58.9517,34.5511],[58.9517,63.7011],[58.9421,63.8706],[58.9141,64.0348],[58.9133,64.038],[58.8659,64.2011],[58.8175,64.3207],[58.8031,64.3519],[58.7583,64.4373],[58.6244,64.6363],[58.6125,64.6509],[58.444,64.8258],[58.3869,64.8738],[58.2655,64.9609],[58.1025,65.0525],[58.0699,65.0676],[57.8637,65.1433],[57.7855,65.1635],[57.6548,65.187],[57.4517,65.2011],[52.8767,65.2011],[52.6735,65.187],[17.8679,60.7635],[17.8087,60.7479],[17.5509,60.6525],[17.2664,60.4738],[17.1857,60.3953],[17.0289,60.2363],[16.8502,59.9519],[16.784,59.7743],[16.7393,59.6348],[16.7017,59.3011],[16.7017,34.5511]]
M73 P0 R41
;TYPE:Custom
START_PRINT T_BED=110 T_EXTRUDER=260
G90
G21
M83 ; use relative distances for extrusion
; Filament gcode

    PRESSURE_ADVANCE_SELECT FILAMENT=ABS
M106 S0
;LAYER_CHANGE
;Z:0.2
;HEIGHT:0.2
;BEFORE_LAYER_CHANGE
;0.2
G92 E0

;AFTER_LAYER_CHANGE
;0.2
;_SET_FAN_SPEED_CHANGING_LAYER
SET_VELOCITY_LIMIT ACCEL=1000 ACCEL_TO_DECEL=500
SET_VELOCITY_LIMIT SQUARE_CORNER_VELOCITY=9
G1 E-.5 F3000
G1 Z.2 F21000
G1 X14.815 Y34.07
G1 Z.2
G1 E.5 F1800
;TYPE:Skirt
;WIDTH:0.5
G1 F3000
G1 X14.978 Y33.375 E.02512
G1 X15.421 Y32.545 E.0331
G1 X18.966 Y27.898 E.20572
G1 X20.165 Y26.974 E.05327
G1 X21.115 Y26.756 E.03432
G1 X66.504 Y24.143 E1.60004
G1 X103.165 Y24.137 E1.29025
G1 X104.752 Y24.139 E.05587
G1 X106.214 Y24.534 E.05327
G1 X107.279 Y25.609 E.05327
G1 X107.662 Y27.054 E.0526
G1 X107.656 Y53.115 E.91721
G1 X107.587 Y53.889 E.02734
G1 X107.401 Y54.597 E.02575
G1 X96.028 Y85.317 E1.15289
G1 X95.128 Y86.8 E.06103
G1 X93.956 Y88.078 E.06103
G1 X92.558 Y89.103 E.06102
G1 X91.349 Y89.699 E.04742
G1 X89.685 Y90.184 E.06102
G1 X88.053 Y90.337 E.05769
G1 X83.993 Y90.273 E.1429
G1 X82.856 Y90.059 E.04072
G1 X81.756 Y89.699 E.04072
G1 X23.087 Y65.446 E2.23427
G1 X16.762 Y62.42 E.24675
G1 X15.796 Y61.713 E.04214
G1 X14.978 Y60.477 E.05215
G1 X14.775 Y59.301 E.04199
G1 X14.815 Y34.11 E.88656
G1 X15.266 Y34.146 F21000
G1 F3000
G1 X15.411 Y33.522 E.02252
G1 X15.784 Y32.823 E.02791
G1 X19.329 Y28.175 E.20572
G1 X20.448 Y27.354 E.04884
G1 X21.142 Y27.212 E.02491
G1 X66.53 Y24.6 E1.60004
G1 X103.164 Y24.594 E1.2893
G1 X104.752 Y24.596 E.05587
G1 X106.082 Y24.99 E.04884
G1 X106.987 Y26.042 E.04884
G1 X107.205 Y27.054 E.03643
G1 X107.199 Y53.115 E.91721
G1 X107.135 Y53.818 E.02482
G1 X106.972 Y54.439 E.0226
G1 X95.771 Y84.775 E1.13811
G1 X94.982 Y86.218 E.05787
G1 X93.927 Y87.479 E.05787
G1 X92.646 Y88.51 E.05787
G1 X91.188 Y89.271 E.05788
G1 X89.61 Y89.733 E.05787
G1 X88.053 Y89.88 E.05506
G1 X84.038 Y89.818 E.14132
G1 X82.959 Y89.614 E.03862
G1 X81.917 Y89.271 E.03862
G1 X23.261 Y65.024 E2.23376
G1 X16.959 Y62.008 E.24587
G1 X16.101 Y61.372 E.03762
G1 X15.411 Y60.33 E.04397
G1 X15.233 Y59.301 E.03674
G1 X15.266 Y34.186 E.8839
; printing object QD_ARM(1).stl id:0 copy 0
G1 E-.5
EXCLUDE_OBJECT_START NAME=QD_ARM_1_.stl_id_0_copy_0
G1 Z.4 F21000
G1 X90.61 Y45.451 Z.4
G1 Z.2
G1 E.5 F1800
;TYPE:Support
G1 F3000
G1 X80.81 Y45.451 E.3449
G1 X80.81 Y43.651 E.06335
G1 X90.61 Y43.651 E.3449
G1 X90.61 Y45.382 E.06094
G1 X81.221 Y45.039 F21000
G1 F3000
G1 X81.221 Y44.062 E.03439
G1 X90.198 Y44.062 E.31594
G1 X90.198 Y45.039 E.03439
G1 X81.221 Y45.039 E.31594
G1 E-.5
G1 Z.4 F21000
G1 X81.472 Y46.651 Z.4
G1 X86.551 Y79.317
G1 X86.738 Y80.522
G1 Z.2
G1 E.5 F1800
G1 F3000
G1 X87.12 Y80.596 E.0137
G1 X87.478 Y80.753 E.01374
G1 X87.792 Y80.984 E.01374
G1 X87.929 Y81.124 E.00688
G1 X88.151 Y81.445 E.01374
G1 X88.298 Y81.808 E.01377
G1 X88.362 Y82.192 E.0137
G1 X88.362 Y82.387 E.00688
G1 X88.341 Y82.582 E.00688
G1 X88.234 Y82.957 E.01374
G1 X88.052 Y83.294 E.01349
G1 X87.792 Y83.595 E.01399
G1 X87.478 Y83.826 E.01374
G1 X87.12 Y83.983 E.01374
G1 X86.931 Y84.031 E.00688
G1 X86.542 Y84.063 E.01374
G1 X86.155 Y84.009 E.01374
G1 X85.789 Y83.872 E.01377
G1 X85.463 Y83.659 E.0137
G1 X85.319 Y83.527 E.00688
G1 X85.079 Y83.219 E.01374
G1 X84.912 Y82.865 E.01377
G1 X84.827 Y82.485 E.0137
G1 X84.817 Y82.29 E.00688
G1 X84.827 Y82.094 E.00688
G1 X84.913 Y81.714 E.01374
G1 X85.079 Y81.361 E.01374
G1 X85.319 Y81.053 E.01374
G1 X85.62 Y80.804 E.01374
G1 X85.969 Y80.628 E.01374
G1 X86.347 Y80.532 E.01374
G1 X86.67 Y80.52 E.01136
G1 X86.547 Y80.929 F21000
G1 F3000
G1 X86.705 Y80.932 E.00557
G1 X86.997 Y80.99 E.01049
G1 X87.272 Y81.11 E.01055
G1 X87.513 Y81.287 E.01055
G1 X87.71 Y81.513 E.01055
G1 X87.85 Y81.771 E.01032
G1 X87.902 Y81.921 E.00557
G1 X87.951 Y82.215 E.01049
G1 X87.934 Y82.514 E.01055
G1 X87.853 Y82.802 E.01055
G1 X87.713 Y83.06 E.01032
G1 X87.617 Y83.185 E.00557
G1 X87.397 Y83.387 E.01049
G1 X87.138 Y83.537 E.01055
G1 X86.852 Y83.626 E.01055
G1 X86.703 Y83.647 E.00528
G1 X86.404 Y83.639 E.01055
G1 X86.119 Y83.567 E.01032
G1 X85.974 Y83.504 E.00557
G1 X85.725 Y83.341 E.01049
G1 X85.516 Y83.126 E.01055
G1 X85.362 Y82.877 E.01032
G1 X85.302 Y82.73 E.00557
G1 X85.237 Y82.439 E.01049
G1 X85.237 Y82.14 E.01055
G1 X85.302 Y81.847 E.01055
G1 X85.43 Y81.576 E.01055
G1 X85.516 Y81.453 E.00528
G1 X85.725 Y81.238 E.01055
G1 X85.976 Y81.074 E.01055
G1 X86.256 Y80.969 E.01055
G1 X86.547 Y80.929 E.01032
G1 X86.562 Y81.437 F21000
G1 F3000
G1 X86.845 Y81.475 E.01008
G1 X87.017 Y81.55 E.00661
G1 X87.169 Y81.662 E.00661
G1 X87.292 Y81.803 E.00661
G1 X87.379 Y81.963 E.00641
G1 X87.443 Y82.243 E.01008
G1 X87.432 Y82.43 E.00661
G1 X87.381 Y82.611 E.00661
G1 X87.233 Y82.852 E.00998
G1 X87.096 Y82.977 E.00652
G1 X86.934 Y83.071 E.00661
G1 X86.661 Y83.14 E.00989
G1 X86.381 Y83.117 E.00989
G1 X86.203 Y83.05 E.0067
G1 X86.048 Y82.948 E.00652
G1 X85.917 Y82.814 E.00661
G1 X85.822 Y82.659 E.00641
G1 X85.742 Y82.383 E.01008
G1 X85.742 Y82.196 E.00661
G1 X85.783 Y82.012 E.00661
G1 X85.917 Y81.765 E.00989
G1 X86.048 Y81.631 E.00661
G1 X86.205 Y81.528 E.00661
G1 X86.381 Y81.462 E.00661
G1 X86.562 Y81.437 E.00641
G1 X86.576 Y81.945 F21000
G1 F3000
G1 X86.694 Y81.96 E.00416
G1 X86.824 Y82.036 E.00531
G1 X86.894 Y82.125 E.004
G1 X86.935 Y82.271 E.00531
G1 X86.91 Y82.419 E.00531
G1 X86.848 Y82.518 E.00411
G1 X86.729 Y82.605 E.00519
G1 X86.619 Y82.633 E.004
G1 X86.474 Y82.614 E.00514
G1 X86.371 Y82.556 E.00416
G1 X86.297 Y82.47 E.00399
G1 X86.248 Y82.328 E.00531
G1 X86.265 Y82.178 E.00531
G1 X86.319 Y82.078 E.004
G1 X86.435 Y81.982 E.00531
G1 X86.576 Y81.945 E.00514
G1 E-.5
G1 Z.4 F21000
G1 X85.92 Y79.393 Z.4
G1 X79.718 Y54.302
G1 X79.468 Y54.302
G1 Z.2
G1 E.5 F1800
;TYPE:Outer wall
G1 F3000
G1 X68.086 Y54.289 E.40058
G1 X67.838 Y54.236 E.00892
G1 X67.729 Y54.194 E.00412
G1 X67.625 Y54.141 E.00412
G1 X67.42 Y53.992 E.00892
G1 X67.254 Y53.808 E.00871
G1 X67.139 Y53.611 E.00803
G1 X67.088 Y53.484 E.00483
G1 X67.034 Y53.232 E.00908
G1 X67.027 Y53.106 E.00445
G1 X67.021 Y27.402 E.90459
G1 X68.149 Y27.402 E.0397
G1 X68.267 Y27.697 E.01116
G1 X68.44 Y28.427 E.02643
G1 X68.63 Y29.699 E.04524
G1 X68.812 Y31.582 E.06661
G1 X68.979 Y34.071 E.08778
G1 X69.071 Y34.992 E.03256
G1 X69.28 Y36.444 E.05163
G1 X69.454 Y37.299 E.03071
G1 X69.642 Y38.001 E.02558
G1 X69.863 Y38.605 E.02263
G1 X70.023 Y38.915 E.0123
G1 X70.226 Y39.184 E.01186
G1 X70.408 Y39.324 E.00806
G1 X70.564 Y39.389 E.00593
G1 X100.741 Y39.401 E1.06205
G1 X100.884 Y39.38 E.0051
G1 X101.094 Y39.269 E.00836
G1 X101.198 Y39.178 E.00486
G1 X101.396 Y38.916 E.01156
G1 X101.556 Y38.605 E.01228
G1 X101.664 Y38.336 E.0102
G1 X101.777 Y38.002 E.01243
G1 X101.966 Y37.299 E.0256
G1 X102.139 Y36.444 E.03071
G1 X102.342 Y35.047 E.04967
G1 X102.441 Y34.071 E.03453
G1 X102.608 Y31.582 E.0878
G1 X102.744 Y30.094 E.05259
G1 X102.843 Y29.281 E.02881
G1 X102.979 Y28.428 E.0304
G1 X103.154 Y27.691 E.02665
G1 X103.265 Y27.41 E.01064
G1 X103.557 Y27.401 E.01029
G1 X104.398 Y27.402 E.02959
G1 X104.392 Y53.106 E.90459
G1 X104.385 Y53.232 E.00445
G1 X104.333 Y53.48 E.00892
G1 X104.229 Y53.711 E.00892
G1 X104.169 Y53.804 E.00389
G1 X103.995 Y53.997 E.00915
G1 X103.904 Y54.071 E.00412
G1 X103.806 Y54.135 E.00412
G1 X103.574 Y54.238 E.00892
G1 X103.333 Y54.289 E.00869
G1 X93.637 Y54.302 E.34124
G1 X93.635 Y81.485 E.9567
G1 X93.623 Y81.856 E.01306
G1 X93.587 Y82.219 E.01286
G1 X93.527 Y82.58 E.01286
G1 X93.338 Y83.285 E.0257
G1 X93.21 Y83.627 E.01286
G1 X92.887 Y84.282 E.0257
G1 X92.481 Y84.889 E.0257
G1 X92 Y85.438 E.0257
G1 X91.451 Y85.919 E.0257
G1 X90.844 Y86.325 E.0257
G1 X90.189 Y86.648 E.0257
G1 X89.847 Y86.777 E.01286
G1 X89.497 Y86.883 E.01285
G1 X88.781 Y87.025 E.0257
G1 X88.418 Y87.061 E.01286
G1 X88.047 Y87.073 E.01304
G1 X84.684 Y87.061 E.11837
G1 X83.964 Y86.966 E.02557
G1 X83.258 Y86.777 E.0257
G1 X82.584 Y86.497 E.0257
G1 X82.262 Y86.325 E.01286
G1 X81.654 Y85.919 E.0257
G1 X81.105 Y85.438 E.0257
G1 X80.624 Y84.889 E.0257
G1 X80.218 Y84.282 E.0257
G1 X79.895 Y83.627 E.0257
G1 X79.661 Y82.936 E.0257
G1 X79.518 Y82.219 E.0257
G1 X79.482 Y81.856 E.01286
G1 X79.47 Y81.485 E.01306
G1 X79.468 Y54.342 E.95529
G1 X79.968 Y53.802 F21000
;TYPE:Inner wall
G1 F3000
G1 X68.139 Y53.789 E.41631
G1 X67.933 Y53.737 E.0075
G1 X67.756 Y53.619 E.00748
G1 X67.66 Y53.512 E.00506
G1 X67.568 Y53.338 E.00693
G1 X67.527 Y53.092 E.00875
G1 X67.522 Y27.902 E.88654
G1 X67.802 Y27.902 E.00986
G1 X67.948 Y28.522 E.02242
G1 X68.133 Y29.76 E.04404
G1 X68.313 Y31.623 E.06589
G1 X68.48 Y34.113 E.08781
G1 X68.574 Y35.052 E.03323
G1 X68.787 Y36.529 E.05252
G1 X68.967 Y37.414 E.03175
G1 X69.163 Y38.145 E.02667
G1 X69.279 Y38.49 E.01278
G1 X69.408 Y38.812 E.01224
G1 X69.598 Y39.182 E.01464
G1 X69.868 Y39.54 E.01576
G1 X70.155 Y39.76 E.01274
G1 X70.463 Y39.889 E.01175
G1 X100.777 Y39.901 E1.06684
G1 X101.042 Y39.862 E.00942
G1 X101.38 Y39.683 E.01348
G1 X101.566 Y39.52 E.00872
G1 X101.821 Y39.183 E.01487
G1 X102.011 Y38.813 E.01461
G1 X102.133 Y38.51 E.01151
G1 X102.256 Y38.147 E.0135
G1 X102.452 Y37.414 E.02671
G1 X102.632 Y36.53 E.03174
G1 X102.839 Y35.108 E.05055
G1 X102.939 Y34.113 E.03522
G1 X103.106 Y31.622 E.08787
G1 X103.241 Y30.147 E.05211
G1 X103.338 Y29.351 E.02822
G1 X103.47 Y28.526 E.02942
G1 X103.618 Y27.901 E.02258
G1 X103.898 Y27.902 E.00984
G1 X103.892 Y53.092 E.88656
G1 X103.854 Y53.324 E.00827
G1 X103.771 Y53.499 E.00679
G1 X103.61 Y53.666 E.00818
G1 X103.419 Y53.76 E.00748
G1 X103.28 Y53.789 E.00501
G1 X93.137 Y53.802 E.35697
G1 X93.135 Y81.477 E.97398
G1 X93.091 Y82.154 E.02389
G1 X92.961 Y82.806 E.02339
G1 X92.748 Y83.436 E.02339
G1 X92.454 Y84.032 E.02339
G1 X92.084 Y84.585 E.0234
G1 X91.646 Y85.084 E.02339
G1 X91.146 Y85.523 E.0234
G1 X90.594 Y85.892 E.0234
G1 X89.997 Y86.186 E.02339
G1 X89.686 Y86.303 E.0117
G1 X89.368 Y86.4 E.0117
G1 X88.716 Y86.529 E.0234
G1 X88.04 Y86.573 E.02384
G1 X84.709 Y86.561 E.11722
G1 X84.061 Y86.475 E.02301
G1 X83.419 Y86.303 E.02339
G1 X82.805 Y86.049 E.02339
G1 X82.512 Y85.892 E.0117
G1 X81.959 Y85.523 E.02339
G1 X81.459 Y85.084 E.02339
G1 X81.021 Y84.584 E.0234
G1 X80.652 Y84.032 E.02339
G1 X80.358 Y83.436 E.02339
G1 X80.144 Y82.806 E.02339
G1 X80.014 Y82.154 E.0234
G1 X79.97 Y81.477 E.02388
G1 X79.968 Y53.842 E.97258
G1 X80.425 Y53.346 F21000
G1 F3000
G1 X68.187 Y53.332 E.4307
G1 X68.119 Y53.318 E.00245
G1 X68.031 Y53.241 E.00413
G1 X68.005 Y53.197 E.0018
G1 X67.984 Y53.08 E.00415
G1 X67.981 Y35.923 E.60384
M73 P1 R41
G1 X68.235 Y35.905 E.00899
G1 X68.336 Y36.608 E.02499
G1 X68.522 Y37.518 E.03271
G1 X68.725 Y38.278 E.02766
G1 X68.992 Y39.002 E.02719
G1 X69.21 Y39.426 E.01678
G1 X69.541 Y39.864 E.01932
G1 X69.924 Y40.159 E.01701
G1 X70.372 Y40.346 E.01707
G1 X100.809 Y40.358 E1.07122
G1 X101.185 Y40.303 E.01337
G1 X101.642 Y40.062 E.01816
G1 X101.903 Y39.832 E.01224
G1 X102.209 Y39.427 E.01789
G1 X102.427 Y39.004 E.01674
G1 X102.694 Y38.279 E.02718
G1 X102.898 Y37.518 E.02771
G1 X103.083 Y36.608 E.03269
G1 X103.184 Y35.909 E.02486
G1 X103.439 Y35.928 E.00898
G1 X103.435 Y53.08 E.60366
G1 X103.394 Y53.235 E.00561
G1 X103.34 Y53.294 E.00284
G1 X103.232 Y53.332 E.00404
G1 X92.68 Y53.346 E.37136
G1 X92.667 Y81.793 E1.00118
G1 X92.588 Y82.393 E.02129
G1 X92.432 Y82.977 E.02129
G1 X92.2 Y83.536 E.02129
G1 X91.898 Y84.06 E.02129
G1 X91.529 Y84.54 E.02129
G1 X91.102 Y84.968 E.02129
G1 X90.868 Y85.16 E.01065
G1 X90.365 Y85.496 E.02129
G1 X89.822 Y85.763 E.02129
G1 X89.25 Y85.958 E.02129
G1 X88.656 Y86.076 E.02129
G1 X88.033 Y86.116 E.02196
G1 X87.45 Y86.114 E.02052
G1 X87.421 Y85.874 E.00851
G1 X87.69 Y85.806 E.00978
G1 X88.071 Y85.663 E.01428
G1 X88.433 Y85.48 E.01429
G1 X88.773 Y85.258 E.01428
G1 X89.086 Y85 E.01429
G1 X89.37 Y84.708 E.01436
G1 X89.624 Y84.38 E.01457
G1 X89.831 Y84.043 E.01392
G1 X90.004 Y83.676 E.01429
G1 X90.136 Y83.292 E.01429
G1 X90.225 Y82.896 E.01428
G1 X90.269 Y82.493 E.01429
G1 X90.269 Y82.087 E.01428
G1 X90.225 Y81.683 E.01429
G1 X90.135 Y81.285 E.01436
G1 X90 Y80.894 E.01457
G1 X89.831 Y80.536 E.01392
G1 X89.618 Y80.19 E.01429
G1 X89.369 Y79.87 E.01428
G1 X89.086 Y79.579 E.01428
G1 X88.773 Y79.321 E.01429
G1 X88.433 Y79.099 E.01428
G1 X88.071 Y78.916 E.01429
G1 X87.69 Y78.774 E.01428
G1 X87.297 Y78.674 E.01428
G1 X86.893 Y78.618 E.01436
G1 X86.479 Y78.608 E.01457
G1 X86.085 Y78.64 E.01392
G1 X85.686 Y78.718 E.01428
G1 X85.299 Y78.839 E.01428
G1 X84.927 Y79.002 E.01429
G1 X84.576 Y79.205 E.01429
G1 X84.249 Y79.446 E.01428
G1 X83.95 Y79.721 E.01429
G1 X83.683 Y80.027 E.01428
G1 X83.452 Y80.36 E.01428
G1 X83.259 Y80.717 E.01429
G1 X83.106 Y81.093 E.01428
