; generated by SuperSlicer 2.5.59 on 2023-05-29 at 01:55:26 UTC


;
;

;
;
; 

; external perimeters extrusion width = 0.40mm
; perimeters extrusion width = 0.46mm
; infill extrusion width = 0.64mm
; solid infill extrusion width = 0.56mm
; top infill extrusion width = 0.40mm
; support material extrusion width = 0.46mm
; first layer extrusion width = 0.50mm

; object:{"name":"QD_Dualhorn Fan Duct w-brace v1","id":"QD_Dualhorn Fan Duct w-brace v1.stl id:0 copy 0","object_center":[60.000000,60.000000,0.000000],"boundingbox_center":[60.000000,60.000000,23.455107],"boundingbox_size":[57.260002,12.680016,46.910000]}
EXCLUDE_OBJECT_DEFINE NAME=QD_Dualhorn_Fan_Duct_w_brace_v1_stl_id_0_copy_0 CENTER=60.000000,60.000000 POLYGON=[[31.370000,60.755996],[31.376000,60.541996],[31.400002,60.325996],[31.439998,60.108000],[31.496002,59.889996],[31.571998,59.675996],[31.661998,59.465996],[31.768002,59.260000],[31.892002,59.063996],[32.029998,58.877996],[32.182000,58.703996],[32.344002,58.541996],[32.518002,58.395996],[32.702000,58.261996],[32.892002,58.145996],[33.082000,58.045996],[33.282002,57.959996],[33.326000,57.941992],[41.184004,54.873996],[42.460000,54.375992],[43.670004,53.903992],[44.124000,53.727992],[44.274004,53.681992],[44.292000,53.677992],[44.428000,53.659992],[75.572000,53.659992],[75.708000,53.677992],[75.726000,53.681992],[75.876000,53.727992],[76.330000,53.903992],[78.816000,54.873996],[86.674000,57.941996],[86.720000,57.959996],[86.918000,58.045996],[87.112000,58.147996],[87.300000,58.263996],[87.482000,58.395996],[87.656008,58.541996],[87.818000,58.703996],[87.970000,58.878000],[88.108000,59.064000],[88.232000,59.260000],[88.338000,59.465996],[88.430000,59.676000],[88.502000,59.890000],[88.560000,60.108000],[88.600008,60.325996],[88.624000,60.541996],[88.630008,60.755996],[88.630008,61.609996],[88.618000,61.920000],[88.612000,61.993996],[88.574008,62.263996],[88.560000,62.336000],[88.496000,62.611996],[88.402000,62.887996],[88.378008,62.955996],[88.256000,63.227996],[88.222000,63.295996],[88.070000,63.558000],[87.940000,63.747996],[87.846000,63.869996],[87.746000,63.988000],[87.692000,64.049996],[87.586000,64.161996],[87.474000,64.267996],[87.408008,64.327996],[87.292000,64.427992],[87.094000,64.577996],[86.968000,64.664000],[86.750000,64.797996],[86.618000,64.867996],[86.516000,64.920000],[86.248000,65.040000],[86.132008,65.089996],[86.002000,65.135996],[85.734000,65.224000],[85.594000,65.267996],[85.442000,65.309996],[85.310000,65.341996],[85.147992,65.379996],[84.978000,65.416000],[84.672000,65.474000],[79.762000,66.334000],[79.674000,66.340004],[69.764032,66.340012],[50.318032,66.340012],[40.326000,66.340004],[40.238000,66.334000],[35.326000,65.474000],[35.022000,65.416000],[34.852000,65.379996],[34.690000,65.341996],[34.558000,65.309996],[34.406004,65.267996],[34.266000,65.224000],[33.996004,65.135996],[33.866000,65.089996],[33.752000,65.039992],[33.484002,64.920000],[33.380002,64.867996],[33.250000,64.797996],[33.032002,64.663992],[32.906002,64.577996],[32.708000,64.427992],[32.590000,64.327996],[32.526002,64.267996],[32.414002,64.161996],[32.307998,64.049996],[32.254002,63.987996],[32.154000,63.869996],[32.060002,63.747996],[31.930000,63.557996],[31.778000,63.295996],[31.744000,63.227996],[31.622002,62.955996],[31.598000,62.887996],[31.504002,62.611996],[31.442002,62.335996],[31.425998,62.263996],[31.388000,61.993996],[31.382000,61.919996],[31.370000,61.609996],[31.370000,60.755996]]
; plater:{"center":[60.000000,60.000000,0.000000],"boundingbox_center":[60.000000,60.000000,23.455107],"boundingbox_size":[57.260002,12.680016,46.910000]}

M73 P0 R69
;TYPE:Custom
; custom gcode: start_gcode
START_PRINT T_BED=110 T_EXTRUDER=260
; custom gcode end: start_gcode
M107
G21 ; set units to millimeters
G90 ; use absolute coordinates
M82 ; use absolute distances for extrusion
G92 E0
; custom gcode: start_filament_gcode
; Filament gcode

    PRESSURE_ADVANCE_SELECT FILAMENT=ABS
; custom gcode end: start_filament_gcode
;_TOOLCHANGE 0
M104 S260 ; set temperature
M109 S260 ; set temperature and wait for it to be reached
M190 S110 ; set bed temperature and wait for it to be reached
;LAYER_CHANGE
;Z:0.2
;HEIGHT:0.2
G1 Z0.2 F12000
M73 P0 R69
G1 E-0.5 F3000
M204 S2000
G1 X36.822 Y50.887 F12000
G1 E0 F1800
;TYPE:Skirt
;WIDTH:0.52
G1 X35.84 Y51.628 E0.04517
G1 X34.706 Y52.827 E0.10578
G1 X34.054 Y53.776 E0.14809
G1 X33.69 Y55.449 E0.211
G1 X33.738 Y57.851 E0.29926
G1 X34.275 Y66.738 E0.62629
G1 X34.646 Y68.148 E0.67984
G1 X35.202 Y69.283 E0.72627
G1 X36.082 Y70.436 E0.77957
G1 X36.95 Y71.202 E0.82208
G1 X38.375 Y71.984 E0.88178
G1 X39.682 Y72.362 E0.93176
G1 X41.355 Y72.572 E0.99371
G1 X77.842 Y72.591 E2.33404
G1 X79.744 Y72.453 E2.40407
G1 X81.075 Y72.201 E2.45385
G1 X82.517 Y71.569 E2.51166
G1 X83.295 Y71.005 E2.54697
G1 X84.04 Y70.288 E2.58496
G1 X84.719 Y69.421 E2.62541
G1 X85.412 Y67.978 E2.68422
G1 X85.646 Y66.98 E2.72186
G1 X86.266 Y57.858 E3.05773
G1 X86.313 Y55.445 E3.14635
G1 X86.154 Y54.302 E3.18875
G1 X85.294 Y52.822 E3.25165
G1 X84.062 Y51.523 E3.3174
G1 X82.984 Y50.735 E3.36643
G1 X80.774 Y49.73 E3.45565
G1 X78.323 Y49.041 E3.54915
G1 X77.318 Y48.902 E3.58642
G1 X42.683 Y48.898 E4.8587
G1 X41.66 Y49.041 E4.89667
G1 X38.632 Y49.971 E5.01302
G1 X36.822 Y50.887 E5.08753
G1 X37.042 Y51.31 F12000
G1 F1800
G1 X36.187 Y51.956 E5.12691
G1 X35.053 Y53.155 E5.18752
G1 X34.532 Y53.886 E5.22048
G1 X34.167 Y55.44 E5.27915
G1 X34.214 Y57.823 E5.36668
G1 X34.751 Y66.709 E5.69371
G1 X35.075 Y67.938 E5.74038
G1 X35.63 Y69.073 E5.78682
G1 X36.397 Y70.079 E5.83327
G1 X37.265 Y70.844 E5.87578
G1 X38.507 Y71.526 E5.92782
G1 X39.814 Y71.904 E5.9778
G1 X41.393 Y72.097 E6.03623
G1 X77.828 Y72.114 E7.37462
G1 X79.696 Y71.978 E7.44341
G1 X80.981 Y71.734 E7.49146
G1 X82.237 Y71.183 E7.54185
G1 X83.015 Y70.619 E7.57716
G1 X83.664 Y69.993 E7.61027
G1 X84.344 Y69.127 E7.65072
G1 X84.947 Y67.869 E7.70197
G1 X85.181 Y66.871 E7.73962
G1 X85.789 Y57.828 E8.07255
G1 X85.836 Y55.437 E8.1604
G1 X85.727 Y54.544 E8.19344
G1 X84.947 Y53.15 E8.25211
G1 X83.716 Y51.851 E8.31786
G1 X82.777 Y51.165 E8.3606
G1 X80.645 Y50.189 E8.44672
G1 X78.194 Y49.5 E8.54023
G1 X77.318 Y49.379 E8.57271
G1 X42.683 Y49.375 E9.84499
G1 X41.791 Y49.5 E9.87808
G1 X38.843 Y50.399 E9.99129
G1 X37.042 Y51.31 E10.06543
G92 E0
G1 E-0.5 F3000
; printing object QD_Dualhorn Fan Duct w-brace v1.stl id:0 copy 0
EXCLUDE_OBJECT_START NAME=QD_Dualhorn_Fan_Duct_w_brace_v1_stl_id_0_copy_0
G1 X70.281 Y67.263 F12000
G1 E0 F1800
;TYPE:Support material
;WIDTH:0.5
G1 X70.876 Y67.068 E0.02205
G1 X71.41 Y66.767 E0.04363
G1 X71.895 Y66.342 E0.06632
G1 X72.142 Y66.031 E0.08029
G1 X72.372 Y65.643 E0.09615
G1 X72.507 Y65.331 E0.10812
G1 X72.627 Y64.965 E0.12168
G1 X72.712 Y64.353 E0.14344
G1 X72.755 Y63.651 E0.1682
G1 X74.984 Y63.651 E0.24663
G1 X75.397 Y63.633 E0.2612
G1 X75.89 Y63.566 E0.2787
G1 X76.321 Y63.465 E0.29427
G1 X76.749 Y63.325 E0.31012
G1 X77.158 Y63.146 E0.32583
G1 X77.54 Y62.938 E0.34116
G1 X77.911 Y62.692 E0.35683
G1 X78.268 Y62.407 E0.37291
G1 X78.593 Y62.093 E0.3888
G1 X78.881 Y61.758 E0.40436
G1 X79.146 Y61.393 E0.42021
G1 X79.374 Y61.005 E0.43606
G1 X79.563 Y60.604 E0.45166
G1 X79.702 Y60.232 E0.46565
G1 X79.823 Y59.802 E0.48136
G1 X79.905 Y59.36 E0.49717
G1 X79.947 Y58.917 E0.51283
G1 X79.948 Y58.469 E0.52859
G1 X79.904 Y57.976 E0.54602
G1 X79.824 Y57.551 E0.56125
G1 X79.72 Y57.167 E0.57525
G1 X79.565 Y56.745 E0.59107
G1 X79.373 Y56.34 E0.60684
G1 X79.12 Y55.916 E0.62422
G1 X78.855 Y55.552 E0.64007
G1 X78.591 Y55.252 E0.65412
G1 X78.275 Y54.945 E0.66965
G1 X77.926 Y54.663 E0.68541
G1 X77.512 Y54.389 E0.7029
G1 X77.118 Y54.18 E0.71859
G1 X76.46 Y53.912 E0.74359
G1 X77.318 Y52.618 E0.79824
G1 X79.257 Y53.253 E0.87008
G1 X79.768 Y53.307 E0.88815
G1 X80.891 Y53.908 E0.93297
G1 X81.366 Y54.08 E0.95076
G1 X82.598 Y55.378 E1.01375
G1 X82.557 Y57.627 E1.0929
G1 X82.033 Y58.142 E1.11876
G1 X82.242 Y59.974 E1.18367
G1 X82.028 Y60.006 E1.19131
G1 X82.028 Y66.131 E1.40688
G1 X81.794 Y67.129 E1.44295
G1 X81.115 Y67.996 E1.4817
G1 X80.337 Y68.56 E1.51553
G1 X79.7 Y68.67 E1.53828
G1 X79.369 Y68.756 E1.55031
G1 X78.883 Y68.775 E1.56743
G1 X78.365 Y68.858 E1.5859
G1 X78.087 Y68.818 E1.59577
G1 X77.729 Y68.877 E1.60853
G1 X77.487 Y68.84 E1.61716
G1 X77.227 Y68.881 E1.62642
G1 X76.757 Y68.812 E1.64313
G1 X76.36 Y68.871 E1.65728
G1 X76.148 Y68.837 E1.66483
G1 X75.909 Y68.873 E1.67334
G1 X75.382 Y68.809 E1.69202
G1 X74.774 Y68.818 E1.71342
G1 X74.607 Y68.801 E1.71933
G1 X74.147 Y68.871 E1.73569
G1 X73.932 Y68.836 E1.74335
G1 X73.699 Y68.871 E1.75164
G1 X73.334 Y68.813 E1.76465
G1 X73.048 Y68.82 E1.77472
G1 X72.674 Y68.798 E1.78789
G1 X72.381 Y68.723 E1.79854
G1 X71.627 Y68.607 E1.82542
G1 X70.346 Y67.556 E1.88372
G1 X70.281 Y67.263 E1.89427
G1 X81.838 Y66.441 F12000
G1 F1800
G1 X81.838 Y55.029 E2.29591
G1 X81.33 Y54.494 E2.32188
G1 X81.33 Y67.217 E2.76967
G1 X80.897 Y67.77 E2.79437
G1 X80.823 Y67.824 E2.79763
G1 X80.823 Y54.214 E3.27664
G1 X80.315 Y53.949 E3.29679
G1 X80.315 Y68.192 E3.79806
G1 X80.213 Y68.266 E3.80249
G1 X79.807 Y68.336 E3.81699
G1 X79.807 Y60.82 E4.08153
G1 X79.622 Y61.2 E4.09642
G1 X79.299 Y61.715 E4.1178
G1 X79.299 Y68.448 E4.35477
G1 X78.791 Y68.475 E4.37267
G1 X78.791 Y62.336 E4.58872
G1 X78.478 Y62.637 E4.604
G1 X78.283 Y62.794 E4.61281
G1 X78.283 Y68.532 E4.81477
G1 X78.084 Y68.504 E4.82186
G1 X77.775 Y68.555 E4.83286
G1 X77.775 Y63.156 E5.02287
G1 X77.267 Y63.439 E5.04333
G1 X77.267 Y68.56 E5.22356
G1 X76.76 Y68.498 E5.24157
G1 X76.76 Y63.65 E5.41218
G1 X76.252 Y63.802 E5.43083
G1 X76.252 Y68.539 E5.59754
G1 X76.15 Y68.522 E5.60117
G1 X75.904 Y68.559 E5.60992
G1 X75.744 Y68.54 E5.6156
G1 X75.744 Y63.902 E5.77882
G1 X75.236 Y63.951 E5.79678
G1 X75.236 Y68.5 E5.95689
G1 X74.728 Y68.501 E5.97476
G1 X74.728 Y63.961 E6.13453
G1 X74.22 Y63.961 E6.15241
G1 X74.22 Y68.545 E6.31374
G1 X74.149 Y68.556 E6.31629
G1 X73.934 Y68.522 E6.32394
G1 X73.712 Y68.555 E6.33183
G1 X73.712 Y63.961 E6.49349
G1 X73.205 Y63.961 E6.51136
G1 X73.205 Y68.508 E6.67138
G1 X72.697 Y68.483 E6.68927
G1 X72.697 Y65.677 E6.78799
G1 X72.439 Y66.146 E6.80682
G1 X72.189 Y66.481 E6.82152
G1 X72.189 Y68.378 E6.88831
G1 X71.758 Y68.312 E6.90365
G1 X71.681 Y68.249 E6.90716
G1 X71.681 Y66.954 E6.95274
G1 X71.173 Y67.268 E6.97375
G1 X71.173 Y68.087 E7.00257
G92 E0
G1 E-0.5 F3000
G1 X79.807 Y57.065 F12000
G1 E0 F1800
G1 X79.807 Y53.679 E0.11915
G1 X79.676 Y53.609 E0.12438
G1 X79.299 Y53.57 E0.13771
G1 X79.299 Y55.632 E0.21029
G1 X79.093 Y55.353 E0.2225
G1 X78.791 Y55.012 E0.23853
G1 X78.791 Y53.427 E0.2943
G1 X78.283 Y53.261 E0.31311
G1 X78.283 Y54.551 E0.35851
G1 X77.775 Y54.188 E0.38048
G1 X77.775 Y53.095 E0.41897
G1 X77.446 Y52.987 E0.43116
G1 X77.267 Y53.256 E0.44255
G1 X77.267 Y54.128 E0.47322
G92 E0
G1 E-0.5 F3000
G1 X49.807 Y67.284 F12000
G1 E0 F1800
G1 X49.593 Y67.86 E0.02162
G1 X48.764 Y68.311 E0.05484
G1 X48.195 Y68.678 E0.07869
G1 X47.56 Y68.742 E0.10113
G1 X47.377 Y68.79 E0.10779
G1 X47.007 Y68.821 E0.12085
G1 X45.39 Y68.801 E0.17777
G1 X45.167 Y68.832 E0.1857
G1 X44.902 Y68.801 E0.1951
G1 X43.626 Y68.802 E0.23999
G1 X43.416 Y68.835 E0.24747
G1 X43.133 Y68.802 E0.2575
G1 X42.267 Y68.797 E0.288
G1 X41.653 Y68.869 E0.30973
G1 X41.161 Y68.784 E0.32733
G1 X40.714 Y68.793 E0.34304
G1 X40.072 Y68.583 E0.36681
G1 X39.407 Y68.415 E0.39096
G1 X38.539 Y67.649 E0.43169
G1 X37.983 Y66.514 E0.47617
G1 X37.97 Y58.141 E0.77085
G1 X37.447 Y57.627 E0.79666
G1 X37.405 Y55.38 E0.87576
G1 X38.539 Y54.182 E0.93383
G1 X40.279 Y53.302 E1.00245
G1 X40.721 Y53.255 E1.01809
G1 X42.683 Y52.613 E1.09074
G1 X43.545 Y53.91 E1.14556
G1 X42.881 Y54.18 E1.17078
G1 X42.497 Y54.384 E1.18609
G1 X42.123 Y54.628 E1.20181
G1 X41.764 Y54.912 E1.21791
G1 X41.439 Y55.219 E1.23363
G1 X41.143 Y55.555 E1.2494
G1 X40.88 Y55.916 E1.26513
G1 X40.627 Y56.34 E1.28252
G1 X40.435 Y56.745 E1.29828
G1 X40.281 Y57.162 E1.31393
G1 X40.166 Y57.584 E1.32932
G1 X40.088 Y58.025 E1.34507
G1 X40.049 Y58.484 E1.36129
G1 X40.053 Y58.915 E1.37645
G1 X40.086 Y59.31 E1.39041
G1 X40.166 Y59.757 E1.40638
G1 X40.28 Y60.184 E1.42195
G1 X40.443 Y60.618 E1.43827
M73 P0 R69
G1 X40.652 Y61.049 E1.45511
G1 X40.883 Y61.435 E1.47096
G1 X41.145 Y61.791 E1.48651
G1 X41.443 Y62.131 E1.50241
G1 X41.776 Y62.445 E1.51854
G1 X42.118 Y62.713 E1.53381
G1 X42.45 Y62.933 E1.54783
G1 X42.842 Y63.146 E1.56354
G1 X43.251 Y63.325 E1.57924
G1 X43.676 Y63.465 E1.59501
G1 X44.111 Y63.566 E1.61071
G1 X44.554 Y63.628 E1.62647
G1 X45.014 Y63.651 E1.64267
G1 X47.245 Y63.651 E1.7212
G1 X47.281 Y64.267 E1.74294
G1 X47.373 Y64.976 E1.7681
G1 X47.556 Y65.49 E1.78729
G1 X47.74 Y65.847 E1.80143
G1 X47.97 Y66.182 E1.81571
G1 X48.259 Y66.497 E1.83077
G1 X48.516 Y66.714 E1.84261
G1 X48.813 Y66.911 E1.85514
G1 X49.246 Y67.117 E1.87202
G1 X49.807 Y67.284 E1.89261
G1 X49.335 Y67.87 F12000
G1 F1800
G1 X49.335 Y67.475 E1.90653
G1 X49.062 Y67.378 E1.91672
G1 X48.827 Y67.267 E1.92587
G1 X48.827 Y67.923 E1.94897
G1 X48.319 Y68.228 E1.96983
G1 X48.319 Y66.954 E2.01468
G1 X48.051 Y66.728 E2.027
G1 X47.811 Y66.476 E2.03927
G1 X47.811 Y68.404 E2.10714
G1 X47.504 Y68.435 E2.11799
G1 X47.303 Y68.485 E2.12528
G1 X47.303 Y65.678 E2.22404
G1 X47.234 Y65.529 E2.22983
G1 X47.042 Y64.924 E2.25218
G1 X46.951 Y63.961 E2.2862
G1 X46.795 Y63.961 E2.29168
G1 X46.795 Y68.51 E2.45176
G1 X46.288 Y68.496 E2.46964
G1 X46.288 Y63.961 E2.62922
G1 X45.78 Y63.961 E2.64709
G1 X45.78 Y68.488 E2.80642
G1 X45.272 Y68.503 E2.8243
G1 X45.272 Y63.961 E2.98416
G1 X44.764 Y63.951 E3.00203
G1 X44.764 Y68.49 E3.16177
G1 X44.256 Y68.494 E3.17965
G1 X44.256 Y63.902 E3.34128
G1 X43.748 Y63.802 E3.35949
G1 X43.748 Y68.496 E3.52467
G1 X43.608 Y68.49 E3.5296
G1 X43.41 Y68.521 E3.53666
G1 X43.24 Y68.502 E3.54267
G1 X43.24 Y63.65 E3.71341
G1 X42.733 Y63.439 E3.73278
G1 X42.733 Y68.487 E3.91047
G1 X42.225 Y68.489 E3.92834
G1 X42.225 Y63.156 E4.116
G1 X41.717 Y62.795 E4.13795
G1 X41.717 Y68.548 E4.34044
G1 X41.662 Y68.555 E4.34239
G1 X41.209 Y68.476 E4.35856
G1 X41.209 Y62.336 E4.57467
G1 X40.906 Y61.99 E4.59087
G1 X40.701 Y61.713 E4.60299
G1 X40.701 Y68.462 E4.8405
G1 X40.193 Y68.295 E4.85931
G1 X40.193 Y60.82 E5.1224
G1 X40.004 Y60.339 E5.14059
G1 X39.862 Y59.82 E5.15954
G1 X39.777 Y59.343 E5.17656
G1 X39.743 Y58.934 E5.191
G1 X39.738 Y58.478 E5.20706
G1 X39.779 Y57.99 E5.2243
G1 X39.876 Y57.461 E5.24324
G1 X40.002 Y57.015 E5.25954
G1 X40.193 Y56.525 E5.27806
G1 X40.193 Y53.696 E5.37763
G1 X40.37 Y53.605 E5.38461
G1 X40.701 Y53.57 E5.39634
G1 X40.701 Y55.632 E5.46891
G1 X40.904 Y55.356 E5.48099
G1 X41.209 Y55.01 E5.49721
G1 X41.209 Y53.423 E5.55307
G1 X41.717 Y53.256 E5.57187
G1 X41.717 Y54.551 E5.61745
G1 X41.946 Y54.372 E5.62768
G1 X42.225 Y54.189 E5.63943
G1 X42.225 Y53.09 E5.6781
G1 X42.555 Y52.982 E5.69032
G1 X42.733 Y53.249 E5.70162
G1 X42.733 Y54.128 E5.73253
G92 E0
G1 E-0.5 F3000
G1 X39.685 Y68.367 F12000
G1 E0 F1800
G1 X39.685 Y53.958 E0.50712
G1 X39.413 Y54.078 E0.51758
G1 X39.177 Y54.213 E0.52716
G1 X39.177 Y67.798 E1.00525
G1 X38.791 Y67.457 E1.02338
G1 X38.67 Y67.209 E1.0331
G1 X38.67 Y54.496 E1.48051
G1 X38.162 Y55.033 E1.50651
G1 X38.162 Y66.618 E1.91424
G92 E0
G1 E-0.5 F3000
G1 X50.382 Y63.987 F12000
G1 E0 F1800
G1 X50.314 Y62.609 E0.04857
G1 X50.304 Y58.463 E0.1945
G1 X69.695 Y58.463 E0.87692
G1 X69.695 Y58.98 E0.89514
G1 X69.689 Y62.449 E1.01721
G1 X69.618 Y63.989 E1.07148
G1 X63.286 Y63.989 E1.2943
G1 X63.003 Y63.817 E1.30598
G1 X62.399 Y63.565 E1.32902
G1 X61.754 Y63.411 E1.35233
G1 X61.15 Y63.361 E1.37367
G1 X58.85 Y63.361 E1.45462
G1 X58.247 Y63.411 E1.4759
G1 X57.686 Y63.54 E1.49618
G1 X57.278 Y63.686 E1.51144
G1 X56.697 Y63.989 E1.53448
G1 X50.382 Y63.987 E1.75673
G92 E0
G1 E-0.5 F3000
G1 X69.142 Y63.875 F12000
G1 E0 F1800
G1 X69.142 Y58.773 E0.17955
G1 X68.634 Y58.773 E0.19743
G1 X68.634 Y63.679 E0.37006
G1 X68.126 Y63.679 E0.38794
G1 X68.126 Y58.773 E0.56057
G1 X67.618 Y58.773 E0.57845
G1 X67.618 Y63.679 E0.75108
G1 X67.11 Y63.679 E0.76896
G1 X67.11 Y58.773 E0.94159
G1 X66.602 Y58.773 E0.95947
G1 X66.602 Y63.679 E1.1321
G1 X66.094 Y63.679 E1.14998
G1 X66.094 Y58.773 E1.32261
G1 X65.587 Y58.773 E1.34049
