; HEADER_BLOCK_START
; generated by OrcaSlicer 1.6.3 on 2023-06-18 at 09:53:41
; total layer number: 127
; HEADER_BLOCK_END

; THUMBNAIL_BLOCK_START
; THUMBNAIL_BLOCK_END

; external perimeters extrusion width = 0.40mm
; perimeters extrusion width = 0.45mm
; infill extrusion width = 0.45mm
; solid infill extrusion width = 0.40mm
; top infill extrusion width = 0.40mm
; support material extrusion width = 0.40mm
; first layer extrusion width = 0.50mm

; EXECUTABLE_BLOCK_START
EXCLUDE_OBJECT_DEFINE NAME=Quickdraw_Mount_Printed_Printhead_Rapido_UHF.stl_id_0_copy_0 CENTER=60,60 POLYGON=[[26.8268,48.404],[26.8344,48.3172],[26.8569,48.233],[26.8937,48.154],[26.9437,48.0826],[27.0054,48.021],[27.0768,47.971],[27.1557,47.9342],[27.2399,47.9116],[27.3268,47.904],[83.9016,46.096],[92.171,46.096],[92.347,46.1112],[92.5154,46.1563],[92.6733,46.23],[92.8161,46.33],[92.9393,46.4532],[93.0393,46.596],[93.1129,46.754],[93.1581,46.9224],[93.1732,47.096],[93.1732,66.452],[93.1711,72.904],[93.1556,73.0776],[93.1105,73.246],[93.0369,73.404],[92.9369,73.5468],[92.8138,73.67],[92.6711,73.77],[92.5132,73.8437],[92.3449,73.8888],[92.1735,73.904],[83.8839,73.904],[27.3268,73.504],[27.2399,73.4964],[27.1557,73.4739],[27.0768,73.437],[27.0054,73.387],[26.9437,73.3254],[26.8937,73.254],[26.8569,73.175],[26.8344,73.0908],[26.8268,73.004],[26.8268,48.404]]
M73 P0 R26
;TYPE:Custom
START_PRINT T_BED=110 T_EXTRUDER=260
G90
G21
M83 ; use relative distances for extrusion
; Filament gcode

    PRESSURE_ADVANCE_SELECT FILAMENT=ABS
M106 S0
;LAYER_CHANGE
;Z:0.2
;HEIGHT:0.2
;BEFORE_LAYER_CHANGE
;0.2
G92 E0

;AFTER_LAYER_CHANGE
;0.2
SET_VELOCITY_LIMIT ACCEL_TO_DECEL=500
M204 S1000
G1 E-.5 F3000
G1 Z.2 F21000
G1 X21.266 Y45.181
G1 E.5 F1800
;TYPE:Skirt
;WIDTH:0.5
G1 F3000
G1 X22.339 Y44.114 E.05327
G1 X23.641 Y43.733 E.04775
G1 X80.783 Y40.876 E2.01355
G1 X93.356 Y40.872 E.44252
G1 X94.818 Y41.265 E.05327
G1 X95.885 Y42.338 E.05327
G1 X96.27 Y43.786 E.05272
G1 X96.27 Y76.214 E1.14126
G1 X95.877 Y77.676 E.05327
G1 X94.804 Y78.743 E.05327
G1 X93.356 Y79.128 E.05272
G1 X83.647 Y79.125 E.34172
G1 X23.648 Y76.268 E2.11398
G1 X22.207 Y75.805 E.05327
G1 X21.191 Y74.683 E.05327
G1 X20.872 Y73.357 E.04799
G1 X20.872 Y46.643 E.94015
G1 X21.25 Y45.239 E.05116
G1 X21.703 Y45.373 F21000
G1 F3000
G1 X21.721 Y45.312 E.00223
G1 X22.772 Y44.405 E.04884
G1 X23.664 Y44.189 E.0323
G1 X80.806 Y41.332 E2.01355
G1 X93.356 Y41.329 E.44171
G1 X94.688 Y41.721 E.04884
G1 X95.594 Y42.772 E.04884
G1 X95.813 Y43.786 E.03653
G1 X95.813 Y76.214 E1.14126
G1 X95.422 Y77.545 E.04884
G1 X94.371 Y78.452 E.04884
G1 X93.356 Y78.671 E.03653
G1 X83.668 Y78.668 E.34096
G1 X23.67 Y75.811 E2.11398
G1 X22.359 Y75.356 E.04884
G1 X21.503 Y74.264 E.04884
G1 X21.33 Y73.357 E.0325
G1 X21.33 Y46.643 E.94015
G1 X21.687 Y45.43 E.04449
; printing object Quickdraw Mount_Printed_Printhead_Rapido_UHF.stl id:0 copy 0
EXCLUDE_OBJECT_START NAME=Quickdraw_Mount_Printed_Printhead_Rapido_UHF.stl_id_0_copy_0
G1 E-.5
G1 Z.4 F21000
G1 X30.501 Y48.691
G1 Z.2
G1 E.5 F1800
;TYPE:Support
G1 F3000
G1 X27.284 Y48.691 E.11321
G1 X27.006 Y48.76 E.01006
G1 X26.889 Y48.825 E.00474
G1 X26.724 Y48.973 E.00778
G1 X26.606 Y49.138 E.00714
G1 X26.5 Y49.401 E.00999
G1 X26.454 Y49.597 E.00708
G1 X26.43 Y49.891 E.01039
G1 X26.43 Y56.214 E.22254
G1 X23.787 Y56.214 E.09302
G1 X23.787 Y46.643 E.33684
G1 X30.501 Y46.643 E.23629
G1 X30.501 Y48.622 E.06965
G1 X30.089 Y48.28 F21000
G1 F3000
G1 X27.254 Y48.28 E.09977
G1 X27.111 Y48.3 E.00509
G1 X26.846 Y48.378 E.00972
G1 X26.648 Y48.488 E.00798
G1 X26.429 Y48.686 E.01038
G1 X26.34 Y48.79 E.00481
G1 X26.203 Y49.023 E.00954
G1 X26.105 Y49.287 E.00988
G1 X26.046 Y49.544 E.00931
G1 X26.02 Y49.839 E.0104
G1 X26.018 Y55.803 E.20991
G1 X24.198 Y55.803 E.06406
G1 X24.198 Y47.055 E.30789
G1 X30.089 Y47.055 E.20733
G1 X30.089 Y48.28 E.04311
G1 X26.652 Y47.905 F21000
G1 F3000
G1 X26.351 Y48.073 E.01215
G1 X26.064 Y48.331 E.01359
G1 X25.931 Y48.487 E.00722
G1 X25.739 Y48.816 E.01341
G1 X25.617 Y49.145 E.01234
G1 X25.541 Y49.48 E.01206
G1 X25.51 Y49.871 E.01383
G1 X25.51 Y55.295 E.19089
G1 X24.706 Y55.295 E.02831
G1 X24.706 Y47.562 E.27214
G1 X26.564 Y47.562 E.06538
G1 X26.652 Y47.905 E.01244
G1 E-.5
G1 Z.4 F21000
G1 X31.32 Y49.891
G1 X43.106 Y50.913
G1 X43.665 Y51.131
G1 X43.814 Y51.73
G1 X43.827 Y52.199
G1 X43.827 Y53.604
G1 X43.663 Y54.072
G1 X43.5 Y54.382
G1 X43.402 Y54.548
G1 X43.294 Y54.698
G1 X43.171 Y54.822
G1 X43.119 Y54.871
G1 X42.627 Y54.35
G1 Z.2
G1 E.5 F1800
G1 F3000
G1 X42.586 Y54.543 E.00697
G1 X42.506 Y54.659 E.00493
G1 X40.012 Y57.381 E.12995
G1 X39.872 Y57.559 E.00797
G1 X39.744 Y57.789 E.00927
G1 X39.67 Y57.992 E.0076
G1 X39.603 Y58.346 E.01266
G1 X39.607 Y58.609 E.00927
G1 X39.655 Y58.868 E.00927
G1 X39.744 Y59.116 E.00927
G1 X39.872 Y59.346 E.00927
G1 X40.012 Y59.525 E.00797
G1 X42.506 Y62.247 E.12995
G1 X42.586 Y62.362 E.00493
G1 X42.627 Y62.556 E.00697
G1 X42.627 Y63.932 E.04844
G1 X37.606 Y58.453 E.26157
G1 X42.627 Y52.973 E.26157
G1 X42.627 Y54.281 E.04603
G1 E-.5
G1 Z.4 F21000
G1 X43.154 Y54.839
G1 X40.47 Y59.122
G1 X42.286 Y61.086
G1 X42.213 Y62.539
G1 Z.2
G1 E.5 F1800
G1 F3000
G1 X42.215 Y62.875 E.01181
G1 X38.163 Y58.453 E.21107
G1 X42.215 Y54.031 E.21107
G1 X42.215 Y54.334 E.01067
G1 X42.193 Y54.392 E.00217
G1 X39.703 Y57.109 E.12972
G1 X39.537 Y57.321 E.00946
G1 X39.374 Y57.609 E.01166
G1 X39.281 Y57.859 E.00939
G1 X39.239 Y58.001 E.0052
G1 X39.192 Y58.329 E.01166
G1 X39.199 Y58.66 E.01166
G1 X39.26 Y58.986 E.01166
G1 X39.374 Y59.297 E.01166
G1 X39.537 Y59.585 E.01166
G1 X39.703 Y59.796 E.00946
G1 X42.213 Y62.539 E.13085
G1 E-.5
G1 Z.4 F21000
G1 X42.372 Y61.167
G1 X42.195 Y59.229
G1 X42.644 Y58.818
G1 Z.2
G1 E.5 F1800
G1 F3000
G1 X42.031 Y58.149 E.03193
G1 X42.644 Y57.48 E.03193
G1 X42.644 Y58.749 E.04467
G1 E-.5
G1 Z.4 F21000
G1 X42.161 Y59.192
G1 X43.681 Y62.26
G1 X43.795 Y62.513
G1 X43.827 Y62.834
G1 X43.827 Y65.175
G1 X43.627 Y65.749
G1 X42.629 Y67.077
G1 X42.627 Y68.669
G1 Z.2
G1 E.5 F1800
G1 F3000
G1 X42.627 Y69.483 E.02865
G1 X35.062 Y61.228 E.39405
G1 X35.435 Y60.821 E.01943
G1 X42.58 Y68.618 E.3722
M73 P1 R26
G1 E-.5
G1 Z.4 F21000
G1 X40.542 Y68.984
G1 X27.63 Y71.302
G1 X26.43 Y71.517
G1 Z.2
G1 E.5 F1800
G1 F3000
G1 X26.462 Y71.86 E.01214
G1 X26.579 Y72.217 E.0132
G1 X26.672 Y72.373 E.0064
G1 X26.889 Y72.583 E.01061
G1 X27.006 Y72.648 E.00474
G1 X27.284 Y72.717 E.01006
G1 X27.987 Y72.717 E.02476
G1 X27.821 Y73.357 E.02326
G1 X23.787 Y73.357 E.14199
G1 X23.787 Y63.786 E.33684
G1 X26.43 Y63.786 E.09302
G1 X26.43 Y71.448 E.26968
G1 X26.018 Y64.197 F21000
G1 F3000
G1 X26.02 Y71.569 E.25946
G1 X26.06 Y71.947 E.01335
G1 X26.203 Y72.385 E.01622
G1 X26.34 Y72.618 E.00954
G1 X26.429 Y72.722 E.00481
G1 X26.695 Y72.945 E.01221
G1 X24.198 Y72.945 E.08786
G1 X24.198 Y64.197 E.30789
G1 X26.018 Y64.197 E.06406
G1 X25.51 Y64.705 F21000
G1 F3000
G1 X25.51 Y71.537 E.24044
G1 X25.541 Y71.928 E.01383
G1 X25.662 Y72.438 E.01841
G1 X24.706 Y72.438 E.03365
G1 X24.706 Y64.705 E.27214
G1 X25.51 Y64.705 E.02831
G1 E-.5
G1 Z.4 F21000
G1 X27.63 Y64.812
G1 X44.796 Y71.507
G1 X51.899 Y68.009
G1 X52.802 Y67.572
G1 X53.717 Y67.159
G1 X54.643 Y66.772
G1 X55.579 Y66.409
G1 X56.024 Y66.25
G1 X80.395 Y67.484
G1 Z.2
G1 E.5 F1800
;TYPE:Support interface
G1 F3000
G1 X80 Y67.391 E.01429
G1 X80 Y68.571 E.04153
G1 X80.57 Y68.571 E.02007
G1 X80.57 Y67.519 E.03704
G1 X81.427 Y67.652 E.03052
G1 X81.427 Y68.571 E.03237
G1 X82.284 Y68.571 E.03016
G1 X82.284 Y67.664 E.03194
G1 X82.693 Y67.573 E.01473
G1 X83.024 Y67.37 E.01368
G1 X82.766 Y67.026 F21000
;TYPE:Support
G1 F3000
G1 X82.546 Y67.168 E.00919
G1 X82.228 Y67.239 E.01147
G1 X81.987 Y67.252 E.0085
G1 X81.625 Y67.241 E.01276
G1 X81.249 Y67.197 E.01331
G1 X81.668 Y67.078 E.01532
G1 X81.761 Y67 E.00428
G1 X82.737 Y67 E.03434
G1 E-.5
G1 Z.4 F21000
G1 X93.356 Y76.214
G1 Z.2
G1 E.5 F1800
G1 F3000
G1 X83.785 Y76.214 E.33684
G1 X83.785 Y73.357 E.10055
G1 X80.928 Y73.357 E.10055
G1 X80.928 Y69 E.15334
G1 X86.142 Y69 E.18351
G1 X86.142 Y48.143 E.73403
G1 X80.928 Y48.143 E.18351
G1 X80.928 Y43.786 E.15334
G1 X93.356 Y43.786 E.43739
G1 X93.356 Y76.145 E1.13884
G1 X81.34 Y69.411 F21000
G1 F3000
G1 X86.554 Y69.411 E.18351
G1 X86.554 Y47.732 E.76299
G1 X81.34 Y47.732 E.18351
G1 X81.34 Y44.198 E.12438
G1 X92.945 Y44.198 E.40844
G1 X92.945 Y75.802 E1.1123
G1 X84.197 Y75.802 E.30789
G1 X84.197 Y72.945 E.10055
G1 X81.34 Y72.945 E.10055
G1 X81.34 Y69.411 E.12438
G1 X81.847 Y69.919 F21000
G1 F3000
G1 X87.062 Y69.919 E.18351
G1 X87.062 Y47.224 E.79874
M73 P1 R25
G1 X81.847 Y47.224 E.18351
G1 X81.847 Y44.705 E.08863
G1 X92.437 Y44.705 E.37269
G1 X92.437 Y75.295 E1.07655
G1 X84.705 Y75.295 E.27214
G1 X84.705 Y72.438 E.10055
G1 X81.847 Y72.438 E.10055
G1 X81.847 Y69.919 E.08863
G1 X82.355 Y70.427 F21000
G1 F3000
G1 X87.569 Y70.427 E.18351
G1 X87.569 Y46.716 E.83448
G1 X82.355 Y46.716 E.18351
G1 X82.355 Y45.213 E.05288
G1 X91.929 Y45.213 E.33694
G1 X91.929 Y74.787 E1.0408
G1 X85.212 Y74.787 E.23639
G1 X85.212 Y71.93 E.10055
G1 X82.355 Y71.93 E.10055
G1 X82.355 Y70.427 E.05289
G1 X82.863 Y70.935 F21000
G1 F3000
G1 X88.077 Y70.935 E.18351
G1 X88.077 Y46.208 E.87023
G1 X82.863 Y46.208 E.18351
G1 X82.863 Y45.721 E.01714
G1 X91.421 Y45.721 E.3012
G1 X91.421 Y74.279 E1.00506
G1 X85.72 Y74.279 E.20064
G1 X85.72 Y71.422 E.10055
G1 X82.863 Y71.422 E.10055
G1 X82.863 Y70.935 E.01714
G1 X86.228 Y71.443 F21000
G1 F3000
G1 X88.585 Y71.443 E.08295
G1 X88.585 Y46.229 E.88737
M73 P2 R25
G1 X90.913 Y46.229 E.08194
G1 X90.913 Y73.771 E.96931
G1 X86.228 Y73.771 E.1649
G1 X86.228 Y71.443 E.08194
G1 X86.736 Y71.951 F21000
G1 F3000
G1 X89.093 Y71.951 E.08295
G1 X89.093 Y46.737 E.88737
G1 X90.406 Y46.737 E.04619
G1 X90.406 Y73.263 E.93356
G1 X86.736 Y73.263 E.12915
G1 X86.736 Y71.951 E.04619
G1 E-.5
G1 Z.4 F21000
G1 X85.712 Y48.572
G1 Z.2
G1 E.5 F1800
;TYPE:Support interface
G1 F3000
G1 X85.712 Y68.571 E.70386
G1 X84.855 Y68.571 E.03016
G1 X84.855 Y48.572 E.70386
G1 X83.998 Y48.572 E.03016
G1 X83.998 Y68.571 E.70386
G1 X83.141 Y68.571 E.03016
G1 X83.141 Y67.239 E.0469
G1 X83.207 Y67.08 E.00605
G1 X83.262 Y66.872 E.00758
G1 X83.267 Y52.233 E.51518
G1 X83.177 Y51.952 E.0104
G1 X83.141 Y51.891 E.0025
G1 X83.141 Y48.572 E.11681
G1 X82.284 Y48.572 E.03016
G1 X82.284 Y51.416 E.10009
G1 X81.824 Y51.378 E.01625
G1 X81.427 Y51.382 E.01397
G1 X81.427 Y48.572 E.09889
G1 X80.57 Y48.572 E.03016
G1 X80.57 Y51.464 E.10178
G1 X80 Y51.557 E.02034
G1 X80 Y48.572 E.10507
G1 X80.391 Y48.572 E.01379
G1 E-.5
G1 Z.4 F21000
G1 X62.336 Y54.421
G1 X57.897 Y54.633
G1 X56.524 Y54.803
G1 X56.035 Y54.899
G1 X45.849 Y58.914
G1 X45.397 Y59.11
G1 X44.657 Y59.799
G1 X44.527 Y60.191
G1 Z.2
G1 E.5 F1800
;TYPE:Outer wall
G1 F3000
G1 X44.52 Y59.707 E.01703
G1 X57.377 Y54.64 E.48637
G1 X57.891 Y54.437 E.01945
G1 X72.739 Y59.286 E.5497
G1 X72.744 Y59.859 E.02017
G1 X57.91 Y65.02 E.55275
G1 X44.583 Y60.211 E.49863
G1 X44.447 Y60.192
G1 E-.5
G1 Z.4 F21000
G1 X45.44 Y69.767
G1 Z.2
G1 E.5 F1800
;TYPE:Inner wall
G1 F3000
G1 X45.453 Y67.577 E.07707
G1 X45.058 Y67.146 E.02056
G1 X45.448 Y66.995 E.01472
G1 X45.448 Y62.513 E.15774
G1 X53.596 Y65.453 E.30485
G1 X52.116 Y66.103 E.05691
G1 X51.173 Y66.56 E.03687
G1 X50.242 Y67.042 E.03687
G1 X49.326 Y67.549 E.03688
G1 X48.423 Y68.08 E.03686
G1 X47.539 Y68.634 E.03671
G1 X46.454 Y69.347 E.04569
G1 X46.073 Y69.546 E.01514
G1 X45.698 Y69.691 E.01415
G1 X45.497 Y69.75 E.00735
G1 E-.5
G1 Z.4 F21000
G1 X44.27 Y66.963
G1 Z.2
G1 E.5 F1800
G1 F3000
G1 X44.991 Y66.682 E.02723
G1 X44.991 Y62.406 E.15051
G1 X44.904 Y61.831 E.02047
G1 X54.882 Y65.431 E.3733
G1 X53.253 Y66.092 E.06187
G1 X52.309 Y66.517 E.03643
G1 X51.377 Y66.969 E.03643
G1 X50.458 Y67.445 E.03643
G1 X49.552 Y67.946 E.03644
G1 X48.66 Y68.471 E.03643
G1 X47.786 Y69.018 E.03631
G1 X46.692 Y69.738 E.04609
G1 X46.473 Y69.861 E.00883
G1 X46.255 Y69.966 E.00852
G1 X45.845 Y70.124 E.01546
G1 X45.485 Y70.23 E.01323
G1 X44.98 Y70.311 E.018
G1 X44.995 Y67.754 E.09002
G1 X44.31 Y67.007 E.03566
G1 X43.481 Y66.779 F21000
G1 F3000
G1 X44.534 Y66.369 E.03974
G1 X44.534 Y62.44 E.1383
G1 X44.452 Y61.9 E.01922
G1 X44.296 Y61.497 E.0152
G1 X44.144 Y61.271 E.0096
G1 X44.266 Y61.114 E.007
G1 X56.223 Y65.429 E.44737
G1 X55.332 Y65.746 E.03329
G1 X54.378 Y66.116 E.036
G1 X53.435 Y66.511 E.036
G1 X52.503 Y66.932 E.036
G1 X51.582 Y67.377 E.036
G1 X50.674 Y67.848 E.036
G1 X49.779 Y68.343 E.036
G1 X48.898 Y68.862 E.03599
G1 X48.033 Y69.403 E.03591
G1 X46.929 Y70.129 E.04649
G1 X46.437 Y70.386 E.01955
G1 X45.992 Y70.557 E.01677
G1 X45.597 Y70.674 E.0145
G1 X45.343 Y70.728 E.00914
G1 X44.735 Y70.801 E.02155
G1 X44.253 Y70.816 E.01699
G1 X44.524 Y70.055 E.02843
G1 X44.536 Y67.93 E.07478
G1 X43.522 Y66.823 E.05286
G1 E-.5
G1 Z.4 F21000
G1 X44.869 Y60.254
G1 X44.661 Y60.095
G1 X44.657 Y59.799
G1 X45.471 Y57.321
G1 Z.2
G1 E.5 F1800
G1 F3000
G1 X45.42 Y55.776 E.05438
G1 X45.275 Y55.383 E.01474
G1 X45.408 Y54.913 E.01722
G1 X45.445 Y54.463 E.01588
G1 X45.447 Y51.908 E.08992
G1 X45.674 Y51.956 E.00814
G1 X46.31 Y52.115 E.02307
G1 X46.939 Y52.298 E.02307
G1 X47.557 Y52.503 E.02292
G1 X49.322 Y53.172 E.06643
G1 X50.473 Y53.581 E.04299
G1 X51.646 Y53.966 E.04344
G1 X52.698 Y54.273 E.03858
G1 X52.707 Y54.469 E.0069
G1 X45.527 Y57.299 E.27162
G1 X45.008 Y57.994 F21000
G1 F3000
G1 X45.008 Y57.144 E.02995
G1 X44.965 Y55.865 E.04502
G1 X44.786 Y55.377 E.0183
G1 X44.82 Y55.312 E.00258
G1 X44.956 Y54.831 E.01761
G1 X44.988 Y54.444 E.01366
G1 X44.991 Y51.345 E.10907
G1 X45.776 Y51.51 E.02825
G1 X46.429 Y51.673 E.02368
G1 X47.075 Y51.861 E.02368
G1 X47.71 Y52.072 E.02356
G1 X49.48 Y52.743 E.06659
G1 X50.621 Y53.148 E.04263
G1 X51.781 Y53.529 E.04298
G1 X54.123 Y54.198 E.0857
G1 X54.135 Y54.397 E.00702
G1 X45.064 Y57.972 E.34315
G1 X44.551 Y58.666 F21000
G1 F3000
G1 X44.551 Y57.151 E.05331
G1 X44.511 Y55.954 E.04216
G1 X44.286 Y55.344 E.02288
G1 X44.393 Y55.141 E.00805
G1 X44.504 Y54.749 E.01434
G1 X44.531 Y54.425 E.01145
G1 X44.534 Y50.808 E.12731
G1 X45.203 Y50.923 E.0239
G1 X45.879 Y51.065 E.02428
G1 X46.548 Y51.232 E.02429
G1 X47.211 Y51.424 E.02428
G1 X47.863 Y51.641 E.0242
G1 X49.637 Y52.314 E.06676
G1 X50.769 Y52.715 E.04227
G1 X51.917 Y53.092 E.04253
G1 X53.832 Y53.652 E.07023
G1 X55.606 Y54.101 E.06439
G1 X55.621 Y54.303 E.00713
G1 X44.607 Y58.644 E.41666
G1 E-.5
G1 Z.4 F21000
G1 X43.814 Y51.73
G1 X43.665 Y51.131
G1 X43.106 Y50.913
G1 X42.613 Y51.275
G1 X35.494 Y56.581
G1 Z.2
G1 E.5 F1800
G1 F3000
G1 X32.798 Y59.523 E.14046
G1 X32.406 Y60.128 E.02537
G1 X32.207 Y60.915 E.02856
G1 X32.207 Y61.541 E.02203
G1 X32.406 Y62.328 E.02856
G1 X32.798 Y62.933 E.02537
G1 X39.178 Y69.896 E.33237
G1 X29.251 Y69.896 E.34938
G1 X29.251 Y51.513 E.64695
G1 X40.132 Y51.519 E.38297
G1 X35.535 Y56.537 E.23951
G1 X35.48 Y57.273 F21000
G1 F3000
G1 X33.161 Y59.804 E.12081
G1 X32.83 Y60.314 E.02137
G1 X32.664 Y60.972 E.0239
G1 X32.664 Y61.484 E.01803
G1 X32.83 Y62.143 E.0239
G1 X33.161 Y62.652 E.02137
G1 X40.217 Y70.353 E.36758
G1 X28.794 Y70.353 E.40203
G1 X28.794 Y51.056 E.67914
M73 P3 R25
G1 X41.171 Y51.063 E.43559
G1 X35.52 Y57.229 E.29435
G1 X35.465 Y57.965 F21000
G1 F3000
G1 X33.524 Y60.085 E.10116
G1 X33.255 Y60.499 E.01736
G1 X33.121 Y61.029 E.01924
G1 X33.121 Y61.428 E.01404
G1 X33.255 Y61.958 E.01924
G1 X33.524 Y62.372 E.01736
G1 X41.256 Y70.81 E.4028
G1 X28.337 Y70.81 E.45467
G1 X28.337 Y50.599 E.71132
G1 X42.209 Y50.606 E.48822
G1 X35.506 Y57.921 E.34918
G1 E-.5
G1 Z.4 F21000
G1 X27.88 Y71.267
G1 Z.2
G1 E.5 F1800
G1 F3000
G1 X27.88 Y50.141 E.7435
G1 X42.187 Y50.149 E.50354
G1 X43.205 Y50.195 E.03587
G1 X43.891 Y50.261 E.02424
G1 X44.592 Y50.354 E.02489
G1 X45.289 Y50.473 E.02489
G1 X45.981 Y50.619 E.02489
G1 X46.667 Y50.791 E.0249
G1 X47.347 Y50.988 E.02489
G1 X48.016 Y51.21 E.02484
G1 X49.795 Y51.884 E.06692
G1 X50.917 Y52.283 E.0419
G1 X52.052 Y52.656 E.04207
G1 X53.953 Y53.211 E.0697
G1 X55.492 Y53.607 E.05591
G1 X57.17 Y53.972 E.06044
G1 X57.188 Y54.177 E.00722
G1 X44.094 Y59.337 E.49532
G1 X44.094 Y57.159 E.07667
G1 X44.057 Y56.043 E.0393
G1 X43.787 Y55.31 E.02746
G1 X43.967 Y54.97 E.01353
G1 X44.052 Y54.668 E.01107
G1 X44.074 Y54.406 E.00923
G1 X44.077 Y50.849 E.12519
