; HEADER_BLOCK_START
; generated by OrcaSlicer 1.6.3 on 2023-07-15 at 10:41:30
; total layer number: 102
; HEADER_BLOCK_END

; THUMBNAIL_BLOCK_START
; THUMBNAIL_BLOCK_END

; external perimeters extrusion width = 0.40mm
; perimeters extrusion width = 0.45mm
; infill extrusion width = 0.45mm
; solid infill extrusion width = 0.40mm
; top infill extrusion width = 0.40mm
; first layer extrusion width = 0.50mm

; EXECUTABLE_BLOCK_START
EXCLUDE_OBJECT_DEFINE NAME=Quickdraw_Mount_Printed_Printhead.stl_id_0_copy_0 CENTER=60,60 POLYGON=[[28.2192,53.8282],[28.2268,53.7414],[29.4402,48.2345],[29.4583,48.1672],[29.4877,48.104],[29.5277,48.0469],[29.577,47.9976],[29.6341,47.9576],[29.6973,47.9281],[29.7647,47.9101],[29.8341,47.904],[82.509,46.096],[90.7784,46.096],[90.9372,46.1083],[91.0898,46.1449],[91.2347,46.205],[91.3685,46.287],[91.4878,46.3889],[91.5897,46.5082],[91.6717,46.642],[91.7317,46.787],[91.7683,46.9396],[91.7806,47.096],[91.7808,72.904],[91.7658,73.0604],[91.7292,73.213],[91.6692,73.358],[91.5873,73.4918],[91.4854,73.6111],[91.3662,73.713],[91.2325,73.795],[91.0876,73.8551],[90.9351,73.8917],[90.7809,73.904],[82.4907,73.904],[29.8341,73.504],[29.7647,73.4979],[29.6973,73.4799],[29.6341,73.4504],[29.577,73.4104],[29.5277,73.3611],[29.4877,73.304],[29.4583,73.2408],[29.4402,73.1735],[29.4341,73.104],[28.2192,55.8282],[28.2192,53.8282]]
M73 P0 R21
;TYPE:Custom
START_PRINT T_BED=110 T_EXTRUDER=260
G90
G21
M83 ; use relative distances for extrusion
; Filament gcode

    PRESSURE_ADVANCE_SELECT FILAMENT=ABS
M106 S0
;LAYER_CHANGE
;Z:0.2
;HEIGHT:0.2
;BEFORE_LAYER_CHANGE
;0.2
G92 E0

;AFTER_LAYER_CHANGE
;0.2
SET_VELOCITY_LIMIT ACCEL_TO_DECEL=500
M204 S1000
G1 E-.5 F3000
G1 Z.2 F21000
G1 X28.222 Y46.9
G1 E.5 F1800
;TYPE:Skirt
;WIDTH:0.5
G1 F3000
G1 X28.762 Y46.575 E.0222
G1 X29.834 Y46.372 E.03839
G1 X40.453 Y46.373 E.37371
G1 X41.954 Y46.432 E.05289
G1 X79.734 Y49.425 E1.33379
G1 X80.495 Y49.57 E.02726
G1 X81.29 Y49.888 E.03011
G1 X81.618 Y50.091 E.01359
G1 X82.513 Y51.026 E.04557
G1 X82.87 Y51.804 E.03011
G1 X83.001 Y52.665 E.03065
G1 X83 Y66.348 E.48156
G1 X82.623 Y67.783 E.0522
G1 X82.51 Y67.983 E.00809
G1 X80.942 Y69.297 E.07201
G1 X79.999 Y69.529 E.03416
G1 X44.24 Y74.955 E1.27291
G1 X43.072 Y75.036 E.04118
G1 X29.834 Y75.036 E.46591
G1 X28.762 Y74.833 E.03839
G1 X27.816 Y74.264 E.03885
G1 X27.242 Y73.606 E.03075
G1 X26.812 Y72.642 E.03712
G1 X26.665 Y71.72 E.03285
G1 X26.656 Y49.904 E.7678
G1 X26.766 Y48.946 E.03395
G1 X26.939 Y48.383 E.0207
G1 X27.242 Y47.802 E.02305
G1 X27.816 Y47.144 E.03075
G1 X28.171 Y46.931 E.01455
G1 X28.402 Y47.316 F21000
G1 F3000
G1 X28.92 Y47.004 E.02126
G1 X29.834 Y46.829 E.03277
G1 X40.441 Y46.83 E.37331
G1 X41.918 Y46.888 E.05201
G1 X79.698 Y49.881 E1.33379
G1 X80.39 Y50.015 E.02479
G1 X81.06 Y50.283 E.02539
G1 X81.365 Y50.472 E.01266
G1 X82.13 Y51.276 E.03905
G1 X82.434 Y51.939 E.02566
G1 X82.543 Y52.665 E.02585
G1 X82.543 Y66.348 E.48156
G1 X82.225 Y67.558 E.04401
G1 X82.112 Y67.758 E.00809
G1 X80.79 Y68.866 E.06072
G1 X79.93 Y69.077 E.03114
G1 X44.171 Y74.503 E1.2729
G1 X43.072 Y74.579 E.03877
G1 X29.834 Y74.579 E.46591
G1 X28.92 Y74.404 E.03278
G1 X28.122 Y73.924 E.03276
G1 X27.627 Y73.359 E.02642
G1 X27.255 Y72.528 E.03206
G1 X27.12 Y71.687 E.02999
G1 X27.114 Y49.904 E.76661
G1 X27.209 Y49.06 E.0299
G1 X27.365 Y48.548 E.01882
G1 X27.627 Y48.049 E.01985
G1 X28.122 Y47.484 E.02642
G1 X28.351 Y47.347 E.00939
; printing object Quickdraw Mount_Printed_Printhead.stl id:0 copy 0
EXCLUDE_OBJECT_START NAME=Quickdraw_Mount_Printed_Printhead.stl_id_0_copy_0
G1 E-.5
G1 Z.4 F21000
G1 X43.134 Y60.191
G1 Z.2
G1 E.5 F1800
;TYPE:Outer wall
G1 F3000
G1 X43.127 Y59.707 E.01703
G1 X55.984 Y54.64 E.48637
G1 X56.499 Y54.437 E.01945
G1 X71.346 Y59.286 E.5497
G1 X71.352 Y59.859 E.02017
G1 X56.518 Y65.02 E.55275
G1 X43.191 Y60.211 E.49863
G1 X43.054 Y60.192
G1 E-.5
G1 Z.4 F21000
G1 X44.055 Y62.513
G1 Z.2
G1 E.5 F1800
;TYPE:Inner wall
G1 F3000
G1 X52.203 Y65.453 E.30485
G1 X50.723 Y66.103 E.05691
G1 X49.78 Y66.56 E.03687
G1 X48.85 Y67.042 E.03687
G1 X47.933 Y67.549 E.03687
G1 X47.03 Y68.08 E.03687
G1 X46.138 Y68.639 E.03706
G1 X45.281 Y69.214 E.03633
G1 X44.881 Y69.447 E.01627
G1 X44.442 Y69.643 E.01691
G1 X44.047 Y69.765 E.01454
G1 X44.06 Y67.577 E.077
G1 X43.665 Y67.146 E.02056
G1 X44.055 Y66.995 E.01472
G1 X44.055 Y62.573 E.15563
G1 X43.512 Y61.831 F21000
G1 F3000
G1 X53.489 Y65.431 E.3733
G1 X51.86 Y66.092 E.06187
G1 X50.916 Y66.517 E.03643
G1 X49.985 Y66.969 E.03643
G1 X49.065 Y67.445 E.03644
G1 X48.16 Y67.946 E.03643
G1 X47.268 Y68.471 E.03643
G1 X46.386 Y69.023 E.03659
G1 X45.523 Y69.602 E.0366
G1 X45.09 Y69.854 E.01765
G1 X44.603 Y70.071 E.01874
G1 X44.105 Y70.225 E.01834
G1 X43.587 Y70.32 E.01855
G1 X43.602 Y67.754 E.0903
G1 X42.877 Y66.963 E.03777
G1 X43.598 Y66.682 E.02723
G1 X43.598 Y62.406 E.15051
G1 X43.521 Y61.89 E.01835
G1 E-.5
G1 Z.4 F21000
G1 X42.873 Y61.114
G1 Z.2
G1 E.5 F1800
G1 F3000
G1 X54.83 Y65.429 E.44737
G1 X53.94 Y65.746 E.03329
G1 X52.986 Y66.116 E.036
G1 X52.042 Y66.511 E.036
G1 X51.11 Y66.932 E.036
G1 X50.189 Y67.377 E.036
G1 X49.281 Y67.848 E.036
G1 X48.386 Y68.343 E.036
G1 X47.505 Y68.862 E.036
G1 X46.635 Y69.406 E.03611
G1 X45.766 Y69.99 E.03686
G1 X45.298 Y70.262 E.01903
G1 X44.765 Y70.5 E.02056
G1 X44.214 Y70.67 E.02028
G1 X43.643 Y70.774 E.02042
G1 X42.856 Y70.827 E.02778
G1 X43.131 Y70.055 E.02883
G1 X43.144 Y67.93 E.07478
G1 X42.089 Y66.779 E.05497
G1 X43.141 Y66.369 E.03974
G1 X43.141 Y62.44 E.1383
G1 X43.06 Y61.9 E.01922
G1 X42.903 Y61.497 E.01519
G1 X42.751 Y61.271 E.0096
G1 X42.837 Y61.162 E.00489
G1 E-.5
G1 Z.4 F21000
G1 X44.055 Y51.907
G1 Z.2
G1 E.5 F1800
G1 F3000
G1 X44.495 Y52.007 E.0159
G1 X45.678 Y52.339 E.04323
G1 X46.222 Y52.523 E.02022
G1 X47.887 Y53.156 E.06271
G1 X48.998 Y53.552 E.04148
G1 X50.119 Y53.923 E.04156
G1 X51.29 Y54.281 E.0431
G1 X51.298 Y54.475 E.00685
G1 X44.079 Y57.321 E.27309
G1 X44.026 Y55.746 E.05544
G1 X43.882 Y55.385 E.01368
G1 X44.016 Y54.913 E.01729
G1 X44.052 Y54.463 E.01588
G1 X44.055 Y51.967 E.08785
G1 X43.598 Y51.358 F21000
G1 F3000
G1 X44.039 Y51.435 E.01575
G1 X44.608 Y51.563 E.02052
G1 X45.813 Y51.902 E.04405
G1 X46.376 Y52.093 E.02094
G1 X48.045 Y52.727 E.06284
G1 X49.146 Y53.12 E.04113
G1 X50.257 Y53.487 E.04118
G1 X51.376 Y53.829 E.04119
G1 X52.722 Y54.201 E.04913
G1 X52.734 Y54.4 E.00702
G1 X43.615 Y57.994 E.34495
G1 X43.615 Y57.144 E.02995
G1 X43.572 Y55.842 E.04585
G1 X43.389 Y55.385 E.01732
G1 X43.427 Y55.312 E.00287
G1 X43.564 Y54.831 E.01761
M73 P1 R21
G1 X43.595 Y54.444 E.01366
G1 X43.598 Y51.418 E.10649
G1 X43.142 Y50.815 F21000
G1 F3000
G1 X44.129 Y50.986 E.03525
G1 X44.72 Y51.12 E.02135
G1 X45.948 Y51.465 E.04488
G1 X46.531 Y51.662 E.02166
G1 X48.203 Y52.298 E.06298
G1 X49.295 Y52.688 E.04078
G1 X50.396 Y53.052 E.04081
G1 X51.505 Y53.391 E.04081
G1 X52.621 Y53.704 E.04081
G1 X54.216 Y54.1 E.05784
G1 X54.231 Y54.302 E.00711
G1 X43.158 Y58.666 E.41886
G1 X43.158 Y57.151 E.05331
G1 X43.118 Y55.937 E.04276
G1 X42.886 Y55.358 E.02194
G1 X43.001 Y55.141 E.00861
G1 X43.112 Y54.749 E.01434
G1 X43.138 Y54.425 E.01145
G1 X43.142 Y50.875 E.12493
G1 E-.5
G1 Z.4 F21000
G1 X41.737 Y51.014
G1 X40.791 Y51.577
G1 X31.792 Y59.102
G1 Z.2
G1 E.5 F1800
G1 F3000
G1 X31.792 Y51.509 E.26723
G1 X38.745 Y51.514 E.2447
G1 X31.832 Y59.057 E.36009
G1 E-.5
G1 Z.4 F21000
G1 X34.087 Y57.273
G1 Z.2
G1 E.5 F1800
G1 F3000
G1 X31.768 Y59.804 E.12081
G1 X31.531 Y60.17 E.01533
G1 X31.335 Y60.111 E.00721
G1 X31.335 Y51.051 E.31886
G1 X39.783 Y51.058 E.29732
G1 X34.128 Y57.229 E.29459
G1 E-.5
G1 Z.4 F21000
G1 X31.792 Y63.355
G1 Z.2
G1 E.5 F1800
G1 F3000
G1 X37.79 Y69.901 E.31248
G1 X31.792 Y69.901 E.21111
G1 X31.792 Y63.415 E.22827
G1 E-.5
G1 Z.4 F21000
G1 X31.531 Y62.287
G1 Z.2
G1 E.5 F1800
G1 F3000
G1 X31.768 Y62.652 E.01533
G1 X38.829 Y70.358 E.36783
G1 X31.335 Y70.358 E.26375
G1 X31.335 Y62.345 E.28201
G1 X31.474 Y62.304 E.0051
G1 E-.5
G1 Z.4 F21000
G1 X34.073 Y57.965
G1 Z.2
G1 E.5 F1800
G1 F3000
G1 X32.131 Y60.085 E.10116
G1 X31.863 Y60.499 E.01736
G1 X31.729 Y61.029 E.01924
G1 X31.729 Y61.429 E.0141
G1 X31.863 Y61.958 E.01921
G1 X32.131 Y62.372 E.01734
G1 X39.868 Y70.815 E.40304
G1 X30.878 Y70.815 E.3164
G1 X30.878 Y50.594 E.71166
G1 X40.821 Y50.601 E.34994
G1 X34.113 Y57.921 E.34942
G1 E-.5
G1 Z.4 F21000
G1 X30.421 Y50.136
G1 Z.2
G1 E.5 F1800
G1 F3000
G1 X40.698 Y50.144 E.3617
G1 X41.816 Y50.192 E.03939
G1 X42.945 Y50.317 E.03997
G1 X44.218 Y50.538 E.04548
G1 X44.833 Y50.677 E.02218
G1 X46.083 Y51.029 E.04571
G1 X46.685 Y51.232 E.02238
G1 X48.361 Y51.869 E.06311
G1 X49.443 Y52.255 E.04043
G1 X50.534 Y52.616 E.04044
G1 X51.633 Y52.952 E.04044
G1 X52.74 Y53.262 E.04044
G1 X53.853 Y53.547 E.04044
G1 X54.975 Y53.807 E.04052
G1 X55.784 Y53.97 E.02905
G1 X55.802 Y54.174 E.00721
G1 X42.701 Y59.337 E.49557
G1 X42.701 Y57.159 E.07667
G1 X42.664 Y56.032 E.03968
G1 X42.384 Y55.331 E.02657
G1 X42.574 Y54.97 E.01435
G1 X42.66 Y54.668 E.01107
G1 X42.681 Y54.406 E.00923
G1 X42.684 Y50.849 E.12519
G1 X41.6 Y50.427 E.04095
G1 X34.246 Y58.453 E.38309
G1 X41.6 Y66.478 E.38309
G1 X42.684 Y66.057 E.04093
G1 X42.684 Y62.474 E.12609
G1 X42.615 Y62.018 E.01623
G1 X42.496 Y61.71 E.01161
G1 X42.238 Y61.328 E.01623
G1 X41.964 Y61.029 E.01428
G1 X42.36 Y60.877 E.01492
G1 X42.605 Y60.532 E.01492
G1 X55.951 Y65.347 E.49932
G1 X55.948 Y65.543 E.00689
G1 X55.051 Y65.835 E.03321
G1 X54.099 Y66.175 E.03556
G1 X53.157 Y66.54 E.03556
G1 X52.225 Y66.93 E.03556
G1 X51.304 Y67.346 E.03556
G1 X50.394 Y67.786 E.03556
G1 X49.497 Y68.251 E.03556
G1 X48.613 Y68.74 E.03556
G1 X47.742 Y69.252 E.03556
G1 X46.884 Y69.79 E.03564
G1 X46.008 Y70.378 E.03712
G1 X45.507 Y70.669 E.02041
G1 X44.926 Y70.928 E.02239
G1 X44.323 Y71.115 E.02221
G1 X43.7 Y71.228 E.0223
G1 X43.045 Y71.272 E.02309
G1 X41.78 Y71.272 E.04452
G1 X41.724 Y71.071 E.00733
G1 X42.225 Y70.769 E.02058
G1 X42.519 Y70.41 E.01635
G1 X42.675 Y69.975 E.01627
G1 X42.686 Y68.107 E.06573
G1 X34.043 Y58.675 E.45024
G1 X32.494 Y60.365 E.0807
G1 X32.287 Y60.684 E.01336
G1 X32.186 Y61.086 E.01458
G1 X32.186 Y61.372 E.01009
G1 X32.288 Y61.773 E.01455
G1 X32.494 Y62.091 E.01334
G1 X40.386 Y70.703 E.41111
G1 X40.672 Y70.924 E.01274
G1 X40.975 Y71.052 E.01158
G1 X40.931 Y71.272 E.00789
G1 X30.421 Y71.272 E.36989
G1 X30.421 Y50.196 E.74174
G1 E-.5
G1 Z.4 F21000
G1 X34.967 Y58.453
G1 X41.738 Y65.888
G1 Z.2
G1 E.5 F1800
;TYPE:Outer wall
G1 F3000
G1 X34.924 Y58.453 E.35493
G1 X41.25 Y51.55 E.32953
G1 X41.738 Y51.017 E.0254
G1 X42.184 Y51.191 E.01686
G1 X42.181 Y54.386 E.11244
G1 X42.165 Y54.579 E.00681
G1 X42.107 Y54.783 E.00749
G1 X41.925 Y55.129 E.01377
G1 X41.434 Y55.567 E.02313
G1 X39.261 Y57.939 E.11321
G1 X39.191 Y58.029 E.00401
G1 X39.159 Y58.12 E.00341
G1 X39.125 Y58.368 E.00881
G1 X39.163 Y58.606 E.00851
G1 X39.198 Y58.697 E.00341
G1 X39.342 Y58.909 E.009
G1 X41.844 Y61.638 E.13033
G1 X42.05 Y61.944 E.01296
G1 X42.129 Y62.147 E.0077
G1 X42.184 Y62.511 E.01295
G1 X42.184 Y65.715 E.11274
G1 X41.794 Y65.867 E.01474
G1 X41.693 Y65.954
G1 E-.5
G1 Z.4 F21000
G1 X42.148 Y65.69
G1 X42.52 Y65.133
G1 X42.52 Y63.328
G1 X42.518 Y62.877
G1 X41.786 Y60.562
G1 Z.2
G1 E.5 F1800
G1 F3000
G1 X41.601 Y60.535 E.00658
G1 X41.446 Y60.436 E.00647
G1 X40.265 Y59.141 E.06167
G1 X39.984 Y58.799 E.0156
G1 X39.708 Y58.405 E.0169
G1 X39.641 Y58.182 E.00822
G1 X39.675 Y57.976 E.00734
G1 X39.75 Y57.86 E.00488
G1 X41.515 Y55.934 E.09195
G1 X41.671 Y55.834 E.0065
G1 X41.823 Y55.865 E.00547
G1 X42.045 Y55.83 E.0079
G1 X42.167 Y56.136 E.01159
G1 X42.201 Y57.167 E.0363
G1 X42.202 Y60.134 E.1044
G1 X42.178 Y60.27 E.00486
G1 X42.04 Y60.464 E.00841
G1 X41.842 Y60.54 E.00746
G1 X41.771 Y60.596
G1 E-.5
G1 Z.4 F21000
G1 X42.518 Y62.877
G1 X42.52 Y63.328
G1 X42.52 Y65.133
G1 X42.148 Y65.69
M73 P2 R21
G1 X41.747 Y65.846
G1 X34.043 Y59.415
G1 Z.2
G1 E.5 F1800
G1 F3000
G1 X42.185 Y68.3 E.42413
G1 X42.175 Y69.887 E.05583
G1 X42.078 Y70.16 E.01023
G1 X41.893 Y70.386 E.01025
G1 X41.644 Y70.536 E.01025
G1 X41.358 Y70.594 E.01025
G1 X41.08 Y70.554 E.00987
G1 X40.926 Y70.489 E.00588
G1 X40.725 Y70.334 E.00895
G1 X32.891 Y61.784 E.40812
G1 X32.752 Y61.57 E.00897
G1 X32.686 Y61.31 E.00945
G1 X32.686 Y61.148 E.00571
G1 X32.752 Y60.886 E.00948
G1 X32.891 Y60.672 E.00898
G1 X33.533 Y59.971 E.03346
G1 X34.002 Y59.459 E.02445
G1 X34.1 Y59.359
G1 E-.5
G1 Z.4 F21000
G1 X36.062 Y59.642
G1 X41.747 Y65.846
G1 X42.148 Y65.69
G1 X42.52 Y65.133
G1 X42.52 Y63.328
G1 X42.518 Y62.877
G1 X42.193 Y58.702
G1 X54.196 Y54.986
G1 X56.507 Y54.723
G1 X68.779 Y56.246
G1 Z.2
G1 E.5 F1800
;TYPE:Inner wall
G1 F3000
G1 X69.937 Y56.163 E.04087
G1 X71.112 Y56.052 E.04155
G1 X72.285 Y55.914 E.04155
G1 X73.454 Y55.748 E.04155
G1 X74.619 Y55.556 E.04156
G1 X75.779 Y55.338 E.04155
G1 X76.934 Y55.092 E.04155
G1 X77.865 Y54.872 E.03368
G1 X77.865 Y64.001 E.32129
G1 X76.291 Y63.576 E.05739
G1 X75.27 Y63.341 E.03687
G1 X74.237 Y63.132 E.03709
G1 X72.903 Y62.907 E.04761
G1 X71.146 Y62.679 E.06234
G1 X69.92 Y62.571 E.04331
G1 X69.89 Y62.349 E.0079
G1 X73.236 Y61.185 E.12467
G1 X73.204 Y57.924 E.11475
G1 X68.751 Y56.47 E.16488
G1 X68.771 Y56.305 E.00583
G1 E-.5
G1 Z.4 F21000
G1 X66.18 Y55.87
G1 Z.2
G1 E.5 F1800
G1 F3000
G1 X67.555 Y55.848 E.0484
G1 X68.732 Y55.791 E.04146
G1 X69.899 Y55.708 E.04118
G1 X71.064 Y55.597 E.04118
G1 X72.226 Y55.46 E.04118
G1 X73.385 Y55.296 E.04118
G1 X74.539 Y55.106 E.04119
G1 X75.689 Y54.889 E.04118
G1 X76.834 Y54.646 E.04118
G1 X78.322 Y54.285 E.0539
G1 X78.322 Y64.609 E.36331
G1 X77.184 Y64.28 E.04169
G1 X76.182 Y64.02 E.03643
G1 X75.173 Y63.787 E.03644
G1 X74.154 Y63.581 E.03661
G1 X72.835 Y63.36 E.04704
G1 X71.096 Y63.133 E.06174
G1 X70.056 Y63.038 E.03676
G1 X69.022 Y62.971 E.03643
G1 X67.519 Y62.931 E.05294
G1 X67.481 Y62.703 E.00814
G1 X72.775 Y60.861 E.1973
G1 X72.75 Y58.257 E.09165
G1 X66.145 Y56.1 E.24454
G1 X66.171 Y55.93 E.00606
G1 E-.5
G1 Z.4 F21000
G1 X63.129 Y55.596
G1 Z.2
G1 E.5 F1800
G1 F3000
G1 X63.172 Y55.36 E.00842
G1 X64.071 Y55.399 E.03168
G1 X65.617 Y55.422 E.0544
G1 X67.54 Y55.391 E.06772
G1 X68.704 Y55.335 E.04101
G1 X69.861 Y55.252 E.04081
G1 X71.016 Y55.143 E.04081
G1 X72.167 Y55.007 E.04081
G1 X73.315 Y54.845 E.04081
G1 X74.46 Y54.656 E.04081
G1 X75.599 Y54.441 E.04081
G1 X76.734 Y54.2 E.04081
G1 X78.779 Y53.694 E.07417
G1 X78.779 Y65.24 E.40637
G1 X78.048 Y65.005 E.02703
G1 X77.063 Y64.721 E.03608
G1 X76.073 Y64.464 E.036
G1 X75.076 Y64.234 E.036
G1 X74.07 Y64.031 E.03612
G1 X72.768 Y63.812 E.04648
G1 X71.045 Y63.587 E.06113
G1 X70.02 Y63.494 E.03623
G1 X68.999 Y63.428 E.036
G1 X67.974 Y63.39 E.03613
G1 X66.653 Y63.385 E.04648
G1 X64.631 Y63.463 E.07122
G1 X64.582 Y63.228 E.00846
G1 X72.315 Y60.537 E.28816
G1 X72.297 Y58.59 E.06854
G1 X63.186 Y55.614 E.33729
G1 E-.5
G1 Z.4 F21000
G1 X59.209 Y54.796
G1 Z.2
G1 E.5 F1800
G1 F3000
G1 X59.265 Y54.552 E.00882
G1 X60.643 Y54.713 E.04885
G1 X61.788 Y54.816 E.04044
G1 X62.934 Y54.892 E.04044
G1 X64.085 Y54.942 E.04052
G1 X65.616 Y54.965 E.05392
G1 X67.526 Y54.934 E.06721
G1 X68.677 Y54.878 E.04057
G1 X69.823 Y54.796 E.04044
G1 X70.967 Y54.688 E.04044
G1 X72.108 Y54.554 E.04044
G1 X73.246 Y54.393 E.04044
G1 X74.38 Y54.206 E.04044
G1 X75.509 Y53.993 E.04044
G1 X76.633 Y53.754 E.04044
G1 X77.752 Y53.49 E.04044
G1 X78.837 Y53.206 E.03948
G1 X79.236 Y53.191 E.01406
G1 X79.236 Y65.795 E.44359
G1 X78.877 Y65.752 E.01272
G1 X77.915 Y65.442 E.03559
G1 X76.942 Y65.162 E.03562
G1 X75.964 Y64.908 E.03556
G1 X74.98 Y64.681 E.03556
G1 X73.987 Y64.48 E.03564
G1 X72.7 Y64.264 E.04592
G1 X70.995 Y64.042 E.06053
G1 X69.985 Y63.949 E.03571
G1 X68.976 Y63.885 E.03556
G1 X67.964 Y63.847 E.03564
G1 X66.66 Y63.842 E.04592
G1 X64.941 Y63.899 E.06053
G1 X63.929 Y63.971 E.03571
G1 X62.923 Y64.071 E.03556
G1 X61.921 Y64.197 E.03556
G1 X60.524 Y64.424 E.0498
G1 X60.459 Y64.178 E.00893
G1 X71.855 Y60.213 E.42465
G1 X71.843 Y58.922 E.04544
G1 X59.266 Y54.815 E.46564
G1 E-.5
G1 Z.4 F21000
G1 X40.039 Y49.972
G1 X35.107 Y49.977
G1 X30.256 Y49.973
G1 X29.921 Y49.917
G1 Z.2
G1 E.5 F1800
;TYPE:Outer wall
G1 F3000
G1 X29.934 Y49.734 E.00647
G1 X29.962 Y49.636 E.00357
G1 X40.709 Y49.644 E.37822
G1 X41.699 Y49.686 E.03488
G1 X43.013 Y49.822 E.0465
