; HEADER_BLOCK_START
; generated by OrcaSlicer 1.6.3 on 2023-07-15 at 10:44:56
; total layer number: 102
; HEADER_BLOCK_END

; THUMBNAIL_BLOCK_START
; THUMBNAIL_BLOCK_END

; external perimeters extrusion width = 0.40mm
; perimeters extrusion width = 0.45mm
; infill extrusion width = 0.45mm
; solid infill extrusion width = 0.40mm
; top infill extrusion width = 0.40mm
; first layer extrusion width = 0.50mm

; external perimeters extrusion width = 0.40mm
; perimeters extrusion width = 0.45mm
; infill extrusion width = 0.45mm
; solid infill extrusion width = 0.40mm
; top infill extrusion width = 0.40mm
; first layer extrusion width = 0.50mm

; EXECUTABLE_BLOCK_START
EXCLUDE_OBJECT_DEFINE NAME=Quickdraw_Mount_Printed_Printhead.stl_id_0_copy_0 CENTER=60,67.5109 POLYGON=[[28.2192,61.3391],[28.2268,61.2523],[29.4402,55.7454],[29.4583,55.6781],[29.4877,55.6149],[29.5277,55.5578],[29.577,55.5085],[29.6341,55.4685],[29.6973,55.439],[29.7647,55.421],[29.8341,55.4149],[82.509,53.6069],[90.7784,53.6069],[90.9372,53.6192],[91.0898,53.6558],[91.2347,53.7159],[91.3685,53.7979],[91.4878,53.8998],[91.5897,54.0191],[91.6717,54.1529],[91.7317,54.2979],[91.7683,54.4505],[91.7806,54.6069],[91.7808,80.4149],[91.7658,80.5713],[91.7292,80.7239],[91.6692,80.8689],[91.5873,81.0027],[91.4854,81.122],[91.3662,81.2239],[91.2325,81.3059],[91.0876,81.3659],[90.9351,81.4026],[90.7809,81.4149],[82.4907,81.4149],[29.8341,81.0149],[29.7647,81.0088],[29.6973,80.9908],[29.6341,80.9613],[29.577,80.9213],[29.5277,80.872],[29.4877,80.8149],[29.4583,80.7517],[29.4402,80.6844],[29.4341,80.6149],[28.2192,63.3391],[28.2192,61.3391]]
EXCLUDE_OBJECT_DEFINE NAME=omron_d2f-5_microswitch_probe_body_x1_rev3.STL_id_1_copy_0 CENTER=59.185,43.7851 POLYGON=[[45.985,39.5851],[45.9871,39.5195],[45.9879,39.5082],[45.9935,39.4546],[45.9967,39.4326],[46.0042,39.3901],[46.0075,39.3739],[46.019,39.3263],[46.0223,39.3144],[46.0338,39.2766],[46.0381,39.2635],[46.0531,39.2223],[46.0564,39.2139],[46.0611,39.2024],[46.0831,39.1532],[46.0882,39.1427],[46.0914,39.1362],[46.1155,39.091],[46.1189,39.0851],[46.1381,39.0533],[46.1524,39.0311],[46.1532,39.0301],[46.1916,38.9763],[46.1935,38.974],[46.2334,38.9255],[46.2382,38.92],[46.2563,38.9002],[46.2779,38.878],[46.287,38.869],[46.3257,38.8332],[46.3387,38.822],[46.3762,38.7918],[46.3846,38.7853],[46.4056,38.77],[46.4295,38.7536],[46.4319,38.752],[46.452,38.739],[46.485,38.7191],[46.4906,38.7158],[46.5133,38.7033],[46.5431,38.688],[46.5758,38.6727],[46.6023,38.6612],[46.6558,38.6408],[46.6581,38.64],[46.6778,38.6334],[46.7076,38.6243],[46.7262,38.6192],[46.7767,38.607],[46.7906,38.6042],[46.8449,38.595],[46.8544,38.5936],[46.8692,38.5918],[46.8808,38.5906],[46.9276,38.5868],[46.9285,38.5867],[46.985,38.5851],[71.385,38.5851],[71.4413,38.5867],[71.4423,38.5867],[71.4892,38.5906],[71.5003,38.5918],[71.5155,38.5936],[71.525,38.595],[71.5792,38.6042],[71.5934,38.6071],[71.6438,38.6192],[71.6623,38.6243],[71.6921,38.6334],[71.7119,38.64],[71.7136,38.6406],[71.7677,38.6612],[71.7942,38.6727],[71.8268,38.688],[71.8567,38.7033],[71.885,38.7191],[71.9179,38.739],[71.9384,38.7522],[71.9399,38.7532],[71.9643,38.77],[71.9853,38.7853],[71.9937,38.7918],[72.0312,38.822],[72.0427,38.8319],[72.0442,38.8332],[72.0829,38.869],[72.0921,38.878],[72.1317,38.92],[72.1366,38.9255],[72.1765,38.974],[72.1785,38.9765],[72.2164,39.0294],[72.2175,39.0311],[72.2318,39.0533],[72.251,39.0851],[72.2543,39.0909],[72.2785,39.1362],[72.2818,39.1428],[72.2869,39.1532],[72.3089,39.2024],[72.3135,39.2138],[72.3168,39.2223],[72.3318,39.2634],[72.3362,39.2766],[72.3371,39.2794],[72.3474,39.3136],[72.3509,39.3263],[72.3622,39.3727],[72.3658,39.3902],[72.3733,39.4326],[72.3764,39.4546],[72.382,39.5082],[72.3828,39.5196],[72.385,39.5851],[72.385,47.9851],[72.3828,48.0507],[72.3828,48.0509],[72.3764,48.1156],[72.3679,48.1689],[72.3656,48.1807],[72.3509,48.2439],[72.3466,48.2593],[72.3434,48.2705],[72.3428,48.2724],[72.3272,48.3199],[72.3266,48.3217],[72.3089,48.3678],[72.2818,48.4275],[72.2785,48.434],[72.251,48.4851],[72.2318,48.5169],[72.2223,48.5318],[72.2215,48.533],[72.214,48.5443],[72.1918,48.5759],[72.1901,48.5781],[72.1782,48.594],[72.1364,48.6449],[72.1363,48.645],[72.0921,48.6922],[72.0431,48.738],[72.0419,48.739],[71.9937,48.7784],[71.9644,48.8001],[71.948,48.8115],[71.9474,48.8119],[71.9329,48.8216],[71.9022,48.8409],[71.9009,48.8417],[71.8847,48.8513],[71.8271,48.8821],[71.8265,48.8823],[71.7694,48.9083],[71.7677,48.909],[71.7059,48.9322],[71.7053,48.9324],[71.6921,48.9368],[71.6462,48.9504],[71.6452,48.9506],[71.6438,48.951],[71.5981,48.962],[71.5874,48.9644],[71.5869,48.9645],[71.5332,48.9741],[71.5323,48.9742],[71.5155,48.9766],[71.4892,48.9797],[71.4725,48.9813],[71.472,48.9813],[71.4312,48.984],[71.4305,48.9841],[71.385,48.9851],[46.985,48.9851],[46.9396,48.9841],[46.9386,48.984],[46.8979,48.9813],[46.8974,48.9813],[46.8807,48.9797],[46.8544,48.9766],[46.8366,48.974],[46.783,48.9645],[46.7825,48.9644],[46.7719,48.962],[46.7262,48.951],[46.7248,48.9507],[46.7236,48.9503],[46.6778,48.9368],[46.6646,48.9324],[46.664,48.9322],[46.6023,48.909],[46.6003,48.9082],[46.5434,48.8823],[46.5427,48.882],[46.4853,48.8513],[46.4689,48.8417],[46.4677,48.8409],[46.4371,48.8216],[46.4225,48.8119],[46.4218,48.8114],[46.4055,48.8001],[46.3762,48.7784],[46.3281,48.7391],[46.3266,48.7378],[46.2779,48.6922],[46.2336,48.645],[46.2336,48.6449],[46.1918,48.594],[46.1916,48.5939],[46.1794,48.5776],[46.1782,48.576],[46.1559,48.5443],[46.1482,48.5327],[46.1477,48.5319],[46.1381,48.5169],[46.1189,48.4851],[46.0914,48.434],[46.0882,48.4275],[46.0611,48.3678],[46.0531,48.3479],[46.0434,48.3219],[46.0424,48.3192],[46.0278,48.2746],[46.0257,48.2675],[46.019,48.2439],[46.0043,48.1807],[46.002,48.1689],[45.9935,48.1156],[45.9871,48.0509],[45.9871,48.0507],[45.985,47.9851],[45.985,39.5851]]
M73 P0 R28
;TYPE:Custom
START_PRINT T_BED=110 T_EXTRUDER=260
G90
G21
M83 ; use relative distances for extrusion
; Filament gcode

    PRESSURE_ADVANCE_SELECT FILAMENT=ABS
M106 S0
;LAYER_CHANGE
;Z:0.2
;HEIGHT:0.2
;BEFORE_LAYER_CHANGE
;0.2
G92 E0

;AFTER_LAYER_CHANGE
;0.2
SET_VELOCITY_LIMIT ACCEL_TO_DECEL=500
M204 S1000
G1 E-.5 F3000
G1 Z.2 F21000
G1 X41.981 Y39.622
G1 E.5 F1800
;TYPE:Skirt
;WIDTH:0.5
G1 F3000
G1 X44.371 Y37.09 E.12252
G1 X44.94 Y36.607 E.02627
G1 X45.428 Y36.325 E.01985
G1 X46.235 Y36.051 E.03
G1 X46.794 Y35.977 E.01984
G1 X71.576 Y35.977 E.87215
G1 X72.503 Y36.149 E.03318
G1 X73.354 Y36.556 E.03321
G1 X74.071 Y37.169 E.03319
G1 X74.645 Y38.028 E.03638
G1 X82.87 Y59.315 E.80314
G1 X83.001 Y60.176 E.03065
G1 X83 Y73.859 E.48156
G1 X82.623 Y75.293 E.0522
G1 X82.51 Y75.493 E.00809
G1 X80.942 Y76.808 E.07201
G1 X79.999 Y77.04 E.03416
G1 X44.066 Y82.486 E1.27906
G1 X43.072 Y82.547 E.03504
G1 X29.834 Y82.547 E.46591
G1 X28.762 Y82.344 E.03839
G1 X27.749 Y81.714 E.04199
G1 X27.242 Y81.116 E.02759
G1 X26.939 Y80.536 E.02305
G1 X26.766 Y79.973 E.0207
G1 X26.656 Y79.015 E.03395
G1 X26.656 Y57.415 E.76019
G1 X26.766 Y56.456 E.03395
G1 X26.917 Y55.952 E.01853
G1 X27.201 Y55.377 E.02257
G1 X27.578 Y54.883 E.02188
G1 X41.94 Y39.665 E.73641
G1 X42.272 Y39.979 F21000
G1 F3000
G1 X44.703 Y37.404 E.12463
G1 X45.194 Y36.987 E.02265
G1 X45.63 Y36.735 E.01774
G1 X46.324 Y36.499 E.0258
G1 X46.824 Y36.433 E.01774
G1 X71.546 Y36.433 E.87005
G1 X72.356 Y36.582 E.02898
G1 X73.1 Y36.936 E.029
G1 X73.727 Y37.47 E.02899
G1 X74.235 Y38.23 E.03218
G1 X82.434 Y59.45 E.80059
G1 X82.543 Y60.176 E.02585
G1 X82.543 Y73.859 E.48156
G1 X82.112 Y75.268 E.05187
G1 X80.79 Y76.377 E.06072
G1 X79.93 Y76.588 E.03114
G1 X44.025 Y82.031 E1.27809
G1 X43.072 Y82.09 E.03359
G1 X29.834 Y82.09 E.46591
G1 X28.92 Y81.915 E.03278
G1 X28.055 Y81.374 E.03589
G1 X27.627 Y80.87 E.02326
G1 X27.365 Y80.371 E.01985
G1 X27.209 Y79.859 E.01882
G1 X27.114 Y79.015 E.0299
G1 X27.114 Y57.415 E.76019
G1 X27.209 Y56.571 E.0299
G1 X27.343 Y56.117 E.01664
G1 X27.586 Y55.623 E.01938
G1 X27.91 Y55.196 E.01887
G1 X42.231 Y40.023 E.7343
; printing object Quickdraw Mount_Printed_Printhead.stl id:0 copy 0
EXCLUDE_OBJECT_START NAME=Quickdraw_Mount_Printed_Printhead.stl_id_0_copy_0
G1 E-.5
G1 Z.4 F21000
G1 X43.134 Y67.702
G1 Z.2
G1 E.5 F1800
;TYPE:Outer wall
G1 F3000
G1 X43.127 Y67.218 E.01703
G1 X55.984 Y62.15 E.48637
G1 X56.499 Y61.948 E.01945
G1 X71.346 Y66.797 E.5497
G1 X71.352 Y67.37 E.02017
G1 X56.518 Y72.531 E.55275
G1 X43.191 Y67.722 E.49863
G1 X43.054 Y67.703
G1 E-.5
G1 Z.4 F21000
G1 X44.055 Y70.024
G1 Z.2
G1 E.5 F1800
;TYPE:Inner wall
G1 F3000
G1 X52.203 Y72.963 E.30485
G1 X50.723 Y73.614 E.05691
G1 X49.78 Y74.071 E.03687
G1 X48.85 Y74.553 E.03687
G1 X47.933 Y75.06 E.03687
G1 X47.03 Y75.591 E.03687
G1 X46.138 Y76.15 E.03706
G1 X45.281 Y76.725 E.03633
G1 X44.881 Y76.958 E.01627
G1 X44.442 Y77.154 E.01691
G1 X44.047 Y77.276 E.01454
G1 X44.06 Y75.088 E.077
G1 X43.665 Y74.657 E.02056
G1 X44.055 Y74.506 E.01472
G1 X44.055 Y70.084 E.15563
G1 X43.512 Y69.341 F21000
G1 F3000
G1 X53.489 Y72.942 E.3733
G1 X51.86 Y73.603 E.06187
G1 X50.916 Y74.028 E.03643
G1 X49.985 Y74.479 E.03643
G1 X49.065 Y74.956 E.03644
G1 X48.16 Y75.457 E.03643
G1 X47.268 Y75.982 E.03643
G1 X46.386 Y76.534 E.03659
G1 X45.523 Y77.113 E.0366
G1 X45.09 Y77.365 E.01765
G1 X44.603 Y77.582 E.01874
G1 X44.105 Y77.736 E.01834
G1 X43.587 Y77.831 E.01855
G1 X43.602 Y75.265 E.0903
G1 X42.877 Y74.473 E.03777
G1 X43.598 Y74.193 E.02723
G1 X43.598 Y69.917 E.15051
G1 X43.521 Y69.401 E.01835
G1 E-.5
G1 Z.4 F21000
G1 X42.873 Y68.625
G1 Z.2
G1 E.5 F1800
G1 F3000
G1 X54.83 Y72.94 E.44737
G1 X53.94 Y73.257 E.03329
G1 X52.986 Y73.627 E.036
G1 X52.042 Y74.022 E.036
G1 X51.11 Y74.442 E.036
G1 X50.189 Y74.888 E.036
G1 X49.281 Y75.359 E.036
G1 X48.386 Y75.854 E.036
G1 X47.505 Y76.373 E.036
G1 X46.635 Y76.917 E.03611
G1 X45.766 Y77.501 E.03686
G1 X45.298 Y77.772 E.01903
G1 X44.765 Y78.011 E.02056
G1 X44.214 Y78.181 E.02028
G1 X43.643 Y78.285 E.02042
G1 X42.856 Y78.338 E.02778
G1 X43.131 Y77.566 E.02883
G1 X43.144 Y75.441 E.07478
G1 X42.089 Y74.29 E.05497
G1 X43.141 Y73.88 E.03974
G1 X43.141 Y69.951 E.1383
G1 X43.06 Y69.411 E.01922
G1 X42.903 Y69.008 E.01519
G1 X42.751 Y68.782 E.0096
G1 X42.837 Y68.673 E.00489
G1 E-.5
G1 Z.4 F21000
G1 X44.055 Y59.418
G1 Z.2
G1 E.5 F1800
G1 F3000
G1 X44.495 Y59.517 E.0159
G1 X45.678 Y59.85 E.04323
G1 X46.222 Y60.034 E.02022
G1 X47.887 Y60.667 E.06271
G1 X48.998 Y61.063 E.04148
G1 X50.119 Y61.434 E.04156
G1 X51.29 Y61.792 E.0431
G1 X51.298 Y61.986 E.00685
G1 X44.079 Y64.832 E.27309
G1 X44.026 Y63.257 E.05544
G1 X43.882 Y62.896 E.01368
G1 X44.016 Y62.424 E.01729
G1 X44.052 Y61.974 E.01588
G1 X44.055 Y59.478 E.08785
G1 X43.598 Y58.869 F21000
G1 F3000
G1 X44.039 Y58.945 E.01575
G1 X44.608 Y59.074 E.02052
G1 X45.813 Y59.413 E.04405
G1 X46.376 Y59.603 E.02094
G1 X48.045 Y60.238 E.06284
G1 X49.146 Y60.631 E.04113
G1 X50.257 Y60.998 E.04118
G1 X51.376 Y61.34 E.04119
G1 X52.722 Y61.712 E.04913
G1 X52.734 Y61.911 E.00702
G1 X43.615 Y65.505 E.34495
G1 X43.615 Y64.654 E.02995
G1 X43.572 Y63.353 E.04585
G1 X43.389 Y62.895 E.01732
G1 X43.427 Y62.823 E.00287
G1 X43.564 Y62.342 E.01761
G1 X43.595 Y61.955 E.01366
G1 X43.598 Y58.929 E.10649
G1 X43.142 Y58.326 F21000
G1 F3000
G1 X44.129 Y58.497 E.03525
G1 X44.72 Y58.631 E.02135
G1 X45.948 Y58.976 E.04488
G1 X46.531 Y59.173 E.02166
G1 X48.203 Y59.809 E.06298
G1 X49.295 Y60.198 E.04078
G1 X50.396 Y60.563 E.04081
G1 X51.505 Y60.902 E.04081
G1 X52.621 Y61.215 E.04081
G1 X54.216 Y61.611 E.05784
G1 X54.231 Y61.813 E.00711
G1 X43.158 Y66.177 E.41886
G1 X43.158 Y64.662 E.05331
G1 X43.118 Y63.448 E.04276
G1 X42.886 Y62.869 E.02194
G1 X43.001 Y62.652 E.00861
G1 X43.112 Y62.26 E.01434
G1 X43.138 Y61.936 E.01145
G1 X43.142 Y58.386 E.12493
G1 E-.5
G1 Z.4 F21000
G1 X41.737 Y58.525
G1 X40.791 Y59.088
G1 X31.792 Y66.613
G1 Z.2
G1 E.5 F1800
G1 F3000
G1 X31.792 Y59.02 E.26723
G1 X38.745 Y59.025 E.2447
G1 X31.832 Y66.568 E.36009
G1 E-.5
G1 Z.4 F21000
G1 X34.087 Y64.784
G1 Z.2
G1 E.5 F1800
G1 F3000
G1 X31.768 Y67.315 E.12081
G1 X31.531 Y67.68 E.01533
G1 X31.335 Y67.622 E.00721
G1 X31.335 Y58.562 E.31886
G1 X39.783 Y58.569 E.29732
G1 X34.128 Y64.74 E.29459
G1 E-.5
G1 Z.4 F21000
G1 X31.792 Y70.866
M73 P1 R28
G1 Z.2
G1 E.5 F1800
G1 F3000
G1 X37.79 Y77.412 E.31248
G1 X31.792 Y77.412 E.21111
G1 X31.792 Y70.926 E.22827
G1 E-.5
G1 Z.4 F21000
G1 X31.531 Y69.798
G1 Z.2
G1 E.5 F1800
G1 F3000
G1 X31.768 Y70.163 E.01533
G1 X38.829 Y77.869 E.36783
G1 X31.335 Y77.869 E.26375
G1 X31.335 Y69.856 E.28201
G1 X31.474 Y69.815 E.0051
G1 E-.5
G1 Z.4 F21000
G1 X34.073 Y65.476
G1 Z.2
G1 E.5 F1800
G1 F3000
G1 X32.131 Y67.596 E.10116
G1 X31.863 Y68.01 E.01736
G1 X31.729 Y68.54 E.01924
G1 X31.729 Y68.94 E.0141
G1 X31.863 Y69.469 E.01921
G1 X32.131 Y69.883 E.01734
G1 X39.868 Y78.326 E.40304
G1 X30.878 Y78.326 E.3164
G1 X30.878 Y58.105 E.71166
G1 X40.821 Y58.112 E.34994
G1 X34.113 Y65.432 E.34942
G1 E-.5
G1 Z.4 F21000
G1 X30.421 Y57.647
G1 Z.2
G1 E.5 F1800
G1 F3000
G1 X40.698 Y57.655 E.3617
G1 X41.816 Y57.703 E.03939
G1 X42.945 Y57.828 E.03997
G1 X44.218 Y58.049 E.04548
G1 X44.833 Y58.188 E.02218
G1 X46.083 Y58.54 E.04571
G1 X46.685 Y58.743 E.02238
G1 X48.361 Y59.38 E.06311
G1 X49.443 Y59.766 E.04043
G1 X50.534 Y60.127 E.04044
G1 X51.633 Y60.463 E.04044
G1 X52.74 Y60.773 E.04044
G1 X53.853 Y61.058 E.04044
G1 X54.975 Y61.318 E.04052
G1 X55.784 Y61.481 E.02905
G1 X55.802 Y61.685 E.00721
G1 X42.701 Y66.848 E.49557
G1 X42.701 Y64.67 E.07667
G1 X42.664 Y63.543 E.03968
G1 X42.384 Y62.842 E.02657
G1 X42.574 Y62.481 E.01435
G1 X42.66 Y62.179 E.01107
G1 X42.681 Y61.917 E.00923
G1 X42.684 Y58.36 E.12519
G1 X41.6 Y57.938 E.04095
G1 X34.246 Y65.964 E.38309
G1 X41.6 Y73.989 E.38309
G1 X42.684 Y73.568 E.04093
G1 X42.684 Y69.985 E.12609
G1 X42.615 Y69.529 E.01623
G1 X42.496 Y69.221 E.01161
G1 X42.238 Y68.839 E.01623
G1 X41.964 Y68.54 E.01428
G1 X42.36 Y68.388 E.01492
G1 X42.605 Y68.043 E.01492
G1 X55.951 Y72.858 E.49932
G1 X55.948 Y73.054 E.00689
G1 X55.051 Y73.346 E.03321
G1 X54.099 Y73.686 E.03556
G1 X53.157 Y74.051 E.03556
G1 X52.225 Y74.441 E.03556
G1 X51.304 Y74.857 E.03556
G1 X50.394 Y75.297 E.03556
G1 X49.497 Y75.762 E.03556
G1 X48.613 Y76.251 E.03556
G1 X47.742 Y76.763 E.03556
G1 X46.884 Y77.301 E.03564
G1 X46.008 Y77.889 E.03712
G1 X45.507 Y78.18 E.02041
G1 X44.926 Y78.439 E.02239
G1 X44.323 Y78.626 E.02221
G1 X43.7 Y78.739 E.0223
G1 X43.045 Y78.783 E.02309
G1 X41.78 Y78.783 E.04452
G1 X41.724 Y78.582 E.00733
G1 X42.225 Y78.28 E.02058
G1 X42.519 Y77.921 E.01635
G1 X42.675 Y77.486 E.01627
G1 X42.686 Y75.618 E.06573
G1 X34.043 Y66.186 E.45024
G1 X32.494 Y67.876 E.0807
G1 X32.287 Y68.195 E.01336
G1 X32.186 Y68.596 E.01458
G1 X32.186 Y68.883 E.01009
G1 X32.288 Y69.284 E.01455
G1 X32.494 Y69.602 E.01334
G1 X40.386 Y78.214 E.41111
G1 X40.672 Y78.435 E.01274
G1 X40.975 Y78.563 E.01158
G1 X40.931 Y78.783 E.00789
G1 X30.421 Y78.783 E.36989
G1 X30.421 Y57.707 E.74174
G1 E-.5
G1 Z.4 F21000
G1 X34.967 Y65.964
G1 X41.738 Y73.399
G1 Z.2
G1 E.5 F1800
;TYPE:Outer wall
G1 F3000
G1 X34.924 Y65.964 E.35493
G1 X41.25 Y59.061 E.32953
G1 X41.738 Y58.528 E.0254
G1 X42.184 Y58.702 E.01686
G1 X42.181 Y61.897 E.11244
G1 X42.165 Y62.09 E.00681
G1 X42.107 Y62.294 E.00749
G1 X41.925 Y62.64 E.01377
G1 X41.434 Y63.078 E.02313
G1 X39.261 Y65.449 E.11321
G1 X39.191 Y65.539 E.00401
G1 X39.159 Y65.631 E.00341
G1 X39.125 Y65.879 E.00881
G1 X39.163 Y66.117 E.00851
G1 X39.198 Y66.208 E.00341
G1 X39.342 Y66.42 E.009
G1 X41.844 Y69.149 E.13033
G1 X42.05 Y69.454 E.01296
G1 X42.129 Y69.658 E.0077
G1 X42.184 Y70.022 E.01295
G1 X42.184 Y73.226 E.11274
G1 X41.794 Y73.377 E.01474
G1 X41.693 Y73.465
G1 E-.5
G1 Z.4 F21000
G1 X42.148 Y73.201
G1 X42.52 Y72.643
G1 X42.52 Y70.839
G1 X42.518 Y70.387
G1 X41.786 Y68.072
G1 Z.2
G1 E.5 F1800
G1 F3000
G1 X41.601 Y68.046 E.00658
G1 X41.446 Y67.947 E.00647
G1 X40.265 Y66.652 E.06167
G1 X39.984 Y66.309 E.0156
G1 X39.708 Y65.916 E.0169
G1 X39.641 Y65.693 E.00822
G1 X39.675 Y65.487 E.00734
G1 X39.75 Y65.371 E.00488
G1 X41.515 Y63.445 E.09195
G1 X41.671 Y63.345 E.0065
G1 X41.823 Y63.376 E.00547
G1 X42.045 Y63.341 E.0079
G1 X42.167 Y63.647 E.01159
G1 X42.201 Y64.678 E.0363
G1 X42.202 Y67.644 E.1044
