; HEADER_BLOCK_START
; generated by OrcaSlicer 1.6.3 on 2023-06-18 at 12:32:27
; total layer number: 195
; HEADER_BLOCK_END

; THUMBNAIL_BLOCK_START
; THUMBNAIL_BLOCK_END

; external perimeters extrusion width = 0.40mm
; perimeters extrusion width = 0.45mm
; infill extrusion width = 0.45mm
; solid infill extrusion width = 0.40mm
; top infill extrusion width = 0.40mm
; support material extrusion width = 0.40mm
; first layer extrusion width = 0.50mm

; EXECUTABLE_BLOCK_START
EXCLUDE_OBJECT_DEFINE NAME=Quickdraw_Mount_Printed_Printhead_Rapido_UHF.stl_id_0_copy_0 CENTER=60,60 POLYGON=[[26.8268,48.404],[26.8344,48.3172],[26.8569,48.233],[26.8937,48.154],[26.9437,48.0826],[27.0054,48.021],[27.0768,47.971],[27.1557,47.9342],[27.2399,47.9116],[27.3268,47.904],[83.9016,46.096],[92.171,46.096],[92.347,46.1112],[92.5154,46.1563],[92.6733,46.23],[92.8161,46.33],[92.9393,46.4532],[93.0393,46.596],[93.1129,46.754],[93.1581,46.9224],[93.1732,47.096],[93.1732,66.452],[93.1711,72.904],[93.1556,73.0776],[93.1105,73.246],[93.0369,73.404],[92.9369,73.5468],[92.8138,73.67],[92.6711,73.77],[92.5132,73.8437],[92.3449,73.8888],[92.1735,73.904],[83.8839,73.904],[27.3268,73.504],[27.2399,73.4964],[27.1557,73.4739],[27.0768,73.437],[27.0054,73.387],[26.9437,73.3254],[26.8937,73.254],[26.8569,73.175],[26.8344,73.0908],[26.8268,73.004],[26.8268,48.404]]
M73 P0 R33
;TYPE:Custom
START_PRINT T_BED=110 T_EXTRUDER=260
G90
G21
M83 ; use relative distances for extrusion
; Filament gcode

    PRESSURE_ADVANCE_SELECT FILAMENT=ABS
M106 S0
;LAYER_CHANGE
;Z:0.2
;HEIGHT:0.2
;BEFORE_LAYER_CHANGE
;0.2
G92 E0

;AFTER_LAYER_CHANGE
;0.2
M204 S500
; printing object Quickdraw Mount_Printed_Printhead_Rapido_UHF.stl id:0 copy 0
EXCLUDE_OBJECT_START NAME=Quickdraw_Mount_Printed_Printhead_Rapido_UHF.stl_id_0_copy_0
G1 E-.5 F3000
G1 Z.2 F21000
G1 X42.69 Y53.395
G1 E.5 F1800
;TYPE:Support interface
;WIDTH:0.5
G1 F3000
G1 X42.69 Y52.812 E.02053
G1 X42.515 Y53.002 E.00909
G1 X42.515 Y54.742 E.06125
G1 X41.641 Y55.696 E.04554
G1 X41.641 Y53.956 E.06125
G1 X40.767 Y54.91 E.04554
G1 X40.767 Y56.65 E.06125
G1 X40.002 Y57.495 E.04009
G1 E-.5
G1 Z.4 F21000
G1 X38.017 Y58.995
G1 Z.2
G1 E.5 F1800
G1 F3000
G1 X37.52 Y58.453 E.0259
G1 X38.144 Y57.772 E.03249
G1 X38.144 Y59.133 E.0479
G1 X39.018 Y60.087 E.04554
G1 X39.018 Y56.818 E.11506
G1 X39.892 Y55.864 E.04554
G1 X39.892 Y57.646 E.06272
G1 X39.783 Y57.858 E.00838
G1 X39.704 Y58.098 E.00891
G1 X39.67 Y58.304 E.00735
G1 X39.666 Y58.557 E.00891
G1 X39.715 Y58.851 E.01046
G1 X39.783 Y59.048 E.00735
G1 X39.892 Y59.26 E.00838
G1 X39.892 Y61.042 E.06272
G1 X40.767 Y61.996 E.04554
G1 X40.767 Y60.255 E.06125
G1 X41.641 Y61.209 E.04554
G1 X41.641 Y62.95 E.06125
G1 X42.515 Y63.904 E.04554
G1 X42.515 Y62.163 E.06125
G1 E-.5
G1 Z.4 F21000
G1 X42.389 Y58.632
G1 Z.2
G1 E.5 F1800
G1 F3000
G1 X41.946 Y58.149 E.02306
G1 X42.515 Y57.528 E.02965
G1 X42.515 Y58.77 E.04372
G1 X42.707 Y58.979 E.01
G1 X42.707 Y57.318 E.05847
G1 X42.641 Y57.39 E.00342
G1 E-.5
G1 Z.4 F21000
G1 X35.395 Y60.772
G1 Z.2
G1 E.5 F1800
G1 F3000
G1 X34.977 Y61.228 E.02175
G1 X35.521 Y61.822 E.02834
G1 X35.521 Y60.822 E.0352
G1 X36.395 Y61.776 E.04554
G1 X36.395 Y62.776 E.0352
G1 X37.27 Y63.73 E.04554
G1 X37.27 Y62.73 E.0352
G1 X38.144 Y63.684 E.04554
G1 X38.144 Y64.684 E.0352
G1 X39.018 Y65.638 E.04554
G1 X39.018 Y64.638 E.0352
G1 X39.892 Y65.592 E.04554
G1 X39.892 Y66.592 E.0352
G1 X40.767 Y67.546 E.04554
G1 X40.767 Y66.546 E.0352
G1 X41.641 Y67.5 E.04554
G1 X41.641 Y68.5 E.0352
G1 X42.515 Y69.454 E.04554
G1 X42.515 Y68.454 E.0352
G1 X42.69 Y68.645 E.00909
G1 X42.69 Y69.645 E.0352
G1 X42.641 Y69.592 E.0025
G1 E-.5
G1 Z.4 F21000
G1 X80.795 Y68.623
G1 Z.2
G1 E.5 F1800
G1 F3000
G1 X80.12 Y68.623 E.02376
G1 X80.12 Y67.56 E.0374
G1 X80.982 Y67.746 E.03104
G1 X80.982 Y68.623 E.03085
G1 X81.856 Y68.623 E.03077
G1 X81.856 Y67.869 E.02652
G1 X82.145 Y67.894 E.01019
G1 X82.536 Y67.888 E.01377
G1 X82.73 Y67.866 E.00689
G1 X82.73 Y68.623 E.02664
G1 X83.605 Y68.623 E.03077
G1 X83.605 Y67.353 E.0447
G1 X83.701 Y67.031 E.01181
G1 X83.704 Y59.209 E.2753
G1 X83.701 Y52.121 E.24944
G1 X83.675 Y51.966 E.00554
G1 X83.605 Y51.771 E.0073
G1 X83.605 Y48.503 E.11501
G1 X84.479 Y48.503 E.03077
G1 X84.479 Y68.623 E.70809
G1 X85.353 Y68.623 E.03077
G1 X85.353 Y48.503 E.70809
G1 X85.868 Y48.503 E.01813
G1 X85.868 Y68.623 E.70809
G1 X85.54 Y68.623 E.01154
G1 E-.5
G1 Z.4 F21000
G1 X83.197 Y67.195
G1 Z.2
G1 E.5 F1800
;TYPE:Support
G1 F3000
G1 X83.004 Y67.345 E.0086
G1 X82.804 Y67.414 E.00744
G1 X82.517 Y67.451 E.0102
G1 X82.151 Y67.457 E.01287
G1 X81.649 Y67.412 E.01774
G1 X81.057 Y67.315 E.0211
G1 X81.057 Y67.06 E.00899
G1 X83.246 Y67.06 E.07705
G1 X83.22 Y67.131 E.00266
G1 E-.5
G1 Z.4 F21000
G1 X93.554 Y76.308
G1 Z.2
G1 E.5 F1800
G1 F3000
G1 X81.057 Y76.308 E.43981
G1 X81.057 Y69.06 E.2551
G1 X86.305 Y69.06 E.18471
G1 X86.305 Y48.066 E.73887
G1 X81.057 Y48.066 E.18472
G1 X81.057 Y43.692 E.15394
G1 X93.554 Y43.692 E.43981
G1 X93.554 Y76.24 E1.14549
G1 X81.468 Y69.471 F21000
G1 F3000
G1 X86.717 Y69.471 E.18471
G1 X86.717 Y47.654 E.76782
G1 X81.468 Y47.654 E.18472
G1 X81.468 Y44.103 E.12498
G1 X93.142 Y44.103 E.41086
M73 P0 R32
G1 X93.142 Y75.897 E1.11895
G1 X81.468 Y75.897 E.41086
G1 X81.468 Y69.471 E.22614
G1 X81.976 Y69.979 F21000
G1 F3000
G1 X87.225 Y69.979 E.18471
G1 X87.225 Y47.147 E.80357
G1 X81.976 Y47.147 E.18472
G1 X81.976 Y44.611 E.08924
G1 X92.635 Y44.611 E.37511
G1 X92.635 Y75.389 E1.0832
G1 X81.976 Y75.389 E.37511
G1 X81.976 Y69.979 E.19039
G1 X82.484 Y70.487 F21000
G1 F3000
G1 X87.733 Y70.487 E.18471
G1 X87.733 Y46.639 E.83932
G1 X82.484 Y46.639 E.18472
G1 X82.484 Y45.119 E.05349
G1 X92.127 Y45.119 E.33936
G1 X92.127 Y74.881 E1.04745
G1 X82.484 Y74.881 E.33936
G1 X82.484 Y70.487 E.15465
G1 X82.992 Y70.995 F21000
G1 F3000
G1 X88.24 Y70.995 E.18471
G1 X88.24 Y46.131 E.87506
M73 P1 R32
G1 X82.992 Y46.131 E.18472
G1 X82.992 Y45.627 E.01774
G1 X91.619 Y45.627 E.30361
G1 X91.619 Y74.373 E1.0117
G1 X82.992 Y74.373 E.30361
G1 X82.992 Y70.995 E.1189
G1 X83.5 Y71.503 F21000
G1 F3000
G1 X88.748 Y71.503 E.18471
G1 X88.748 Y46.135 E.89281
G1 X91.111 Y46.135 E.08315
G1 X91.111 Y73.865 E.97596
G1 X83.5 Y73.865 E.26787
G1 X83.5 Y71.503 E.08315
G1 X84.008 Y72.011 F21000
G1 F3000
G1 X89.256 Y72.011 E.18471
G1 X89.256 Y46.642 E.89281
G1 X90.603 Y46.642 E.0474
G1 X90.603 Y73.358 E.94021
G1 X84.008 Y73.358 E.23212
G1 X84.008 Y72.011 E.0474
G1 E-.5
G1 Z.4 F21000
G1 X83.418 Y48.503
G1 Z.2
G1 E.5 F1800
;TYPE:Support interface
G1 F3000
G1 X82.73 Y48.503 E.02418
G1 X82.73 Y51.252 E.09676
G1 X82.418 Y51.203 E.01112
G1 X81.856 Y51.193 E.01979
G1 X81.856 Y48.503 E.09466
G1 X80.982 Y48.503 E.03077
G1 X80.982 Y51.266 E.09724
G1 X80.12 Y51.403 E.03073
G1 X80.12 Y48.503 E.10206
G1 X80.795 Y48.503 E.02376
G1 E-.5
G1 Z.4 F21000
G1 X63.861 Y63.812
G1 Z.2
G1 E.5 F1800
;TYPE:Inner wall
;WIDTH:0.499999
G1 F3000
G1 X72.789 Y60.705 E.33266
G1 X73.048 Y60.577 E.01017
G1 X73.286 Y60.364 E.01127
G1 X73.424 Y60.16 E.00863
G1 X73.511 Y59.945 E.00817
G1 X73.555 Y59.514 E.01525
G1 X73.485 Y59.131 E.0137
G1 X73.215 Y58.712 E.01756
G1 X72.767 Y58.439 E.01846
G1 X62.445 Y55.068 E.38217
G1 X63.698 Y55.168 E.04423
G1 X64.895 Y55.235 E.04221
G1 X66.785 Y55.278 E.06654
G1 X68.519 Y55.261 E.06101
G1 X69.717 Y55.213 E.04221
G1 X70.914 Y55.136 E.04221
G1 X72.108 Y55.03 E.0422
G1 X73.3 Y54.896 E.04221
G1 X74.488 Y54.733 E.0422
G1 X75.645 Y54.547 E.04125
G1 X76.851 Y54.323 E.04316
G1 X77.998 Y54.082 E.04124
G1 X80.315 Y53.518 E.08393
G1 X80.315 Y65.434 E.41937
G1 X79.382 Y65.137 E.03444
G1 X78.403 Y64.855 E.03586
G1 X77.417 Y64.599 E.03586
G1 X76.155 Y64.316 E.04549
G1 X75.414 Y64.167 E.02663
G1 X73.831 Y63.908 E.05643
G1 X72.401 Y63.727 E.05073
G1 X71.386 Y63.635 E.03586
G1 X70.369 Y63.57 E.03586
G1 X69.34 Y63.533 E.03626
G1 X67.777 Y63.533 E.05498
G1 X66.295 Y63.587 E.05219
G1 X65.279 Y63.66 E.03586
G1 X63.921 Y63.805 E.04807
G1 E-.5
G1 Z.4 F21000
G1 X58.432 Y65.293
G1 Z.2
G1 E.5 F1800
;WIDTH:0.643648
G1 F3000
G1 X58.487 Y65.248 E.00327
;WIDTH:0.596309
G1 X58.542 Y65.204 E.00301
;WIDTH:0.54897
G1 X58.597 Y65.16 E.00275
;WIDTH:0.50163
G1 X58.652 Y65.116 E.0025
;WIDTH:0.454291
G1 X58.708 Y65.071 E.00224
;WIDTH:0.406952
G1 X58.763 Y65.027 E.00198
;WIDTH:0.400986
G1 X59.72 Y64.716 E.02775
;WIDTH:0.447084
G1 X60.465 Y64.481 E.02432
;WIDTH:0.493182
G1 X61.21 Y64.246 E.02709
;WIDTH:0.495483
G1 X61.242 Y64.236 E.00117
;WIDTH:0.534976
G1 X61.728 Y64.088 E.01924
;WIDTH:0.574468
G1 X62.214 Y63.94 E.02078
G1 X62.674 Y63.76 E.02023
;WIDTH:0.537234
G1 X63.135 Y63.58 E.01881
;WIDTH:0.499999
G1 X71.997 Y60.497 E.33024
G1 X72.794 Y60.197 E.02996
G1 X73.02 Y59.947 E.01185
G1 X73.099 Y59.626 E.01162
G1 X73.056 Y59.289 E.01197
G1 X72.894 Y59.037 E.01053
G1 X72.625 Y58.873 E.01108
G1 X60.106 Y54.787 E.46349
;WIDTH:0.494812
G1 X60.085 Y54.781 E.00075
;WIDTH:0.493971
G1 X59.52 Y54.622 E.02037
;WIDTH:0.445455
G1 X58.956 Y54.463 E.01818
;WIDTH:0.396938
G1 X58.509 Y54.335 E.01268
;WIDTH:0.407984
G1 X58.452 Y54.293 E.00197
;WIDTH:0.452064
G1 X58.396 Y54.251 E.00221
;WIDTH:0.496145
G1 X58.34 Y54.21 E.00244
;WIDTH:0.540225
G1 X58.283 Y54.168 E.00268
;WIDTH:0.584306
G1 X58.227 Y54.127 E.00292
;WIDTH:0.628386
G1 X58.171 Y54.085 E.00316
G1 X58.24 Y54.075 E.00316
;WIDTH:0.584306
G1 X58.309 Y54.065 E.00292
;WIDTH:0.540225
G1 X58.379 Y54.054 E.00268
;WIDTH:0.496145
G1 X58.448 Y54.044 E.00244
;WIDTH:0.452064
G1 X58.517 Y54.034 E.00221
;WIDTH:0.407984
G1 X58.586 Y54.024 E.00197
;WIDTH:0.396938
G1 X59.037 Y54.12 E.01257
;WIDTH:0.445455
G1 X59.613 Y54.232 E.01818
;WIDTH:0.493971
G1 X60.189 Y54.344 E.02037
;WIDTH:0.494812
G1 X60.205 Y54.346 E.00057
;WIDTH:0.499999
G1 X61.367 Y54.497 E.04125
G1 X62.549 Y54.619 E.04182
G1 X63.734 Y54.713 E.04182
G1 X64.92 Y54.778 E.04182
G1 X66.817 Y54.821 E.06679
G1 X68.479 Y54.805 E.05849
G1 X69.688 Y54.757 E.04257
G1 X70.874 Y54.68 E.04182
G1 X72.057 Y54.576 E.04182
G1 X73.238 Y54.443 E.04182
G1 X74.416 Y54.282 E.04182
G1 X75.573 Y54.096 E.04125
G1 X76.757 Y53.876 E.04239
G1 X77.92 Y53.631 E.04182
G1 X79.061 Y53.363 E.04125
G1 X80.208 Y53.064 E.04171
G1 X80.772 Y53.043 E.01987
G1 X80.772 Y65.939 E.45385
G1 X80.182 Y65.871 E.0209
G1 X79.255 Y65.576 E.03422
G1 X78.288 Y65.297 E.03542
G1 X77.314 Y65.045 E.03542
G1 X76.065 Y64.764 E.04506
G1 X75.34 Y64.618 E.02603
G1 X73.773 Y64.362 E.05585
G1 X72.359 Y64.183 E.05017
G1 X71.357 Y64.091 E.03543
G1 X70.352 Y64.027 E.03542
G1 X69.34 Y63.99 E.03567
G1 X67.777 Y63.99 E.05498
G1 X66.352 Y64.041 E.0502
G1 X65.324 Y64.115 E.03627
G1 X64.322 Y64.214 E.03542
G1 X63.324 Y64.34 E.03542
;WIDTH:0.536104
G1 X62.823 Y64.399 E.01914
;WIDTH:0.572208
G1 X62.323 Y64.458 E.02054
G1 X61.828 Y64.569 E.02067
;WIDTH:0.532695
G1 X61.333 Y64.679 E.01912
;WIDTH:0.493182
G1 X60.575 Y64.869 E.02709
;WIDTH:0.447084
G1 X59.817 Y65.06 E.02432
;WIDTH:0.400986
G1 X59.795 Y65.066 E.00064
;WIDTH:0.399513
G1 X58.854 Y65.33 E.02682
;WIDTH:0.406952
G1 X58.784 Y65.324 E.00198
;WIDTH:0.454291
G1 X58.714 Y65.318 E.00224
;WIDTH:0.50163
G1 X58.643 Y65.311 E.0025
;WIDTH:0.54897
G1 X58.573 Y65.305 E.00275
;WIDTH:0.596309
G1 X58.502 Y65.299 E.00301
;WIDTH:0.643648
G1 X58.492 Y65.298 E.00049
G1 E-.5
G1 Z.4 F21000
G1 X44.124 Y55.401
G1 Z.2
G1 E.5 F1800
;WIDTH:0.499999
G1 F3000
G1 X44.263 Y55.064 E.01282
G1 X44.391 Y54.373 E.02473
G1 X44.391 Y51.477 E.10192
G1 X44.311 Y50.957 E.0185
G1 X44.028 Y50.596 E.01616
G1 X45.23 Y50.782 E.04282
G1 X45.911 Y50.925 E.02447
G1 X46.586 Y51.094 E.02448
G1 X47.253 Y51.288 E.02447
G1 X47.911 Y51.506 E.02439
G1 X49.698 Y52.183 E.06725
G1 X50.828 Y52.584 E.0422
G1 X51.967 Y52.958 E.04221
G1 X53.089 Y53.297 E.04124
G1 X54.245 Y53.617 E.0422
G1 X55.408 Y53.909 E.0422
G1 X56.426 Y54.139 E.03672
G1 X44.408 Y58.876 E.4546
G1 X44.408 Y56.189 E.09455
G1 X44.322 Y55.753 E.01565
G1 X44.153 Y55.453 E.01212
G1 E-.5
G1 Z.4 F21000
G1 X42.635 Y50.484
G1 Z.2
G1 E.5 F1800
G1 F3000
G1 X42.406 Y50.603 E.00911
G1 X35.92 Y57.681 E.33785
G1 X35.791 Y57.852 E.00756
G1 X35.652 Y58.185 E.0127
G1 X35.623 Y58.533 E.0123
G1 X35.77 Y58.875 E.0131
G1 X35.416 Y58.759 E.0131
G1 X35.072 Y58.818 E.0123
G1 X34.917 Y58.883 E.00589
G1 X34.593 Y59.129 E.01435
G1 X33.762 Y60.041 E.04341
G1 X33.404 Y60.555 E.02205
G1 X33.279 Y61.086 E.0192
G1 X33.281 Y61.469 E.01348
G1 X33.403 Y61.898 E.01567
G1 X33.699 Y62.351 E.01905
G1 X41.501 Y70.866 E.40645
G1 X41.604 Y70.953 E.00476
G1 X28.194 Y70.953 E.47197
G1 X28.194 Y50.456 E.72138
G1 X42.176 Y50.463 E.49209
G1 X42.575 Y50.481 E.01407
G1 E-.5
G1 Z.4 F21000
G1 X43.869 Y61.131
G1 Z.2
G1 E.5 F1800
G1 F3000
G1 X44.148 Y60.871 E.0134
G1 X44.425 Y61.02 E.01106
G1 X56.66 Y65.434 E.45778
G1 X55.368 Y65.886 E.04818
G1 X54.418 Y66.254 E.03586
G1 X53.478 Y66.648 E.03586
G1 X52.549 Y67.068 E.03586
G1 X51.632 Y67.512 E.03586
G1 X50.728 Y67.981 E.03586
G1 X49.457 Y68.698 E.05135
G1 X48.099 Y69.53 E.05604
G1 X46.938 Y70.283 E.0487
G1 X46.401 Y70.553 E.02117
G1 X45.648 Y70.808 E.02798
G1 X45.058 Y70.915 E.02112
G1 X44.43 Y70.953 E.02212
G1 X43.843 Y70.953 E.02065
G1 X43.953 Y70.858 E.00509
G1 X44.182 Y70.547 E.0136
G1 X44.317 Y70.213 E.01268
G1 X44.383 Y69.835 E.01351
G1 X44.391 Y68.433 E.04934
G1 X44.311 Y68.007 E.01527
G1 X44.091 Y67.655 E.0146
G1 X43.172 Y66.652 E.04788
G1 X43.723 Y66.57 E.01964
G1 X44.091 Y66.302 E.01598
G1 X44.311 Y65.951 E.0146
G1 X44.391 Y65.53 E.01506
G1 X44.391 Y62.533 E.1055
G1 X44.263 Y61.842 E.02473
G1 X44.096 Y61.455 E.01483
G1 X43.904 Y61.181 E.01179
G1 E-.5
G1 Z.4 F21000
G1 X35.785 Y59.306
G1 Z.2
G1 E.5 F1800
;WIDTH:0.57187
G1 F3000
G1 X35.875 Y59.329 E.00375
G1 X35.965 Y59.416 E.00511
;WIDTH:0.56438
G1 X42.334 Y66.368 E.37856
G1 X42.563 Y66.641 E.01431
;WIDTH:0.53219
G1 X42.792 Y66.914 E.01342
;WIDTH:0.499999
G1 X43.754 Y67.964 E.05011
G1 X43.909 Y68.244 E.01127
G1 X43.926 Y69.833 E.05592
G1 X43.827 Y70.227 E.01432
G1 X43.599 Y70.569 E.01444
G1 X43.27 Y70.814 E.01444
;WIDTH:0.509668
G1 X42.861 Y70.942 E.0154
;WIDTH:0.520161
G1 X42.467 Y70.925 E.01449
G1 X41.973 Y70.671 E.02038
;WIDTH:0.499999
G1 X41.838 Y70.557 E.00624
G1 X34.036 Y62.042 E.40645
G1 X33.821 Y61.714 E.01381
G1 X33.721 Y61.272 E.01593
G1 X33.822 Y60.741 E.01901
G1 X34.159 Y60.28 E.0201
G1 X34.93 Y59.438 E.04018
G1 X35.125 Y59.29 E.00861
G1 X35.424 Y59.216 E.01085
;WIDTH:0.535935
G1 X35.649 Y59.272 E.00882
;WIDTH:0.57187
G1 X35.727 Y59.292 E.00327
G1 X35.604 Y59.747 F21000
;TYPE:Outer wall
;WIDTH:0.499999
G1 F3000
G1 X43.417 Y68.273 E.40699
G1 X43.477 Y68.429 E.00587
G1 X43.469 Y69.831 E.04934
G1 X43.358 Y70.142 E.01163
G1 X43.245 Y70.279 E.00626
G1 X42.961 Y70.451 E.01167
G1 X42.709 Y70.488 E.00898
G1 X42.443 Y70.429 E.00959
G1 X42.175 Y70.248 E.01137
G1 X34.373 Y61.734 E.40645
G1 X34.227 Y61.493 E.00989
G1 X34.181 Y61.235 E.00923
G1 X34.268 Y60.88 E.01287
G1 X34.496 Y60.589 E.013
G1 X35.267 Y59.747 E.04018
G1 X35.432 Y59.673 E.00636
G1 X35.549 Y59.723 E.00449
G1 X35.674 Y59.709
G1 E-.5
G1 Z.4 F21000
G1 X43.256 Y50.651
G1 Z.2
G1 E.5 F1800
;TYPE:Inner wall
;WIDTH:0.592578
G1 F3000
G1 X43.442 Y50.669 E.00789
G1 X43.544 Y50.74 E.00524
;WIDTH:0.55067
G1 X43.645 Y50.811 E.00484
;WIDTH:0.508762
G1 X43.886 Y51.124 E.01418
;WIDTH:0.499999
G1 X43.934 Y51.477 E.01252
G1 X43.934 Y54.373 E.10192
G1 X43.818 Y54.963 E.02117
G1 X43.717 Y55.195 E.0089
G1 X43.519 Y55.483 E.01228
G1 X43.744 Y55.652 E.00992
G1 X43.928 Y56.012 E.01424
G1 X43.951 Y56.189 E.00628
G1 X43.951 Y59.499 E.11649
G1 X43.929 Y59.693 E.00685
;WIDTH:0.455036
G1 X43.906 Y59.886 E.00618
;WIDTH:0.410072
G1 X43.884 Y60.19 E.00863
;WIDTH:0.455036
G1 X43.884 Y60.302 E.00352
;WIDTH:0.499999
G1 X43.885 Y60.413 E.00391
G1 X43.714 Y60.677 E.01108
G1 X43.45 Y60.842 E.01095
G1 X43.004 Y60.855 E.01572
G1 X43.486 Y61.382 E.02514
M73 P2 R32
G1 X43.717 Y61.71 E.01414
G1 X43.817 Y61.943 E.0089
G1 X43.934 Y62.533 E.02117
G1 X43.934 Y65.53 E.1055
G1 X43.871 Y65.818 E.01035
G1 X43.754 Y65.994 E.00744
G1 X43.533 Y66.154 E.00959
G1 X43.158 Y66.21 E.01334
;WIDTH:0.535897
G1 X42.983 Y66.156 E.00695
;WIDTH:0.571795
G1 X42.808 Y66.103 E.00746
G1 X42.719 Y66.015 E.00508
;WIDTH:0.56438
G1 X36.349 Y59.064 E.37856
;WIDTH:0.57187
G1 X36.231 Y58.94 E.00698
G1 X36.155 Y58.721 E.00946
