; HEADER_BLOCK_START
; generated by OrcaSlicer 1.7.0-beta on 2023-10-03 at 10:42:30
; total layer number: 221
; HEADER_BLOCK_END

; THUMBNAIL_BLOCK_START
; THUMBNAIL_BLOCK_END

; external perimeters extrusion width = 0.40mm
; perimeters extrusion width = 0.46mm
; infill extrusion width = 0.64mm
; solid infill extrusion width = 0.56mm
; top infill extrusion width = 0.40mm
; first layer extrusion width = 0.50mm

; EXECUTABLE_BLOCK_START
EXCLUDE_OBJECT_DEFINE NAME=QuickDraw_Mount_section_modded.stl_id_0_copy_0 CENTER=60,60 POLYGON=[[41.6,49.3029],[41.6094,49.0908],[41.6284,48.9485],[41.7324,48.5228],[41.743,48.4953],[41.8834,48.1715],[41.9149,48.1217],[42.0746,47.8749],[42.1854,47.7376],[42.3029,47.6058],[42.5257,47.4137],[42.572,47.3775],[42.9226,47.1623],[42.9751,47.1359],[43.1915,47.0431],[43.3601,46.9905],[43.4175,46.9776],[43.7648,46.9144],[44,46.9029],[76,46.9029],[76.0883,46.9065],[76.3517,46.9317],[76.5251,46.9647],[76.6967,47.0062],[76.8635,47.0643],[77.0249,47.1359],[77.1421,47.1973],[77.3334,47.3073],[77.5225,47.4476],[77.6971,47.6058],[77.8552,47.7803],[78.0561,48.0705],[78.0718,48.0954],[78.1934,48.3306],[78.257,48.4953],[78.3129,48.6777],[78.3712,48.9511],[78.3776,48.9818],[78.3991,49.2626],[78.4,49.3029],[78.4,50.0484],[78.3943,70.2336],[78.3544,70.6238],[78.3261,70.7516],[78.2584,71.0041],[78.169,71.2498],[78.0585,71.4868],[77.9981,71.6029],[77.7778,71.9274],[77.5213,72.2242],[77.4248,72.3126],[77.2245,72.4806],[77.0104,72.6306],[76.7839,72.7614],[76.547,72.8719],[76.4261,72.9219],[76.0487,73.029],[75.6798,73.0775],[75.5307,73.0971],[44.4693,73.0971],[43.9513,73.029],[43.5739,72.9219],[43.3321,72.8218],[43.1,72.7009],[42.7755,72.4806],[42.4787,72.2242],[42.3019,72.0312],[42.2222,71.9274],[42.0722,71.7132],[41.9415,71.4868],[41.8811,71.3707],[41.7809,71.1289],[41.7416,71.0041],[41.7022,70.8793],[41.6456,70.6238],[41.6114,70.3643],[41.6,70.1029],[41.6,49.3029]]
M73 P0 R33
;TYPE:Custom
START_PRINT T_BED=110 T_EXTRUDER=260
G90
G21
M83 ; use relative distances for extrusion
; Filament gcode

    PRESSURE_ADVANCE_SELECT FILAMENT=ABS
M106 S0
;LAYER_CHANGE
;Z:0.2
;HEIGHT:0.2
;BEFORE_LAYER_CHANGE
;0.2
G92 E0

;AFTER_LAYER_CHANGE
;0.2
;_SET_FAN_SPEED_CHANGING_LAYER
SET_VELOCITY_LIMIT ACCEL=1000 ACCEL_TO_DECEL=500
SET_VELOCITY_LIMIT SQUARE_CORNER_VELOCITY=9
G1 E-.5 F3000
G1 Z.2 F21000
G1 X40.853 Y45.539
G1 Z.2
G1 E.5 F1800
;TYPE:Skirt
;WIDTH:0.5
G1 F3000
G1 X41.648 Y44.998 E.03385
G1 X42.164 Y44.753 E.02011
G1 X43.087 Y44.483 E.03385
G1 X43.902 Y44.394 E.02885
G1 X76.526 Y44.425 E1.14815
G1 X77.454 Y44.618 E.03337
G1 X78.352 Y44.997 E.03432
G1 X79.437 Y45.802 E.04754
G1 X80.054 Y46.54 E.03385
G1 X80.515 Y47.384 E.03385
G1 X80.764 Y48.113 E.02709
G1 X80.9 Y49.017 E.0322
G1 X80.903 Y70.357 E.75102
G1 X80.703 Y71.597 E.04422
G1 X80.301 Y72.622 E.03874
G1 X79.627 Y73.632 E.04273
G1 X78.95 Y74.312 E.03378
G1 X78.337 Y74.766 E.02685
G1 X77.27 Y75.282 E.04169
G1 X76.294 Y75.534 E.0355
G1 X75.271 Y75.619 E.03612
G1 X44.6 Y75.617 E1.07944
G1 X43.435 Y75.489 E.04122
G1 X42.285 Y75.099 E.04273
G1 X41.05 Y74.312 E.05155
G1 X40.339 Y73.587 E.03575
G1 X39.691 Y72.563 E.04263
G1 X39.389 Y71.834 E.02777
G1 X39.2 Y71.155 E.0248
G1 X39.091 Y70.217 E.03325
G1 X39.086 Y49.304 E.73602
G1 X39.197 Y48.302 E.03548
G1 X39.485 Y47.384 E.03385
G1 X40.179 Y46.225 E.04754
G1 X40.825 Y45.568 E.03244
G1 X41.149 Y45.889 F21000
G1 F3000
G1 X41.16 Y45.878 E.00054
G1 X42.318 Y45.184 E.04752
G1 X43.154 Y44.935 E.0307
G1 X43.902 Y44.851 E.02649
G1 X76.459 Y44.877 E1.14579
G1 X77.301 Y45.049 E.03026
G1 X78.117 Y45.39 E.03113
G1 X79.13 Y46.141 E.04438
G1 X79.687 Y46.812 E.0307
G1 X80.102 Y47.579 E.0307
G1 X80.324 Y48.238 E.02447
G1 X80.445 Y49.062 E.02931
G1 X80.448 Y70.317 E.74804
G1 X80.26 Y71.485 E.04165
G1 X79.902 Y72.399 E.03454
G1 X79.264 Y73.353 E.04039
G1 X78.641 Y73.975 E.03098
G1 X78.08 Y74.388 E.02451
G1 X77.133 Y74.846 E.03703
G1 X76.242 Y75.08 E.03243
G1 X75.249 Y75.162 E.03504
G1 X44.6 Y75.16 E1.07868
G1 X43.547 Y75.046 E.03726
G1 X42.46 Y74.677 E.04039
G1 X41.359 Y73.975 E.04597
G1 X40.707 Y73.315 E.03264
G1 X40.113 Y72.388 E.03875
G1 X39.811 Y71.659 E.02777
G1 X39.652 Y71.087 E.02091
G1 X39.548 Y70.217 E.03084
G1 X39.543 Y49.303 E.73602
G1 X39.641 Y48.413 E.03153
G1 X39.898 Y47.579 E.0307
G1 X40.546 Y46.498 E.04438
G1 X41.121 Y45.917 E.02875
; printing object QuickDraw Mount section modded.stl id:0 copy 0
G1 E-.5
EXCLUDE_OBJECT_START NAME=QuickDraw_Mount_section_modded.stl_id_0_copy_0
G1 Z.4 F21000
G1 X43.103 Y47.931 Z.4
G1 Z.2
G1 E.5 F1800
;TYPE:Outer wall
G1 F3000
G1 X43.296 Y47.815 E.00792
G1 X43.6 Y47.706 E.01136
G1 X43.928 Y47.658 E.01166
G1 X76.072 Y47.658 E1.13129
G1 X76.395 Y47.706 E.01148
G1 X76.704 Y47.815 E.01155
G1 X76.98 Y47.981 E.01134
G1 X77.22 Y48.198 E.01136
G1 X77.412 Y48.457 E.01136
G1 X77.552 Y48.754 E.01156
G1 X77.616 Y48.978 E.00823
G1 X77.65 Y49.32 E.01208
G1 X77.65 Y70.088 E.73089
G1 X77.614 Y70.496 E.01442
G1 X77.543 Y70.779 E.01026
G1 X77.438 Y71.053 E.01035
G1 X77.298 Y71.306 E.01017
G1 X77.056 Y71.62 E.01396
G1 X76.764 Y71.888 E.01396
G1 X76.525 Y72.051 E.01017
G1 X76.264 Y72.177 E.01017
G1 X75.889 Y72.295 E.01385
G1 X75.482 Y72.341 E.0144
G1 X75.127 Y72.358 E.01252
G1 X44.615 Y72.353 E1.07382
G1 X44.207 Y72.317 E.01443
G1 X43.929 Y72.247 E.01008
G1 X43.563 Y72.095 E.01396
G1 X43.233 Y71.885 E.01378
G1 X42.946 Y71.623 E.01366
G1 X42.69 Y71.275 E.01521
G1 X42.421 Y70.625 E.02477
G1 X42.355 Y70.19 E.01548
G1 X42.35 Y49.317 E.73459
G1 X42.371 Y49.067 E.00883
G1 X42.45 Y48.748 E.01156
G1 X42.588 Y48.457 E.01136
G1 X42.78 Y48.198 E.01136
G1 X43.02 Y47.981 E.01136
G1 X43.069 Y47.951 E.00203
G1 X43.36 Y48.36 F21000
;TYPE:Inner wall
G1 F3000
G1 X43.511 Y48.269 E.00619
G1 X43.722 Y48.194 E.00789
G1 X43.965 Y48.158 E.00863
G1 X76.035 Y48.158 E1.12869
G1 X76.273 Y48.193 E.00847
G1 X76.49 Y48.27 E.00808
G1 X76.681 Y48.384 E.00785
G1 X76.847 Y48.535 E.00789
G1 X76.981 Y48.715 E.00789
G1 X77.083 Y48.93 E.00838
G1 X77.123 Y49.072 E.0052
G1 X77.15 Y49.345 E.00963
G1 X77.15 Y52.572 E.11357
G1 X76.944 Y52.625 E.00747
G1 X76.866 Y52.484 E.00568
G1 X76.487 Y52.016 E.02119
G1 X76.008 Y51.627 E.02172
G1 X75.458 Y51.347 E.02172
G1 X74.862 Y51.187 E.02172
G1 X74.246 Y51.155 E.02172
G1 X73.643 Y51.25 E.02145
G1 X73.061 Y51.472 E.02193
G1 X72.542 Y51.809 E.02176
G1 X72.106 Y52.245 E.02172
G1 X71.77 Y52.763 E.02172
G1 X71.549 Y53.339 E.02172
G1 X71.456 Y53.926 E.02093
G1 X71.456 Y68.28 E.50515
G1 X71.546 Y68.852 E.0204
G1 X71.702 Y69.304 E.01682
G1 X71.934 Y69.722 E.01682
G1 X72.313 Y70.19 E.02119
G1 X72.792 Y70.578 E.02172
G1 X73.329 Y70.852 E.02119
G1 X73.786 Y70.992 E.01682
G1 X74.246 Y71.048 E.0163
G1 X74.709 Y71.04 E.0163
G1 X75.178 Y70.949 E.01682
G1 X75.74 Y70.733 E.02119
G1 X76.245 Y70.405 E.02119
G1 X76.595 Y70.079 E.01682
G1 X76.882 Y69.697 E.01683
G1 X76.94 Y69.585 E.00445
G1 X77.15 Y69.635 E.00761
G1 X77.15 Y70.066 E.01516
G1 X77.12 Y70.412 E.01225
G1 X77.065 Y70.628 E.00782
G1 X76.984 Y70.841 E.00804
G1 X76.879 Y71.03 E.00761
G1 X76.686 Y71.281 E.01114
G1 X76.453 Y71.495 E.01114
G1 X76.274 Y71.616 E.00761
G1 X76.079 Y71.711 E.00761
G1 X75.784 Y71.804 E.01088
G1 X75.115 Y71.858 E.02363
G1 X64.426 Y71.856 E.37619
G1 X64.381 Y71.637 E.00787
G1 X64.532 Y71.572 E.00579
G1 X64.947 Y71.305 E.01737
G1 X65.399 Y70.896 E.02144
G1 X65.705 Y70.51 E.01733
G1 X65.944 Y70.08 E.01733
G1 X66.154 Y69.493 E.02194
G1 X66.244 Y68.883 E.02169
G1 X66.244 Y64.537 E.15298
G1 X66.19 Y64.068 E.01659
G1 X66.055 Y63.595 E.01733
G1 X65.789 Y63.031 E.02194
G1 X65.409 Y62.519 E.02243
G1 X64.947 Y62.101 E.02194
G1 X64.533 Y61.834 E.01733
G1 X64.095 Y61.644 E.01683
G1 X63.628 Y61.511 E.01708
G1 X63.042 Y61.453 E.02073
G1 X56.958 Y61.453 E.2141
G1 X56.372 Y61.511 E.02073
G1 X55.892 Y61.648 E.01757
G1 X55.329 Y61.914 E.02194
G1 X54.817 Y62.294 E.02243
G1 X54.398 Y62.756 E.02194
G1 X54.131 Y63.169 E.01733
G1 X53.935 Y63.621 E.01733
G1 X53.787 Y64.212 E.02144
G1 X53.75 Y64.668 E.0161
G1 X53.75 Y68.745 E.14347
G1 X53.808 Y69.331 E.02073
G1 X53.945 Y69.811 E.01757
G1 X54.211 Y70.374 E.02194
G1 X54.591 Y70.886 E.02243
G1 X55.063 Y71.314 E.02243
G1 X55.629 Y71.654 E.02323
G1 X55.574 Y71.855 E.00734
G1 X44.637 Y71.853 E.3849
G1 X44.29 Y71.823 E.01225
G1 X44.087 Y71.771 E.00739
G1 X43.795 Y71.65 E.01114
G1 X43.538 Y71.487 E.0107
G1 X43.32 Y71.287 E.01041
G1 X43.129 Y71.027 E.01135
G1 X42.906 Y70.49 E.02048
G1 X42.855 Y70.152 E.01201
G1 X42.855 Y69.643 E.01792
G1 X43.06 Y69.59 E.00747
G1 X43.134 Y69.722 E.00533
G1 X43.503 Y70.178 E.02066
G1 X43.864 Y70.492 E.01682
G1 X44.274 Y70.738 E.01682
G1 X44.836 Y70.954 E.02119
G1 X45.446 Y71.051 E.02172
G1 X46.047 Y71.019 E.02119
G1 X46.513 Y70.912 E.01682
G1 X46.953 Y70.725 E.01682
G1 X47.458 Y70.397 E.02119
G1 X47.894 Y69.96 E.02172
G1 X48.222 Y69.456 E.02119
G1 X48.409 Y69.016 E.01682
G1 X48.513 Y68.564 E.0163
G1 X48.55 Y68.14 E.01499
G1 X48.544 Y53.926 E.50024
G1 X48.454 Y53.354 E.0204
G1 X48.298 Y52.902 E.01682
G1 X48.066 Y52.484 E.01682
G1 X47.697 Y52.027 E.02066
G1 X47.336 Y51.714 E.01682
G1 X46.926 Y51.467 E.01683
G1 X46.378 Y51.257 E.02066
G1 X45.909 Y51.166 E.01682
G1 X45.446 Y51.158 E.0163
G1 X44.992 Y51.213 E.0161
G1 X44.53 Y51.353 E.01699
G1 X43.992 Y51.627 E.02123
G1 X43.513 Y52.016 E.02172
G1 X43.134 Y52.484 E.02119
G1 X43.056 Y52.623 E.00563
G1 X42.851 Y52.57 E.00747
G1 X42.85 Y49.338 E.11377
G1 X42.865 Y49.149 E.00667
G1 X42.923 Y48.918 E.00838
G1 X43.019 Y48.715 E.00789
G1 X43.153 Y48.535 E.00789
G1 X43.319 Y48.384 E.00789
G1 X43.326 Y48.38 E.0003
G1 X43.595 Y48.752 F21000
G1 F3000
G1 X43.707 Y48.684 E.0046
G1 X43.834 Y48.639 E.00472
G1 X43.998 Y48.615 E.00586
G1 X76.002 Y48.615 E1.12632
G1 X76.162 Y48.639 E.00572
G1 X76.294 Y48.685 E.00491
G1 X76.408 Y48.753 E.00466
G1 X76.507 Y48.843 E.00472
G1 X76.587 Y48.951 E.00472
G1 X76.672 Y49.158 E.00788
G1 X76.693 Y49.367 E.00739
G1 X76.693 Y51.594 E.07837
G1 X76.258 Y51.242 E.0197
G1 X75.623 Y50.918 E.0251
G1 X74.934 Y50.733 E.0251
G1 X74.221 Y50.696 E.0251
G1 X73.525 Y50.806 E.02481
G1 X72.853 Y51.062 E.02532
G1 X72.253 Y51.452 E.02517
G1 X71.749 Y51.956 E.0251
G1 X71.36 Y52.554 E.0251
G1 X71.105 Y53.22 E.0251
G1 X70.999 Y53.89 E.02388
G1 X70.999 Y68.315 E.50768
G1 X71.101 Y68.963 E.02307
G1 X71.283 Y69.491 E.01964
G1 X71.553 Y69.979 E.01964
G1 X71.988 Y70.515 E.02429
G1 X72.542 Y70.964 E.0251
G1 X72.987 Y71.19 E.01756
G1 X72.936 Y71.401 E.00761
G1 X65.582 Y71.399 E.2588
G1 X66.086 Y70.765 E.02851
G1 X66.362 Y70.269 E.01996
G1 X66.599 Y69.604 E.02484
G1 X66.701 Y68.917 E.02446
G1 X66.701 Y64.51 E.15508
G1 X66.64 Y63.979 E.01883
G1 X66.484 Y63.433 E.01996
G1 X66.183 Y62.795 E.02484
G1 X65.749 Y62.211 E.0256
G1 X65.226 Y61.737 E.02484
G1 X64.75 Y61.43 E.01996
G1 X64.249 Y61.213 E.01921
G1 X63.714 Y61.06 E.01959
G1 X63.064 Y60.996 E.02297
G1 X56.936 Y60.996 E.21568
G1 X56.286 Y61.06 E.02297
G1 X55.73 Y61.218 E.02034
G1 X55.092 Y61.52 E.02484
G1 X54.508 Y61.954 E.0256
G1 X54.034 Y62.477 E.02484
G1 X53.727 Y62.953 E.01996
G1 X53.501 Y63.474 E.01996
G1 X53.335 Y64.138 E.02408
G1 X53.293 Y64.649 E.01807
G1 X53.293 Y68.767 E.14492
G1 X53.357 Y69.417 E.02297
G1 X53.516 Y69.972 E.02034
G1 X53.817 Y70.61 E.02484
G1 X54.401 Y71.397 E.03448
G1 X47.103 Y71.396 E.25686
G1 X47.058 Y71.177 E.00789
G1 X47.168 Y71.13 E.00421
G1 X47.747 Y70.754 E.02429
G1 X48.251 Y70.25 E.0251
G1 X48.627 Y69.671 E.02429
G1 X48.845 Y69.157 E.01964
G1 X48.965 Y68.636 E.01883
G1 X49.007 Y68.16 E.01682
G1 X49.001 Y53.89 E.5022
G1 X48.899 Y53.243 E.02307
G1 X48.717 Y52.715 E.01964
G1 X48.447 Y52.227 E.01964
G1 X48.027 Y51.709 E.02348
G1 X47.606 Y51.342 E.01964
G1 X47.127 Y51.055 E.01964
G1 X46.504 Y50.816 E.02348
G1 X45.957 Y50.709 E.01964
G1 X45.422 Y50.7 E.01883
G1 X44.897 Y50.765 E.01861
G1 X44.358 Y50.928 E.0198
G1 X43.742 Y51.242 E.02435
G1 X43.308 Y51.594 E.01967
G1 X43.318 Y49.223 E.08342
G1 X43.356 Y49.072 E.00548
G1 X43.413 Y48.951 E.00472
G1 X43.493 Y48.843 E.00472
G1 X43.565 Y48.778 E.00343
G1 X43.866 Y49.122 F21000
G1 F3000
G1 X43.945 Y49.085 E.00309
G1 X44.032 Y49.072 E.00309
G1 X75.968 Y49.072 E1.12394
G1 X76.052 Y49.084 E.00298
G1 X76.167 Y49.152 E.0047
G1 X76.222 Y49.249 E.00393
G1 X76.236 Y49.39 E.00498
G1 X76.236 Y50.718 E.04674
G1 X75.787 Y50.489 E.01772
G1 X75.006 Y50.28 E.02848
G1 X74.197 Y50.237 E.02848
G1 X73.407 Y50.362 E.02817
G1 X72.645 Y50.652 E.0287
G1 X71.964 Y51.095 E.02857
G1 X71.392 Y51.667 E.02848
G1 X70.951 Y52.345 E.02848
G1 X70.661 Y53.101 E.02848
G1 X70.542 Y53.854 E.02684
G1 X70.542 Y68.351 E.51021
G1 X70.656 Y69.074 E.02575
G1 X70.864 Y69.677 E.02245
G1 X71.173 Y70.235 E.02245
G1 X71.746 Y70.943 E.03207
G1 X66.51 Y70.942 E.18428
G1 X66.779 Y70.458 E.01949
G1 X67.045 Y69.716 E.02774
G1 X67.158 Y68.951 E.02723
G1 X67.158 Y64.484 E.15719
G1 X67.09 Y63.889 E.02107
G1 X66.914 Y63.272 E.0226
G1 X66.577 Y62.559 E.02774
G1 X66.09 Y61.903 E.02877
G1 X65.505 Y61.373 E.02774
G1 X64.966 Y61.025 E.0226
G1 X64.403 Y60.781 E.02158
G1 X63.8 Y60.609 E.02209
G1 X63.087 Y60.539 E.02521
G1 X56.913 Y60.539 E.21727
G1 X56.2 Y60.609 E.02521
G1 X55.569 Y60.789 E.02311
G1 X54.856 Y61.126 E.02774
G1 X54.2 Y61.613 E.02877
G1 X53.67 Y62.197 E.02774
G1 X53.322 Y62.737 E.0226
G1 X53.067 Y63.326 E.0226
G1 X52.882 Y64.063 E.02672
G1 X52.836 Y64.631 E.02005
G1 X52.836 Y68.79 E.14637
G1 X52.906 Y69.502 E.02521
G1 X53.086 Y70.134 E.02311
G1 X53.468 Y70.94 E.03139
G1 X48.208 Y70.939 E.18511
G1 X48.608 Y70.539 E.01993
G1 X49.032 Y69.886 E.02739
G1 X49.281 Y69.299 E.02245
G1 X49.418 Y68.708 E.02137
G1 X49.464 Y68.179 E.01866
G1 X49.458 Y53.854 E.50417
G1 X49.344 Y53.132 E.02574
G1 X49.136 Y52.528 E.02245
G1 X48.827 Y51.97 E.02245
G1 X48.357 Y51.39 E.02629
G1 X47.875 Y50.971 E.02245
G1 X47.328 Y50.643 E.02245
G1 X46.631 Y50.375 E.02629
G1 X46.005 Y50.253 E.02245
G1 X45.398 Y50.243 E.02137
G1 X44.802 Y50.316 E.02112
G1 X44.187 Y50.502 E.02261
G1 X43.764 Y50.717 E.01669
G1 X43.764 Y49.375 E.04725
G1 X43.788 Y49.227 E.00527
G1 X43.842 Y49.154 E.00319
G1 E-.5
G1 Z.4 F21000
G1 X45.362 Y49.786 Z.4
G1 Z.2
G1 E.5 F1800
G1 F3000
G1 X44.707 Y49.867 E.02323
G1 X44.221 Y50.014 E.01786
G1 X44.221 Y49.529 E.01707
G1 X45.346 Y49.529 E.0396
G1 X45.36 Y49.746 E.00767
G1 E-.5
G1 Z.4 F21000
G1 X75.779 Y50.013 Z.4
G1 Z.2
G1 E.5 F1800
G1 F3000
G1 X75.077 Y49.826 E.02555
G1 X74.512 Y49.796 E.01991
G1 X74.519 Y49.529 E.0094
G1 X75.779 Y49.529 E.04432
G1 X75.779 Y49.973 E.01565
G1 E-.5
G1 Z.4 F21000
G1 X76.461 Y53.185 Z.4
G1 X76.525 Y53.536
G1 X76.564 Y54.098
G1 X76.564 Y68.106
G1 X76.54 Y68.557
G1 X76.484 Y68.905
G1 X76.359 Y69.37
G1 X76.21 Y69.732
G1 X76.001 Y70.092
G1 X75.644 Y70.543
G1 X75.11 Y70.71
G1 X74.679 Y70.759
G1 X74.261 Y70.764
G1 X73.841 Y70.733
G1 X70.789 Y70.486
G1 Z.2
G1 E.5 F1800
G1 F3000
G1 X67.255 Y70.485 E.12439
G1 X67.49 Y69.828 E.02459
G1 X67.615 Y68.984 E.03
G1 X67.615 Y64.458 E.1593
G1 X67.54 Y63.8 E.02331
G1 X67.343 Y63.11 E.02524
G1 X66.971 Y62.323 E.03065
G1 X66.43 Y61.594 E.03194
M73 P1 R33
G1 X65.785 Y61.009 E.03065
G1 X65.182 Y60.621 E.02524
G1 X64.557 Y60.35 E.02396
G1 X63.885 Y60.158 E.0246
G1 X63.109 Y60.082 E.02745
G1 X56.891 Y60.082 E.21885
G1 X56.115 Y60.158 E.02745
G1 X55.407 Y60.36 E.02589
G1 X54.62 Y60.732 E.03065
G1 X53.891 Y61.273 E.03194
G1 X53.306 Y61.918 E.03065
G1 X52.918 Y62.521 E.02524
G1 X52.633 Y63.179 E.02524
G1 X52.43 Y63.988 E.02936
G1 X52.379 Y64.612 E.02203
G1 X52.379 Y68.812 E.14781
G1 X52.455 Y69.588 E.02745
G1 X52.657 Y70.295 E.02588
G1 X52.746 Y70.483 E.0073
G1 X49.19 Y70.482 E.12514
G1 X49.437 Y70.102 E.01597
G1 X49.718 Y69.441 E.02527
G1 X49.871 Y68.779 E.0239
G1 X49.921 Y68.199 E.02049
G1 X49.915 Y53.818 E.50614
G1 X49.789 Y53.021 E.02841
G1 X49.555 Y52.342 E.02527
G1 X49.207 Y51.714 E.02527
G1 X48.687 Y51.071 E.02911
G1 X48.145 Y50.6 E.02527
G1 X47.53 Y50.23 E.02527
G1 X46.757 Y49.934 E.02911
G1 X45.95 Y49.777 E.02895
G1 X45.974 Y49.529 E.00877
G1 X74.132 Y49.529 E.99099
G1 X74.152 Y49.782 E.00892
G1 X73.289 Y49.918 E.03075
G1 X72.437 Y50.242 E.03208
G1 X71.675 Y50.737 E.03198
G1 X71.034 Y51.378 E.03186
G1 X70.541 Y52.137 E.03186
G1 X70.217 Y52.982 E.03186
G1 X70.085 Y53.818 E.0298
G1 X70.085 Y68.387 E.51275
G1 X70.211 Y69.185 E.02842
