; generated by SuperSlicer 2.5.59 on 2023-02-09 at 15:13:36 UTC


;
;

;
;
; 

; external perimeters extrusion width = 0.40mm
; perimeters extrusion width = 0.46mm
; infill extrusion width = 0.64mm
; solid infill extrusion width = 0.56mm
; top infill extrusion width = 0.40mm
; support material extrusion width = 0.46mm
; first layer extrusion width = 0.50mm

; object:{"name":"r6_extruder_cover_mosquito_v3","id":"r6_extruder_cover_mosquito_v3.stl id:0 copy 0","object_center":[60.000001,60.000001,0.000000],"boundingbox_center":[60.000001,60.000001,11.557500],"boundingbox_size":[65.321987,42.712500,23.115000]}
; plater:{"center":[60.000001,60.000001,0.000000],"boundingbox_center":[60.000001,60.000001,11.557500],"boundingbox_size":[65.321987,42.712500,23.115000]}

M73 P0 R48
;TYPE:Custom
; custom gcode: start_gcode
START_PRINT T_BED=110 T_EXTRUDER=250
; custom gcode end: start_gcode
M107
G21 ; set units to millimeters
G90 ; use absolute coordinates
M82 ; use absolute distances for extrusion
G92 E0
; custom gcode: start_filament_gcode
; Filament gcode

    PRESSURE_ADVANCE_SELECT FILAMENT=ABS
; custom gcode end: start_filament_gcode
;_TOOLCHANGE 0
M104 S250 ; set temperature
M109 S250 ; set temperature and wait for it to be reached
M190 S110 ; set bed temperature and wait for it to be reached
;LAYER_CHANGE
;Z:0.2
;HEIGHT:0.2
G1 Z0.2 F12000
M73 P0 R48
G1 E-0.5 F3000
M204 S2000
G1 X24.499 Y37.324 F12000
G1 E0 F1800
;TYPE:Skirt
;WIDTH:0.52
G1 X23.399 Y38.636 E0.06589
G1 X23.005 Y40.303 E0.13179
G1 X23.005 Y45.757 E0.34166
G1 X23.586 Y47.752 E0.42163
G1 X47.355 Y85.088 E2.12473
G1 X48.823 Y86.414 E2.20084
G1 X50.49 Y86.808 E2.26673
G1 X57.787 Y86.802 E2.54751
G1 X87.839 Y84.965 E3.70605
G1 X89.01 Y84.699 E3.75228
G1 X93.959 Y82.689 E3.95782
G1 X94.782 Y82.225 E3.99416
G1 X95.882 Y80.913 E4.06006
G1 X96.277 Y79.246 E4.12595
G1 X96.277 Y38.744 E5.68446
G1 X95.814 Y36.948 E5.75581
G1 X94.663 Y35.68 E5.82171
G1 X91.986 Y33.843 E5.94663
G1 X89.884 Y33.191 E6.03131
G1 X80.818 Y33.199 E6.38015
G1 X26.488 Y36.594 E8.47481
M73 P0 R48
G1 X24.499 Y37.324 E8.55633
G1 X24.877 Y37.674 F12000
G1 F1800
G1 X23.876 Y38.755 E8.61303
G1 X23.482 Y40.303 E8.67449
G1 X23.482 Y45.757 E8.88436
G1 X23.988 Y47.496 E8.95406
G1 X47.758 Y84.832 E10.65716
G1 X48.942 Y85.938 E10.7195
G1 X50.49 Y86.331 E10.78095
G1 X57.757 Y86.325 E11.06061
G1 X87.81 Y84.489 E12.21915
G1 X88.831 Y84.257 E12.25945
G1 X93.78 Y82.247 E12.46499
G1 X95.406 Y80.794 E12.54889
G1 X95.8 Y79.246 E12.61035
G1 X95.8 Y38.744 E14.16885
G1 X95.447 Y37.274 E14.22702
G1 X94.393 Y36.073 E14.28848
G1 X91.716 Y34.237 E14.4134
G1 X89.884 Y33.669 E14.48721
G1 X80.848 Y33.675 E14.83491
G1 X26.518 Y37.07 E16.92956
G1 X24.961 Y37.584 E16.99264
G1 X24.877 Y37.674 E16.9974
G92 E0
G1 E-0.5 F3000
; printing object r6_extruder_cover_mosquito_v3.stl id:0 copy 0
; acceleration to travel
M204 S4000
G1 X41.952 Y64.006 F12000
; decel to extrusion
M204 S2000
G1 X50.49 Y77.172
; end travel
G1 E0 F1800
;TYPE:Support material
;WIDTH:0.5
G1 X51.985 Y76.776 E0.05703
G1 X51.985 Y78.771 E0.13059
G1 X52.268 Y79.267 E0.15165
G1 X52.667 Y79.504 E0.16878
G1 X53.342 Y79.904 E0.19767
G1 X53.342 Y81.703 E0.264
G1 X53.973 Y82.335 E0.29694
G1 X56.802 Y82.335 E0.40121
G1 X57.56 Y83.093 E0.44073
G1 X50.49 Y83.093 E0.70139
G1 X50.49 Y77.172 E0.91967
G92 E0
G1 E-0.5 F3000
; acceleration to travel
M204 S4000
G1 X54.46 Y81.043 F12000
; decel to extrusion
M204 S2000
G1 X56.445 Y82.979
; end travel
G1 E0 F1800
G1 X56.445 Y82.646 E0.01228
G1 X55.937 Y82.646 E0.031
G1 X55.937 Y82.782 E0.03603
G1 X55.429 Y82.782 E0.05475
G1 X55.429 Y82.646 E0.05978
G1 X54.921 Y82.646 E0.0785
G1 X54.921 Y82.782 E0.08353
G1 X54.413 Y82.782 E0.10226
G1 X54.413 Y82.646 E0.10729
G1 X53.906 Y82.646 E0.12601
G1 X53.906 Y82.782 E0.13104
G1 X53.398 Y82.782 E0.14976
G1 X53.398 Y82.199 E0.17127
G1 X53.031 Y81.832 E0.1904
G1 X53.031 Y80.081 E0.25494
G1 X52.89 Y79.997 E0.26099
G1 X52.89 Y82.782 E0.36365
G1 X52.382 Y82.782 E0.38237
G1 X52.382 Y79.696 E0.49612
G1 X52.039 Y79.493 E0.51084
G1 X51.874 Y79.204 E0.52309
G1 X51.874 Y82.782 E0.65498
G1 X51.366 Y82.782 E0.67371
G1 X51.366 Y77.261 E0.87724
G1 X50.858 Y77.396 E0.89661
G1 X50.858 Y82.979 E1.10243
G92 E0
G1 E-0.5 F3000
; acceleration to travel
M204 S4000
G1 X70.018 Y78.792 F12000
; decel to extrusion
M204 S2000
G1 X79.598 Y76.698
; end travel
G1 E0 F1800
G1 X79.585 Y76.515 E0.00679
G1 X79.584 Y76.499 E0.00737
G1 X79.572 Y76.331 E0.0136
G1 X79.592 Y76.05 E0.02398
G1 X79.639 Y75.812 E0.03293
G1 X79.682 Y75.594 E0.04109
G1 X79.744 Y75.433 E0.04747
G1 X79.809 Y75.261 E0.05425
G1 X79.899 Y75.1 E0.06104
G1 X79.991 Y74.934 E0.06804
G1 X80.158 Y74.711 E0.0783
G1 X80.489 Y74.381 E0.09553
G1 X80.711 Y74.214 E0.10579
G1 X80.877 Y74.122 E0.11279
G1 X81.038 Y74.032 E0.11958
G1 X81.21 Y73.966 E0.12636
G1 X81.372 Y73.905 E0.13274
G1 X81.416 Y73.896 E0.13441
G1 X81.589 Y73.862 E0.1409
G1 X81.793 Y73.821 E0.14858
G1 X81.827 Y73.814 E0.14984
G1 X81.838 Y73.814 E0.15028
G1 X82.108 Y73.794 E0.16023
G1 X82.161 Y73.798 E0.16219
G1 X82.292 Y73.808 E0.16704
G1 X82.409 Y73.816 E0.17136
G1 X82.476 Y73.821 E0.17383
G1 X82.655 Y73.861 E0.18061
G1 X82.835 Y73.901 E0.1874
G1 X83.007 Y73.966 E0.19418
G1 X83.179 Y74.032 E0.20097
G1 X83.34 Y74.122 E0.20775
G1 X83.506 Y74.214 E0.21476
G1 X83.734 Y74.385 E0.22529
G1 X83.872 Y74.519 E0.23239
G1 X83.998 Y74.642 E0.23886
G1 X84.132 Y74.822 E0.24713
G1 X84.272 Y75.011 E0.25583
G1 X84.406 Y75.256 E0.26611
G1 X84.473 Y75.433 E0.27307
G1 X84.535 Y75.594 E0.27945
G1 X84.539 Y75.605 E0.27986
G1 X84.579 Y75.784 E0.28664
G1 X84.619 Y75.964 E0.29343
G1 X84.632 Y76.148 E0.30021
G1 X84.645 Y76.331 E0.307
G1 X84.632 Y76.515 E0.31378
G1 X84.618 Y76.7 E0.32064
G1 X84.559 Y76.975 E0.331
G1 X84.478 Y77.201 E0.33986
G1 X84.403 Y77.411 E0.34806
G1 X84.318 Y77.562 E0.35447
G1 X84.228 Y77.723 E0.36125
G1 X84.116 Y77.869 E0.36803
G1 X84 Y78.021 E0.37509
G1 X83.798 Y78.223 E0.38561
G1 X83.646 Y78.339 E0.39267
G1 X83.508 Y78.446 E0.39911
G1 X83.311 Y78.551 E0.40734
G1 X83.244 Y78.587 E0.41015
G1 X83.101 Y78.663 E0.41612
G1 X82.924 Y78.729 E0.42308
G1 X82.838 Y78.761 E0.42645
G1 X82.655 Y78.801 E0.43335
G1 X82.476 Y78.841 E0.44014
G1 X82.292 Y78.855 E0.44693
G1 X82.108 Y78.868 E0.45371
G1 X81.925 Y78.855 E0.4605
G1 X81.777 Y78.844 E0.46596
G1 X81.739 Y78.841 E0.46736
G1 X81.465 Y78.781 E0.47771
G1 X81.238 Y78.701 E0.48657
G1 X81.029 Y78.626 E0.49477
G1 X80.877 Y78.541 E0.50118
G1 X80.774 Y78.483 E0.50553
G1 X80.717 Y78.451 E0.50797
G1 X80.571 Y78.339 E0.51475
G1 X80.419 Y78.223 E0.5218
G1 X80.217 Y78.021 E0.53233
G1 X80.101 Y77.869 E0.53938
G1 X79.994 Y77.73 E0.54583
G1 X79.904 Y77.562 E0.55284
G1 X79.889 Y77.533 E0.55406
G1 X79.777 Y77.323 E0.56284
G1 X79.679 Y77.061 E0.57316
G1 X79.638 Y76.878 E0.58007
G1 X79.598 Y76.698 E0.58685
; acceleration to travel
M204 S4000
G1 X82.446 Y77.559 F12000
; decel to extrusion
M204 S2000
G1 X83.87 Y77.989
; end travel
G1 F1800
G1 X83.87 Y74.99 E0.69743
G1 X83.764 Y74.847 E0.70398
G1 X83.656 Y74.743 E0.70952
G1 X83.532 Y74.622 E0.71589
G1 X83.362 Y74.495 E0.72372
G1 X83.362 Y78.166 E0.85905
G1 X83.339 Y78.184 E0.86014
G1 X83.164 Y78.277 E0.86742
G1 X83.097 Y78.313 E0.87023
G1 X82.973 Y78.379 E0.87543
G1 X82.854 Y78.423 E0.8801
G1 X82.854 Y74.241 E1.0343
G1 X82.746 Y74.199 E1.03857
G1 X82.588 Y74.164 E1.04452
G1 X82.43 Y74.129 E1.05047
G1 X82.386 Y74.126 E1.05211
G1 X82.346 Y74.123 E1.05359
G1 X82.346 Y78.539 E1.21639
G1 X82.269 Y78.545 E1.21922
G1 X82.108 Y78.556 E1.22517
G1 X81.948 Y78.545 E1.23112
G1 X81.838 Y78.537 E1.23516
G1 X81.838 Y74.129 E1.39766
G1 X81.649 Y74.167 E1.40476
G1 X81.477 Y74.201 E1.41125
G1 X81.458 Y74.205 E1.41195
G1 X81.33 Y74.253 E1.41698
G1 X81.33 Y78.403 E1.56998
G1 X81.158 Y78.342 E1.57673
G1 X81.029 Y78.27 E1.58219
G1 X80.926 Y78.212 E1.58654
G1 X80.888 Y78.191 E1.58814
G1 X80.823 Y78.141 E1.59118
G1 X80.823 Y74.519 E1.72468
G1 X80.693 Y74.616 E1.73066
G1 X80.394 Y74.916 E1.74625
G1 X80.315 Y75.021 E1.75111
G1 X80.315 Y77.957 E1.85934
G92 E0
G1 E-0.5 F3000
; acceleration to travel
M204 S4000
G1 X67.113 Y76.994 F12000
; decel to extrusion
M204 S2000
G1 X60.512 Y76.513
; end travel
G1 E0 F1800
G1 X60.498 Y76.7 E0.00692
G1 X60.439 Y76.975 E0.01728
G1 X60.358 Y77.201 E0.02614
G1 X60.283 Y77.411 E0.03433
G1 X60.198 Y77.562 E0.04075
G1 X60.108 Y77.723 E0.04753
G1 X59.996 Y77.869 E0.05431
G1 X59.88 Y78.021 E0.06137
G1 X59.678 Y78.223 E0.07189
G1 X59.649 Y78.245 E0.07322
G1 X59.526 Y78.339 E0.07895
G1 X59.414 Y78.426 E0.08418
G1 X59.388 Y78.446 E0.08539
G1 X59.296 Y78.495 E0.08922
G1 X59.191 Y78.551 E0.09362
G1 X59.078 Y78.611 E0.09831
G1 X58.981 Y78.663 E0.1024
G1 X58.718 Y78.761 E0.11272
G1 X58.535 Y78.801 E0.11963
G1 X58.356 Y78.841 E0.12642
G1 X58.172 Y78.855 E0.1332
G1 X57.988 Y78.868 E0.13999
G1 X57.805 Y78.855 E0.14677
G1 X57.619 Y78.841 E0.15363
G1 X57.345 Y78.781 E0.16399
G1 X57.287 Y78.761 E0.16624
G1 X57.118 Y78.701 E0.17285
G1 X56.909 Y78.626 E0.18105
G1 X56.757 Y78.541 E0.18746
G1 X56.597 Y78.451 E0.19424
G1 X56.542 Y78.409 E0.1968
G1 X56.451 Y78.339 E0.20103
G1 X56.299 Y78.223 E0.20808
G1 X56.097 Y78.021 E0.2186
G1 X55.981 Y77.869 E0.22566
G1 X55.874 Y77.73 E0.2321
G1 X55.769 Y77.533 E0.24033
G1 X55.657 Y77.323 E0.24911
G1 X55.559 Y77.061 E0.25944
G1 X55.518 Y76.878 E0.26634
G1 X55.478 Y76.698 E0.27313
G1 X55.465 Y76.515 E0.27992
G1 X55.452 Y76.331 E0.28673
G1 X55.472 Y76.05 E0.29711
G1 X55.519 Y75.812 E0.30606
G1 X55.562 Y75.594 E0.31422
G1 X55.624 Y75.433 E0.3206
G1 X55.689 Y75.261 E0.32738
G1 X55.779 Y75.1 E0.33417
G1 X55.871 Y74.934 E0.34117
G1 X55.956 Y74.822 E0.34634
G1 X56.038 Y74.711 E0.35143
G1 X56.203 Y74.546 E0.36004
G1 X56.369 Y74.381 E0.36866
G1 X56.591 Y74.214 E0.37892
G1 X56.757 Y74.122 E0.38592
G1 X56.918 Y74.032 E0.39271
G1 X57.09 Y73.966 E0.39949
G1 X57.252 Y73.905 E0.40587
G1 X57.469 Y73.862 E0.41403
G1 X57.707 Y73.814 E0.42297
G1 X57.988 Y73.794 E0.43336
G1 X58.172 Y73.808 E0.44017
G1 X58.277 Y73.815 E0.44406
G1 X58.356 Y73.821 E0.44696
G1 X58.535 Y73.861 E0.45374
G1 X58.715 Y73.901 E0.46053
G1 X58.887 Y73.966 E0.46731
G1 X59.059 Y74.032 E0.4741
G1 X59.22 Y74.122 E0.48088
G1 X59.386 Y74.214 E0.48789
G1 X59.614 Y74.385 E0.49841
G1 X59.752 Y74.519 E0.50552
G1 X59.878 Y74.642 E0.51199
G1 X60.012 Y74.822 E0.52026
G1 X60.152 Y75.011 E0.52896
G1 X60.286 Y75.256 E0.53924
G1 X60.353 Y75.433 E0.5462
G1 X60.419 Y75.605 E0.55299
G1 X60.459 Y75.784 E0.55977
G1 X60.499 Y75.964 E0.56656
G1 X60.512 Y76.148 E0.57334
G1 X60.525 Y76.331 E0.58013
G1 X60.512 Y76.513 E0.58685
; acceleration to travel
M204 S4000
G1 X60.171 Y77.289 F12000
; decel to extrusion
M204 S2000
G1 X60 Y77.677
; end travel
G1 F1800
G1 X60 Y75.381 E0.6715
G1 X59.89 Y75.179 E0.67996
G1 X59.762 Y75.007 E0.68786
G1 X59.644 Y74.847 E0.6952
G1 X59.536 Y74.743 E0.70074
G1 X59.492 Y74.7 E0.70299
G1 X59.492 Y77.969 E0.8235
G1 X59.473 Y77.988 E0.82452
G1 X59.46 Y77.998 E0.8251
G1 X59.337 Y78.093 E0.83083
G1 X59.219 Y78.184 E0.83633
G1 X59.149 Y78.22 E0.83922
G1 X59.044 Y78.277 E0.84361
G1 X58.984 Y78.309 E0.84612
G1 X58.984 Y74.346 E0.99221
G1 X58.927 Y74.314 E0.99462
G1 X58.776 Y74.257 E1.00057
G1 X58.626 Y74.199 E1.00651
G1 X58.476 Y74.166 E1.01215
G1 X58.476 Y78.496 E1.17178
G1 X58.31 Y78.533 E1.17804
G1 X58.149 Y78.545 E1.18399
G1 X57.988 Y78.556 E1.18994
G1 X57.969 Y78.555 E1.19068
G1 X57.969 Y74.107 E1.35465
G1 X57.748 Y74.123 E1.36279
G1 X57.529 Y74.167 E1.37102
G1 X57.461 Y74.18 E1.3736
G1 X57.461 Y78.489 E1.53244
G1 X57.431 Y78.482 E1.53357
G1 X57.392 Y78.468 E1.53508
G1 X57.223 Y78.408 E1.54169
G1 X57.038 Y78.342 E1.54893
G1 X56.953 Y78.294 E1.55254
G1 X56.953 Y74.368 E1.69727
G1 X56.909 Y74.393 E1.69912
G1 X56.761 Y74.475 E1.70536
G1 X56.573 Y74.616 E1.71403
G1 X56.445 Y74.744 E1.7207
G1 X56.445 Y77.929 E1.83811
G1 X56.331 Y77.815 E1.84404
G1 X56.227 Y77.68 E1.85034
G1 X56.136 Y77.561 E1.85584
G1 X56.043 Y77.387 E1.86313
G1 X55.941 Y77.195 E1.87114
G1 X55.937 Y77.186 E1.87152
G1 X55.937 Y75.051 E1.95022
G92 E0
G1 E-0.5 F3000
; acceleration to travel
M204 S4000
G1 X57.21 Y71.969 F12000
; decel to extrusion
M204 S2000
G1 X57.847 Y70.428
; end travel
G1 E0 F1800
G1 X57.847 Y67.468 E0.10914
G1 X62.719 Y67.468 E0.28876
G1 X62.719 Y70.428 E0.39791
G1 X57.847 Y70.428 E0.57753
; acceleration to travel
M204 S4000
G1 X60.637 Y70.352 F12000
; decel to extrusion
M204 S2000
G1 X62.031 Y70.314
; end travel
G1 F1800
G1 X62.031 Y67.778 E0.671
G1 X61.524 Y67.778 E0.68972
G1 X61.524 Y70.117 E0.77595
G1 X61.016 Y70.117 E0.79467
G1 X61.016 Y67.778 E0.8809
G1 X60.508 Y67.778 E0.89962
G1 X60.508 Y70.117 E0.98585
G1 X60 Y70.117 E1.00457
G1 X60 Y67.778 E1.0908
G1 X59.492 Y67.778 E1.10952
G1 X59.492 Y70.117 E1.19575
G1 X58.984 Y70.117 E1.21447
G1 X58.984 Y67.778 E1.3007
G1 X58.476 Y67.778 E1.31942
G1 X58.476 Y70.314 E1.4129
G92 E0
G1 E-0.5 F3000
; acceleration to travel
M204 S4000
G1 X71.262 Y70.314 F12000
; decel to extrusion
M204 S2000
G1 X77.654 Y70.314
; end travel
G1 E0 F1800
G1 X77.654 Y67.468 E0.10493
G1 X81.82 Y67.468 E0.25849
G1 X81.82 Y70.428 E0.36764
G1 X77.654 Y70.428 E0.5212
G1 X77.654 Y70.314 E0.52541
; acceleration to travel
M204 S4000
G1 X80.105 Y70.314 F12000
; decel to extrusion
M204 S2000
G1 X81.33 Y70.314
; end travel
G1 F1800
G1 X81.33 Y67.778 E0.61888
G1 X80.823 Y67.778 E0.63761
G1 X80.823 Y70.117 E0.72383
G1 X80.315 Y70.117 E0.74256
G1 X80.315 Y67.778 E0.82879
G1 X79.807 Y67.778 E0.84751
G1 X79.807 Y70.117 E0.93374
G1 X79.299 Y70.117 E0.95246
G1 X79.299 Y67.778 E1.03869
G1 X78.791 Y67.778 E1.05741
G1 X78.791 Y70.117 E1.14364
G1 X78.283 Y70.117 E1.16236
G1 X78.283 Y67.582 E1.25583
G92 E0
G1 E-0.5 F3000
; acceleration to travel
M204 S4000
G1 X79.938 Y54.137 F12000
; decel to extrusion
M204 S2000
G1 X80.765 Y47.414
; end travel
G1 E0 F1800
G1 X80.765 Y45.794 E0.05973
G1 X80.656 Y45.464 E0.07255
G1 X80.349 Y45.051 E0.0915
G1 X79.892 Y44.822 E0.11036
G1 X74.259 Y44.822 E0.31803
G1 X74.259 Y40.303 E0.48463
G1 X81.05 Y40.303 E0.73499
G1 X81.05 Y36.907 E0.86017
G1 X89.884 Y36.907 E1.18585
G1 X89.884 Y37.81 E1.21912
G1 X89.501 Y38.013 E1.23511
G1 X85.881 Y39.937 E1.38626
G1 X85.668 Y40.139 E1.39708
G1 X85.48 Y40.451 E1.4105
G1 X85.402 Y40.734 E1.42132
G1 X85.402 Y47.414 E1.6676
G1 X80.765 Y47.414 E1.83853
G92 E0
G1 E-0.5 F3000
; acceleration to travel
M204 S4000
G1 X86.559 Y41.076 F12000
; decel to extrusion
M204 S2000
G1 X89.456 Y37.908
; end travel
G1 E0 F1800
G1 X89.456 Y37.218 E0.02543
G1 X88.948 Y37.218 E0.04415
G1 X88.948 Y37.955 E0.07132
G1 X88.44 Y38.225 E0.09252
G1 X88.44 Y37.218 E0.12964
G1 X87.933 Y37.218 E0.14836
G1 X87.933 Y38.495 E0.19543
G1 X87.425 Y38.765 E0.21664
G1 X87.425 Y37.218 E0.27365
G1 X86.917 Y37.218 E0.29238
G1 X86.917 Y39.034 E0.35934
G1 X86.409 Y39.304 E0.38055
G1 X86.409 Y37.218 E0.45746
G1 X85.901 Y37.218 E0.47619
G1 X85.901 Y39.574 E0.56305
G1 X85.697 Y39.682 E0.57156
G1 X85.423 Y39.943 E0.5855
G1 X85.393 Y39.992 E0.58763
G1 X85.393 Y37.218 E0.68991
G1 X84.885 Y37.218 E0.70863
G1 X84.885 Y47.103 E1.07307
G1 X84.378 Y47.103 E1.09179
G1 X84.378 Y37.218 E1.45623
G1 X83.87 Y37.218 E1.47495
G1 X83.87 Y47.103 E1.83939
G1 X83.362 Y47.103 E1.85812
G1 X83.362 Y37.218 E2.22256
G1 X82.854 Y37.218 E2.24128
G1 X82.854 Y47.103 E2.60572
G1 X82.346 Y47.103 E2.62444
G1 X82.346 Y37.218 E2.98888
G1 X81.838 Y37.218 E3.0076
G1 X81.838 Y47.103 E3.37204
G1 X81.33 Y47.103 E3.39077
G1 X81.33 Y40.614 E3.63002
G1 X80.823 Y40.614 E3.64874
G1 X80.823 Y45.167 E3.81662
G1 X80.555 Y44.807 E3.83317
G1 X80.315 Y44.686 E3.84308
G1 X80.315 Y40.614 E3.99322
G1 X79.807 Y40.614 E4.01194
G1 X79.807 Y44.511 E4.15561
G1 X79.299 Y44.511 E4.17434
G1 X79.299 Y40.614 E4.31801
G1 X78.791 Y40.614 E4.33673
G1 X78.791 Y44.511 E4.48041
G1 X78.283 Y44.511 E4.49913
G1 X78.283 Y40.614 E4.6428
G1 X77.775 Y40.614 E4.66153
G1 X77.775 Y44.511 E4.8052
G1 X77.267 Y44.511 E4.82392
G1 X77.267 Y40.614 E4.9676
G1 X76.76 Y40.614 E4.98632
G1 X76.76 Y44.511 E5.12999
G1 X76.252 Y44.511 E5.14871
G1 X76.252 Y40.614 E5.29239
G1 X75.744 Y40.614 E5.31111
G1 X75.744 Y44.511 E5.45478
G1 X75.236 Y44.511 E5.47351
G1 X75.236 Y40.614 E5.61718
G1 X74.728 Y40.614 E5.6359
G1 X74.728 Y44.707 E5.78682
G92 E0
