; generated by SuperSlicer 2.5.59 on 2023-02-09 at 15:13:20 UTC


;
;

;
;
; 

; external perimeters extrusion width = 0.40mm
; perimeters extrusion width = 0.46mm
; infill extrusion width = 0.64mm
; solid infill extrusion width = 0.56mm
; top infill extrusion width = 0.40mm
; support material extrusion width = 0.46mm
; first layer extrusion width = 0.50mm

; external perimeters extrusion width = 0.40mm
; perimeters extrusion width = 0.46mm
; infill extrusion width = 0.64mm
; solid infill extrusion width = 0.56mm
; top infill extrusion width = 0.40mm
; support material extrusion width = 0.46mm
; first layer extrusion width = 0.50mm

; object:{"name":"r6_extruder_motor_plate_mosquito_v3","id":"r6_extruder_motor_plate_mosquito_v3.stl id:0 copy 0","object_center":[60.000001,76.870719,0.000000],"boundingbox_center":[60.000001,76.870719,5.527500],"boundingbox_size":[48.240000,56.179502,11.055000]}
; object:{"name":"r6_fan_shroud_mosquito_v4","id":"r6_fan_shroud_mosquito_v4.stl id:1 copy 0","object_center":[60.000001,28.910250,0.000000],"boundingbox_center":[60.000001,28.910250,9.999751],"boundingbox_size":[45.549563,27.741437,19.999502]}
; plater:{"center":[60.000001,60.000001,0.000000],"boundingbox_center":[60.000001,60.000001,9.999751],"boundingbox_size":[48.240000,89.920938,19.999502]}

M73 P0 R65
;TYPE:Custom
; custom gcode: start_gcode
START_PRINT T_BED=110 T_EXTRUDER=250
; custom gcode end: start_gcode
M107
G21 ; set units to millimeters
G90 ; use absolute coordinates
M82 ; use absolute distances for extrusion
G92 E0
; custom gcode: start_filament_gcode
; Filament gcode

    PRESSURE_ADVANCE_SELECT FILAMENT=ABS
; custom gcode end: start_filament_gcode
;_TOOLCHANGE 0
M104 S250 ; set temperature
M109 S250 ; set temperature and wait for it to be reached
M190 S110 ; set bed temperature and wait for it to be reached
;LAYER_CHANGE
;Z:0.2
;HEIGHT:0.2
G1 Z0.2 F12000
M73 P0 R65
G1 E-0.5 F3000
M204 S2000
G1 X41.551 Y17.473 F12000
G1 E0 F1800
;TYPE:Skirt
;WIDTH:0.52
G1 X40.475 Y20.073 E0.10832
G1 X39.759 Y22.8 E0.21679
G1 X32.419 Y57.717 E1.58974
G1 X32.264 Y59.422 E1.6556
G1 X32.264 Y71.72 E2.12883
G1 X32.378 Y72.631 E2.16417
G1 X40.751 Y105.727 E3.47779
G1 X41.32 Y106.962 E3.53011
G1 X42.288 Y107.924 E3.58263
G1 X43.289 Y108.419 E3.62559
G1 X44.455 Y108.643 E3.6713
G1 X45.445 Y108.676 E3.70939
G1 X75.046 Y108.576 E4.84844
G1 X76.204 Y108.387 E4.89356
G1 X77.661 Y107.488 E4.95946
G1 X80.617 Y104.531 E5.12034
G1 X81.415 Y103.345 E5.17534
G1 X86.518 Y91.218 E5.68162
G1 X86.806 Y89.914 E5.733
G1 X87.733 Y64.856 E6.69786
G1 X87.736 Y61.041 E6.84465
G1 X84.851 Y24.15 E8.26855
G1 X84.541 Y22.336 E8.33936
G1 X83.862 Y19.896 E8.43682
G1 X82.82 Y17.415 E8.54035
G1 X81.329 Y14.754 E8.65771
G1 X80.234 Y13.296 E8.72789
G1 X79.556 Y12.636 E8.7643
G1 X78.776 Y12.112 E8.80047
G1 X77.109 Y11.717 E8.86637
G1 X47.289 Y11.713 E10.01382
G1 X46.328 Y11.839 E10.05112
G1 X44.821 Y12.651 E10.11702
G1 X44.174 Y13.287 E10.15191
G1 X43.288 Y14.421 E10.20728
G1 X41.551 Y17.473 E10.34238
G1 X41.971 Y17.699 F12000
G1 F1800
G1 X40.923 Y20.238 E10.44807
G1 X40.226 Y22.898 E10.55389
G1 X32.891 Y57.787 E11.92574
G1 X32.741 Y59.422 E11.9889
G1 X32.741 Y71.72 E12.46213
G1 X32.84 Y72.514 E12.49293
G1 X41.213 Y105.61 E13.80655
G1 X41.712 Y106.691 E13.85237
G1 X42.556 Y107.53 E13.89815
G1 X43.434 Y107.965 E13.93583
G1 X44.951 Y108.199 E13.9949
G1 X75.045 Y108.099 E15.15289
G1 X75.951 Y107.966 E15.18812
G1 X77.324 Y107.15 E15.24958
G1 X80.28 Y104.194 E15.41046
G1 X80.975 Y103.16 E15.4584
G1 X86.078 Y91.033 E15.96468
G1 X86.329 Y89.896 E16.00946
G1 X87.256 Y64.839 E16.97432
G1 X87.259 Y61.041 E17.12044
G1 X84.376 Y24.196 E18.54257
M73 P0 R65
G1 X84.076 Y22.444 E18.61095
G1 X83.417 Y20.068 E18.70584
G1 X82.399 Y17.639 E18.80716
G1 X80.916 Y14.993 E18.92388
G1 X79.865 Y13.599 E18.99107
G1 X79.242 Y12.995 E19.02446
G1 X77.109 Y12.194 E19.11212
G1 X47.289 Y12.19 E20.25957
G1 X45.137 Y13.008 E20.34815
G1 X44.033 Y14.21 E20.41096
G1 X43.51 Y14.956 E20.44601
G1 X41.971 Y17.699 E20.56705
G92 E0
G1 E-0.5 F3000
; printing object r6_extruder_motor_plate_mosquito_v3.stl id:0 copy 0
; acceleration to travel
M204 S4000
G1 X54.441 Y57.598 F12000
; decel to extrusion
M204 S2000
G1 X60.676 Y77.547
; end travel
G1 E0 F1800
;TYPE:Support material
;WIDTH:0.5
G1 X64.743 Y77.547 E0.14992
G1 X64.959 Y77.81 E0.16248
G1 X65.23 Y78.14 E0.17819
G1 X65.403 Y78.395 E0.18957
G1 X65.921 Y79.156 E0.2235
G1 X66.394 Y79.407 E0.24325
G1 X78.437 Y79.407 E0.6872
G1 X79.069 Y78.775 E0.72014
G1 X79.069 Y77.547 E0.7654
G1 X83.093 Y77.547 E0.91376
G1 X83.093 Y89.777 E1.36462
G1 X78.904 Y89.777 E1.51904
G1 X78.437 Y89.309 E1.5434
G1 X66.394 Y89.309 E1.98737
G1 X65.921 Y89.56 E2.00713
G1 X65.774 Y89.777 E2.01677
G1 X60.676 Y89.777 E2.20468
G1 X60.676 Y77.547 E2.65554
; acceleration to travel
M204 S4000
G1 X75.123 Y85.624 F12000
; decel to extrusion
M204 S2000
G1 X82.346 Y89.662
; end travel
G1 F1800
G1 X82.346 Y77.858 E3.09073
G1 X81.838 Y77.858 E3.10945
G1 X81.838 Y89.466 E3.53739
G1 X81.33 Y89.466 E3.55611
G1 X81.33 Y77.858 E3.98405
G1 X80.823 Y77.858 E4.00278
G1 X80.823 Y89.466 E4.43072
G1 X80.315 Y89.466 E4.44944
G1 X80.315 Y77.858 E4.87738
G1 X79.807 Y77.858 E4.8961
G1 X79.807 Y89.466 E5.32404
G1 X79.299 Y89.466 E5.34277
G1 X79.299 Y78.984 E5.7292
G1 X78.791 Y79.492 E5.75568
G1 X78.791 Y89.224 E6.11447
G1 X78.565 Y88.999 E6.12623
G1 X78.283 Y88.999 E6.13664
G1 X78.283 Y79.717 E6.4788
G1 X77.775 Y79.717 E6.49753
G1 X77.775 Y88.999 E6.83969
G1 X77.267 Y88.999 E6.85842
G1 X77.267 Y79.717 E7.20058
G1 X76.76 Y79.717 E7.2193
G1 X76.76 Y88.999 E7.56147
G1 X76.252 Y88.999 E7.58019
G1 X76.252 Y79.717 E7.92236
G1 X75.744 Y79.717 E7.94108
G1 X75.744 Y88.999 E8.28325
G1 X75.236 Y88.999 E8.30197
G1 X75.236 Y79.717 E8.64413
G1 X74.728 Y79.717 E8.66286
G1 X74.728 Y88.999 E9.00502
G1 X74.22 Y88.999 E9.02375
G1 X74.22 Y79.717 E9.36591
G1 X73.712 Y79.717 E9.38463
G1 X73.712 Y88.999 E9.7268
G1 X73.205 Y88.999 E9.74552
G1 X73.205 Y79.717 E10.08769
G1 X72.697 Y79.717 E10.10641
G1 X72.697 Y88.999 E10.44858
G1 X72.189 Y88.999 E10.4673
G1 X72.189 Y79.717 E10.80947
G1 X71.681 Y79.717 E10.82819
G1 X71.681 Y88.999 E11.17035
G1 X71.173 Y88.999 E11.18908
G1 X71.173 Y79.717 E11.53124
G1 X70.665 Y79.717 E11.54996
G1 X70.665 Y88.999 E11.89213
G1 X70.157 Y88.999 E11.91085
G1 X70.157 Y79.717 E12.25302
G1 X69.649 Y79.717 E12.27174
G1 X69.649 Y88.999 E12.61391
G1 X69.142 Y88.999 E12.63263
G1 X69.142 Y79.717 E12.9748
G1 X68.634 Y79.717 E12.99352
G1 X68.634 Y88.999 E13.33568
G1 X68.126 Y88.999 E13.35441
G1 X68.126 Y79.717 E13.69657
G1 X67.618 Y79.717 E13.7153
G1 X67.618 Y88.999 E14.05746
G1 X67.11 Y88.999 E14.07618
G1 X67.11 Y79.717 E14.41835
G1 X66.602 Y79.717 E14.43707
G1 X66.602 Y88.999 E14.77924
G1 X66.317 Y88.999 E14.78975
G1 X66.094 Y89.117 E14.79904
G1 X66.094 Y79.599 E15.1499
G1 X65.707 Y79.395 E15.16604
G1 X65.587 Y79.217 E15.17396
G1 X65.587 Y89.466 E15.55181
G1 X65.079 Y89.466 E15.57053
G1 X65.079 Y78.47 E15.97589
G1 X64.981 Y78.326 E15.98232
G1 X64.719 Y78.008 E15.99751
G1 X64.596 Y77.858 E16.00465
G1 X64.571 Y77.858 E16.00559
G1 X64.571 Y89.466 E16.43353
G1 X64.063 Y89.466 E16.45225
G1 X64.063 Y77.858 E16.88019
G1 X63.555 Y77.858 E16.89892
G1 X63.555 Y89.466 E17.32686
G1 X63.047 Y89.466 E17.34558
G1 X63.047 Y77.858 E17.77352
G1 X62.539 Y77.858 E17.79224
G1 X62.539 Y89.466 E18.22018
G1 X62.031 Y89.466 E18.23891
G1 X62.031 Y77.858 E18.66685
G1 X61.524 Y77.858 E18.68557
G1 X61.524 Y89.466 E19.11351
G1 X61.016 Y89.466 E19.13223
G1 X61.016 Y77.661 E19.56742
G92 E0
G1 E-0.5 F3000
; acceleration to travel
M204 S4000
G1 X67.698 Y90.542 F12000
; decel to extrusion
M204 S2000
G1 X71.039 Y96.982
; end travel
G1 E0 F1800
;TYPE:Internal perimeter
G1 X70.581 Y97.259 E0.01973
G1 X70.118 Y97.673 E0.04261
G1 X69.741 Y98.166 E0.0655
G1 X69.462 Y98.721 E0.08839
G1 X69.29 Y99.317 E0.11128
G1 X69.232 Y99.935 E0.13416
G1 X69.29 Y100.554 E0.15705
G1 X69.462 Y101.15 E0.17994
G1 X69.741 Y101.705 E0.20283
G1 X70.118 Y102.197 E0.22571
G1 X70.581 Y102.612 E0.2486
G1 X71.112 Y102.933 E0.27148
G1 X71.694 Y103.15 E0.29436
G1 X72.295 Y103.253 E0.31686
G1 X72.83 Y103.253 E0.33658
G1 X73.431 Y103.15 E0.35908
G1 X74.013 Y102.933 E0.38196
G1 X74.544 Y102.612 E0.40484
G1 X75.007 Y102.197 E0.42773
G1 X75.384 Y101.705 E0.45061
G1 X75.663 Y101.15 E0.4735
G1 X75.835 Y100.554 E0.49639
G1 X75.893 Y99.935 E0.51928
G1 X75.835 Y99.317 E0.54216
G1 X75.663 Y98.721 E0.56505
G1 X75.384 Y98.166 E0.58794
G1 X75.007 Y97.673 E0.61082
G1 X74.544 Y97.259 E0.63371
G1 X74.013 Y96.938 E0.65659
G1 X73.431 Y96.721 E0.67948
G1 X72.83 Y96.618 E0.70197
G1 X72.295 Y96.618 E0.7217
G1 X71.694 Y96.721 E0.74419
G1 X71.112 Y96.938 E0.76707
G1 X71.039 Y96.982 E0.77023
G1 X71.275 Y97.374 F12000
G1 F1800
G1 X70.854 Y97.628 E0.78838
G1 X70.455 Y97.985 E0.80811
G1 X70.13 Y98.41 E0.82784
G1 X69.889 Y98.888 E0.84757
G1 X69.741 Y99.403 E0.8673
G1 X69.691 Y99.935 E0.88703
G1 X69.741 Y100.468 E0.90676
G1 X69.889 Y100.983 E0.92649
G1 X70.13 Y101.461 E0.94623
G1 X70.455 Y101.886 E0.96596
G1 X70.854 Y102.243 E0.98569
G1 X71.312 Y102.519 E1.00541
G1 X71.813 Y102.706 E1.02514
G1 X72.334 Y102.796 E1.04462
G1 X72.791 Y102.796 E1.06147
G1 X73.312 Y102.706 E1.08095
G1 X73.813 Y102.519 E1.10067
G1 X74.271 Y102.243 E1.1204
G1 X74.67 Y101.886 E1.14013
G1 X74.995 Y101.461 E1.15986
G1 X75.236 Y100.983 E1.17959
G1 X75.384 Y100.468 E1.19932
G1 X75.434 Y99.935 E1.21905
G1 X75.384 Y99.403 E1.23879
G1 X75.236 Y98.888 E1.25852
G1 X74.995 Y98.41 E1.27825
G1 X74.67 Y97.985 E1.29798
G1 X74.271 Y97.628 E1.31771
G1 X73.813 Y97.351 E1.33744
G1 X73.312 Y97.165 E1.35716
G1 X72.791 Y97.075 E1.37664
G1 X72.334 Y97.075 E1.39349
G1 X71.813 Y97.165 E1.41297
G1 X71.312 Y97.351 E1.4327
G1 X71.275 Y97.374 E1.43427
G1 X71.512 Y97.765 F12000
;TYPE:External perimeter
G1 F1800
G1 X71.127 Y97.997 E1.45084
G1 X70.792 Y98.297 E1.46742
G1 X70.519 Y98.654 E1.48399
G1 X70.316 Y99.056 E1.50057
G1 X70.192 Y99.488 E1.51714
G1 X70.15 Y99.935 E1.53372
G1 X70.192 Y100.383 E1.5503
G1 X70.316 Y100.815 E1.56687
G1 X70.519 Y101.217 E1.58345
G1 X70.792 Y101.574 E1.60002
G1 X71.127 Y101.874 E1.6166
G1 X71.512 Y102.106 E1.63317
G1 X71.933 Y102.263 E1.64974
G1 X72.373 Y102.339 E1.6662
G1 X72.752 Y102.339 E1.68017
G1 X73.192 Y102.263 E1.69664
G1 X73.613 Y102.106 E1.71321
G1 X73.998 Y101.874 E1.72978
G1 X74.333 Y101.574 E1.74635
G1 X74.606 Y101.217 E1.76293
G1 X74.809 Y100.815 E1.7795
G1 X74.933 Y100.383 E1.79608
G1 X74.975 Y99.935 E1.81265
G1 X74.933 Y99.488 E1.82923
G1 X74.809 Y99.056 E1.84581
G1 X74.606 Y98.654 E1.86238
G1 X74.333 Y98.297 E1.87896
G1 X73.998 Y97.997 E1.89553
G1 X73.613 Y97.765 E1.9121
G1 X73.192 Y97.608 E1.92867
G1 X72.752 Y97.532 E1.94513
G1 X72.373 Y97.532 E1.95911
G1 X71.933 Y97.608 E1.97557
G1 X71.512 Y97.765 E1.99214
;WIPE_START
M204 S4000
G1 X71.174 Y97.55 F12000
;WIPE_END
G92 E0
G1 E-0.5 F3000
; acceleration to travel
G1 X55.101 Y101.648 F12000
; decel to extrusion
M204 S2000
G1 X47.065 Y103.697
; end travel
G1 E0 F1800
;TYPE:Internal perimeter
G1 X47.529 Y102.857 E0.03537
G1 X47.82 Y102.153 E0.06345
G1 X48.031 Y101.421 E0.09152
G1 X48.158 Y100.671 E0.1196
G1 X48.201 Y99.909 E0.14772
G1 X48.155 Y99.12 E0.17685
G1 X48.073 Y98.657 E0.19418
G1 X49.055 Y94.095 E0.36622
G1 X49.574 Y94.513 E0.39075
G1 X50.433 Y95.087 E0.42886
G1 X51.333 Y95.587 E0.46681
G1 X52.271 Y96.012 E0.50477
G1 X53.24 Y96.359 E0.54273
G1 X54.235 Y96.625 E0.58068
G1 X55.248 Y96.809 E0.61864
G1 X56.272 Y96.909 E0.6566
G1 X57.302 Y96.925 E0.69456
G1 X58.329 Y96.857 E0.73251
G1 X59.347 Y96.705 E0.77047
G1 X60.35 Y96.471 E0.80843
G1 X61.33 Y96.155 E0.84639
G1 X62.281 Y95.76 E0.88434
G1 X63.196 Y95.288 E0.9223
G1 X64.069 Y94.743 E0.96026
G1 X64.896 Y94.129 E0.99822
G1 X65.669 Y93.448 E1.03617
G1 X66.383 Y92.707 E1.07413
G1 X67.038 Y91.907 E1.11225
G1 X67.279 Y91.552 E1.12806
G1 X76.826 Y91.552 E1.48002
G1 X76.826 Y101.422 E1.84388
G1 X74.551 Y103.696 E1.96247
G1 X47.065 Y103.697 E2.97579
; acceleration to travel
M204 S4000
G1 X46.44 Y104.019 F12000
; decel to extrusion
M204 S2000
G1 X46.128 Y104.18
; end travel
G1 F1800
G1 X46.772 Y103.282 E3.01654
G1 X47.116 Y102.658 E3.0428
G1 X47.388 Y102.002 E3.06898
G1 X47.585 Y101.32 E3.09516
G1 X47.704 Y100.619 E3.12134
G1 X47.743 Y99.909 E3.14756
G1 X47.7 Y99.173 E3.17474
G1 X47.608 Y98.649 E3.19439
G1 X48.586 Y94.1 E3.3659
G1 X48.751 Y93.186 E3.40015
G1 X49.055 Y93.508 E3.41648
G1 X49.844 Y94.144 E3.45384
G1 X50.671 Y94.697 E3.49051
G1 X51.538 Y95.178 E3.52708
G1 X52.442 Y95.588 E3.56366
G1 X53.376 Y95.922 E3.60024
G1 X54.335 Y96.179 E3.63681
G1 X55.311 Y96.356 E3.67339
G1 X56.298 Y96.453 E3.70997
G1 X57.29 Y96.468 E3.74654
G1 X58.28 Y96.403 E3.78312
G1 X59.262 Y96.256 E3.81969
G1 X60.228 Y96.03 E3.85627
G1 X61.172 Y95.725 E3.89285
G1 X62.088 Y95.345 E3.92942
G1 X62.97 Y94.89 E3.966
G1 X63.812 Y94.365 E4.00257
G1 X64.608 Y93.773 E4.03915
G1 X65.353 Y93.118 E4.07573
G1 X66.041 Y92.404 E4.1123
G1 X66.671 Y91.633 E4.14898
G1 X67.037 Y91.095 E4.17297
G1 X77.283 Y91.095 E4.55071
G1 X77.283 Y101.611 E4.9384
G1 X74.741 Y104.153 E5.07094
G1 X46.914 Y104.154 E6.09679
G1 X46.128 Y104.18 E6.12581
; acceleration to travel
M204 S4000
G1 X45.354 Y104.534 F12000
; decel to extrusion
M204 S2000
G1 X44.968 Y104.71
; end travel
;TYPE:External perimeter
G1 F1800
G1 X44.774 Y104.684 E6.13302
G1 X45.031 Y104.409 E6.14689
G1 X45.234 Y104.227 E6.15698
G1 X45.517 Y104.061 E6.16904
G1 X45.997 Y103.578 E6.19418
G1 X46.385 Y103.037 E6.21871
G1 X46.704 Y102.46 E6.24302
G1 X46.956 Y101.851 E6.26731
G1 X47.138 Y101.218 E6.2916
G1 X47.249 Y100.568 E6.31589
G1 X47.286 Y99.91 E6.3402
G1 X47.246 Y99.227 E6.36543
G1 X47.142 Y98.64 E6.38739
G1 X48.138 Y94.012 E6.56192
G1 X48.311 Y93.05 E6.59796
G1 X48.346 Y92.571 E6.61566
G1 X48.442 Y92.126 E6.63243
G1 X48.731 Y92.446 E6.64833
G1 X49.026 Y92.812 E6.66567
G1 X49.366 Y93.172 E6.6839
G1 X50.115 Y93.775 E6.71937
G1 X50.91 Y94.306 E6.75459
G1 X51.744 Y94.77 E6.78979
G1 X52.614 Y95.164 E6.82498
G1 X53.513 Y95.485 E6.86018
G1 X54.435 Y95.732 E6.89537
G1 X55.374 Y95.903 E6.93057
G1 X56.324 Y95.996 E6.96576
G1 X57.279 Y96.011 E7.00096
G1 X58.231 Y95.948 E7.03615
G1 X59.176 Y95.807 E7.07135
G1 X60.105 Y95.589 E7.10654
G1 X61.014 Y95.296 E7.14174
G1 X61.895 Y94.93 E7.17693
G1 X62.744 Y94.493 E7.21213
G1 X63.554 Y93.987 E7.24732
G1 X64.32 Y93.417 E7.28252
G1 X65.037 Y92.787 E7.31771
G1 X65.699 Y92.1 E7.35291
G1 X66.304 Y91.36 E7.38815
G1 X66.795 Y90.638 E7.42031
G1 X77.74 Y90.638 E7.82383
G1 X77.74 Y101.8 E8.23535
G1 X74.93 Y104.61 E8.38185
G1 X46.922 Y104.611 E9.41439
G1 X45.918 Y104.644 E9.45145
G1 X45.428 Y104.71 E9.46966
G1 X44.968 Y104.71 E9.48663
;WIPE_START
M204 S4000
G1 X44.799 Y104.348 F12000
;WIPE_END
G92 E0
G1 E-0.5 F3000
; acceleration to travel
G1 X62.043 Y103.422 F12000
; decel to extrusion
M204 S2000
G1 X70.664 Y102.959
; end travel
G1 E0 F1800
;TYPE:Gap fill
;WIDTH:0.134635
G1 X70.703 Y102.988 E0.00036
G1 X70.841 Y103.09 E0.00162
;WIDTH:0.203073
G1 X70.991 Y103.2 E0.00404
G1 X71.115 Y103.275 E0.00591
;WIDTH:0.296784
G1 X71.239 Y103.35 E0.00887
G1 X71.427 Y103.384 E0.01278
;WIDTH:0.20181
G1 X71.615 Y103.418 E0.01522
G1 X71.627 Y103.419 E0.01539
;WIDTH:0.175894
G1 X71.736 Y103.429 E0.01655
;WIDTH:0.13772
G1 X71.892 Y103.442 E0.01775
; acceleration to travel
M204 S4000
G1 X72.786 Y103.442 F12000
; decel to extrusion
M204 S2000
G1 X73.233 Y103.442
; end travel
;WIDTH:0.134998
G1 F1800
G1 X73.281 Y103.438 E0.01811
G1 X73.389 Y103.429 E0.01891
;WIDTH:0.176064
G1 X73.51 Y103.418 E0.02022
G1 X73.62 Y103.398 E0.02142
;WIDTH:0.226842
G1 X73.73 Y103.378 E0.02308
;WIDTH:0.274473
G1 X73.84 Y103.358 E0.02516
;WIDTH:0.322104
G1 X73.95 Y103.338 E0.02768
;WIDTH:0.369735
G1 X74.06 Y103.318 E0.03063
;WIDTH:0.419464
G1 X74.206 Y103.29 E0.03513
;WIDTH:0.478021
G1 X74.365 Y103.246 E0.04092
;WIDTH:0.5223
G1 X74.464 Y103.168 E0.0458
;WIDTH:0.481715
G1 X74.564 Y103.09 E0.05027
;WIDTH:0.441129
G1 X74.663 Y103.013 E0.05432
;WIDTH:0.400094
G1 X74.788 Y102.913 E0.05892
G1 X75.027 Y102.686 E0.06843
;WIDTH:0.359313
G1 X75.267 Y102.459 E0.07686
G1 X75.288 Y102.438 E0.07761
G1 X75.506 Y102.189 E0.08605
;WIDTH:0.447611
