; generated by SuperSlicer 2.5.59 on 2023-02-02 at 07:20:05 UTC


;
;

;
;
; 

; external perimeters extrusion width = 0.40mm
; perimeters extrusion width = 0.46mm
; infill extrusion width = 0.64mm
; solid infill extrusion width = 0.56mm
; top infill extrusion width = 0.40mm
; support material extrusion width = 0.46mm
; first layer extrusion width = 0.50mm

; object:{"name":"r6_fan_shroud_mosquito_v4","id":"r6_fan_shroud_mosquito_v4.stl id:0 copy 0","object_center":[60.000001,60.000000,0.000000],"boundingbox_center":[60.000001,60.000000,9.950001],"boundingbox_size":[45.322948,27.603420,19.900002]}
; plater:{"center":[60.000001,60.000000,0.000000],"boundingbox_center":[60.000001,60.000000,9.950001],"boundingbox_size":[45.322948,27.603420,19.900002]}

M73 P0 R28
;TYPE:Custom
; custom gcode: start_gcode
START_PRINT T_BED=110 T_EXTRUDER=240
; custom gcode end: start_gcode
M107
G21 ; set units to millimeters
G90 ; use absolute coordinates
M82 ; use absolute distances for extrusion
G92 E0
; custom gcode: start_filament_gcode
; Filament gcode

    PRESSURE_ADVANCE_SELECT FILAMENT=ABS
; custom gcode end: start_filament_gcode
;_TOOLCHANGE 0
M104 S240 ; set temperature
M109 S240 ; set temperature and wait for it to be reached
M190 S110 ; set bed temperature and wait for it to be reached
;LAYER_CHANGE
;Z:0.2
;HEIGHT:0.2
G1 Z0.2 F12000
M73 P0 R28
G1 E-0.5 F3000
M204 S2000
G1 X31.778 Y50.599 F12000
G1 E0 F1800
;TYPE:Skirt
;WIDTH:0.52
G1 X30.19 Y52.219 E0.08638
G1 X29.796 Y53.885 E0.1516
G1 X29.796 Y72.906 E0.87596
G1 X30.474 Y75.046 E0.96146
G1 X31.757 Y76.181 E1.02668
G1 X33.412 Y76.62 E1.09189
G1 X48.155 Y77.016 E1.65356
G1 X75.539 Y77.017 E2.69639
G1 X76.801 Y76.796 E2.74518
G1 X78.234 Y75.859 E2.81039
G1 X82.191 Y71.689 E3.02935
G1 X83.159 Y69.755 E3.1117
G1 X84.701 Y60.682 E3.46215
G1 X84.902 Y57.973 E3.56561
G1 X84.853 Y56.371 E3.62664
G1 X84.535 Y53.919 E3.72081
G1 X84.108 Y52.134 E3.79069
G1 X83.29 Y49.788 E3.88531
G1 X82.198 Y47.569 E3.9795
G1 X81.001 Y45.543 E4.0691
G1 X79.721 Y44.008 E4.14525
G1 X78.692 Y43.264 E4.19359
G1 X77.025 Y42.87 E4.25881
G1 X47.352 Y42.87 E5.38886
G1 X45.618 Y43.299 E5.45686
G1 X31.778 Y50.599 E6.05275
G1 X32.001 Y51.021 F12000
G1 F1800
G1 X30.667 Y52.337 E6.12413
G1 X30.273 Y53.885 E6.18495
G1 X30.273 Y72.906 E6.90932
G1 X30.746 Y74.591 E6.97598
G1 X31.888 Y75.708 E7.0368
G1 X33.425 Y76.143 E7.09763
G1 X48.255 Y76.54 E7.6626
G1 X75.539 Y76.54 E8.70164
G1 X76.537 Y76.383 E8.74012
G1 X77.888 Y75.531 E8.80094
G1 X81.845 Y71.36 E9.0199
G1 X82.689 Y69.675 E9.09167
G1 X84.231 Y60.603 E9.44209
G1 X84.371 Y59.283 E9.49265
G1 X84.425 Y57.744 E9.5513
G1 X84.271 Y55.307 E9.6443
G1 X84.016 Y53.755 E9.70419
G1 X83.327 Y51.226 E9.80402
G1 X82.396 Y48.968 E9.89702
G1 X80.983 Y46.41 E10.00832
G1 X80.263 Y45.344 E10.05728
G1 X79.167 Y44.156 E10.11885
G1 X77.025 Y43.347 E10.20604
G1 X47.352 Y43.347 E11.3361
G1 X45.841 Y43.721 E11.39537
G1 X32.001 Y51.021 E11.99126
G92 E0
G1 E-0.5 F3000
; printing object r6_fan_shroud_mosquito_v4.stl id:0 copy 0
; acceleration to travel
M204 S4000
G1 X33.008 Y52.93 F12000
; decel to extrusion
M204 S2000
G1 X33.511 Y53.885
; end travel
G1 E0 F1800
;TYPE:Support material
;WIDTH:0.5
G1 X42.555 Y53.885 E0.32997
G1 X42.422 Y54.457 E0.35141
G1 X42.414 Y54.498 E0.35293
G1 X42.354 Y54.892 E0.36745
G1 X42.237 Y55.659 E0.39578
G1 X42.233 Y55.695 E0.39707
G1 X42.193 Y56.162 E0.41421
G1 X42.153 Y56.629 E0.43128
G1 X42.152 Y56.66 E0.4324
G1 X42.112 Y58.064 E0.48366
G1 X42.113 Y58.105 E0.48518
G1 X42.132 Y58.503 E0.4997
G1 X42.151 Y58.883 E0.5136
G1 X42.17 Y59.279 E0.52804
G1 X42.173 Y59.315 E0.52935
G1 X42.264 Y60.086 E0.55769
G1 X42.309 Y60.479 E0.57212
G1 X42.315 Y60.514 E0.57342
G1 X42.4 Y60.976 E0.59056
G1 X42.485 Y61.436 E0.60762
G1 X42.491 Y61.466 E0.60874
G1 X42.711 Y62.369 E0.64264
G1 X42.824 Y62.83 E0.65999
G1 X42.835 Y62.871 E0.66152
G1 X43.078 Y63.611 E0.68994
G1 X43.201 Y63.987 E0.70438
G1 X43.213 Y64.021 E0.70569
G1 X43.362 Y64.388 E0.72013
G1 X43.652 Y65.108 E0.74847
G1 X43.667 Y65.141 E0.74978
G1 X43.839 Y65.497 E0.76422
G1 X44.005 Y65.84 E0.77812
G1 X44.177 Y66.196 E0.79255
G1 X44.194 Y66.228 E0.79387
G1 X44.39 Y66.572 E0.80831
G1 X44.774 Y67.247 E0.83663
G1 X44.792 Y67.277 E0.8379
G1 X45.067 Y67.695 E0.85617
G1 X45.334 Y68.101 E0.87391
G1 X45.602 Y68.507 E0.89166
G1 X45.741 Y68.719 E0.90091
G1 X45.741 Y72.906 E1.05367
G1 X33.511 Y72.906 E1.49988
G1 X33.511 Y53.885 E2.19387
; acceleration to travel
M204 S4000
G1 X41.352 Y66.49 F12000
; decel to extrusion
M204 S2000
G1 X45.272 Y72.792
; end travel
G1 F1800
G1 X45.272 Y68.572 E2.34785
M73 P1 R28
G1 X45.075 Y68.272 E2.36094
G1 X44.807 Y67.866 E2.37869
G1 X44.764 Y67.8 E2.38156
G1 X44.764 Y72.595 E2.55653
G1 X44.256 Y72.595 E2.57506
G1 X44.256 Y66.966 E2.78045
G1 X44.12 Y66.726 E2.79053
G1 X43.921 Y66.377 E2.80515
G1 X43.916 Y66.367 E2.8056
G1 X43.9 Y66.336 E2.80685
G1 X43.748 Y66.023 E2.81953
G1 X43.748 Y72.595 E3.05932
G1 X43.24 Y72.595 E3.07785
G1 X43.24 Y64.918 E3.35795
G1 X43.073 Y64.504 E3.37424
G1 X42.923 Y64.132 E3.38887
G1 X42.907 Y64.089 E3.39056
G1 X42.782 Y63.708 E3.40519
G1 X42.733 Y63.556 E3.41103
G1 X42.733 Y72.595 E3.74085
G1 X42.225 Y72.595 E3.75938
G1 X42.225 Y61.685 E4.15744
G1 X42.188 Y61.535 E4.16308
G1 X42.18 Y61.497 E4.16452
G1 X42.094 Y61.032 E4.18174
G1 X42.008 Y60.565 E4.19907
G1 X42.001 Y60.52 E4.20075
G1 X41.955 Y60.122 E4.21537
G1 X41.864 Y59.345 E4.24389
G1 X41.86 Y59.299 E4.24559
G1 X41.841 Y58.899 E4.26021
G1 X41.822 Y58.518 E4.27411
G1 X41.802 Y58.115 E4.28885
G1 X41.801 Y58.061 E4.29082
G1 X41.841 Y56.646 E4.34245
G1 X41.843 Y56.607 E4.3439
G1 X41.884 Y56.136 E4.36114
G1 X41.924 Y55.663 E4.37846
G1 X41.929 Y55.618 E4.38013
G1 X42.047 Y54.845 E4.40864
G1 X42.108 Y54.446 E4.42338
G1 X42.118 Y54.393 E4.42534
G1 X42.164 Y54.196 E4.43271
G1 X41.717 Y54.196 E4.44903
G1 X41.717 Y72.595 E5.12034
G1 X41.209 Y72.595 E5.13887
G1 X41.209 Y54.196 E5.81018
G1 X40.701 Y54.196 E5.82871
G1 X40.701 Y72.595 E6.50003
G1 X40.193 Y72.595 E6.51856
G1 X40.193 Y54.196 E7.18987
G1 X39.685 Y54.196 E7.2084
G1 X39.685 Y72.595 E7.87971
G1 X39.177 Y72.595 E7.89824
G1 X39.177 Y54.196 E8.56956
G1 X38.67 Y54.196 E8.58809
G1 X38.67 Y72.595 E9.2594
G1 X38.162 Y72.595 E9.27793
G1 X38.162 Y54.196 E9.94925
G1 X37.654 Y54.196 E9.96778
G1 X37.654 Y72.595 E10.63909
G1 X37.146 Y72.595 E10.65762
G1 X37.146 Y54.196 E11.32893
G1 X36.638 Y54.196 E11.34746
G1 X36.638 Y72.595 E12.01878
G1 X36.13 Y72.595 E12.03731
G1 X36.13 Y54.196 E12.70862
G1 X35.622 Y54.196 E12.72715
G1 X35.622 Y72.595 E13.39846
G1 X35.115 Y72.595 E13.417
G1 X35.115 Y54.196 E14.08831
G1 X34.607 Y54.196 E14.10684
G1 X34.607 Y72.595 E14.77815
G1 X34.099 Y72.595 E14.79668
G1 X34.099 Y53.999 E15.47517
G92 E0
G1 E-0.5 F3000
; acceleration to travel
M204 S4000
G1 X41.503 Y58.798 F12000
; decel to extrusion
M204 S2000
G1 X45.205 Y61.198
; end travel
G1 E0 F1800
;TYPE:Internal perimeter
G1 X45.427 Y62.11 E0.03424
G1 X45.744 Y63.077 E0.0714
G1 X46.129 Y64.031 E0.1089
G1 X46.576 Y64.956 E0.1464
G1 X47.085 Y65.851 E0.18397
G1 X48.162 Y67.487 E0.25545
G1 X48.614 Y68.31 E0.28968
G1 X48.999 Y69.162 E0.32382
G1 X49.316 Y70.039 E0.35783
G1 X49.544 Y70.848 E0.38849
G1 X49.717 Y71.68 E0.41952
G1 X73.917 Y71.68 E1.30249
G1 X73.917 Y71.281 E1.31708
G1 X77.875 Y68.319 E1.49742
G1 X77.875 Y65.752 E1.59109
G1 X77.93 Y65.115 E1.61443
G1 X78.041 Y64.62 E1.63294
G1 X78.098 Y64.451 E1.63945
G1 X78.527 Y64.607 E1.65613
G1 X78.481 Y64.743 E1.66136
G1 X78.382 Y65.185 E1.67788
G1 X78.332 Y65.772 E1.69937
G1 X78.332 Y68.548 E1.80067
G1 X74.374 Y71.509 E1.98101
G1 X74.374 Y72.138 E2.00393
G1 X49.314 Y72.138 E2.9183
G1 X48.867 Y72.204 E2.93478
G1 X48.412 Y72.253 E2.95147
;TYPE:External perimeter
G1 X48.362 Y71.899 E2.96452
G1 X48.211 Y71.174 E2.99156
G1 X48.01 Y70.459 E3.01866
G1 X47.728 Y69.679 E3.04891
G1 X47.386 Y68.923 E3.07918
G1 X46.987 Y68.195 E3.10947
G1 X45.916 Y66.568 E3.18056
G1 X45.362 Y65.594 E3.22142
G1 X44.874 Y64.586 E3.26227
G1 X44.455 Y63.548 E3.30311
G1 X44.107 Y62.486 E3.34389
G1 X43.787 Y61.173 E3.39321
G1 X43.626 Y60.299 E3.42564
G1 X43.496 Y59.187 E3.46649
G1 X43.441 Y58.07 E3.50727
G1 X43.479 Y56.719 E3.55658
G1 X43.555 Y55.834 E3.58901
G1 X43.723 Y54.729 E3.6298
G1 X44.029 Y53.412 E3.67911
G1 X44.28 Y52.56 E3.71154
G1 X44.666 Y51.508 E3.7524
G1 X45.121 Y50.486 E3.79325
G1 X45.644 Y49.495 E3.83412
G1 X46.036 Y48.849 E3.86167
G1 X46.593 Y47.862 E3.90301
G1 X46.801 Y47.57 E3.91612
G1 X47.29 Y46.974 E3.94424
G1 X47.318 Y46.949 E3.94561
G1 X47.357 Y46.999 E3.94792
G1 X47.259 Y47.162 E3.95487
G1 X46.939 Y47.55 E3.97321
G1 X46.939 Y48.116 E3.99387
G1 X46.873 Y48.602 E4.01177
G1 X46.844 Y49.112 E4.03041
G1 X46.838 Y59.827 E4.42133
G1 X50.439 Y59.827 E4.55268
M73 P2 R28
G1 X50.439 Y66.152 E4.78346
G1 X70.139 Y66.152 E5.50223
G1 X70.139 Y59.827 E5.73301
G1 X77.539 Y59.827 E6.00301
G1 X77.533 Y49.113 E6.39391
G1 X77.504 Y48.603 E6.41255
G1 X77.439 Y48.117 E6.43045
G1 X77.439 Y47.551 E6.4511
G1 X77.119 Y47.163 E6.46945
G1 X77.02 Y46.999 E6.47642
G1 X77.059 Y46.948 E6.47877
G1 X77.083 Y46.969 E6.47992
G1 X77.563 Y47.553 E6.50752
G1 X77.771 Y47.844 E6.52054
G1 X77.96 Y48.15 E6.53365
G1 X78.315 Y48.806 E6.56088
G1 X78.702 Y49.441 E6.58801
G1 X79.22 Y50.411 E6.62815
G1 X79.672 Y51.413 E6.66824
G1 X80.058 Y52.442 E6.70835
G1 X80.311 Y53.278 E6.74019
G1 X80.623 Y54.567 E6.78858
G1 X80.799 Y55.65 E6.82861
G1 X80.905 Y56.743 E6.86871
G1 X80.938 Y57.842 E6.90881
G1 X80.9 Y58.94 E6.9489
G1 X80.789 Y60.033 E6.989
G1 X80.607 Y61.117 E7.02909
G1 X80.354 Y62.187 E7.06919
G1 X80.032 Y63.236 E7.10923
G1 X79.46 Y64.704 E7.16671
G1 X79.363 Y64.99 E7.17775
G1 X79.288 Y65.324 E7.19025
G1 X79.246 Y65.811 E7.20807
G1 X79.246 Y69.006 E7.32464
G1 X75.289 Y71.967 E7.50498
G1 X75.289 Y73.052 E7.54455
G1 X48.487 Y73.052 E8.52244
M73 P2 R28
G1 X48.461 Y72.707 E8.53503
;TYPE:Internal perimeter
;WIDTH:0.475234
G1 X48.975 Y72.595 E8.55327
;WIDTH:0.5
G1 X74.831 Y72.595 E9.49667
G1 X74.831 Y71.738 E9.52792
G1 X78.789 Y68.777 E9.70826
G1 X78.789 Y65.791 E9.81719
G1 X78.835 Y65.255 E9.83685
G1 X78.922 Y64.867 E9.85135
G1 X79.03 Y64.547 E9.86366
G1 X79.6 Y63.086 E9.9209
G1 X79.913 Y62.067 E9.95978
G1 X80.159 Y61.027 E9.99878
G1 X80.336 Y59.973 E10.03778
G1 X80.443 Y58.909 E10.07678
G1 X80.481 Y57.841 E10.11578
G1 X80.448 Y56.772 E10.15478
G1 X80.346 Y55.708 E10.19378
G1 X80.175 Y54.657 E10.23264
G1 X79.87 Y53.398 E10.27992
G1 X79.625 Y52.589 E10.31076
G1 X79.249 Y51.587 E10.34978
G1 X78.809 Y50.613 E10.38878
G1 X78.268 Y49.597 E10.4308
G1 X77.99 Y49.666 E10.44122
G1 X77.996 Y60.284 E10.82862
G1 X70.596 Y60.284 E11.09863
G1 X70.596 Y66.609 E11.3294
G1 X49.981 Y66.609 E12.08153
G1 X49.981 Y60.284 E12.31231
G1 X46.381 Y60.284 E12.44367
G1 X46.387 Y49.667 E12.83103
G1 X46.12 Y49.592 E12.84115
G1 X46.042 Y49.72 E12.84662
G1 X45.533 Y50.685 E12.88643
G1 X45.09 Y51.68 E12.92616
G1 X44.714 Y52.703 E12.96592
G1 X44.471 Y53.529 E12.99732
G1 X44.172 Y54.815 E13.0455
G1 X44.009 Y55.888 E13.0851
G1 X43.935 Y56.745 E13.1165
G1 X43.898 Y58.066 E13.16469
G1 X43.952 Y59.149 E13.20426
G1 X44.078 Y60.231 E13.24401
G1 X44.234 Y61.077 E13.27541
G1 X44.547 Y62.361 E13.32361
G1 X44.885 Y63.391 E13.36318
G1 X45.292 Y64.401 E13.40291
G1 X45.767 Y65.381 E13.44264
G1 X46.306 Y66.329 E13.48241
G1 X47.379 Y67.959 E13.55363
G1 X47.795 Y68.719 E13.58523
G1 X48.152 Y69.507 E13.61679
G1 X48.446 Y70.319 E13.64829
G1 X48.655 Y71.065 E13.67658
G1 X48.798 Y71.752 E13.7022
G1 X49.251 Y71.685 E13.7189
G1 X49.1 Y70.956 E13.74605
G1 X48.881 Y70.179 E13.77552
G1 X48.575 Y69.335 E13.80828
G1 X48.204 Y68.514 E13.84113
G1 X47.77 Y67.723 E13.87405
G1 X46.696 Y66.09 E13.9454
G1 X46.171 Y65.169 E13.98406
G1 X45.711 Y64.216 E14.02268
G1 X45.314 Y63.234 E14.0613
G1 X44.987 Y62.235 E14.09966
G1 X44.681 Y60.982 E14.14673
G1 X44.53 Y60.163 E14.17712
G1 X44.408 Y59.111 E14.21575
G1 X44.356 Y58.061 E14.25412
G1 X44.392 Y56.771 E14.30119
G1 X44.463 Y55.942 E14.33156
G1 X44.587 Y55.127 E14.36163
G1 X45.036 Y55.213 E14.37832
G1 X44.917 Y55.996 E14.40719
G1 X44.848 Y56.797 E14.43654
G1 X44.813 Y58.056 E14.48247
G1 X44.863 Y59.073 E14.51965
G1 X44.983 Y60.095 E14.55717
G1 X45.134 Y60.917 E14.58768
G1 X45.467 Y60.887 E14.59986
G1 X45.47 Y54.702 E14.82551
G1 X45.146 Y54.665 E14.83741
G1 X45.123 Y54.765 E14.84115
G1 X44.673 Y54.679 E14.85784
G1 X44.914 Y53.645 E14.89656
G1 X45.149 Y52.847 E14.92693
G1 X45.514 Y51.852 E14.96558
G1 X45.639 Y51.571 E14.97681
G1 X45.928 Y51.633 E14.98761
G1 X45.924 Y60.741 E15.31994
G1 X49.524 Y60.741 E15.45131
G1 X49.524 Y67.066 E15.68208
G1 X71.053 Y67.066 E16.46757
G1 X71.053 Y60.741 E16.69834
G1 X78.453 Y60.741 E16.96836
G1 X78.449 Y51.627 E17.3009
G1 X78.737 Y51.564 E17.31168
G1 X78.827 Y51.762 E17.31958
G1 X79.191 Y52.736 E17.35752
G1 X79.428 Y53.518 E17.38735
G1 X79.672 Y54.526 E17.42519
G1 X79.206 Y54.642 E17.44272
G1 X78.907 Y54.678 E17.45371
G1 X78.91 Y60.916 E17.68129
G1 X79.246 Y60.944 E17.69357
G1 X79.429 Y59.851 E17.734
G1 X79.531 Y58.847 E17.77081
G1 X79.566 Y57.839 E17.80762
G1 X79.536 Y56.83 E17.84444
G1 X79.439 Y55.826 E17.88125
G1 X79.315 Y55.064 E17.9094
G1 X79.763 Y54.974 E17.92609
G1 X79.892 Y55.767 E17.95542
G1 X79.992 Y56.801 E17.99333
G1 X80.024 Y57.84 E18.03124
G1 X79.987 Y58.878 E18.06914
G1 X79.882 Y59.912 E18.10705
G1 X79.71 Y60.936 E18.14495
G1 X79.471 Y61.947 E18.18286
G1 X79.168 Y62.935 E18.22057
G1 X78.684 Y64.178 E18.26923
G1 X78.254 Y64.021 E18.28591
G1 X78.736 Y62.785 E18.33433
G1 X79.03 Y61.828 E18.37087
G1 X79.179 Y61.198 E18.39448
G1 X71.51 Y61.198 E18.67429
G1 X71.51 Y67.523 E18.90507
G1 X49.067 Y67.523 E19.7239
G1 X49.067 Y61.198 E19.95468
G1 X45.205 Y61.198 E20.09561
; acceleration to travel
M204 S4000
G1 X45.209 Y60.298 F12000
; decel to extrusion
M204 S2000
G1 X45.211 Y59.849
; end travel
;TYPE:Gap fill
;WIDTH:0.136199
G1 F1800
G1 X45.209 Y59.801 E20.09597
G1 X45.187 Y59.425 E20.09878
;WIDTH:0.226859
G1 X45.165 Y59.048 E20.10431
G1 X45.153 Y58.55 E20.11162
;WIDTH:0.276534
G1 X45.141 Y58.052 E20.12091
G1 X45.15 Y57.434 E20.13245
;WIDTH:0.242442
G1 X45.158 Y56.815 E20.14231
G1 X45.175 Y56.422 E20.14858
;WIDTH:0.175606
G1 X45.192 Y56.028 E20.15274
G1 X45.201 Y55.907 E20.15404
;WIDTH:0.137935
G1 X45.214 Y55.738 E20.15532
; acceleration to travel
M204 S4000
G1 X45.293 Y54.896 F12000
; decel to extrusion
M204 S2000
G1 X45.332 Y54.475
; end travel
;WIDTH:0.817218
G1 F1800
G1 X45.352 Y54.303 E20.166
;WIDTH:0.733658
G1 X45.371 Y54.131 E20.17552
G1 X45.392 Y53.954 E20.18538
;WIDTH:0.65235
G1 X45.412 Y53.776 E20.19407
G1 X45.431 Y53.642 E20.20066
;WIDTH:0.606057
G1 X45.451 Y53.508 E20.20675
;WIDTH:0.559763
G1 X45.47 Y53.374 E20.21234
;WIDTH:0.51347
G1 X45.49 Y53.24 E20.21742
;WIDTH:0.467176
G1 X45.509 Y53.106 E20.22201
;WIDTH:0.420882
G1 X45.528 Y52.972 E20.2261
G1 X45.548 Y52.858 E20.22957
;WIDTH:0.373889
G1 X45.569 Y52.745 E20.23262
;WIDTH:0.326895
G1 X45.589 Y52.631 E20.23523
;WIDTH:0.279901
G1 X45.609 Y52.518 E20.23741
;WIDTH:0.232908
G1 X45.629 Y52.404 E20.23916
;WIDTH:0.185914
G1 X45.649 Y52.291 E20.24048
;WIDTH:0.136636
G1 X45.678 Y52.13 E20.2417
G1 X45.827 Y51.396 F12000
;WIDTH:0.73136
G1 F1800
G1 X45.857 Y51.255 E20.24961
;WIDTH:0.641359
G1 X45.887 Y51.114 E20.25649
G1 X45.912 Y50.999 E20.26213
;WIDTH:0.52082
G1 X45.936 Y50.883 E20.26664
G1 X45.979 Y50.714 E20.27328
;WIDTH:0.401477
G1 X46.021 Y50.545 E20.27826
;WIDTH:0.306002
G1 X46.064 Y50.377 E20.28192
;WIDTH:0.210527
G1 X46.107 Y50.208 E20.28425
;WIDTH:0.135165
G1 X46.14 Y50.077 E20.28524
G1 X46.31 Y49.427 F12000
;WIDTH:0.673858
G1 F1800
G1 X46.351 Y49.28 E20.29294
;WIDTH:0.551214
G1 X46.404 Y49.094 E20.30079
;WIDTH:0.496051
G1 X46.412 Y49.065 E20.30186
;WIDTH:0.465938
G1 X46.46 Y48.902 E20.30759
;WIDTH:0.373601
G1 X46.508 Y48.739 E20.31208
;WIDTH:0.280074
G1 X46.558 Y48.568 E20.31545
;WIDTH:0.235347
G1 X46.607 Y48.422 E20.31781
;WIDTH:0.158206
G1 X46.656 Y48.277 E20.31923
;WIDTH:0.130596
G1 X46.671 Y48.231 E20.31956
G92 E0
G1 E-0.5 F3000
; acceleration to travel
M204 S4000
G1 X67.358 Y48.213 F12000
; decel to extrusion
M204 S2000
G1 X77.701 Y48.204
; end travel
G1 E0 F1800
;WIDTH:0.129812
G1 X77.717 Y48.249 E0.00033
;WIDTH:0.166786
