; HEADER_BLOCK_START
; generated by OrcaSlicer 1.6.6 on 2023-09-05 at 18:22:52
; total layer number: 23
; HEADER_BLOCK_END

; THUMBNAIL_BLOCK_START
; THUMBNAIL_BLOCK_END

; external perimeters extrusion width = 0.40mm
; perimeters extrusion width = 0.46mm
; infill extrusion width = 0.64mm
; solid infill extrusion width = 0.56mm
; top infill extrusion width = 0.40mm
; first layer extrusion width = 0.50mm

; EXECUTABLE_BLOCK_START
EXCLUDE_OBJECT_DEFINE NAME=RaidenKC.stl_id_0_copy_0 CENTER=60,60 POLYGON=[[38.6747,49.7076],[38.6967,48.878],[38.7965,48.0806],[38.9527,47.3329],[39.1439,46.6523],[39.3485,46.0564],[39.545,45.5625],[39.712,45.1881],[39.828,44.9506],[44.1848,36.1595],[44.3759,35.8859],[44.5885,35.674],[44.817,35.5173],[45.0555,35.4092],[45.2986,35.3432],[47.5284,35.0168],[47.7227,35],[47.9191,35.0095],[72.0332,37.7754],[72.2947,37.8055],[72.5127,37.8423],[72.5485,37.8507],[72.5806,37.8646],[72.6087,37.8836],[72.6329,37.9067],[79.4858,45.2731],[79.8748,45.746],[80.1874,46.1988],[80.4313,46.6209],[80.6143,47.0016],[80.7443,47.3302],[81.0652,48.2406],[81.2613,48.8455],[81.3253,49.4132],[81.2761,49.9422],[76.6454,65.9858],[76.015,67.9641],[75.2752,69.7192],[74.4673,71.2547],[73.6328,72.5741],[72.8131,73.6809],[72.0495,74.5786],[71.3835,75.2707],[62.5957,83.8506],[62.2195,84.1819],[61.8034,84.4637],[61.352,84.6912],[60.8702,84.8596],[60.3627,84.9641],[59.8344,85],[59.306,84.9641],[58.7985,84.8596],[58.3167,84.6912],[52.806,82.0901],[52.4826,81.8749],[46.9902,77.8384],[45.5687,76.7627],[44.5158,75.6888],[43.7108,74.5627],[43.1249,73.4089],[42.7295,72.2518],[42.4957,71.1159],[38.7522,50.5519],[38.6747,49.7076]]
M73 P0 R12
M73 C8
;TYPE:Custom
START_PRINT T_BED=60 T_EXTRUDER=220
G90
G21
M83 ; use relative distances for extrusion
; filament start gcode

    PRESSURE_ADVANCE_SELECT FILAMENT=PLA
M106 S0
;LAYER_CHANGE
;Z:0.2
;HEIGHT:0.2
;BEFORE_LAYER_CHANGE
;0.2
G92 E0

;AFTER_LAYER_CHANGE
;0.2
SET_VELOCITY_LIMIT ACCEL=1000 ACCEL_TO_DECEL=500
SET_VELOCITY_LIMIT SQUARE_CORNER_VELOCITY=9
G1 E-.8 F3000
G1 Z.2 F21000
G1 X41.987 Y34.217
G1 Z.2
G1 E.8 F1800
;TYPE:Skirt
;WIDTH:0.5
G1 F3000
G1 X42.94 Y33.271 E.05003
G1 X43.614 Y32.863 E.02937
G1 X44.292 Y32.597 E.0271
G1 X47.106 Y32.133 E.10624
G1 X48.06 Y32.099 E.03553
G1 X72.628 Y34.91 E.92103
G1 X73.746 Y35.194 E.04297
G1 X74.233 Y35.464 E.02074
G1 X74.767 Y35.922 E.0262
G1 X82.125 Y43.895 E.40412
G1 X82.71 Y44.741 E.03831
G1 X83.241 Y45.739 E.0421
G1 X84.033 Y47.947 E.08738
G1 X84.221 Y49.087 E.04305
G1 X84.227 Y49.683 E.0222
G1 X84.076 Y50.75 E.04015
G1 X79.445 Y66.794 E.62196
G1 X78.792 Y68.849 E.08032
G1 X77.961 Y70.851 E.08075
G1 X77.046 Y72.612 E.07388
G1 X75.975 Y74.309 E.07475
G1 X74.149 Y76.599 E.10909
G1 X64.631 Y85.936 E.49659
G1 X63.853 Y86.595 E.03798
G1 X63.115 Y87.066 E.03263
G1 X62.313 Y87.442 E.03297
G1 X61.458 Y87.714 E.03343
G1 X60.56 Y87.872 E.03395
G1 X59.637 Y87.907 E.03442
G1 X58.718 Y87.818 E.03438
G1 X57.837 Y87.611 E.03371
G1 X57.073 Y87.327 E.03037
G1 X51.562 Y84.725 E.22697
G1 X50.868 Y84.301 E.0303
G1 X43.81 Y79.086 E.32685
G1 X42.435 Y77.729 E.07197
G1 X41.112 Y75.882 E.08461
G1 X40.367 Y74.351 E.06341
G1 X39.875 Y72.839 E.05923
G1 X35.885 Y51.074 E.82419
G1 X35.762 Y49.631 E.05395
G1 X35.805 Y48.516 E.04155
G1 X35.944 Y47.485 E.03876
G1 X36.388 Y45.706 E.06827
G1 X37.051 Y44.001 E.06814
G1 X41.574 Y34.866 E.37967
G1 X41.965 Y34.251 E.02715
G1 X42.35 Y34.498 F21000
G1 F3000
G1 X42.361 Y34.479 E.00082
G1 X43.199 Y33.648 E.04394
G1 X43.803 Y33.279 E.02638
G1 X44.412 Y33.038 E.02438
G1 X47.173 Y32.586 E.1042
G1 X48.038 Y32.555 E.03224
G1 X72.575 Y35.364 E.9199
G1 X73.563 Y35.613 E.03793
G1 X73.978 Y35.843 E.01768
G1 X74.432 Y36.233 E.02229
G1 X81.772 Y44.185 E.40308
G1 X82.315 Y44.969 E.03552
G1 X82.829 Y45.937 E.0408
G1 X83.599 Y48.088 E.08509
G1 X83.767 Y49.138 E.03963
G1 X83.637 Y50.624 E.05554
G1 X79.006 Y66.667 E.62196
G1 X78.356 Y68.71 E.07985
G1 X77.539 Y70.674 E.07921
G1 X76.642 Y72.399 E.07243
G1 X75.607 Y74.036 E.07215
G1 X73.82 Y76.282 E.1069
G1 X64.312 Y85.609 E.49606
G1 X63.597 Y86.216 E.03495
G1 X62.909 Y86.658 E.03044
G1 X62.163 Y87.011 E.03075
G1 X61.366 Y87.266 E.03116
G1 X60.529 Y87.416 E.03165
G1 X59.668 Y87.451 E.03212
G1 X58.81 Y87.371 E.03208
G1 X57.988 Y87.179 E.03145
G1 X57.268 Y86.913 E.02858
G1 X51.757 Y84.312 E.22697
G1 X51.121 Y83.92 E.02782
G1 X44.086 Y78.722 E.32581
G1 X42.761 Y77.409 E.06947
G1 X41.52 Y75.675 E.07942
G1 X40.8 Y74.204 E.06102
G1 X40.323 Y72.747 E.05708
G1 X36.335 Y50.992 E.8238
G1 X36.219 Y49.643 E.05045
G1 X36.391 Y47.578 E.07717
G1 X36.82 Y45.855 E.06615
G1 X37.468 Y44.187 E.06663
G1 X41.983 Y35.069 E.37898
G1 X42.328 Y34.531 E.02378
; printing object RaidenKC.stl id:0 copy 0
G1 E-.8
EXCLUDE_OBJECT_START NAME=RaidenKC.stl_id_0_copy_0
G1 Z.4 F21000
G1 X49.972 Y37.421 Z.4
M73 P1 R12
G1 Z.2
G1 E.8 F1800
;TYPE:Outer wall
G1 F3000
G1 X49.958 Y37.424 E.00053
G1 X49.737 Y37.593 E.01036
G1 X49.599 Y37.844 E.01066
G1 X49.583 Y38.169 E.01212
G1 X49.663 Y38.556 E.01474
G1 X49.848 Y39.094 E.02119
G1 X49.818 Y39.295 E.00756
G1 X49.737 Y39.471 E.00723
G1 X49.608 Y39.627 E.00755
G1 X49.43 Y39.767 E.00842
G1 X49.209 Y39.889 E.00939
G1 X48.959 Y39.988 E.01001
G1 X48.398 Y40.128 E.02154
G1 X47.867 Y40.198 E.01995
G1 X47.3 Y40.24 E.02117
G1 X47.037 Y40.376 E.01102
G1 X46.735 Y40.649 E.01517
G1 X46.661 Y40.685 E.00305
G1 X46.466 Y40.722 E.00741
G1 X46.173 Y40.673 E.01106
G1 X45.972 Y40.59 E.0081
G1 X45.709 Y40.442 E.01124
G1 X45.493 Y40.38 E.00837
G1 X45.264 Y40.384 E.00854
G1 X45.103 Y40.432 E.00624
G1 X44.877 Y40.558 E.00963
G1 X44.849 Y40.54 E.00126
G1 X44.746 Y40.369 E.00742
G1 X44.674 Y40.178 E.00763
G1 X44.623 Y39.961 E.00827
G1 X44.595 Y39.732 E.0086
G1 X44.599 Y39.226 E.01884
G1 X44.667 Y38.722 E.01896
G1 X44.772 Y38.255 E.01783
G1 X44.9 Y37.826 E.01666
G1 X44.918 Y37.538 E.01076
G1 X44.799 Y37.259 E.01129
G1 X44.644 Y37.104 E.00819
G1 X44.454 Y37.008 E.00792
G1 X44.24 Y36.972 E.00808
G1 X44.347 Y36.63 E.01333
G1 X44.488 Y36.337 E.01214
G1 X44.645 Y36.112 E.01021
G1 X44.813 Y35.944 E.00883
G1 X44.99 Y35.823 E.00797
G1 X45.174 Y35.74 E.00756
G1 X45.367 Y35.687 E.00742
G1 X45.76 Y35.661 E.01469
G1 X45.947 Y35.679 E.00698
G1 X46.457 Y35.787 E.01942
G1 X46.711 Y35.779 E.00949
G1 X47.009 Y35.673 E.01177
G1 X47.329 Y35.451 E.0145
G1 X47.453 Y35.396 E.00505
G1 X47.577 Y35.365 E.00478
G1 X47.891 Y35.359 E.01167
G1 X48.038 Y35.383 E.00555
G1 X48.371 Y35.484 E.01296
G1 X48.682 Y35.625 E.01271
G1 X49.323 Y35.987 E.02742
G1 X49.52 Y36.07 E.00795
G1 X49.743 Y36.127 E.00861
G1 X49.993 Y36.126 E.00931
G1 X50.42 Y35.974 E.01685
G1 X50.695 Y35.91 E.01052
G1 X50.955 Y35.882 E.00975
G1 X51.202 Y35.886 E.00922
G1 X51.438 Y35.917 E.00885
G1 X51.656 Y35.971 E.00836
G1 X52.07 Y36.142 E.01668
G1 X52.42 Y36.361 E.01536
G1 X52.851 Y36.711 E.0207
G1 X53.024 Y36.796 E.00717
G1 X53.207 Y36.846 E.00708
G1 X53.47 Y36.858 E.0098
G1 X53.655 Y36.825 E.00702
G1 X54.308 Y36.599 E.02573
G1 X54.809 Y36.49 E.0191
G1 X55.261 Y36.452 E.0169
G1 X55.668 Y36.474 E.01518
G1 X56.033 Y36.545 E.01386
G1 X56.36 Y36.655 E.01285
G1 X56.651 Y36.796 E.01203
G1 X56.907 Y36.958 E.01131
G1 X57.13 Y37.134 E.01056
G1 X57.316 Y37.31 E.00954
G1 X57.713 Y37.781 E.02293
G1 X57.982 Y37.962 E.01208
G1 X58.149 Y38.023 E.00664
G1 X58.375 Y38.061 E.00852
G1 X58.933 Y38.068 E.02078
G1 X59.333 Y38.117 E.01501
G1 X59.677 Y38.202 E.0132
G1 X59.97 Y38.319 E.01176
G1 X60.219 Y38.46 E.01067
G1 X60.43 Y38.621 E.00989
G1 X60.607 Y38.8 E.00936
G1 X60.755 Y38.991 E.009
G1 X60.971 Y39.391 E.01694
G1 X61.15 Y39.941 E.02154
G1 X61.282 Y40.175 E.00999
G1 X61.388 Y40.293 E.00591
G1 X61.604 Y40.452 E.01
G1 X61.853 Y40.55 E.00997
G1 X62.005 Y40.578 E.00578
G1 X62.278 Y40.575 E.01016
G1 X63.069 Y40.365 E.03048
G1 X63.847 Y40.221 E.02947
G1 X64.268 Y40.176 E.01576
G1 X64.709 Y40.156 E.01643
G1 X65.161 Y40.165 E.01686
G1 X65.621 Y40.21 E.01719
G1 X66.081 Y40.296 E.01746
G1 X66.539 Y40.427 E.01773
G1 X66.989 Y40.609 E.01808
G1 X67.565 Y40.921 E.02438
G1 X67.714 Y40.973 E.0059
G1 X67.875 Y41.003 E.00611
G1 X68.168 Y40.991 E.01091
G1 X68.442 Y40.897 E.0108
G1 X68.587 Y40.81 E.00628
G1 X68.801 Y40.605 E.01105
G1 X68.945 Y40.345 E.01109
G1 X69.182 Y39.657 E.0271
G1 X69.395 Y39.249 E.01712
G1 X69.638 Y38.922 E.0152
G1 X69.907 Y38.664 E.01386
G1 X70.194 Y38.465 E.01303
G1 X70.497 Y38.317 E.01255
G1 X70.809 Y38.213 E.01226
G1 X71.124 Y38.148 E.01198
G1 X71.434 Y38.116 E.01161
G1 X71.731 Y38.11 E.01103
G1 X72 Y38.124 E.01006
G1 X72.287 Y38.166 E.01079
G1 X72.266 Y38.221 E.00219
G1 X72.249 Y38.46 E.00893
G1 X72.303 Y38.691 E.00882
G1 X72.424 Y38.896 E.00886
G1 X72.608 Y39.058 E.00914
G1 X73.113 Y39.26 E.02025
G1 X73.359 Y39.411 E.01075
G1 X73.565 Y39.591 E.01018
G1 X73.737 Y39.798 E.01003
G1 X73.878 Y40.03 E.0101
G1 X73.991 Y40.281 E.01026
G1 X74.078 Y40.546 E.01038
G1 X74.139 Y40.814 E.01023
G1 X74.203 Y41.353 E.02021
G1 X74.204 Y41.853 E.01864
G1 X74.228 Y42.086 E.00871
G1 X74.35 Y42.41 E.01289
G1 X74.492 Y42.611 E.00919
G1 X74.672 Y42.777 E.00909
G1 X74.883 Y42.9 E.0091
G1 X75.989 Y43.305 E.04387
G1 X76.849 Y43.705 E.03533
G1 X77.594 Y44.136 E.03206
G1 X78.233 Y44.587 E.02912
G1 X78.774 Y45.047 E.02646
G1 X79.225 Y45.507 E.02401
G1 X79.595 Y45.957 E.02169
G1 X79.891 Y46.386 E.01942
G1 X80.122 Y46.785 E.01714
G1 X80.293 Y47.142 E.01477
G1 X80.415 Y47.45 E.01235
G1 X80.918 Y48.922 E.05791
G1 X80.973 Y49.417 E.01855
G1 X80.931 Y49.876 E.01719
G1 X80.805 Y50.304 E.01662
G1 X80.611 Y50.703 E.01652
G1 X80.362 Y51.07 E.01652
G1 X80.076 Y51.402 E.01634
G1 X79.77 Y51.696 E.0158
G1 X79.462 Y51.948 E.01479
G1 X79.176 Y52.152 E.0131
G1 X78.569 Y52.514 E.02633
G1 X78.362 Y52.683 E.00996
G1 X77.983 Y53.255 E.02554
G1 X77.748 Y53.817 E.02271
G1 X77.563 Y54.449 E.02452
G1 X77.416 Y55.136 E.02617
G1 X77.302 Y55.861 E.02732
G1 X77.217 Y56.604 E.02786
G1 X77.156 Y57.347 E.02777
G1 X77.092 Y58.744 E.0521
G1 X77.082 Y60.738 E.07427
G1 X77.063 Y61.319 E.02163
G1 X76.779 Y63.723 E.09017
G1 X76.307 Y65.895 E.0828
G1 X75.686 Y67.843 E.07613
G1 X74.958 Y69.569 E.06979
G1 X74.164 Y71.079 E.06355
G1 X73.344 Y72.376 E.05715
G1 X72.539 Y73.463 E.05038
G1 X71.79 Y74.344 E.04306
G1 X71.138 Y75.021 E.03501
G1 X70.626 Y75.498 E.02607
G1 X70.179 Y75.865 E.02154
G1 X69.581 Y76.256 E.02661
G1 X68.973 Y76.615 E.0263
G1 X68.364 Y76.938 E.02569
G1 X67.754 Y77.228 E.02513
G1 X67.146 Y77.485 E.02461
G1 X66.539 Y77.711 E.02412
G1 X65.935 Y77.908 E.02366
G1 X65.335 Y78.078 E.02321
G1 X64.743 Y78.22 E.0227
G1 X63.568 Y78.434 E.04447
G1 X62.432 Y78.58 E.04265
G1 X62.942 Y79.355 E.03453
G1 X63.1 Y79.667 E.01304
G1 X63.226 Y79.999 E.01324
G1 X63.319 Y80.349 E.01345
G1 X63.376 Y80.713 E.01373
G1 X63.395 Y81.086 E.01391
G1 X63.362 Y81.571 E.01811
G1 X63.267 Y82.032 E.01754
G1 X63.114 Y82.47 E.01729
G1 X62.907 Y82.881 E.01713
G1 X62.65 Y83.26 E.01705
G1 X62.348 Y83.603 E.01702
G1 X62.005 Y83.905 E.01702
G1 X61.626 Y84.161 E.01705
G1 X61.215 Y84.368 E.01714
G1 X60.777 Y84.521 E.01729
G1 X60.315 Y84.617 E.01755
G1 X59.834 Y84.649 E.01796
G1 X59.353 Y84.617 E.01796
G1 X58.892 Y84.521 E.01755
G1 X58.454 Y84.368 E.01729
G1 X58.043 Y84.161 E.01714
G1 X57.664 Y83.905 E.01705
G1 X57.321 Y83.603 E.01702
G1 X57.019 Y83.26 E.01702
G1 X56.762 Y82.881 E.01705
G1 X56.555 Y82.47 E.01713
G1 X56.402 Y82.032 E.01728
G1 X56.307 Y81.571 E.01754
G1 X56.274 Y81.088 E.01804
G1 X56.303 Y80.637 E.0168
G1 X56.388 Y80.199 E.01664
G1 X56.447 Y79.996 E.00785
G1 X56.609 Y79.591 E.01628
G1 X56.819 Y79.212 E.01613
G1 X56.939 Y79.036 E.00794
G1 X57.588 Y78.267 E.03746
G1 X56.063 Y77.876 E.05863
G1 X54.881 Y77.494 E.04625
G1 X54.601 Y77.502 E.01045
G1 X54.441 Y77.554 E.00624
G1 X54.218 Y77.702 E.00997
G1 X54.06 Y77.915 E.00989
G1 X53.999 Y78.065 E.00604
G1 X53.968 Y78.33 E.00993
G1 X53.99 Y78.476 E.00552
G1 X54.85 Y81.721 E.12504
G1 X54.855 Y81.832 E.00413
G1 X54.815 Y81.894 E.00274
G1 X54.742 Y81.937 E.00315
G1 X54.16 Y82.013 E.02186
G1 X53.689 Y81.997 E.01755
G1 X53.296 Y81.915 E.01495
G1 X52.972 Y81.78 E.01309
G1 X52.703 Y81.601 E.012
G1 X52.481 Y81.386 E.01153
G1 X52.299 Y81.138 E.01145
G1 X52.153 Y80.866 E.0115
G1 X52.04 Y80.579 E.01147
G1 X51.958 Y80.293 E.01111
G1 X51.842 Y79.606 E.02594
G1 X51.757 Y79.378 E.00905
G1 X51.62 Y79.176 E.0091
G1 X51.44 Y79.013 E.00906
G1 X51.224 Y78.896 E.00915
G1 X50.991 Y78.836 E.00895
G1 X50.659 Y78.81 E.0124
G1 X50.494 Y78.775 E.00625
G1 X50.211 Y78.656 E.01145
G1 X50.012 Y78.511 E.00918
G1 X49.889 Y78.377 E.00677
G1 X50.051 Y78.101 E.01194
G1 X50.196 Y77.789 E.01279
G1 X50.347 Y77.362 E.01687
G1 X50.433 Y76.987 E.01433
G1 X50.46 Y76.707 E.0105
G1 X50.428 Y76.51 E.00743
G1 X50.319 Y76.269 E.00984
G1 X50.154 Y76.073 E.00954
G1 X50.017 Y75.965 E.00652
G1 X49.68 Y75.772 E.01445
G1 X49.476 Y75.684 E.00827
G1 X49.336 Y75.656 E.00532
G1 X49.09 Y75.658 E.00913
G1 X48.763 Y75.772 E.0129
G1 X48.564 Y75.928 E.00945
G1 X48.426 Y76.115 E.00865
G1 X47.67 Y77.542 E.06013
G1 X47.612 Y77.595 E.00292
G1 X47.506 Y77.647 E.00442
G1 X47.402 Y77.648 E.00389
G1 X47.234 Y77.58 E.00674
G1 X45.8 Y76.499 E.06688
G1 X44.785 Y75.463 E.05402
G1 X44.011 Y74.381 E.04956
G1 X43.448 Y73.272 E.0463
G1 X43.068 Y72.16 E.0438
G1 X42.842 Y71.064 E.04165
G1 X42.745 Y70.01 E.03944
G1 X42.748 Y69.021 E.03684
G1 X42.825 Y68.122 E.03361
G1 X42.947 Y67.337 E.02956
G1 X43.086 Y66.695 E.02447
G1 X43.239 Y66.169 E.02041
G1 X43.268 Y66.132 E.00174
G1 X43.365 Y66.084 E.00405
G1 X43.675 Y66.044 E.01162
G1 X43.91 Y65.936 E.00963
G1 X44.059 Y65.817 E.0071
G1 X44.216 Y65.609 E.00972
G1 X44.415 Y65.126 E.01946
G1 X44.462 Y64.91 E.00822
G1 X44.459 Y64.734 E.00658
G1 X44.368 Y64.448 E.01117
G1 X43.87 Y63.707 E.03324
G1 X43.479 Y63.03 E.02912
G1 X43.109 Y62.304 E.03038
G1 X42.761 Y61.545 E.03109
G1 X42.438 Y60.77 E.03125
G1 X42.142 Y59.998 E.0308
G1 X41.632 Y58.521 E.0582
G1 X41.243 Y57.25 E.04952
G1 X40.987 Y56.329 E.03561
G1 X40.975 Y56.249 E.00299
G1 X41 Y56.148 E.00388
G1 X41.103 Y56.057 E.00513
G1 X41.795 Y55.802 E.02747
G1 X41.966 Y55.709 E.00724
G1 X42.066 Y55.606 E.00535
G1 X42.167 Y55.415 E.00804
G1 X42.197 Y55.194 E.00831
G1 X42.148 Y54.97 E.00851
G1 X42.017 Y54.775 E.00876
G1 X41.466 Y54.36 E.02569
G1 X41.072 Y54.028 E.01918
G1 X40.739 Y53.712 E.01711
G1 X40.221 Y53.123 E.02922
M73 P1 R11
G1 X40.038 Y52.873 E.01153
G1 X39.78 Y52.452 E.01839
G1 X39.652 Y52.183 E.01108
G1 X39.285 Y51.286 E.0361
G1 X39.098 Y50.496 E.03026
G1 X39.025 Y49.696 E.0299
G1 X39.046 Y48.904 E.0295
G1 X39.142 Y48.138 E.02876
G1 X39.293 Y47.416 E.02748
G1 X39.478 Y46.757 E.02552
G1 X39.677 Y46.178 E.02278
G1 X39.867 Y45.701 E.01913
G1 X40.172 Y45.05 E.02679
G1 X40.69 Y44.358 E.03216
G1 X41.209 Y43.873 E.02646
G1 X41.712 Y43.565 E.02197
G1 X42.194 Y43.399 E.019
G1 X42.654 Y43.345 E.01725
G1 X43.088 Y43.378 E.01623
G1 X43.489 Y43.474 E.01535
G1 X43.844 Y43.612 E.01418
G1 X44.14 Y43.764 E.0124
G1 X44.362 Y43.903 E.00973
G1 X44.807 Y44.243 E.02089
G1 X45.372 Y43.645 E.03065
G1 X45.754 Y43.341 E.01817
G1 X46.183 Y43.079 E.01873
G1 X46.649 Y42.856 E.01925
G1 X47.142 Y42.67 E.01961
G1 X47.649 Y42.518 E.01974
G1 X48.161 Y42.397 E.01958
G1 X48.664 Y42.305 E.01903
G1 X49.61 Y42.191 E.03551
G1 X50.513 Y42.137 E.03369
G1 X50.735 Y42.066 E.00867
G1 X50.855 Y41.993 E.00524
G1 X51.021 Y41.835 E.00855
G1 X51.138 Y41.627 E.00888
G1 X51.194 Y41.385 E.00925
G1 X51.153 Y41.026 E.01346
G1 X51.154 Y40.729 E.01105
G1 X51.258 Y40.289 E.01685
G1 X51.451 Y39.912 E.01576
G1 X51.61 Y39.727 E.00908
G1 X51.868 Y39.503 E.01271
G1 X51.997 Y39.283 E.00951
G1 X52.063 Y39.056 E.00883
G1 X52.083 Y38.83 E.00842
G1 X52.069 Y38.606 E.00836
G1 X51.976 Y38.217 E.01492
G1 X51.9 Y38.026 E.00766
G1 X51.73 Y37.733 E.0126
G1 X51.601 Y37.594 E.00706
G1 X51.434 Y37.503 E.0071
G1 X50.227 Y37.358 E.04528
G1 X50.011 Y37.411 E.00828
G1 X49.805 Y36.947 F21000
;TYPE:Inner wall
G1 F3000
G1 X49.737 Y36.964 E.00262
G1 X49.35 Y37.26 E.01814
G1 X49.105 Y37.703 E.01886
G1 X49.08 Y38.208 E.01882
G1 X49.18 Y38.689 E.0183
G1 X49.343 Y39.163 E.01867
G1 X49.256 Y39.268 E.00507
G1 X49.153 Y39.349 E.0049
G1 X48.996 Y39.436 E.00669
G1 X48.806 Y39.511 E.00761
G1 X48.305 Y39.636 E.01923
G1 X47.816 Y39.7 E.01837
G1 X47.161 Y39.749 E.02447
G1 X46.742 Y39.966 E.01758
