; HEADER_BLOCK_START
; generated by OrcaSlicer 1.6.3 on 2023-06-07 at 18:57:42
; total layer number: 111
; HEADER_BLOCK_END

; THUMBNAIL_BLOCK_START
; THUMBNAIL_BLOCK_END

; external perimeters extrusion width = 0.40mm
; perimeters extrusion width = 0.45mm
; infill extrusion width = 0.45mm
; solid infill extrusion width = 0.40mm
; top infill extrusion width = 0.40mm
; first layer extrusion width = 0.50mm

; EXECUTABLE_BLOCK_START
EXCLUDE_OBJECT_DEFINE NAME=Rapido_3010_Fan_Duct_VZ_Printed_head_insert_brass.stl_id_0_copy_0 CENTER=60,60 POLYGON=[[39.3927,53.7557],[39.3937,49.0997],[45.6479,45.2655],[45.8029,45.1718],[45.9681,45.0975],[46.0261,45.0789],[46.141,45.0436],[46.1678,45.0375],[46.3192,45.0109],[46.5,45],[73.5,45],[73.6808,45.0109],[73.8322,45.0375],[73.859,45.0436],[73.9739,45.0789],[74.0319,45.0975],[74.1971,45.1718],[74.3521,45.2655],[80.6063,49.0997],[80.6073,53.7557],[74.9644,73.9409],[74.9137,74.0811],[74.8745,74.1669],[74.83,74.25],[74.7491,74.3751],[74.6561,74.4917],[74.552,74.5985],[74.438,74.6945],[74.315,74.7788],[74.1843,74.8502],[74.047,74.9083],[73.9046,74.9525],[73.8126,74.9731],[73.7194,74.988],[73.6255,74.997],[73.5314,75],[60,75],[46.4686,75],[46.3745,74.997],[46.2806,74.988],[46.1874,74.9731],[46.0954,74.9525],[45.953,74.9083],[45.8157,74.8502],[45.685,74.7788],[45.562,74.6945],[45.448,74.5985],[45.3439,74.4917],[45.2509,74.3751],[45.17,74.25],[45.1255,74.1669],[45.0863,74.0811],[45.0356,73.9409],[39.3927,53.7557]]
M73 P0 R21
;TYPE:Custom
START_PRINT T_BED=110 T_EXTRUDER=260
G90
G21
M83 ; use relative distances for extrusion
; Filament gcode

    PRESSURE_ADVANCE_SELECT FILAMENT=ABS
M106 S0
;LAYER_CHANGE
;Z:0.2
;HEIGHT:0.2
;BEFORE_LAYER_CHANGE
;0.2
G92 E0

;AFTER_LAYER_CHANGE
;0.2
SET_VELOCITY_LIMIT ACCEL_TO_DECEL=500
M204 S1000
G1 E-.5 F3000
G1 Z.2 F21000
G1 X43.396 Y43.396
G1 E.5 F1800
;TYPE:Skirt
;WIDTH:0.5
G1 F3000
G1 X43.708 Y43.083 E.01556
G1 X44.607 Y42.514 E.03743
G1 X45.294 Y42.256 E.02584
G1 X46.324 Y42.091 E.03671
G1 X73.507 Y42.086 E.95668
G1 X74.384 Y42.177 E.03103
G1 X75.228 Y42.44 E.0311
G1 X75.86 Y42.772 E.02511
G1 X76.555 Y43.317 E.0311
G1 X77.04 Y43.867 E.02583
G1 X77.486 Y44.607 E.03038
G1 X77.739 Y45.274 E.02511
G1 X77.898 Y46.143 E.0311
G1 X77.909 Y73.676 E.96898
G1 X77.685 Y74.899 E.04375
G1 X77.318 Y75.712 E.03139
G1 X76.917 Y76.292 E.02482
G1 X76.149 Y77.028 E.03744
G1 X75.393 Y77.486 E.0311
G1 X74.384 Y77.823 E.03744
G1 X73.5 Y77.914 E.03129
G1 X46.324 Y77.909 E.95644
G1 X45.616 Y77.823 E.02509
G1 X44.772 Y77.56 E.0311
G1 X43.708 Y76.917 E.04376
G1 X43.083 Y76.292 E.0311
G1 X42.514 Y75.393 E.03743
G1 X42.177 Y74.384 E.03744
G1 X42.086 Y73.5 E.03129
G1 X42.091 Y46.324 E.95643
G1 X42.177 Y45.616 E.02511
G1 X42.44 Y44.772 E.0311
G1 X43.083 Y43.708 E.04376
G1 X43.353 Y43.438 E.01343
G1 X43.674 Y43.759 F21000
G1 F3000
G1 X43.99 Y43.443 E.01573
G1 X44.794 Y42.931 E.03356
G1 X45.428 Y42.693 E.02382
G1 X46.352 Y42.547 E.03291
G1 X73.507 Y42.543 E.95571
G1 X74.302 Y42.627 E.02812
G1 X75.04 Y42.857 E.02722
G1 X75.623 Y43.163 E.02317
G1 X76.232 Y43.64 E.02722
G1 X76.679 Y44.148 E.02382
G1 X77.069 Y44.794 E.02657
G1 X77.302 Y45.41 E.02317
G1 X77.442 Y46.171 E.02722
G1 X77.457 Y73.5 E.96182
G1 X77.406 Y74.124 E.02202
G1 X77.248 Y74.763 E.02317
G1 X76.927 Y75.475 E.02751
G1 X76.557 Y76.01 E.02288
G1 X75.867 Y76.669 E.03356
G1 X75.206 Y77.069 E.02722
G1 X74.302 Y77.373 E.03356
G1 X73.5 Y77.457 E.02837
G1 X46.351 Y77.453 E.95547
G1 X45.698 Y77.373 E.02315
G1 X44.96 Y77.143 E.02722
G1 X43.99 Y76.557 E.03988
G1 X43.443 Y76.01 E.02722
G1 X42.931 Y75.206 E.03356
G1 X42.627 Y74.302 E.03356
G1 X42.543 Y73.5 E.02837
G1 X42.547 Y46.352 E.95546
G1 X42.627 Y45.698 E.02317
G1 X42.857 Y44.96 E.02722
G1 X43.443 Y43.99 E.03988
G1 X43.632 Y43.801 E.00938
; printing object Rapido 3010 Fan Duct VZ Printed head insert brass.stl id:0 copy 0
EXCLUDE_OBJECT_START NAME=Rapido_3010_Fan_Duct_VZ_Printed_head_insert_brass.stl_id_0_copy_0
G1 E-.5
G1 Z.4 F21000
G1 X73.696 Y53.24
G1 Z.2
G1 E.5 F1800
;TYPE:Inner wall
;WIDTH:0.499999
G1 F3000
G1 X73.358 Y52.591 E.02576
G1 X72.876 Y51.78 E.03319
G1 X72.518 Y51.24 E.02281
G1 X73.142 Y51.099 E.02251
G1 X73.697 Y50.831 E.02168
G1 X73.696 Y53.18 E.08266
G1 E-.5
G1 Z.4 F21000
G1 X73.278 Y51.49
G1 Z.2
G1 E.5 F1800
;WIDTH:0.478012
G1 F3000
G1 X73.223 Y51.49 E.00182
G1 X73.196 Y51.537 E.00182
G1 X73.223 Y51.584 E.00182
G1 X73.278 Y51.584 E.00182
G1 X73.305 Y51.537 E.00182
G1 E-.5
G1 Z.4 F21000
G1 X74.153 Y55.654
G1 Z.2
G1 E.5 F1800
;WIDTH:0.499999
G1 F3000
G1 X73.86 Y54.776 E.03257
G1 X73.606 Y54.14 E.02412
G1 X73.28 Y53.428 E.02754
G1 X72.963 Y52.821 E.0241
G1 X72.493 Y52.029 E.03241
G1 X72.193 Y51.569 E.01935
G1 X71.634 Y50.812 E.03309
G1 X72.12 Y50.84 E.01714
G1 X72.762 Y50.739 E.02288
G1 X73.353 Y50.505 E.02236
G1 X73.844 Y50.169 E.02095
G1 X74.154 Y49.847 E.01571
G1 X74.153 Y55.594 E.20226
G1 E-.5
G1 Z.4 F21000
G1 X68.76 Y47.466
G1 Z.2
G1 E.5 F1800
G1 F3000
G1 X68.148 Y47.064 E.02577
G1 X67.49 Y46.676 E.02687
G1 X66.771 Y46.305 E.0285
G1 X69.168 Y46.304 E.08439
G1 X68.88 Y46.908 E.02355
G1 X68.773 Y47.407 E.01798
G1 X68.496 Y46.7 F21000
;WIDTH:0.469188
G1 F3000
G1 X68.442 Y46.7 E.00175
G1 X68.416 Y46.746 E.00175
G1 X68.442 Y46.792 E.00175
G1 X68.496 Y46.792 E.00175
G1 X68.522 Y46.746 E.00175
G1 E-.5
G1 Z.4 F21000
G1 X69.188 Y48.367
G1 Z.2
G1 E.5 F1800
;WIDTH:0.499999
G1 F3000
G1 X68.507 Y47.848 E.03014
G1 X67.914 Y47.457 E.02499
G1 X67.281 Y47.082 E.02591
G1 X66.383 Y46.619 E.03554
G1 X65.523 Y46.245 E.03303
G1 X64.396 Y45.849 E.04202
G1 X70.153 Y45.846 E.20259
G1 X69.831 Y46.156 E.0157
G1 X69.495 Y46.647 E.02095
G1 X69.261 Y47.238 E.02237
G1 X69.16 Y47.88 E.02287
G1 X69.185 Y48.307 E.01507
G1 E-.5
G1 Z.4 F21000
G1 X70.824 Y49.618
G1 X71 Y49.732
G1 X71.186 Y49.827
G1 X71.382 Y49.902
G1 X72 Y50.135
G1 X72.232 Y50.207
G1 X72.48 Y50.26
G1 X72.603 Y50.273
G1 X72.605 Y50.257
G1 Z.2
G1 E.5 F1800
;TYPE:Outer wall
;WIDTH:0.585841
G1 F3000
G1 X72.042 Y50.346 E.02382
G1 X71.483 Y50.283 E.02355
G1 X71.013 Y50.088 E.02125
;WIDTH:0.569721
G1 X70.527 Y49.692 E.02545
;WIDTH:0.546346
G1 X70.053 Y49.183 E.02695
;WIDTH:0.579216
G1 X69.875 Y48.928 E.01283
;WIDTH:0.585841
G1 X69.703 Y48.462 E.02077
G1 X69.654 Y47.958 E.02118
G1 X69.755 Y47.316 E.02717
G1 X69.952 Y46.85 E.02112
G1 X70.275 Y46.407 E.02295
G1 X70.733 Y46.038 E.02458
G1 X71.113 Y45.853 E.01767
;WIDTH:0.581335
G1 X71.746 Y45.761 E.02649
;WIDTH:0.540855
G1 X72.241 Y45.759 E.01898
;WIDTH:0.565205
G1 X72.726 Y45.813 E.01963
;WIDTH:0.585841
G1 X73.235 Y46.017 E.02292
G1 X73.65 Y46.34 E.02199
G1 X73.919 Y46.652 E.01722
G1 X74.145 Y47.1 E.021
;WIDTH:0.583615
G1 X74.227 Y47.57 E.01987
;WIDTH:0.543056
G1 X74.243 Y48.204 E.02441
;WIDTH:0.53977
G1 X74.242 Y48.223 E.00073
;WIDTH:0.581566
G1 X74.147 Y48.887 E.02779
;WIDTH:0.585841
G1 X73.919 Y49.347 E.02149
G1 X73.55 Y49.764 E.02326
G1 X73.15 Y50.048 E.02053
G1 X72.685 Y50.245 E.02111
G1 X72.664 Y50.248 E.00085
G1 X72.582 Y50.334
G1 E-.5
G1 Z.4 F21000
G1 X72.661 Y50.279
G1 X73.812 Y58.048
G1 X73.856 Y58.393
G1 X73.891 Y58.736
G1 X73.918 Y59.076
G1 X73.933 Y59.335
G1 X73.946 Y59.669
G1 X73.95 Y60
G1 X73.947 Y60.293
G1 X73.938 Y60.586
G1 X73.901 Y61.172
G1 X73.848 Y61.689
G1 X73.776 Y62.203
G1 X73.506 Y63.962
G1 X73.425 Y64.483
G1 X73.333 Y65.006
G1 X73.213 Y65.611
G1 X72.543 Y68.748
G1 Z.2
G1 E.5 F1800
;TYPE:Inner wall
;WIDTH:0.499999
G1 F3000
G1 X73.032 Y67.996 E.03159
G1 X73.572 Y67.024 E.0391
G1 X73.694 Y66.766 E.01005
G1 X73.694 Y69.172 E.08467
G1 X73.159 Y68.913 E.02089
G1 X72.601 Y68.764 E.02033
G1 X73.277 Y68.432 F21000
;WIDTH:0.47275
G1 F3000
G1 X73.223 Y68.432 E.00178
G1 X73.197 Y68.478 E.00178
G1 X73.223 Y68.525 E.00178
G1 X73.277 Y68.525 E.00178
G1 X73.304 Y68.478 E.00178
G1 E-.5
G1 Z.4 F21000
G1 X71.643 Y69.195
G1 Z.2
G1 E.5 F1800
;WIDTH:0.499999
G1 F3000
G1 X72.155 Y68.506 E.03021
G1 X72.633 Y67.774 E.03077
G1 X73.172 Y66.802 E.0391
G1 X73.647 Y65.773 E.03989
G1 X73.879 Y65.177 E.02252
G1 X74.152 Y64.342 E.03091
G1 X74.152 Y70.16 E.20476
G1 X73.603 Y69.647 E.02645
G1 X73.042 Y69.355 E.02228
G1 X72.416 Y69.187 E.02279
G1 X72.169 Y69.163 E.00871
G1 X71.703 Y69.192 E.01644
G1 E-.5
G1 Z.4 F21000
G1 X68.744 Y72.552
G1 Z.2
G1 E.5 F1800
G1 F3000
G1 X68.924 Y73.204 E.02378
G1 X69.173 Y73.697 E.01944
G1 X66.805 Y73.696 E.08336
G1 X67.338 Y73.431 E.02096
G1 X68.253 Y72.88 E.0376
G1 X68.694 Y72.586 E.01867
G1 X68.506 Y73.211 F21000
;WIDTH:0.465106
G1 F3000
G1 X68.453 Y73.211 E.00172
G1 X68.427 Y73.257 E.00172
G1 X68.453 Y73.302 E.00172
G1 X68.506 Y73.302 E.00172
G1 X68.533 Y73.257 E.00172
G1 E-.5
G1 Z.4 F21000
G1 X69.188 Y71.644
G1 Z.2
G1 E.5 F1800
;WIDTH:0.499999
G1 F3000
G1 X69.154 Y72.063 E.01477
G1 X69.251 Y72.722 E.02347
G1 X69.424 Y73.213 E.01831
G1 X69.761 Y73.752 E.02236
G1 X70.16 Y74.154 E.01994
G1 X64.491 Y74.152 E.19952
G1 X65.082 Y73.954 E.02194
G1 X65.932 Y73.613 E.03226
G1 X67.043 Y73.071 E.04347
G1 X68.018 Y72.488 E.03998
G1 X68.492 Y72.171 E.02008
G1 X69.14 Y71.68 E.02861
G1 E-.5
G1 Z.4 F21000
G1 X70.828 Y70.379
G1 X71.003 Y70.266
G1 X71.189 Y70.172
G1 X71.384 Y70.097
G1 X71.991 Y69.874
G1 X72.23 Y69.798
G1 X72.477 Y69.746
G1 X72.739 Y69.717
G1 X72.805 Y69.739
G1 X72.783 Y69.805
G1 Z.2
G1 E.5 F1800
;TYPE:Outer wall
;WIDTH:0.585841
G1 F3000
G1 X72.889 Y69.831 E.00457
G1 X73.354 Y70.081 E.02205
G1 X73.729 Y70.444 E.02184
G1 X73.915 Y70.646 E.01146
G1 X74.142 Y71.104 E.0214
;WIDTH:0.579524
G1 X74.238 Y71.734 E.0263
;WIDTH:0.543061
G1 X74.229 Y72.416 E.02628
;WIDTH:0.583413
G1 X74.127 Y72.951 E.02265
;WIDTH:0.585841
G1 X73.882 Y73.398 E.02131
G1 X73.429 Y73.859 E.02704
;WIDTH:0.58656
G1 X72.988 Y74.113 E.0213
G1 X72.279 Y74.239 E.03013
;WIDTH:0.542929
G1 X71.55 Y74.225 E.02807
;WIDTH:0.585841
G1 X71.012 Y74.113 E.02296
G1 X70.572 Y73.859 E.02125
G1 X70.116 Y73.4 E.02706
G1 X69.859 Y72.966 E.02107
G1 X69.694 Y72.446 E.02282
G1 X69.653 Y71.954 E.02061
G1 X69.723 Y71.461 E.02081
G1 X69.925 Y70.997 E.02115
;WIDTH:0.570646
G1 X70.334 Y70.503 E.02606
;WIDTH:0.547657
G1 X70.822 Y70.052 E.02581
;WIDTH:0.57925
G1 X71.075 Y69.875 E.01278
;WIDTH:0.585841
G1 X71.555 Y69.702 E.02132
G1 X72.2 Y69.662 E.02704
G1 X72.725 Y69.791 E.02258
G1 X72.797 Y69.789
G1 E-.5
G1 Z.4 F21000
G1 X72.717 Y69.719
G1 X69.583 Y70.195
M73 P1 R21
G1 X67.718 Y72.415
G1 X67.4 Y72.683
G1 X66.982 Y72.889
G1 X66.577 Y72.999
G1 X66.173 Y73.1
G1 X65.719 Y73.206
G1 X65.37 Y73.28
G1 X64.85 Y73.382
G1 X64.504 Y73.443
G1 X62.46 Y73.785
G1 X62.053 Y73.851
G1 X61.645 Y73.906
G1 X61.235 Y73.948
G1 X60.753 Y73.982
G1 X60.412 Y73.997
G1 X60 Y74.003
G1 X59.588 Y73.997
G1 X59.247 Y73.982
G1 X58.765 Y73.948
G1 X58.355 Y73.906
G1 X57.947 Y73.851
G1 X57.54 Y73.785
G1 X55.496 Y73.443
G1 X55.15 Y73.382
G1 X54.63 Y73.28
G1 X54.281 Y73.206
G1 X51.252 Y72.55
G1 Z.2
G1 E.5 F1800
;TYPE:Inner wall
;WIDTH:0.499999
G1 F3000
G1 X51.753 Y72.887 E.02128
G1 X52.318 Y73.237 E.02338
G1 X53.167 Y73.694 E.03394
G1 X50.834 Y73.693 E.08213
G1 X51.119 Y73.093 E.0234
G1 X51.237 Y72.608 E.01757
G1 X51.549 Y73.213 F21000
;WIDTH:0.45806
G1 F3000
G1 X51.497 Y73.213 E.00166
G1 X51.471 Y73.257 E.00166
G1 X51.497 Y73.302 E.00166
G1 X51.549 Y73.302 E.00166
G1 X51.574 Y73.257 E.00166
G1 E-.5
G1 Z.4 F21000
G1 X50.803 Y71.636
G1 Z.2
G1 E.5 F1800
;WIDTH:0.499999
G1 F3000
G1 X51.434 Y72.119 E.02797
G1 X51.995 Y72.499 E.02385
G1 X52.537 Y72.836 E.02245
G1 X53.325 Y73.263 E.03156
G1 X54.453 Y73.775 E.04359
G1 X55.51 Y74.151 E.03948
G1 X49.85 Y74.152 E.19918
G1 X50.183 Y73.827 E.01638
G1 X50.515 Y73.335 E.02088
G1 X50.737 Y72.784 E.02088
G1 X50.838 Y72.152 E.02253
G1 X50.807 Y71.696 E.01609
G1 E-.5
G1 Z.4 F21000
G1 X47.455 Y68.747
G1 Z.2
G1 E.5 F1800
G1 F3000
G1 X46.862 Y68.899 E.02156
G1 X46.307 Y69.166 E.02168
G1 X46.307 Y66.768 E.08441
G1 X46.724 Y67.579 E.03211
G1 X47.062 Y68.15 E.02335
G1 X47.422 Y68.697 E.02303
G1 X46.773 Y68.425 F21000
;WIDTH:0.465262
G1 F3000
G1 X46.72 Y68.425 E.00172
G1 X46.694 Y68.471 E.00172
G1 X46.72 Y68.517 E.00172
G1 X46.773 Y68.517 E.00172
G1 X46.799 Y68.471 E.00172
G1 E-.5
G1 Z.4 F21000
G1 X48.355 Y69.18
G1 Z.2
G1 E.5 F1800
;WIDTH:0.499999
G1 F3000
G1 X48.22 Y69.164 E.00477
G1 X47.692 Y69.167 E.01858
G1 X47.2 Y69.268 E.01767
G1 X46.651 Y69.493 E.02088
G1 X46.161 Y69.827 E.02088
G1 X45.847 Y70.151 E.01589
G1 X45.849 Y64.338 E.20459
G1 X46.136 Y65.218 E.03256
G1 X46.371 Y65.814 E.02257
G1 X46.821 Y66.79 E.03781
G1 X47.118 Y67.348 E.02223
G1 X47.64 Y68.197 E.03509
G1 X47.922 Y68.62 E.01788
G1 X48.318 Y69.133 E.02281
G1 X48.919 Y69.892 F21000
;TYPE:Outer wall
;WIDTH:0.585841
G1 F3000
G1 X49.181 Y70.05 E.01279
;WIDTH:0.554
G1 X49.55 Y70.391 E.0198
;WIDTH:0.570697
G1 X50.075 Y70.998 E.03259
;WIDTH:0.585841
G1 X50.277 Y71.461 E.02114
G1 X50.33 Y72.058 E.02504
G1 X50.334 Y72.26 E.00843
G1 X50.23 Y72.738 E.02045
G1 X50.029 Y73.184 E.02046
G1 X49.738 Y73.579 E.02051
G1 X49.365 Y73.907 E.02076
G1 X48.908 Y74.139 E.02143
;WIDTH:0.581855
G1 X48.279 Y74.237 E.02643
;WIDTH:0.543893
G1 X47.55 Y74.225 E.02812
;WIDTH:0.585841
G1 X47.012 Y74.113 E.02296
G1 X46.571 Y73.858 E.02129
G1 X46.118 Y73.397 E.02702
G1 X45.873 Y72.95 E.02132
;WIDTH:0.582662
G1 X45.85 Y72.885 E.00284
;WIDTH:0.580937
G1 X45.759 Y72.241 E.02696
;WIDTH:0.541255
G1 X45.775 Y71.56 E.02614
;WIDTH:0.582959
G1 X45.883 Y71.025 E.02269
;WIDTH:0.585841
G1 X46.122 Y70.593 E.02064
G1 X46.454 Y70.232 E.02051
G1 X46.854 Y69.95 E.02045
G1 X47.304 Y69.757 E.02046
G1 X47.785 Y69.661 E.0205
G1 X48.281 Y69.671 E.02073
G1 X48.763 Y69.798 E.02086
G1 X48.867 Y69.861 E.00508
G1 X48.97 Y69.859
G1 E-.5
G1 Z.4 F21000
G1 X47.253 Y67.253
G1 X47.037 Y66.664
G1 X46.905 Y66.137
G1 X46.787 Y65.61
G1 X46.667 Y65.005
G1 X46.562 Y64.407
G1 X46.224 Y62.203
G1 X46.152 Y61.689
G1 X46.099 Y61.172
G1 X46.062 Y60.586
G1 X46.053 Y60.293
G1 X46.05 Y60
G1 X46.054 Y59.669
G1 X46.067 Y59.335
G1 X46.438 Y50.896
G1 Z.2
G1 E.5 F1800
;TYPE:Inner wall
;WIDTH:0.499999
G1 F3000
G1 X46.913 Y51.122 E.01852
G1 X47.481 Y51.24 E.02043
G1 X47.017 Y51.947 E.02975
G1 X46.613 Y52.643 E.02835
G1 X46.311 Y53.216 E.02278
G1 X46.307 Y50.834 E.08384
G1 X46.384 Y50.87 E.00298
G1 X46.779 Y51.49 F21000
;WIDTH:0.475134
G1 F3000
G1 X46.725 Y51.49 E.0018
G1 X46.698 Y51.536 E.0018
G1 X46.725 Y51.583 E.0018
G1 X46.779 Y51.583 E.0018
G1 X46.806 Y51.536 E.0018
G1 E-.5
M73 P1 R20
G1 Z.4 F21000
G1 X46.574 Y50.455
G1 Z.2
G1 E.5 F1800
;WIDTH:0.499999
G1 F3000
G1 X46.646 Y50.505 E.00311
G1 X47.238 Y50.739 E.02239
G1 X47.88 Y50.84 E.02287
G1 X48.374 Y50.811 E.01742
G1 X48.046 Y51.239 E.01896
G1 X47.688 Y51.75 E.02195
G1 X47.412 Y52.177 E.01791
G1 X47.018 Y52.854 E.02756
G1 X46.704 Y53.463 E.02412
G1 X46.375 Y54.185 E.02794
G1 X46.013 Y55.133 E.03571
G1 X45.849 Y55.649 E.01906
G1 X45.842 Y49.843 E.20436
G1 X46.156 Y50.169 E.01592
G1 X46.524 Y50.421 E.01572
G1 E-.5
G1 Z.4 F21000
G1 X47.529 Y50.257
G1 X47.768 Y50.207
G1 X48 Y50.135
G1 X48.618 Y49.902
G1 X48.814 Y49.827
G1 X49 Y49.732
G1 X49.176 Y49.618
G1 X49.338 Y49.486
G1 X53.223 Y46.307
G1 Z.2
G1 E.5 F1800
G1 F3000
G1 X52.598 Y46.626 E.02471
G1 X51.237 Y47.459 E.05616
G1 X51.099 Y46.858 E.02171
G1 X50.833 Y46.307 E.02154
G1 X53.163 Y46.307 E.08198
G1 E-.5
G1 Z.4 F21000
G1 X51.559 Y46.702
G1 Z.2
G1 E.5 F1800
;WIDTH:0.469786
G1 F3000
G1 X51.506 Y46.702 E.00175
G1 X51.479 Y46.749 E.00175
G1 X51.506 Y46.795 E.00175
G1 X51.559 Y46.795 E.00175
G1 X51.586 Y46.749 E.00175
G1 E-.5
G1 Z.4 F21000
G1 X55.621 Y45.85
G1 Z.2
G1 E.5 F1800
;WIDTH:0.499999
G1 F3000
G1 X55.106 Y46.011 E.01902
G1 X54.438 Y46.26 E.02506
G1 X53.621 Y46.617 E.0314
G1 X52.827 Y47.022 E.03137
G1 X52.208 Y47.381 E.02518
G1 X51.744 Y47.684 E.01949
G1 X51.228 Y48.04 E.02209
G1 X50.812 Y48.364 E.01853
G1 X50.84 Y47.88 E.01707
G1 X50.739 Y47.238 E.02288
G1 X50.505 Y46.647 E.02236
G1 X50.169 Y46.156 E.02095
G1 X49.849 Y45.848 E.0156
G1 X55.561 Y45.85 E.20103
G1 E-.5
G1 Z.4 F21000
G1 X49.902 Y48.618
G1 X49.827 Y48.814
G1 X49.732 Y49
G1 X49.618 Y49.176
G1 X49.486 Y49.338
G1 X49.338 Y49.486
G1 X49.176 Y49.618
G1 X49 Y49.732
G1 X48.814 Y49.827
G1 X48.618 Y49.902
G1 X48 Y50.135
G1 X47.768 Y50.207
G1 X47.529 Y50.257
G1 X47.257 Y50.289
G1 X47.02 Y50.2
G1 X46.406 Y49.725
G1 Z.2
G1 E.5 F1800
;TYPE:Outer wall
;WIDTH:0.585841
G1 F3000
