; generated by SuperSlicer 2.5.59 on 2023-08-04 at 15:17:11 UTC


;
;

;
;
; 

; external perimeters extrusion width = 0.40mm
; perimeters extrusion width = 0.46mm
; infill extrusion width = 0.64mm
; solid infill extrusion width = 0.56mm
; top infill extrusion width = 0.40mm
; first layer extrusion width = 0.50mm

; object:{"name":"Rear sliding mount 5015","id":"Rear sliding mount 5015.stl id:0 copy 0","object_center":[60.000000,60.000002,0.000000],"boundingbox_center":[60.000000,60.000002,10.800003],"boundingbox_size":[61.632000,62.666000,21.602001]}
EXCLUDE_OBJECT_DEFINE NAME=Rear_sliding_mount_5015_stl_id_0_copy_0 CENTER=60.000000,60.000002 POLYGON=[[29.184000,48.593000],[29.218000,48.123000],[29.318000,47.661000],[29.480000,47.219000],[29.706000,46.807000],[29.986000,46.429000],[30.320000,46.095000],[30.696000,45.813000],[57.498040,28.667000],[67.498040,28.667000],[87.510000,29.019000],[87.979992,29.050998],[88.440000,29.151000],[88.882008,29.314998],[89.296000,29.539000],[89.672000,29.821000],[90.006000,30.153000],[90.288000,30.529000],[90.516000,30.942998],[90.680000,31.383000],[90.782000,31.843000],[90.816000,32.313000],[90.784000,32.782998],[81.563992,87.854992],[81.462000,88.369000],[81.294000,88.865000],[81.062000,89.333000],[80.770008,89.769000],[80.426000,90.163000],[80.032000,90.507008],[79.598000,90.799000],[79.128000,91.029000],[78.632000,91.197000],[78.120000,91.299000],[77.598000,91.333000],[47.398000,91.333000],[46.876000,91.299000],[46.364000,91.197000],[45.868000,91.029000],[45.398000,90.799000],[44.962000,90.507008],[44.570000,90.163000],[44.226000,89.769000],[43.934000,89.333000],[43.702000,88.865000],[29.320000,49.521000],[29.220000,49.061000],[29.184000,48.593000]]
; plater:{"center":[60.000000,60.000002,0.000000],"boundingbox_center":[60.000000,60.000002,10.800003],"boundingbox_size":[61.632000,62.666000,21.602001]}

M73 P0 R31
;TYPE:Custom
; custom gcode: start_gcode
START_PRINT T_BED=110 T_EXTRUDER=260
; custom gcode end: start_gcode
M107
G21 ; set units to millimeters
G90 ; use absolute coordinates
M82 ; use absolute distances for extrusion
G92 E0
; custom gcode: start_filament_gcode
; filament start gcode

    PRESSURE_ADVANCE_SELECT FILAMENT=ABS
; custom gcode end: start_filament_gcode
;_TOOLCHANGE 0
M104 S260 ; set temperature
M109 S260 ; set temperature and wait for it to be reached
M190 S110 ; set bed temperature and wait for it to be reached
;LAYER_CHANGE
;Z:0.2
;HEIGHT:0.2
G1 Z0.2 F12000
M73 P0 R31
G1 E-0.5 F2400
M204 S2000
G1 X28.374 Y42.853 F12000
M73 P0 R31
G1 E0 F1800
;TYPE:Skirt
;WIDTH:0.52
G1 X27.609 Y43.474 E0.03616
G1 X26.925 Y44.215 E0.0732
G1 X26.16 Y45.409 E0.12531
G1 X25.771 Y46.348 E0.16265
G1 X25.531 Y47.291 E0.1984
G1 X25.424 Y48.283 E0.23502
G1 X25.459 Y49.261 E0.27099
G1 X25.772 Y50.716 E0.32564
G1 X40.223 Y90.247 E1.87177
G1 X40.611 Y91.08 E1.90553
G1 X41.139 Y91.925 E1.94213
G1 X42.113 Y93.037 E1.9964
G1 X43.307 Y93.954 E2.05173
G1 X44.202 Y94.43 E2.08896
G1 X45.129 Y94.776 E2.12533
G1 X46.097 Y95.001 E2.16182
G1 X47.096 Y95.098 E2.1987
G1 X53.259 Y95.181 E2.42509
G1 X71.731 Y95.179 E3.10365
G1 X78.439 Y95.065 E3.35011
G1 X79.426 Y94.901 E3.38683
G1 X80.819 Y94.43 E3.44087
G1 X81.721 Y93.95 E3.47838
G1 X82.515 Y93.38 E3.51431
G1 X83.257 Y92.687 E3.55157
G1 X84.168 Y91.498 E3.60662
G1 X84.637 Y90.622 E3.64312
G1 X84.992 Y89.678 E3.68017
G1 X85.238 Y88.595 E3.72094
G1 X94.504 Y33.246 E5.78244
G1 X94.577 Y31.906 E5.83173
G1 X94.366 Y30.463 E5.88529
G1 X94.06 Y29.541 E5.92097
G1 X93.611 Y28.643 E5.95787
G1 X93.054 Y27.839 E5.99378
G1 X92.375 Y27.11 E6.03038
G1 X91.618 Y26.498 E6.06612
G1 X90.754 Y25.984 E6.10307
G1 X89.847 Y25.609 E6.13911
G1 X88.896 Y25.364 E6.1752
G1 X87.714 Y25.249 E6.21884
G1 X67.501 Y24.895 E6.96144
G1 X57.585 Y24.894 E7.32567
G1 X55.587 Y25.477 E7.40215
G1 X28.374 Y42.853 E8.5882
G1 X28.66 Y43.235 F12000
G1 F1800
G1 X27.947 Y43.811 E8.62187
G1 X27.309 Y44.499 E8.65633
G1 X26.579 Y45.639 E8.70606
G1 X26.219 Y46.512 E8.74076
G1 X25.997 Y47.392 E8.77409
G1 X25.9 Y48.315 E8.80818
G1 X25.935 Y49.227 E8.84169
G1 X26.22 Y50.552 E8.89149
G1 X40.671 Y90.084 E10.43761
G1 X41.038 Y90.869 E10.46945
G1 X41.535 Y91.66 E10.50378
G1 X42.427 Y92.678 E10.5535
G1 X43.573 Y93.558 E10.60655
G1 X44.412 Y94.001 E10.64141
G1 X45.282 Y94.324 E10.67553
G1 X46.19 Y94.533 E10.70975
G1 X47.127 Y94.622 E10.74433
G1 X53.265 Y94.704 E10.9698
G1 X71.729 Y94.702 E11.64806
G1 X78.408 Y94.589 E11.89346
G1 X79.332 Y94.433 E11.92788
G1 X80.609 Y94.001 E11.97739
G1 X81.454 Y93.554 E12.01251
G1 X82.202 Y93.02 E12.04624
G1 X82.897 Y92.374 E12.08113
G1 X83.772 Y91.232 E12.13395
G1 X84.21 Y90.41 E12.16818
G1 X84.54 Y89.525 E12.20289
G1 X84.767 Y88.517 E12.24084
G1 X94.034 Y33.167 E14.30235
G1 X94.101 Y31.94 E14.34747
G1 X93.9 Y30.567 E14.39847
G1 X93.613 Y29.708 E14.43173
G1 X93.193 Y28.873 E14.46606
G1 X92.672 Y28.126 E14.49952
G1 X92.039 Y27.448 E14.53358
G1 X91.332 Y26.88 E14.5669
G1 X90.527 Y26.404 E14.60126
G1 X89.681 Y26.056 E14.63485
G1 X88.794 Y25.83 E14.66846
G1 X87.705 Y25.726 E14.70866
G1 X67.492 Y25.372 E15.45127
G1 X57.585 Y25.371 E15.81519
G1 X55.843 Y25.879 E15.88185
G1 X28.66 Y43.235 E17.06657
G92 E0
M73 P1 R31
G1 E-0.5 F2400
; printing object Rear sliding mount 5015.stl id:0 copy 0
EXCLUDE_OBJECT_START NAME=Rear_sliding_mount_5015_stl_id_0_copy_0
G1 X85.252 Y30.534 F12000
G1 E0 F1800
;TYPE:Internal perimeter
;WIDTH:0.5
G1 X85.101 Y30.316 E0.00931
G1 X68.366 Y35.264 E0.62349
G1 X68.116 Y35.308 E0.63242
G1 X67.81 Y35.292 E0.64321
G1 X67.506 Y35.2 E0.65439
G1 X67.246 Y35.043 E0.66509
G1 X67.031 Y34.843 E0.67541
G1 X66.864 Y34.588 E0.68615
G1 X66.756 Y34.299 E0.697
G1 X66.729 Y34.039 E0.7062
G1 X66.729 Y29.317 E0.87239
G1 X62.913 Y29.317 E1.00667
G1 X62.88 Y29.646 E1.0183
G1 X63.252 Y29.721 E1.03165
G1 X63.726 Y29.935 E1.04995
G1 X64.124 Y30.224 E1.06728
G1 X64.471 Y30.608 E1.08546
G1 X64.724 Y31.048 E1.10332
G1 X64.88 Y31.531 E1.12119
G1 X64.93 Y32.035 E1.13902
G1 X64.877 Y32.537 E1.15678
G1 X64.718 Y33.017 E1.17459
G1 X64.47 Y33.445 E1.19201
G1 X64.124 Y33.828 E1.21014
G1 X63.725 Y34.118 E1.2275
G1 X63.265 Y34.324 E1.24525
G1 X62.992 Y34.383 E1.25508
G1 X62.943 Y33.926 E1.27125
;TYPE:External perimeter
G1 X63.122 Y33.887 E1.27768
G1 X63.495 Y33.72 E1.29208
G1 X63.817 Y33.486 E1.30609
G1 X64.098 Y33.175 E1.32085
G1 X64.299 Y32.829 E1.33491
G1 X64.427 Y32.44 E1.34934
G1 X64.47 Y32.033 E1.36373
G1 X64.43 Y31.625 E1.37818
G1 X64.303 Y31.234 E1.39263
G1 X64.099 Y30.878 E1.40709
G1 X63.817 Y30.566 E1.42187
G1 X63.495 Y30.333 E1.43586
G1 X63.11 Y30.159 E1.45072
G1 X62.708 Y30.077 E1.46518
G1 X62.311 Y30.077 E1.47914
G1 X61.911 Y30.159 E1.49352
G1 X61.535 Y30.327 E1.508
G1 X61.205 Y30.565 E1.52235
G1 X60.93 Y30.868 E1.53675
G1 X60.723 Y31.223 E1.55119
G1 X60.594 Y31.613 E1.56564
G1 X60.551 Y32.021 E1.5801
G1 X60.591 Y32.428 E1.59448
G1 X60.718 Y32.818 E1.60893
G1 X60.923 Y33.174 E1.62339
G1 X61.204 Y33.486 E1.63818
G1 X61.536 Y33.726 E1.65258
G1 X61.911 Y33.891 E1.66698
G1 X62.3 Y33.974 E1.68098
G1 X62.491 Y33.974 E1.68774
;TYPE:Internal perimeter
G1 X62.54 Y34.431 E1.70391
G1 X62.251 Y34.431 E1.7141
G1 X61.769 Y34.328 E1.73145
G1 X61.308 Y34.125 E1.74918
G1 X60.898 Y33.829 E1.76699
G1 X60.551 Y33.445 E1.7852
G1 X60.298 Y33.005 E1.80306
G1 X60.141 Y32.522 E1.82093
G1 X60.092 Y32.02 E1.83868
G1 X60.144 Y31.516 E1.85652
G1 X60.304 Y31.034 E1.87438
G1 X60.559 Y30.596 E1.8922
G1 X60.899 Y30.223 E1.90998
G1 X61.306 Y29.929 E1.92766
G1 X61.77 Y29.721 E1.94555
G1 X62.14 Y29.645 E1.95885
G1 X62.107 Y29.317 E1.97048
G1 X58.293 Y29.317 E2.10473
G1 X58.293 Y34.636 E2.29193
G1 X57.941 Y37.567 E2.39583
G1 X57.88 Y37.817 E2.40488
G1 X57.745 Y38.088 E2.41553
G1 X57.545 Y38.325 E2.42646
G1 X57.298 Y38.503 E2.43716
G1 X57.066 Y38.604 E2.44607
G1 X33.472 Y45.579 E3.31196
G1 X33.461 Y45.84 E3.32116
G1 X33.65 Y45.913 E3.32828
G1 X34.106 Y46.198 E3.34721
G1 X34.507 Y46.56 E3.36621
G1 X34.831 Y46.993 E3.38525
G1 X35.069 Y47.472 E3.40406
G1 X35.219 Y47.993 E3.42315
G1 X35.267 Y48.527 E3.44204
G1 X35.219 Y49.064 E3.461
G1 X35.069 Y49.585 E3.48009
G1 X34.831 Y50.064 E3.49891
G1 X34.75 Y50.173 E3.50368
G1 X34.9 Y50.389 E3.51296
G1 X44.571 Y47.532 E3.86787
G1 X45.102 Y47.416 E3.88699
G1 X45.675 Y47.381 E3.90719
G1 X46.244 Y47.431 E3.92731
G1 X46.802 Y47.564 E3.94748
G1 X47.335 Y47.782 E3.96774
G1 X47.825 Y48.075 E3.98784
G1 X48.267 Y48.439 E4.00798
G1 X48.652 Y48.864 E4.0282
G1 X48.966 Y49.341 E4.04829
G1 X49.098 Y49.626 E4.05933
G1 X49.52 Y49.449 E4.07543
G1 X49.366 Y49.118 E4.08827
G1 X49.015 Y48.584 E4.11078
G1 X48.583 Y48.107 E4.13341
G1 X48.089 Y47.7 E4.15594
G1 X47.54 Y47.372 E4.17846
G1 X46.942 Y47.127 E4.20119
G1 X46.318 Y46.979 E4.22377
G1 X45.681 Y46.922 E4.24627
G1 X45.039 Y46.962 E4.26892
G1 X44.458 Y47.089 E4.28985
G1 X35.501 Y49.735 E4.61853
G1 X35.671 Y49.149 E4.64002
G1 X35.725 Y48.527 E4.66196
G1 X35.671 Y47.908 E4.68383
G1 X35.496 Y47.305 E4.70592
G1 X35.222 Y46.753 E4.72765
G1 X34.983 Y46.434 E4.74167
G1 X35.374 Y46.193 E4.75783
G1 X35.612 Y46.512 E4.77183
G1 X35.924 Y47.139 E4.79647
G1 X36.122 Y47.824 E4.82157
G1 X36.184 Y48.527 E4.84641
G1 X36.136 Y49.071 E4.86562
G1 X44.344 Y46.646 E5.16682
G1 X44.976 Y46.508 E5.18957
G1 X45.687 Y46.464 E5.21467
G1 X46.391 Y46.527 E5.23955
G1 X47.082 Y46.691 E5.26454
G1 X47.745 Y46.962 E5.28974
G1 X48.353 Y47.326 E5.31467
G1 X48.9 Y47.775 E5.33959
G1 X49.347 Y48.27 E5.36305
G1 X49.605 Y48.112 E5.3737
G1 X48.481 Y45.113 E5.48643
G1 X48.353 Y44.59 E5.50537
G1 X48.347 Y43.955 E5.52773
G1 X48.491 Y43.325 E5.55049
G1 X48.781 Y42.751 E5.57313
G1 X49.188 Y42.262 E5.59551
G1 X49.325 Y42.16 E5.6015
G1 X49.188 Y41.886 E5.61228
G1 X35.456 Y45.946 E6.11621
G1 X35.211 Y45.993 E6.12501
;TYPE:Unknown
G1 X34.922 Y46.05
;TYPE:Internal perimeter
G1 X34.676 Y46.097 E6.13381
G1 X34.344 Y45.798 E6.14956
G1 X57.222 Y39.035 E6.98917
G1 X57.526 Y38.903 E7.00082
G1 X57.858 Y38.663 E7.01525
G1 X58.129 Y38.34 E7.03006
G1 X58.312 Y37.976 E7.04442
G1 X58.392 Y37.649 E7.05625
G1 X58.75 Y34.663 E7.16209
G1 X58.75 Y29.774 E7.33417
G1 X60.689 Y29.774 E7.40242
G1 X60.188 Y30.325 E7.42862
G1 X60 Y30.647 E7.44177
G1 X59.592 Y30.44 E7.45789
G1 X59.714 Y30.231 E7.46639
G1 X59.207 Y30.231 E7.48424
G1 X59.207 Y30.564 E7.49597
G1 X59.256 Y30.577 E7.49778
;WIDTH:0.338713
G1 X59.813 Y31.062 E7.51537
;WIDTH:0.5
G1 X59.695 Y31.419 E7.52862
G1 X59.632 Y32.018 E7.54983
G1 X59.691 Y32.616 E7.57095
G1 X59.807 Y32.974 E7.58419
;WIDTH:0.336775
G1 X59.257 Y33.472 E7.60178
;WIDTH:0.5
G1 X59.207 Y33.486 E7.60362
G1 X59.207 Y34.691 E7.64602
G1 X58.842 Y37.731 E7.75379
G1 X58.743 Y38.134 E7.76841
G1 X58.514 Y38.593 E7.78647
G1 X58.172 Y39 E7.80517
G1 X57.754 Y39.302 E7.82333
G1 X57.379 Y39.465 E7.83772
G1 X56.776 Y39.643 E7.85983
G1 X56.811 Y39.948 E7.87063
G1 X56.958 Y39.957 E7.87583
G1 X57.567 Y40.138 E7.89818
G1 X58.117 Y40.457 E7.92054
G1 X58.583 Y40.896 E7.94307
G1 X58.928 Y41.427 E7.96537
G1 X59.146 Y42.022 E7.98769
G1 X59.181 Y42.328 E7.99852
G1 X58.724 Y42.354 E8.01463
G1 X58.698 Y42.128 E8.02263
G1 X58.517 Y41.633 E8.0412
G1 X58.23 Y41.191 E8.05975
G1 X57.842 Y40.826 E8.07849
G1 X57.385 Y40.561 E8.09709
G1 X56.878 Y40.41 E8.11568
G1 X56.352 Y40.378 E8.13424
G1 X56.131 Y40.417 E8.14214
G1 X56.236 Y40.863 E8.15825
G1 X56.378 Y40.838 E8.16334
G1 X56.798 Y40.863 E8.17816
G1 X57.202 Y40.983 E8.19299
G1 X57.567 Y41.195 E8.20782
G1 X57.876 Y41.486 E8.22277
G1 X58.105 Y41.839 E8.23758
G1 X58.25 Y42.234 E8.2524
G1 X58.293 Y42.607 E8.2656
G1 X58.293 Y50.879 E8.55673
G1 X58.241 Y51.28 E8.57096
G1 X58.075 Y51.699 E8.58682
G1 X57.809 Y52.07 E8.6029
G1 X57.457 Y52.36 E8.61894
G1 X57.047 Y52.554 E8.63492
G1 X56.824 Y52.598 E8.6429
G1 X56.794 Y52.138 E8.65912
;TYPE:External perimeter
G1 X56.902 Y52.117 E8.66301
G1 X57.21 Y51.971 E8.67499
G1 X57.472 Y51.756 E8.68693
G1 X57.67 Y51.478 E8.69893
G1 X57.795 Y51.165 E8.71081
G1 X57.835 Y50.85 E8.72199
G1 X57.835 Y42.633 E9.01118
G1 X57.802 Y42.34 E9.02154
G1 X57.694 Y42.044 E9.03262
G1 X57.523 Y41.781 E9.04367
G1 X57.292 Y41.564 E9.05483
G1 X57.02 Y41.406 E9.06589
G1 X56.719 Y41.316 E9.07696
G1 X56.404 Y41.297 E9.08805
G1 X56.115 Y41.348 E9.09838
G1 X50.665 Y42.958 E9.29838
G1 X50.393 Y43.075 E9.3088
G1 X50.138 Y43.265 E9.32
G1 X49.935 Y43.508 E9.33116
G1 X49.791 Y43.793 E9.34239
G1 X49.72 Y44.104 E9.3536
G1 X49.723 Y44.419 E9.36469
G1 X49.794 Y44.708 E9.37516
G1 X51.651 Y49.662 E9.56136
G1 X51.805 Y49.948 E9.57281
G1 X52.041 Y50.206 E9.58512
G1 X52.321 Y50.381 E9.59673
G1 X55.927 Y52.065 E9.73679
G1 X56.231 Y52.161 E9.748
G1 X56.342 Y52.168 E9.75192
;TYPE:Internal perimeter
G1 X56.372 Y52.628 E9.76814
G1 X56.146 Y52.613 E9.77611
G1 X55.761 Y52.491 E9.79032
G1 X52.102 Y50.784 E9.93242
G1 X51.746 Y50.56 E9.94721
G1 X51.43 Y50.215 E9.96369
G1 X51.233 Y49.851 E9.97823
G1 X49.356 Y44.843 E10.16648
G1 X49.266 Y44.476 E10.17977
G1 X49.263 Y44.054 E10.19461
G1 X49.358 Y43.637 E10.20968
G1 X49.55 Y43.256 E10.22471
G1 X49.821 Y42.93 E10.23961
G1 X50.163 Y42.676 E10.2546
G1 X50.509 Y42.527 E10.26787
G1 X55.791 Y40.967 E10.4617
G1 X55.687 Y40.521 E10.47781
G1 X50.354 Y42.096 E10.67351
G1 X49.933 Y42.277 E10.68963
G1 X49.505 Y42.596 E10.70842
G1 X49.166 Y43.003 E10.72706
G1 X48.924 Y43.481 E10.7459
G1 X48.805 Y44.005 E10.76481
G1 X48.81 Y44.533 E10.78341
G1 X48.919 Y44.978 E10.79953
G1 X50.816 Y50.041 E10.98982
G1 X51.054 Y50.482 E11.00746
G1 X51.451 Y50.915 E11.0281
G1 X51.883 Y51.186 E11.04606
G1 X55.594 Y52.918 E11.1902
G1 X56.061 Y53.066 E11.20743
G1 X56.63 Y53.102 E11.22749
G1 X57.191 Y52.992 E11.24761
G1 X57.704 Y52.749 E11.26759
G1 X58.146 Y52.385 E11.28773
G1 X58.479 Y51.919 E11.30789
G1 X58.687 Y51.395 E11.32774
G1 X58.75 Y50.908 E11.34501
G1 X58.75 Y42.81 E11.63004
G1 X59.207 Y42.784 E11.64615
G1 X59.207 Y44.64 E11.71146
G1 X59.496 Y44.701 E11.72189
G1 X59.62 Y44.423 E11.73259
G1 X60.033 Y43.861 E11.75714
G1 X60.545 Y43.398 E11.78142
G1 X61.152 Y43.044 E11.80617
G1 X61.824 Y42.83 E11.831
G1 X62.283 Y42.782 E11.84724
G1 X62.283 Y43.242 E11.86342
G1 X61.918 Y43.279 E11.87634
G1 X61.339 Y43.464 E11.89774
G1 X60.816 Y43.769 E11.91904
G1 X60.374 Y44.168 E11.94001
G1 X60.018 Y44.654 E11.96119
G1 X59.772 Y45.206 E11.98247
G1 X59.646 Y45.795 E12.00367
G1 X59.646 Y46.398 E12.02487
G1 X59.772 Y46.988 E12.04613
G1 X60.018 Y47.537 E12.06726
G1 X60.374 Y48.025 E12.08854
G1 X60.818 Y48.423 E12.10954
G1 X61.336 Y48.725 E12.13062
G1 X61.914 Y48.913 E12.15204
G1 X62.511 Y48.974 E12.17313
G1 X63.108 Y48.913 E12.19427
G1 X63.683 Y48.725 E12.21555
G1 X64.202 Y48.425 E12.23665
G1 X64.648 Y48.025 E12.25772
G1 X65.003 Y47.537 E12.279
G1 X65.25 Y46.985 E12.30027
G1 X65.373 Y46.394 E12.32151
G1 X65.373 Y45.799 E12.34245
G1 X65.251 Y45.21 E12.36363
G1 X65.003 Y44.654 E12.38504
G1 X64.648 Y44.168 E12.40622
G1 X64.204 Y43.768 E12.42726
G1 X63.68 Y43.464 E12.44858
G1 X63.189 Y43.307 E12.46672
G1 X62.965 Y43.725 E12.48341
G1 X63.493 Y43.884 E12.50282
G1 X63.933 Y44.139 E12.52072
G1 X64.307 Y44.476 E12.53843
G1 X64.606 Y44.884 E12.55623
G1 X64.813 Y45.35 E12.57418
G1 X64.916 Y45.846 E12.59199
G1 X64.916 Y46.347 E12.60963
G1 X64.813 Y46.844 E12.62747
G1 X64.606 Y47.306 E12.64531
G1 X64.307 Y47.717 E12.6632
G1 X63.932 Y48.053 E12.68091
G1 X63.495 Y48.306 E12.69866
G1 X63.013 Y48.463 E12.71653
G1 X62.738 Y48.492 E12.72625
G1 X62.738 Y48.032 E12.74242
;TYPE:External perimeter
G1 X62.917 Y48.014 E12.74876
G1 X63.308 Y47.886 E12.76321
G1 X63.662 Y47.681 E12.77763
G1 X63.966 Y47.409 E12.79197
G1 X64.208 Y47.076 E12.80647
G1 X64.375 Y46.702 E12.82088
G1 X64.459 Y46.3 E12.83533
G1 X64.459 Y45.893 E12.84967
G1 X64.375 Y45.491 E12.8641
G1 X64.208 Y45.115 E12.87859
G1 X63.966 Y44.784 E12.89302
G1 X63.663 Y44.511 E12.90739
G1 X63.307 Y44.304 E12.92187
G1 X62.916 Y44.179 E12.9363
G1 X62.511 Y44.138 E12.95065
G1 X62.105 Y44.179 E12.96499
G1 X61.712 Y44.304 E12.97951
G1 X61.358 Y44.511 E12.99393
G1 X61.056 Y44.784 E13.00829
G1 X60.813 Y45.115 E13.02271
G1 X60.646 Y45.49 E13.03717
G1 X60.561 Y45.892 E13.05162
G1 X60.561 Y46.301 E13.06603
G1 X60.646 Y46.703 E13.08049
G1 X60.813 Y47.076 E13.09486
G1 X61.056 Y47.409 E13.10936
G1 X61.359 Y47.68 E13.12369
G1 X61.711 Y47.886 E13.13805
