; generated by SuperSlicer 2.5.59 on 2023-01-15 at 20:22:39 UTC


;
;

;
;
; 

; external perimeters extrusion width = 0.40mm
; perimeters extrusion width = 0.46mm
; infill extrusion width = 0.64mm
; solid infill extrusion width = 0.56mm
; top infill extrusion width = 0.40mm
; first layer extrusion width = 0.50mm

; external perimeters extrusion width = 0.40mm
; perimeters extrusion width = 0.46mm
; infill extrusion width = 0.64mm
; solid infill extrusion width = 0.56mm
; top infill extrusion width = 0.40mm
; first layer extrusion width = 0.50mm

; external perimeters extrusion width = 0.40mm
; perimeters extrusion width = 0.46mm
; infill extrusion width = 0.64mm
; solid infill extrusion width = 0.56mm
; top infill extrusion width = 0.40mm
; first layer extrusion width = 0.50mm

; external perimeters extrusion width = 0.40mm
; perimeters extrusion width = 0.46mm
; infill extrusion width = 0.64mm
; solid infill extrusion width = 0.56mm
; top infill extrusion width = 0.40mm
; first layer extrusion width = 0.50mm

; external perimeters extrusion width = 0.40mm
; perimeters extrusion width = 0.46mm
; infill extrusion width = 0.64mm
; solid infill extrusion width = 0.56mm
; top infill extrusion width = 0.40mm
; first layer extrusion width = 0.50mm

; external perimeters extrusion width = 0.40mm
; perimeters extrusion width = 0.46mm
; infill extrusion width = 0.64mm
; solid infill extrusion width = 0.56mm
; top infill extrusion width = 0.40mm
; first layer extrusion width = 0.50mm

; external perimeters extrusion width = 0.40mm
; perimeters extrusion width = 0.46mm
; infill extrusion width = 0.64mm
; solid infill extrusion width = 0.56mm
; top infill extrusion width = 0.40mm
; first layer extrusion width = 0.50mm

; external perimeters extrusion width = 0.40mm
; perimeters extrusion width = 0.46mm
; infill extrusion width = 0.64mm
; solid infill extrusion width = 0.56mm
; top infill extrusion width = 0.40mm
; first layer extrusion width = 0.50mm

; external perimeters extrusion width = 0.40mm
; perimeters extrusion width = 0.46mm
; infill extrusion width = 0.64mm
; solid infill extrusion width = 0.56mm
; top infill extrusion width = 0.40mm
; first layer extrusion width = 0.50mm

; external perimeters extrusion width = 0.40mm
; perimeters extrusion width = 0.46mm
; infill extrusion width = 0.64mm
; solid infill extrusion width = 0.56mm
; top infill extrusion width = 0.40mm
; first layer extrusion width = 0.50mm

; external perimeters extrusion width = 0.40mm
; perimeters extrusion width = 0.46mm
; infill extrusion width = 0.64mm
; solid infill extrusion width = 0.56mm
; top infill extrusion width = 0.40mm
; first layer extrusion width = 0.50mm

; external perimeters extrusion width = 0.40mm
; perimeters extrusion width = 0.46mm
; infill extrusion width = 0.64mm
; solid infill extrusion width = 0.56mm
; top infill extrusion width = 0.40mm
; first layer extrusion width = 0.50mm

; external perimeters extrusion width = 0.40mm
; perimeters extrusion width = 0.46mm
; infill extrusion width = 0.64mm
; solid infill extrusion width = 0.56mm
; top infill extrusion width = 0.40mm
; first layer extrusion width = 0.50mm

; external perimeters extrusion width = 0.40mm
; perimeters extrusion width = 0.46mm
; infill extrusion width = 0.64mm
; solid infill extrusion width = 0.56mm
; top infill extrusion width = 0.40mm
; first layer extrusion width = 0.50mm

; external perimeters extrusion width = 0.40mm
; perimeters extrusion width = 0.46mm
; infill extrusion width = 0.64mm
; solid infill extrusion width = 0.56mm
; top infill extrusion width = 0.40mm
; first layer extrusion width = 0.50mm

; external perimeters extrusion width = 0.40mm
; perimeters extrusion width = 0.46mm
; infill extrusion width = 0.64mm
; solid infill extrusion width = 0.56mm
; top infill extrusion width = 0.40mm
; first layer extrusion width = 0.50mm

; external perimeters extrusion width = 0.40mm
; perimeters extrusion width = 0.46mm
; infill extrusion width = 0.64mm
; solid infill extrusion width = 0.56mm
; top infill extrusion width = 0.40mm
; first layer extrusion width = 0.50mm

; external perimeters extrusion width = 0.40mm
; perimeters extrusion width = 0.46mm
; infill extrusion width = 0.64mm
; solid infill extrusion width = 0.56mm
; top infill extrusion width = 0.40mm
; first layer extrusion width = 0.50mm

; external perimeters extrusion width = 0.40mm
; perimeters extrusion width = 0.46mm
; infill extrusion width = 0.64mm
; solid infill extrusion width = 0.56mm
; top infill extrusion width = 0.40mm
; first layer extrusion width = 0.50mm

; external perimeters extrusion width = 0.40mm
; perimeters extrusion width = 0.46mm
; infill extrusion width = 0.64mm
; solid infill extrusion width = 0.56mm
; top infill extrusion width = 0.40mm
; first layer extrusion width = 0.50mm

; external perimeters extrusion width = 0.40mm
; perimeters extrusion width = 0.46mm
; infill extrusion width = 0.64mm
; solid infill extrusion width = 0.56mm
; top infill extrusion width = 0.40mm
; first layer extrusion width = 0.50mm

; external perimeters extrusion width = 0.40mm
; perimeters extrusion width = 0.46mm
; infill extrusion width = 0.64mm
; solid infill extrusion width = 0.56mm
; top infill extrusion width = 0.40mm
; first layer extrusion width = 0.50mm

; external perimeters extrusion width = 0.40mm
; perimeters extrusion width = 0.46mm
; infill extrusion width = 0.64mm
; solid infill extrusion width = 0.56mm
; top infill extrusion width = 0.40mm
; first layer extrusion width = 0.50mm

; external perimeters extrusion width = 0.40mm
; perimeters extrusion width = 0.46mm
; infill extrusion width = 0.64mm
; solid infill extrusion width = 0.56mm
; top infill extrusion width = 0.40mm
; first layer extrusion width = 0.50mm

; external perimeters extrusion width = 0.40mm
; perimeters extrusion width = 0.46mm
; infill extrusion width = 0.64mm
; solid infill extrusion width = 0.56mm
; top infill extrusion width = 0.40mm
; first layer extrusion width = 0.50mm

; external perimeters extrusion width = 0.40mm
; perimeters extrusion width = 0.46mm
; infill extrusion width = 0.64mm
; solid infill extrusion width = 0.56mm
; top infill extrusion width = 0.40mm
; first layer extrusion width = 0.50mm

; external perimeters extrusion width = 0.40mm
; perimeters extrusion width = 0.46mm
; infill extrusion width = 0.64mm
; solid infill extrusion width = 0.56mm
; top infill extrusion width = 0.40mm
; first layer extrusion width = 0.50mm

; external perimeters extrusion width = 0.40mm
; perimeters extrusion width = 0.46mm
; infill extrusion width = 0.64mm
; solid infill extrusion width = 0.56mm
; top infill extrusion width = 0.40mm
; first layer extrusion width = 0.50mm

; external perimeters extrusion width = 0.40mm
; perimeters extrusion width = 0.46mm
; infill extrusion width = 0.64mm
; solid infill extrusion width = 0.56mm
; top infill extrusion width = 0.40mm
; first layer extrusion width = 0.50mm

; external perimeters extrusion width = 0.40mm
; perimeters extrusion width = 0.46mm
; infill extrusion width = 0.64mm
; solid infill extrusion width = 0.56mm
; top infill extrusion width = 0.40mm
; first layer extrusion width = 0.50mm

; object:{"name":"retraction_calibration","id":"retraction_calibration id:0 copy 0","object_center":[94.632830,63.917082,0.000000],"boundingbox_center":[94.632830,63.917082,4.200000],"boundingbox_size":[26.805401,26.806400,8.400000]}
; object:{"name":"retraction_calibration","id":"retraction_calibration id:1 copy 0","object_center":[29.687793,90.901800,0.000000],"boundingbox_center":[29.687793,90.901800,4.200000],"boundingbox_size":[26.805401,26.806400,8.400000]}
; object:{"name":"retraction_calibration","id":"retraction_calibration id:2 copy 0","object_center":[31.533655,30.879586,0.000000],"boundingbox_center":[31.533655,30.879586,4.200000],"boundingbox_size":[26.805401,26.806400,8.400000]}
; plater:{"center":[62.160311,60.890693,0.000000],"boundingbox_center":[62.160311,60.890693,4.200000],"boundingbox_size":[91.750438,86.828614,8.400000]}

M73 P0 R23
;TYPE:Custom
; custom gcode: start_gcode
START_PRINT T_BED=60 T_EXTRUDER=200
; custom gcode end: start_gcode
M107
G21 ; set units to millimeters
G90 ; use absolute coordinates
M83 ; use relative distances for extrusion
; custom gcode: start_filament_gcode
; Filament gcode

    PRESSURE_ADVANCE_SELECT FILAMENT=PLA
; custom gcode end: start_filament_gcode
;_TOOLCHANGE 0
M104 S200 ; set temperature
M109 S200 ; set temperature and wait for it to be reached
M190 S60 ; set bed temperature and wait for it to be reached
;LAYER_CHANGE
;Z:0.2
;HEIGHT:0.2
G1 Z0.2 F12000
G92 E0
M73 P1 R22
G1 E-0.5 F1800
M204 S2000
G1 X17.152 Y15.937 F12000
G1 E0.5 F1800
;TYPE:Skirt
;WIDTH:0.52
G1 X16.201 Y16.981 E0.056
G1 X15.771 Y17.65 E0.03154
G1 X15.217 Y18.947 E0.05599
G1 X15.063 Y19.548 E0.02459
G1 X14.928 Y20.954 E0.05603
G1 X13.082 Y80.995 E2.3829
G1 X13.082 Y100.828 E0.78677
G1 X13.218 Y102.234 E0.05603
G1 X13.371 Y102.835 E0.02459
G1 X13.926 Y104.132 E0.05599
G1 X14.355 Y104.801 E0.03154
G1 X15.306 Y105.845 E0.056
G1 X15.788 Y106.234 E0.02459
G1 X16.457 Y106.664 E0.03154
G1 X17.755 Y107.219 E0.05599
G1 X19.142 Y107.485 E0.05604
G1 X19.896 Y107.51 E0.02991
G1 X39.992 Y107.501 E0.7972
G1 X40.763 Y107.42 E0.03075
G1 X42.009 Y107.091 E0.05113
G1 X107.594 Y79.823 E2.8176
G1 X108.757 Y79.078 E0.05479
G1 X109.739 Y78.108 E0.05476
G1 X110.499 Y76.954 E0.05483
G1 X111.002 Y75.668 E0.05477
G1 X111.164 Y74.909 E0.0308
G1 X111.248 Y73.917 E0.03948
G1 X111.227 Y53.529 E0.80878
G1 X111.002 Y52.166 E0.05478
M73 P2 R22
G1 X110.499 Y50.881 E0.05477
G1 X109.739 Y49.726 E0.05483
G1 X108.757 Y48.757 E0.05476
G1 X107.806 Y48.115 E0.04553
G1 X44.707 Y15.077 E2.82544
G1 X43.202 Y14.488 E0.0641
G1 X41.838 Y14.281 E0.05473
G1 X21.742 Y14.272 E0.7972
G1 X20.202 Y14.41 E0.06135
G1 X19.601 Y14.563 E0.02459
G1 X18.303 Y15.118 E0.05599
G1 X17.152 Y15.937 E0.05605
G1 X17.451 Y16.308 F12000
G1 F1800
G1 X16.573 Y17.28 E0.05196
G1 X16.198 Y17.863 E0.02749
G1 X15.679 Y19.065 E0.05195
G1 X15.526 Y19.666 E0.02459
G1 X15.405 Y20.971 E0.05199
G1 X13.558 Y81.009 E2.38281
G1 X13.559 Y100.811 E0.78551
G1 X13.68 Y102.116 E0.05199
G1 X13.833 Y102.717 E0.02459
G1 X14.352 Y103.919 E0.05195
G1 X14.727 Y104.502 E0.02749
G1 X15.116 Y104.985 E0.02459
G1 X16.088 Y105.863 E0.05196
G1 X16.671 Y106.237 E0.02749
G1 X17.873 Y106.757 E0.05195
G1 X19.159 Y107.009 E0.052
G1 X19.896 Y107.033 E0.02923
G1 X39.992 Y107.024 E0.7972
G1 X40.664 Y106.953 E0.0268
G1 X41.826 Y106.65 E0.04765
G1 X107.4 Y79.387 E2.81713
G1 X108.477 Y78.692 E0.05084
G1 X109.385 Y77.789 E0.05081
G1 X110.086 Y76.716 E0.05087
G1 X110.549 Y75.521 E0.05082
G1 X110.771 Y73.917 E0.06423
G1 X110.753 Y53.579 E0.8068
G1 X110.549 Y52.314 E0.05083
G1 X110.086 Y51.119 E0.05082
G1 X109.385 Y50.046 E0.05087
G1 X108.477 Y49.143 E0.05081
G1 X107.585 Y48.537 E0.04277
G1 X44.485 Y15.5 E2.82544
G1 X43.103 Y14.955 E0.05896
G1 X41.838 Y14.758 E0.05078
G1 X21.742 Y14.749 E0.7972
M73 P3 R22
G1 X20.32 Y14.872 E0.05662
G1 X19.719 Y15.025 E0.02459
G1 X18.517 Y15.545 E0.05195
G1 X17.451 Y16.308 E0.05201
M104 S210 ; set temperature
G1 E-0.5
; printing object retraction_calibration id:0 copy 0
; acceleration to travel
M204 S4000
G1 X66.08 Y41.883 F12000
; decel to extrusion
M204 S2000
G1 X90.394 Y54.67
; end travel
G1 E0.5 F1800
;TYPE:Internal perimeter
;WIDTH:0.5
G1 X91.108 Y54.714 E0.02721
G1 X92.63 Y54.724 E0.05785
G1 X97.647 Y54.723 E0.19065
G1 X98.866 Y54.675 E0.04639
G1 X98.826 Y55.906 E0.0468
G1 X98.826 Y71.929 E0.60898
G1 X98.866 Y73.16 E0.0468
G1 X97.647 Y73.112 E0.04639
G1 X91.619 Y73.112 E0.2291
G1 X90.399 Y73.16 E0.04639
G1 X90.439 Y71.929 E0.0468
G1 X90.44 Y56.215 E0.59723
G1 X90.434 Y55.395 E0.03115
G1 X90.394 Y54.67 E0.0276
G1 X89.851 Y54.167 F12000
;TYPE:External perimeter
G1 F1800
G1 X90.118 Y54.167 E0.01013
G1 X90.61 Y54.226 E0.01884
G1 X91.124 Y54.257 E0.01957
G1 X92.632 Y54.267 E0.05731
G1 X97.638 Y54.266 E0.19025
G1 X98.652 Y54.226 E0.03859
G1 X99.147 Y54.167 E0.01895
G1 X99.414 Y54.167 E0.01013
G1 X99.407 Y54.219 E0.00198
M204 S1000
G1 X99.457 Y54.226 F12000
;TYPE:Thin wall
;WIDTH:0.198556
G1 F1800
G1 X99.567 Y54.169 E0.00165
;WIDTH:0.411541
G1 X99.581 Y54.163 E0.00049
;WIDTH:0.450018
G1 X99.835 Y54.167 E0.00869
G1 X101.403 Y54.167 E0.05361
G1 X101.528 Y54.168 E0.00429
G1 X101.654 Y54.168 E0.00429
G1 X101.671 Y54.167 E0.00058
;WIDTH:0.277791
G1 X101.782 Y54.16 E0.00223
;WIDTH:0.07051
G1 X101.81 Y54.158 E0.00007
;WIDTH:0.007834
G1 X101.782 Y54.16 E0.00001
;WIDTH:0.030866
G1 X101.671 Y54.167 E0.00025
;WIDTH:0.050002
G1 X101.654 Y54.168 E0.00006
G1 X101.528 Y54.168 E0.00048
G1 X101.403 Y54.167 E0.00048
G1 X99.835 Y54.167 E0.00596
G1 X99.581 Y54.163 E0.00097
;WIDTH:0.045727
G1 X99.567 Y54.169 E0.00005
;WIDTH:0.022062
G1 X99.457 Y54.226 E0.00018
M204 S2000
G1 X99.407 Y54.219 F12000
;TYPE:External perimeter
;WIDTH:0.5
G1 F1800
G1 X99.316 Y54.897 E0.02599
G1 X99.283 Y55.913 E0.03866
G1 X99.283 Y71.921 E0.60841
G1 X99.316 Y72.938 E0.03866
G1 X99.414 Y73.667 E0.02796
G1 X99.147 Y73.667 E0.01013
G1 X98.652 Y73.609 E0.01895
G1 X97.638 Y73.569 E0.0386
G1 X91.628 Y73.569 E0.22841
G1 X90.613 Y73.609 E0.0386
G1 X90.118 Y73.667 E0.01895
G1 X89.851 Y73.667 E0.01013
G1 X89.858 Y73.616 E0.00198
M204 S1000
G1 X89.809 Y73.609 F12000
;TYPE:Thin wall
;WIDTH:0.198556
G1 F1800
G1 X89.699 Y73.666 E0.00165
;WIDTH:0.411541
G1 X89.684 Y73.672 E0.00049
;WIDTH:0.450018
G1 X89.43 Y73.667 E0.00869
G1 X87.863 Y73.667 E0.05361
G1 X87.737 Y73.667 E0.00429
G1 X87.612 Y73.667 E0.00429
G1 X87.595 Y73.668 E0.00058
;WIDTH:0.277792
G1 X87.483 Y73.675 E0.00223
;WIDTH:0.07051
G1 X87.455 Y73.676 E0.00007
;WIDTH:0.007834
G1 X87.483 Y73.675 E0.00001
;WIDTH:0.030866
G1 X87.595 Y73.668 E0.00025
;WIDTH:0.050002
G1 X87.612 Y73.667 E0.00006
G1 X87.737 Y73.667 E0.00048
G1 X87.863 Y73.667 E0.00048
G1 X89.43 Y73.667 E0.00596
G1 X89.684 Y73.672 E0.00097
;WIDTH:0.045727
G1 X89.699 Y73.666 E0.00005
;WIDTH:0.022062
G1 X89.809 Y73.609 E0.00018
M204 S2000
G1 X89.858 Y73.616 F12000
;TYPE:External perimeter
;WIDTH:0.5
G1 F1800
G1 X89.949 Y72.938 E0.02599
G1 X89.982 Y71.921 E0.03866
G1 X89.982 Y56.216 E0.59689
G1 X89.977 Y55.41 E0.03067
G1 X89.949 Y54.894 E0.01963
G1 X89.851 Y54.167 E0.02786
;WIPE_START
M204 S4000
G1 X90.206 Y54.352 F12000
;WIPE_END
G1 E-0.5 F1800
; acceleration to travel
G1 X88.03 Y54.191 F12000
; decel to extrusion
M204 S2000
G1 X86.942 Y54.11
; end travel
G1 E0.5 F1800
;TYPE:Internal perimeter
G1 X86.844 Y54.462 E0.0139
G1 X86.753 Y54.648 E0.00786
G1 X86.485 Y55.097 E0.01986
G1 X86.181 Y55.466 E0.01818
G1 X85.812 Y55.77 E0.01818
G1 X85.363 Y56.038 E0.01986
G1 X85.178 Y56.129 E0.00786
G1 X84.825 Y56.227 E0.01391
G1 X84.457 Y56.187 E0.01407
G1 X84.249 Y56.123 E0.00828
G1 X83.743 Y55.923 E0.02068
G1 X83.323 Y55.671 E0.01863
G1 X82.979 Y55.35 E0.01785
G1 X82.712 Y54.966 E0.01778
G1 X82.533 Y54.534 E0.01778
G1 X82.45 Y54.073 E0.01778
G1 X82.467 Y53.606 E0.01778
G1 X82.582 Y53.153 E0.01779
G1 X82.792 Y52.734 E0.01778
G1 X83.085 Y52.37 E0.01778
G1 X83.45 Y52.076 E0.01778
G1 X83.868 Y51.867 E0.01778
G1 X84.321 Y51.751 E0.01779
G1 X84.789 Y51.735 E0.01778
G1 X85.019 Y51.776 E0.00889
G1 X85.249 Y51.818 E0.00889
G1 X85.681 Y51.997 E0.01778
G1 X86.066 Y52.264 E0.01778
G1 X86.386 Y52.607 E0.01785
G1 X86.638 Y53.028 E0.01863
G1 X86.838 Y53.534 E0.02068
G1 X86.903 Y53.742 E0.00828
G1 X86.942 Y54.11 E0.01407
G1 X87.383 Y54.232 F12000
;TYPE:External perimeter
G1 F1800
G1 X87.274 Y54.625 E0.01552
G1 X87.155 Y54.866 E0.0102
G1 X86.86 Y55.361 E0.02189
G1 X86.506 Y55.79 E0.02116
G1 X86.076 Y56.145 E0.02116
G1 X85.582 Y56.44 E0.02189
G1 X85.341 Y56.558 E0.0102
G1 X84.863 Y56.691 E0.01884
G1 X84.364 Y56.637 E0.01906
G1 X84.097 Y56.555 E0.01063
G1 X83.54 Y56.334 E0.02278
G1 X83.046 Y56.038 E0.02188
G1 X82.631 Y55.651 E0.02154
G1 X82.309 Y55.186 E0.02152
G1 X82.092 Y54.663 E0.02152
G1 X81.991 Y54.106 E0.02152
G1 X82.012 Y53.541 E0.02151
G1 X82.152 Y52.992 E0.02152
G1 X82.405 Y52.486 E0.02151
G1 X82.76 Y52.045 E0.02152
G1 X83.201 Y51.69 E0.02152
G1 X83.707 Y51.436 E0.02151
