; HEADER_BLOCK_START
; generated by OrcaSlicer 1.6.2 on 2023-05-22 at 14:28:51
; total layer number: 75
; HEADER_BLOCK_END

; THUMBNAIL_BLOCK_START
; THUMBNAIL_BLOCK_END

; external perimeters extrusion width = 0.40mm
; perimeters extrusion width = 0.45mm
; infill extrusion width = 0.45mm
; solid infill extrusion width = 0.40mm
; top infill extrusion width = 0.40mm
; first layer extrusion width = 0.50mm

; EXECUTABLE_BLOCK_START
EXCLUDE_OBJECT_DEFINE NAME=Right_motor_mount_Top.stl_id_0_copy_0 CENTER=60,60 POLYGON=[[28.85,36.7642],[28.8623,36.6078],[28.8989,36.4552],[28.959,36.3102],[29.041,36.1764],[29.1429,36.0571],[33.5571,31.6429],[33.6764,31.541],[33.8102,31.459],[33.9552,31.399],[34.1078,31.3623],[34.2642,31.35],[85.7358,31.35],[85.8922,31.3623],[86.0448,31.399],[86.1898,31.459],[86.3236,31.541],[86.4429,31.6429],[90.8571,36.0571],[90.959,36.1764],[91.041,36.3102],[91.1011,36.4552],[91.1377,36.6078],[91.15,36.7642],[91.15,83.2358],[91.1377,83.3922],[91.1011,83.5448],[91.041,83.6898],[90.959,83.8236],[90.8571,83.9429],[86.4429,88.3571],[86.3236,88.459],[86.1898,88.541],[86.0448,88.6011],[85.8922,88.6377],[85.7358,88.65],[54.7642,88.65],[54.6078,88.6377],[54.4552,88.6011],[54.3102,88.541],[54.1764,88.459],[54.0571,88.3571],[49.6429,83.9429],[29.1429,63.4429],[29.041,63.3236],[28.959,63.1898],[28.8989,63.0448],[28.8623,62.8922],[28.85,62.7358],[28.85,36.7642]]
M73 P0 R33
;TYPE:Custom
START_PRINT T_BED=110 T_EXTRUDER=260
G90
G21
M83 ; use relative distances for extrusion
; Filament gcode

    PRESSURE_ADVANCE_SELECT FILAMENT=ABS
M106 S0
;LAYER_CHANGE
;Z:0.2
;HEIGHT:0.2
;BEFORE_LAYER_CHANGE
;0.2
G92 E0

;AFTER_LAYER_CHANGE
;0.2
M204 S1000
G1 E-.5 F3000
G1 Z.2 F21000
G1 X31.223 Y31.181
G1 E.5 F1800
;TYPE:Skirt
;WIDTH:0.5
G1 F3000
G1 X32.481 Y29.922 E.06263
G1 X33.318 Y29.489 E.03317
G1 X34.248 Y29.337 E.03318
G1 X85.753 Y29.337 E1.81263
G1 X86.682 Y29.489 E.03313
G1 X87.494 Y29.903 E.03209
G1 X87.867 Y30.219 E.01719
G1 X92.281 Y34.633 E.2197
G1 X92.597 Y35.006 E.01719
G1 X93.084 Y36.084 E.04163
G1 X93.164 Y36.764 E.02411
G1 X93.163 Y83.252 E1.63606
G1 X93.02 Y84.152 E.03209
G1 X92.597 Y84.994 E.03317
G1 X87.867 Y89.781 E.23684
G1 X87.494 Y90.097 E.01719
G1 X86.416 Y90.584 E.04164
G1 X85.736 Y90.664 E.02411
G1 X54.764 Y90.664 E1.09001
G1 X54.039 Y90.573 E.02574
G1 X53.006 Y90.097 E.04003
G1 X27.403 Y64.494 E1.27427
G1 X26.927 Y63.462 E.04001
G1 X26.836 Y62.736 E.02575
G1 X26.836 Y36.764 E.91404
G1 X26.927 Y36.039 E.02574
G1 X27.403 Y35.006 E.04003
G1 X31.181 Y31.223 E.18813
G1 X31.5 Y31.542 F21000
G1 F3000
G1 X32.749 Y30.291 E.06222
G1 X33.459 Y29.924 E.02814
G1 X34.249 Y29.794 E.02814
G1 X85.753 Y29.794 E1.81263
G1 X86.54 Y29.924 E.0281
G1 X87.251 Y30.291 E.02815
G1 X91.958 Y34.956 E.23323
G1 X92.227 Y35.275 E.01467
G1 X92.628 Y36.145 E.03374
G1 X92.707 Y36.764 E.02196
G1 X92.706 Y83.251 E1.63606
G1 X92.586 Y84.011 E.02706
G1 X92.227 Y84.725 E.02814
G1 X87.544 Y89.458 E.23432
G1 X87.226 Y89.727 E.01466
G1 X86.309 Y90.139 E.03536
G1 X85.736 Y90.207 E.02033
G1 X54.764 Y90.207 E1.09001
G1 X54.145 Y90.128 E.02196
G1 X53.274 Y89.727 E.03375
G1 X27.773 Y64.225 E1.26924
G1 X27.372 Y63.355 E.03374
G1 X27.293 Y62.736 E.02196
G1 X27.293 Y36.764 E.91404
G1 X27.372 Y36.145 E.02196
G1 X27.773 Y35.274 E.03375
G1 X31.458 Y31.585 E.18351
; printing object Right motor mount Top.stl id:0 copy 0
EXCLUDE_OBJECT_START NAME=Right_motor_mount_Top.stl_id_0_copy_0
G1 E-.5
G1 Z.4 F21000
G1 X82.866 Y34.938
G1 Z.2
G1 E.5 F1800
;TYPE:Inner wall
;WIDTH:0.556112
G1 F3000
G1 X82.833 Y34.995 E.00262
;WIDTH:0.54677
G1 X82.399 Y35.834 E.03664
;WIDTH:0.499999
G1 X82.235 Y36.403 E.02083
G1 X82.179 Y36.996 E.02096
G1 X82.189 Y47.186 E.35865
G1 X82.265 Y47.714 E.01875
G1 X82.393 Y48.15 E.01599
G1 X82.747 Y48.857 E.02786
G1 X83.163 Y49.349 E.02266
G1 X83.513 Y49.65 E.01624
G1 X84.104 Y50.013 E.02441
G1 X84.805 Y50.24 E.02594
G1 X85.233 Y50.304 E.01522
G1 X85.745 Y50.304 E.01802
G1 X86.196 Y50.239 E.01602
G1 X86.607 Y50.118 E.01509
G1 X86.418 Y50.446 E.01331
G1 X86.221 Y50.924 E.01819
G1 X86.113 Y51.324 E.01458
G1 X86.029 Y52.06 E.02609
G1 X86.029 Y65.74 E.48144
G1 X86.043 Y65.952 E.00748
G1 X86.113 Y66.476 E.01862
G1 X86.221 Y66.876 E.01458
G1 X86.418 Y67.354 E.01819
G1 X86.625 Y67.713 E.01458
G1 X87.086 Y68.293 E.02608
G1 X88.528 Y69.736 E.07177
G1 X88.528 Y76.784 E.24804
G1 X88.435 Y76.615 E.00676
G1 X88.1 Y76.155 E.02004
G1 X87.824 Y75.86 E.01421
G1 X87.38 Y75.495 E.02023
G1 X87.043 Y75.281 E.01405
G1 X86.532 Y75.042 E.01985
G1 X86.152 Y74.918 E.01408
G1 X85.592 Y74.811 E.02004
G1 X85.192 Y74.786 E.01411
G1 X84.624 Y74.822 E.02004
G1 X84.23 Y74.897 E.01411
G1 X83.688 Y75.073 E.02004
G1 X83.326 Y75.244 E.01411
G1 X82.845 Y75.549 E.02004
G1 X82.536 Y75.805 E.01412
G1 X82.146 Y76.22 E.02004
G1 X81.91 Y76.544 E.01411
G1 X81.636 Y77.043 E.02004
G1 X81.488 Y77.416 E.01411
G1 X81.347 Y77.967 E.02004
G1 X81.296 Y78.365 E.01411
G1 X81.296 Y78.935 E.02004
G1 X81.347 Y79.333 E.01411
G1 X81.488 Y79.884 E.02004
G1 X81.636 Y80.257 E.01411
G1 X81.91 Y80.756 E.02004
G1 X82.146 Y81.08 E.01411
G1 X82.536 Y81.496 E.02004
G1 X82.845 Y81.751 E.01412
G1 X83.326 Y82.056 E.02004
G1 X83.688 Y82.227 E.01411
G1 X84.23 Y82.403 E.02004
G1 X84.624 Y82.478 E.01411
G1 X85.192 Y82.514 E.02004
G1 X85.592 Y82.489 E.01411
G1 X86.152 Y82.382 E.02004
G1 X86.533 Y82.258 E.01411
G1 X87.048 Y82.016 E.02004
G1 X87.387 Y81.801 E.01411
G1 X87.826 Y81.438 E.02004
G1 X88.1 Y81.145 E.01411
G1 X88.528 Y80.516 E.02676
G1 X88.528 Y82.563 E.07202
G1 X85.054 Y86.029 E.1727
G1 X55.433 Y86.025 E1.04245
G1 X51.972 Y82.564 E.17227
G1 X51.972 Y79.975 E.09112
;WIDTH:0.533616
G1 X51.989 Y78.935 E.03929
;WIDTH:0.563365
G1 X52.004 Y77.895 E.04168
G1 X51.988 Y77.61 E.01143
;WIDTH:0.531682
G1 X51.972 Y77.325 E.01073
;WIDTH:0.499999
G1 X51.971 Y67.128 E.35887
G1 X51.921 Y66.73 E.01413
G1 X51.803 Y66.415 E.01184
G1 X51.527 Y66.022 E.01693
G1 X51.221 Y65.773 E.01386
G1 X50.813 Y65.591 E.01573
G1 X50.372 Y65.529 E.01569
G1 X34.936 Y65.528 E.54323
G1 X31.475 Y62.067 E.17226
G1 X31.475 Y37.433 E.86695
G1 X34.936 Y33.972 E.17226
G1 X53.176 Y33.972 E.64193
G1 X52.905 Y34.096 E.0105
G1 X52.521 Y34.343 E.01603
G1 X52.151 Y34.664 E.01725
G1 X51.853 Y35.008 E.01603
G1 X51.588 Y35.42 E.01724
G1 X51.399 Y35.834 E.01602
G1 X51.261 Y36.304 E.01725
G1 X51.179 Y36.996 E.0245
G1 X51.19 Y47.191 E.35882
G1 X51.265 Y47.714 E.01858
G1 X51.394 Y48.153 E.0161
G1 X51.767 Y48.884 E.02888
G1 X52.164 Y49.35 E.02155
G1 X52.412 Y49.581 E.01194
G1 X52.927 Y49.915 E.0216
G1 X53.279 Y50.084 E.01373
G1 X53.805 Y50.24 E.01932
G1 X54.255 Y50.304 E.01599
G1 X55.049 Y50.275 E.02797
G1 X55.666 Y50.101 E.02255
G1 X56.08 Y49.912 E.01603
G1 X56.708 Y49.481 E.02682
G1 X57.157 Y48.978 E.02371
G1 X57.404 Y48.595 E.01602
G1 X57.665 Y48.005 E.02273
G1 X57.765 Y47.507 E.01788
G1 X57.821 Y47.004 E.01779
G1 X57.821 Y36.996 E.35224
G1 X57.761 Y36.463 E.01886
G1 X57.607 Y35.85 E.02223
;WIDTH:0.534344
G1 X57.447 Y35.49 E.01492
;WIDTH:0.568689
G1 X57.286 Y35.13 E.01596
G1 X56.851 Y34.638 E.02657
;WIDTH:0.542122
G1 X56.504 Y34.335 E.01772
G1 X55.923 Y33.994 E.02589
G1 X56.905 Y33.994 E.03775
G1 X57.214 Y34.3 E.01673
;WIDTH:0.568689
G1 X57.687 Y34.793 E.02764
G1 X57.997 Y35.079 E.01706
;WIDTH:0.534344
G1 X58.307 Y35.364 E.01595
;WIDTH:0.499999
G1 X58.857 Y35.914 E.02736
G1 X59.296 Y36.267 E.01981
G1 X59.796 Y36.582 E.02082
G1 X60.274 Y36.779 E.01819
G1 X60.674 Y36.887 E.01458
G1 X61.41 Y36.971 E.02609
G1 X79.297 Y36.971 E.6295
G1 X80.033 Y36.887 E.02609
G1 X80.433 Y36.779 E.01458
G1 X81.168 Y36.446 E.0284
G1 X81.851 Y35.913 E.03047
G1 X82.453 Y35.311 E.02998
;WIDTH:0.528056
G1 X82.659 Y35.124 E.0104
;WIDTH:0.556112
G1 X82.822 Y34.978 E.00863
G1 E-.5
G1 Z.4 F21000
G1 X85.461 Y34.099
G1 Z.2
G1 E.5 F1800
;WIDTH:0.600914
G1 F3000
G1 X85.325 Y34.098 E.00584
;WIDTH:0.627093
G1 X84.805 Y34.16 E.02356
G1 X84.568 Y34.278 E.01188
;WIDTH:0.584729
G1 X84.331 Y34.395 E.01102
;WIDTH:0.542364
G1 X84.094 Y34.512 E.01016
;WIDTH:0.499999
G1 X83.821 Y34.688 E.01145
G1 X83.263 Y35.216 E.02704
G1 X82.972 Y35.667 E.01888
G1 X82.837 Y35.963 E.01144
G1 X82.699 Y36.433 E.01725
G1 X82.636 Y36.996 E.01993
G1 X82.643 Y47.134 E.35682
G1 X82.717 Y47.648 E.01828
G1 X82.809 Y47.96 E.01142
G1 X83.12 Y48.593 E.02482
G1 X83.509 Y49.05 E.02111
G1 X83.759 Y49.265 E.01163
G1 X84.3 Y49.6 E.02238
G1 X84.754 Y49.748 E.01681
G1 X85.255 Y49.847 E.01798
G1 X85.779 Y49.846 E.01844
G1 X86.537 Y49.663 E.02746
;WIDTH:0.523497
G1 X87.252 Y49.272 E.03012
G1 X87.498 Y49.056 E.01215
;WIDTH:0.558272
G1 X87.641 Y48.902 E.00831
;WIDTH:0.597854
G1 X87.783 Y48.749 E.00894
;WIDTH:0.637436
G1 X87.926 Y48.596 E.00958
;WIDTH:0.677018
G1 X88.068 Y48.442 E.01022
G1 X88.272 Y47.997 E.02393
G1 X88.308 Y47.827 E.00847
;WIDTH:0.650577
G1 X88.344 Y47.657 E.00812
;WIDTH:0.624136
G1 X88.405 Y47.004 E.02935
;WIDTH:0.582271
G1 X88.405 Y37.386 E.39944
G1 X88.375 Y36.704 E.02835
G1 X88.945 Y37.274 E.03347
G1 X88.945 Y37.386 E.00463
G1 X88.944 Y47.005 E.39944
;WIDTH:0.624136
G1 X88.923 Y47.699 E.03109
;WIDTH:0.650577
G1 X88.909 Y47.958 E.01213
;WIDTH:0.677018
G1 X88.896 Y48.217 E.01266
G1 X88.424 Y48.689 E.03261
G1 X88.345 Y48.802 E.00672
;WIDTH:0.630044
G1 X88.266 Y48.914 E.00622
;WIDTH:0.583069
G1 X88.186 Y49.027 E.00572
;WIDTH:0.536094
G1 X87.603 Y49.617 E.03153
;WIDTH:0.527456
G1 X87.268 Y49.999 E.01895
;WIDTH:0.499999
G1 X86.841 Y50.621 E.02656
G1 X86.643 Y51.099 E.01819
G1 X86.566 Y51.384 E.01041
G1 X86.486 Y52.06 E.02396
G1 X86.486 Y65.74 E.48144
G1 X86.566 Y66.416 E.02396
G1 X86.643 Y66.701 E.01041
G1 X86.841 Y67.179 E.01819
G1 X86.988 Y67.435 E.01042
G1 X87.409 Y67.97 E.02395
G1 X88.985 Y69.547 E.07843
G1 X88.985 Y76.986 E.26182
;WIDTH:0.522754
G1 X88.973 Y77.91 E.03416
G1 X88.991 Y78.82 E.03362
;WIDTH:0.507585
G1 X88.985 Y80.314 E.05345
;WIDTH:0.499999
G1 X88.985 Y82.752 E.08581
G1 X85.243 Y86.486 E.18603
G1 X55.244 Y86.482 E1.05577
G1 X51.515 Y82.753 E.18559
G1 X51.514 Y67.128 E.54989
G1 X51.467 Y66.802 E.0116
G1 X51.293 Y66.453 E.01372
G1 X51.05 Y66.209 E.01214
G1 X50.744 Y66.048 E.01216
G1 X50.372 Y65.986 E.01329
G1 X34.747 Y65.985 E.54989
G1 X31.018 Y62.256 E.18559
G1 X31.018 Y37.244 E.88028
G1 X34.747 Y33.515 E.18559
M73 P1 R33
G1 X52.383 Y33.515 E.6207
;WIDTH:0.502317
G1 X53.368 Y33.517 E.03481
;WIDTH:0.544103
G1 X53.497 Y33.537 E.00506
;WIDTH:0.585888
G1 X53.627 Y33.558 E.00548
;WIDTH:0.627673
G1 X53.756 Y33.579 E.0059
G1 X54.286 Y33.56 E.0239
;WIDTH:0.591995
G1 X54.845 Y33.561 E.02362
G1 X55.25 Y33.538 E.01715
;WIDTH:0.545997
G1 X55.655 Y33.515 E.01572
;WIDTH:0.499999
G1 X57.103 Y33.515 E.05096
G1 X59.295 Y35.691 E.10871
G1 X59.971 Y36.159 E.02892
G1 X60.734 Y36.434 E.02854
G1 X61.41 Y36.514 E.02396
G1 X79.448 Y36.504 E.63484
G1 X80.258 Y36.357 E.02897
G1 X80.736 Y36.159 E.01819
G1 X80.992 Y36.012 E.01042
G1 X81.527 Y35.59 E.02397
G1 X83.599 Y33.519 E.1031
G1 X83.819 Y33.518 E.00776
;WIDTH:0.503177
G1 X84.367 Y33.519 E.01943
;WIDTH:0.544483
G1 X84.496 Y33.54 E.00503
;WIDTH:0.585788
G1 X84.625 Y33.56 E.00544
;WIDTH:0.627093
G1 X84.753 Y33.581 E.00586
G1 X85.232 Y33.567 E.02156
;WIDTH:0.600914
G1 X85.766 Y34.101 E.03244
G1 X85.521 Y34.099 E.01052
G1 E-.5
G1 Z.4 F21000
G1 X50.468 Y66.465
G1 Z.2
G1 E.5 F1800
;WIDTH:0.499999
G1 F3000
G1 X50.372 Y66.443 E.00347
G1 X34.557 Y66.442 E.55656
G1 X30.561 Y62.446 E.19891
G1 X30.561 Y37.054 E.89361
G1 X34.557 Y33.058 E.19891
G1 X57.293 Y33.058 E.80014
G1 X59.573 Y35.328 E.11324
G1 X60.146 Y35.737 E.02477
G1 X60.795 Y35.981 E.0244
G1 X61.41 Y36.057 E.02182
G1 X79.388 Y36.051 E.6327
G1 X80.084 Y35.935 E.02483
G1 X80.715 Y35.648 E.0244
G1 X81.204 Y35.267 E.02183
G1 X83.409 Y33.062 E.10974
G1 X85.442 Y33.059 E.07156
G1 X86.877 Y34.496 E.07147
G1 X87.126 Y34.725 E.01189
;WIDTH:0.470749
G1 X87.374 Y34.954 E.01113
;WIDTH:0.459419
G1 X87.753 Y35.346 E.01748
;WIDTH:0.499999
G1 X88.265 Y35.888 E.02626
G1 X89.443 Y37.068 E.05868
G1 X89.443 Y37.386 E.01118
G1 X89.442 Y48.443 E.38913
G1 X87.631 Y50.276 E.0907
G1 X87.251 Y50.824 E.02345
G1 X87.019 Y51.445 E.02333
G1 X86.943 Y52.06 E.02182
G1 X86.949 Y65.831 E.48464
G1 X87.065 Y66.527 E.02483
G1 X87.352 Y67.158 E.0244
G1 X87.733 Y67.647 E.02182
G1 X89.442 Y69.357 E.08509
G1 X89.442 Y82.942 E.4781
G1 X85.432 Y86.943 E.19936
G1 X55.054 Y86.939 E1.06909
G1 X51.058 Y82.943 E.19892
G1 X51.057 Y67.69 E.53679
G1 X51.035 Y66.958 E.02578
G1 X50.909 Y66.703 E.01001
G1 X50.673 Y66.513 E.01066
G1 X50.526 Y66.479 E.00532
G1 X50.371 Y66.9 F21000
;TYPE:Outer wall
G1 F3000
G1 X34.368 Y66.899 E.56322
G1 X30.103 Y62.635 E.21224
G1 X30.103 Y36.865 E.90694
G1 X34.368 Y32.601 E.21224
G1 X57.482 Y32.601 E.81346
G1 X59.85 Y34.965 E.11777
G1 X60.321 Y35.315 E.02063
G1 X60.855 Y35.528 E.02026
G1 X61.41 Y35.6 E.01969
G1 X79.327 Y35.598 E.63057
G1 X79.909 Y35.512 E.02069
G1 X80.438 Y35.285 E.02026
G1 X80.881 Y34.944 E.0197
G1 X83.22 Y32.605 E.11639
G1 X85.632 Y32.601 E.0849
G1 X89.9 Y36.879 E.21268
G1 X89.9 Y37.386 E.01783
G1 X89.899 Y48.632 E.39578
G1 X87.994 Y50.554 E.09523
G1 X87.674 Y50.999 E.0193
G1 X87.472 Y51.505 E.01919
G1 X87.4 Y52.06 E.01969
G1 X87.402 Y65.77 E.4825
G1 X87.488 Y66.352 E.02069
G1 X87.715 Y66.88 E.02026
G1 X88.056 Y67.324 E.01969
G1 X89.899 Y69.168 E.09175
G1 X89.899 Y83.132 E.49143
G1 X85.621 Y87.4 E.21269
G1 X54.865 Y87.397 E1.0824
G1 X50.601 Y83.132 E.21224
G1 X50.6 Y67.129 E.56322
G1 X50.536 Y66.97 E.006
G1 X50.427 Y66.924 E.0042
G1 X50.351 Y66.823
G1 E-.5
G1 Z.4 F21000
G1 X82.866 Y34.938
G1 Z.2
G1 E.5 F1800
;TYPE:Inner wall
;WIDTH:0.570758
G1 F3000
G1 X83.498 Y34.316 E.03605
;WIDTH:0.611802
G1 X83.659 Y34.184 E.00911
;WIDTH:0.652846
G1 X83.82 Y34.052 E.00977
G1 E-.5
G1 Z.4 F21000
G1 X85.425 Y34.606
G1 Z.2
G1 E.5 F1800
;WIDTH:0.499999
G1 F3000
G1 X85.542 Y34.595 E.00415
G1 X85.938 Y34.638 E.01401
G1 X86.586 Y34.857 E.02407
G1 X86.796 Y35.008 E.00912
;WIDTH:0.473991
G1 X87.007 Y35.159 E.0086
;WIDTH:0.459419
G1 X87.448 Y35.629 E.02068
;WIDTH:0.485055
G1 X87.562 Y35.782 E.00649
;WIDTH:0.499999
G1 X87.831 Y36.417 E.02425
G1 X87.907 Y36.996 E.02054
G1 X87.907 Y47.004 E.35225
G1 X87.831 Y47.583 E.02054
G1 X87.572 Y48.216 E.02405
G1 X87.146 Y48.75 E.02406
G1 X86.644 Y49.106 E.02164
G1 X86.382 Y49.232 E.01022
G1 X85.765 Y49.39 E.02242
G1 X85.255 Y49.39 E.01796
G1 X84.596 Y49.226 E.02388
G1 X84.005 Y48.88 E.02409
G1 X83.493 Y48.328 E.02653
G1 X83.224 Y47.77 E.02179
G1 X83.1 Y47.102 E.0239
G1 X83.093 Y36.996 E.35569
G1 X83.138 Y36.562 E.01535
G1 X83.357 Y35.914 E.02406
G1 X83.637 Y35.479 E.01822
G1 X84.12 Y35.033 E.02312
G1 X84.73 Y34.724 E.02407
G1 X85.229 Y34.624 E.01791
G1 X85.365 Y34.611 E.00481
G1 X85.432 Y35.057 F21000
;TYPE:Outer wall
G1 F3000
G1 X85.463 Y35.052 E.00108
G1 X85.809 Y35.076 E.01223
G1 X86.339 Y35.242 E.01952
G1 X86.789 Y35.537 E.01896
G1 X87.118 Y35.916 E.01765
G1 X87.36 Y36.42 E.01967
G1 X87.448 Y36.963 E.01937
G1 X87.45 Y47.004 E.35339
G1 X87.378 Y47.518 E.01824
G1 X87.156 Y48.026 E.01951
G1 X86.8 Y48.451 E.01951
G1 X86.339 Y48.758 E.01952
G1 X85.838 Y48.915 E.01845
G1 X85.255 Y48.933 E.02054
G1 X84.725 Y48.787 E.01934
G1 X84.252 Y48.495 E.01957
G1 X83.865 Y48.063 E.0204
G1 X83.64 Y47.58 E.01876
G1 X83.552 Y47.037 E.01936
G1 X83.55 Y36.996 E.35339
G1 X83.613 Y36.565 E.01532
G1 X83.742 Y36.161 E.01491
G1 X84.037 Y35.711 E.01895
G1 X84.419 Y35.379 E.01783
G1 X84.92 Y35.14 E.01952
G1 X85.373 Y35.067 E.01615
G1 X85.434 Y35.051
G1 E-.5
G1 Z.4 F21000
G1 X85.416 Y34.855
G1 X85.185 Y34.809
G1 X84.856 Y34.805
G1 X84.55 Y34.919
G1 X84.263 Y35.076
G1 X84.002 Y35.271
G1 X83.771 Y35.503
G1 X83.573 Y35.768
G1 X72.68 Y54.765
G1 Z.2
G1 E.5 F1800
;TYPE:Inner wall
G1 F3000
G1 X72.977 Y54.832 E.01071
G1 X73.402 Y55.082 E.01735
G1 X80.636 Y61.707 E.34522
G1 X80.831 Y61.922 E.01022
G1 X80.993 Y62.185 E.01088
G1 X81.131 Y62.61 E.01571
G1 X81.155 Y62.887 E.00976
G1 X81.131 Y63.163 E.00976
G1 X80.986 Y63.621 E.01692
G1 X80.709 Y64.083 E.01894
G1 X80.327 Y64.408 E.01767
G1 X80.041 Y64.545 E.01115
G1 X79.655 Y64.633 E.01392
G1 X76.465 Y64.639 E.1123
G1 X75.869 Y64.559 E.02115
G1 X75.425 Y64.41 E.01647
G1 X74.981 Y64.558 E.01647
G1 X74.268 Y64.629 E.02522
G1 X70.691 Y64.641 E.12589
G1 X70.335 Y64.601 E.01261
G1 X69.854 Y64.416 E.01813
