; generated by SuperSlicer 2.5.59 on 2023-02-02 at 04:54:38 UTC


;
;

;
;
; 

; external perimeters extrusion width = 0.40mm
; perimeters extrusion width = 0.46mm
; infill extrusion width = 0.64mm
; solid infill extrusion width = 0.56mm
; top infill extrusion width = 0.40mm
; first layer extrusion width = 0.50mm

; object:{"name":"ringing_tower","id":"ringing_tower.stl id:0 copy 0","object_center":[60.000000,60.000000,0.000000],"boundingbox_center":[60.000000,60.000000,18.000000],"boundingbox_size":[72.000000,72.000000,36.000000]}
; plater:{"center":[60.000000,60.000000,0.000000],"boundingbox_center":[60.000000,60.000000,18.000000],"boundingbox_size":[72.000000,72.000000,36.000000]}

M73 P0 R16
;TYPE:Custom
; custom gcode: start_gcode
START_PRINT T_BED=60 T_EXTRUDER=200
; custom gcode end: start_gcode
M107
G21 ; set units to millimeters
G90 ; use absolute coordinates
M82 ; use absolute distances for extrusion
G92 E0
; custom gcode: start_filament_gcode
; Filament gcode

; custom gcode end: start_filament_gcode
;_TOOLCHANGE 0
M109 S200 ; set temperature and wait for it to be reached
M190 S60 ; set bed temperature and wait for it to be reached
;LAYER_CHANGE
;Z:0.2
;HEIGHT:0.2
G1 Z0.2 F12000
M73 P0 R16
G1 E-0.8 F3000
M204 S4000
G1 X21.885 Y21.117 F12000
G1 E0 F1800
;TYPE:Skirt
;WIDTH:0.52
G1 X24.081 Y20.384 E0.09182
G1 X44.807 Y20.284 E0.91403
G1 X95.907 Y20.384 E2.94115
G1 X97.573 Y20.782 E3.00908
G1 X98.883 Y21.885 E3.07701
G1 X99.616 Y24.1 E3.16957
G1 X99.616 Y28.7 E3.35205
G1 X99.221 Y30.366 E3.41998
G1 X98.527 Y31.327 E3.46699
G1 X31.327 Y98.527 E7.23697
G1 X29.87 Y99.427 E7.30491
G1 X28.7 Y99.616 E7.35192
G1 X24.1 Y99.616 E7.5344
G1 X22.434 Y99.221 E7.60233
G1 X21.121 Y98.121 E7.67026
G1 X20.384 Y95.919 E7.76236
G1 X20.284 Y76.686 E8.52534
G1 X20.384 Y24.093 E10.61169
M73 P1 R16
G1 X20.782 Y22.427 E10.67962
G1 X21.885 Y21.117 E10.74755
G1 X22.262 Y21.468 F12000
G1 F1800
G1 X22.346 Y21.377 E10.75246
G1 X24.083 Y20.862 E10.82433
G1 X44.806 Y20.761 E11.6464
G1 X95.906 Y20.861 E13.67352
G1 X97.453 Y21.258 E13.73688
G1 X98.623 Y22.346 E13.80024
G1 X99.139 Y24.1 E13.87275
G1 X99.139 Y28.7 E14.05523
G1 X98.745 Y30.248 E14.11859
G1 X98.19 Y30.99 E14.15535
G1 X30.99 Y98.19 E17.92533
G1 X29.617 Y99.006 E17.98869
G1 X28.7 Y99.139 E18.02544
G1 X24.1 Y99.139 E18.20792
G1 X22.552 Y98.745 E18.27128
G1 X21.381 Y97.659 E18.33464
G1 X20.862 Y95.917 E18.40675
G1 X20.761 Y76.686 E19.16963
G1 X20.861 Y24.094 E21.25594
M73 P2 R16
G1 X21.258 Y22.547 E21.3193
G1 X22.262 Y21.468 E21.37775
G92 E0
G1 E-0.8 F3000
; printing object ringing_tower.stl id:0 copy 0
G1 X24.773 Y74.744 F12000
G1 E0 F1800
;TYPE:Internal perimeter
;WIDTH:0.5
G1 X24.807 Y73.727 E0.03869
G1 X24.807 Y52.839 E0.83254
G1 X26.728 Y51.489 E0.92179
G1 X27.106 Y51.188 E0.94015
G1 X27.092 Y54.212 E1.05508
G1 X27.993 Y55.249 E1.10729
G1 X27.993 Y69.551 E1.65085
G1 X27.092 Y70.588 E1.70305
G1 X27.098 Y72.883 E1.79029
G1 X27.121 Y73.282 E1.80547
G1 X26.219 Y73.744 E1.84397
G1 X25.764 Y74.025 E1.8643
G1 X24.773 Y74.744 E1.91084
G92 E0
G1 E-0.8 F3000
G1 X27.993 Y95.193 F12000
G1 E0 F1800
G1 X24.807 Y95.193 E0.12108
G1 X24.807 Y78.66 E0.74943
G1 X24.783 Y77.405 E0.79713
G1 X25.343 Y77.83 E0.82383
G1 X26.937 Y78.952 E0.89793
G1 X27.993 Y78.402 E0.94317
G1 X27.993 Y95.193 E1.58132
G92 E0
G1 E-0.8 F3000
G1 X27.993 Y45.53 F12000
G1 E0 F1800
G1 X24.807 Y43.299 E0.14783
G1 X24.807 Y24.807 E0.85062
G1 X41.34 Y24.807 E1.47897
G1 X42.614 Y24.783 E1.52742
G1 X42.173 Y25.339 E1.55439
G1 X41.048 Y26.937 E1.62868
G1 X41.598 Y27.993 E1.67392
G1 X27.993 Y27.993 E2.19098
G1 X27.993 Y45.53 E2.85749
G92 E0
G1 E-0.8 F3000
G1 X46.804 Y26.937 F12000
G1 E0 F1800
G1 X45.682 Y25.343 E0.0741
G1 X45.25 Y24.773 E0.10129
G1 X46.273 Y24.807 E0.14021
G1 X67.16 Y24.807 E0.93402
G1 X69.391 Y27.993 E1.08183
G1 X65.134 Y27.993 E1.2436
G1 X64.234 Y27.093 E1.29197
G1 X60.566 Y27.093 E1.4314
G1 X59.666 Y27.993 E1.47978
G1 X46.255 Y27.993 E1.98948
G1 X46.804 Y26.937 E2.03471
G92 E0
G1 E-0.8 F3000
G1 X74.471 Y27.993 F12000
G1 E0 F1800
G1 X76.701 Y24.807 E0.14781
G1 X95.193 Y24.807 E0.85061
M73 P3 R15
G1 X95.193 Y27.993 E0.97169
G1 X74.471 Y27.993 E1.75927
G92 E0
G1 E-0.8 F3000
G1 X28.45 Y95.65 F12000
G1 E0 F1800
;TYPE:External perimeter
G1 X24.35 Y95.65 E0.15583
G1 X24.35 Y78.665 E0.80138
G1 X24.331 Y77.664 E0.83941
G1 X24.25 Y76.676 E0.87709
G1 X24.25 Y76.389 E0.888
G1 X24.479 Y76.549 E0.89862
G1 X25.22 Y77.163 E0.9352
G1 X25.612 Y77.461 E0.95391
G1 X26.973 Y78.418 E1.01714
G1 X27.35 Y78.222 E1.03331
G1 X27.345 Y75.582 E1.13361
G1 X27.316 Y75.082 E1.15268
G1 X27.25 Y74.605 E1.17097
G1 X27.25 Y73.729 E1.20424
G1 X26.444 Y74.142 E1.23866
G1 X26.019 Y74.405 E1.25765
G1 X25.22 Y74.984 E1.29515
G1 X24.479 Y75.598 E1.33174
G1 X24.25 Y75.759 E1.34236
G1 X24.25 Y75.217 E1.36293
G1 X24.316 Y74.726 E1.38177
G1 X24.35 Y73.719 E1.42007
G1 X24.35 Y52.602 E2.22265
G1 X26.454 Y51.122 E2.32041
G1 X26.827 Y50.826 E2.33852
G1 X27.241 Y50.436 E2.36012
G1 X27.338 Y49.331 E2.40227
G1 X27.35 Y47.82 E2.4597
G1 X27.35 Y45.637 E2.54267
G1 X24.35 Y43.537 E2.68186
G1 X24.35 Y24.35 E3.41108
G1 X41.335 Y24.35 E4.05663
G1 X42.336 Y24.331 E4.09466
G1 X43.324 Y24.25 E4.13234
G1 X43.611 Y24.25 E4.14325
G1 X43.541 Y24.35 E4.14789
G1 X42.539 Y25.612 E4.20914
G1 X41.582 Y26.973 E4.27236
G1 X41.778 Y27.35 E4.28852
G1 X46.074 Y27.35 E4.45179
G1 X46.27 Y26.973 E4.46795
G1 X45.313 Y25.612 E4.53118
G1 X45.016 Y25.22 E4.54988
G1 X44.402 Y24.479 E4.58647
G1 X44.241 Y24.25 E4.59709
G1 X44.783 Y24.25 E4.61767
G1 X45.274 Y24.316 E4.6365
M73 P4 R15
G1 X46.281 Y24.35 E4.6748
G1 X67.398 Y24.35 E5.47737
G1 X69.498 Y27.35 E5.61656
G1 X74.363 Y27.35 E5.80144
G1 X76.463 Y24.35 E5.94063
G1 X95.65 Y24.35 E6.66984
G1 X95.65 Y28.45 E6.82567
G1 X64.945 Y28.45 E7.99265
G1 X64.045 Y27.55 E8.04103
G1 X60.755 Y27.55 E8.16607
G1 X59.855 Y28.45 E8.21444
G1 X28.45 Y28.45 E9.40803
M73 P4 R15
G1 X28.45 Y49.296 E10.20031
G1 X27.946 Y49.922 E10.23084
G1 X27.656 Y50.374 E10.25126
G1 X27.562 Y51.432 E10.29163
G1 X27.55 Y54.042 E10.39083
G1 X28.45 Y55.078 E10.443
G1 X28.45 Y69.722 E10.99954
G1 X27.55 Y70.758 E11.05172
G1 X27.555 Y72.87 E11.13198
G1 X27.584 Y73.38 E11.15139
G1 X27.65 Y73.866 E11.17005
G1 X27.65 Y74.416 E11.19095
G1 X27.946 Y74.878 E11.21182
G1 X28.45 Y75.504 E11.24234
G1 X28.45 Y95.65 E12.00802
;WIPE_START
G1 X28.104 Y95.45 F12000
;WIPE_END
G92 E0
G1 E-0.8 F3000
G1 X27.856 Y79.537 F12000
G1 E0 F1800
;TYPE:Solid infill
;WIDTH:0.509149
G1 F2400
G1 X27.258 Y78.939 E0.03272
G1 X26.447 Y78.774 F12000
G1 F2400
G1 X27.856 Y80.184 E0.10986
G1 X27.856 Y80.83 F12000
G1 F2400
G1 X24.921 Y77.895 E0.27052
G1 X24.922 Y78.542 F12000
G1 F2400
G1 X27.856 Y81.477 E0.43112
G1 X27.856 Y82.123 F12000
G1 F2400
G1 X24.923 Y79.189 E0.59168
G1 X24.923 Y79.837 F12000
G1 F2400
G1 X27.856 Y82.769 E0.75219
G1 X27.856 Y83.416 F12000
G1 F2400
G1 X24.924 Y80.484 E0.91265
G1 X24.925 Y81.131 F12000
G1 F2400
G1 X27.856 Y84.062 E1.07306
G1 X27.856 Y84.708 F12000
G1 F2400
G1 X24.926 Y81.779 E1.23343
G1 X24.927 Y82.426 F12000
G1 F2400
G1 X27.856 Y85.355 E1.39374
G1 X27.856 Y86.001 F12000
G1 F2400
G1 X24.928 Y83.073 E1.55401
G1 X24.929 Y83.72 F12000
G1 F2400
G1 X27.856 Y86.648 E1.71423
G1 X27.856 Y87.294 F12000
G1 F2400
G1 X24.93 Y84.368 E1.8744
G1 X24.93 Y85.015 F12000
G1 F2400
G1 X27.856 Y87.94 E2.03452
G1 X27.856 Y88.587 F12000
G1 F2400
G1 X24.931 Y85.662 E2.1946
G1 X24.932 Y86.31 F12000
G1 F2400
G1 X27.856 Y89.233 E2.35462
G1 X27.856 Y89.88 F12000
G1 F2400
G1 X24.933 Y86.957 E2.5146
G1 X24.934 Y87.604 F12000
G1 F2400
G1 X27.856 Y90.526 E2.67453
G1 X27.856 Y91.172 F12000
G1 F2400
G1 X24.935 Y88.251 E2.83441
G1 X24.936 Y88.899 F12000
G1 F2400
G1 X27.856 Y91.819 E2.99424
G1 X27.856 Y92.465 F12000
G1 F2400
G1 X24.937 Y89.546 E3.15402
G1 X24.937 Y90.193 F12000
G1 F2400
G1 X27.856 Y93.112 E3.31376
G1 X27.856 Y93.758 F12000
G1 F2400
G1 X24.938 Y90.84 E3.47344
G1 X24.939 Y91.488 F12000
G1 F2400
G1 X27.856 Y94.404 E3.63308
G1 X27.856 Y95.051 F12000
G1 F2400
G1 X24.94 Y92.135 E3.79267
G1 X24.941 Y92.782 F12000
G1 F2400
G1 X27.214 Y95.056 E3.91711
G1 X26.568 Y95.056 F12000
G1 F2400
G1 X24.942 Y93.43 E4.00611
G1 X24.943 Y94.077 F12000
G1 F2400
G1 X25.922 Y95.056 E4.05969
G92 E0
G1 E-0.8 F3000
G1 X27.872 Y78.228 F12000
G1 E0 F1800
;TYPE:Gap fill
;WIDTH:0.611321
G1 X27.886 Y78.029 E0.00942
;WIDTH:0.700375
G1 X27.9 Y77.83 E0.02032
G1 X27.899 Y76.765 E0.07858
;WIDTH:0.727311
G1 X27.898 Y75.699 E0.13923
;WIDTH:0.678245
G1 X27.848 Y75.559 E0.14705
;WIDTH:0.58558
G1 X27.78 Y75.383 E0.15557
;WIDTH:0.45364
G1 X27.712 Y75.207 E0.16203
;WIDTH:0.334188
G1 X27.651 Y75.044 E0.16624
;WIDTH:0.277286
G1 X27.6 Y74.906 E0.16911
;WIDTH:0.19822
G1 X27.549 Y74.768 E0.17101
;WIDTH:0.135207
G1 X27.507 Y74.654 E0.17194
G92 E0
G1 E-0.8 F3000
G1 X26.443 Y51.833 F12000
G1 E0 F1800
;TYPE:Solid infill
;WIDTH:0.509017
G1 F2400
G1 X26.964 Y52.354 E0.02849
G1 X26.961 Y52.997 F12000
G1 F2400
G1 X26.067 Y52.103 E0.07741
G1 X25.69 Y52.374 F12000
G1 F2400
G1 X26.958 Y53.641 E0.14675
G1 X27.097 Y54.426 F12000
G1 F2400
G1 X25.314 Y52.644 E0.24428
G1 X24.944 Y52.92 F12000
G1 F2400
G1 X27.856 Y55.832 E0.40361
G1 X27.856 Y56.478 F12000
G1 F2400
G1 X24.943 Y53.565 E0.563
G1 X24.942 Y54.211 F12000
G1 F2400
G1 X27.856 Y57.125 E0.72243
G1 X27.856 Y57.771 F12000
G1 F2400
G1 X24.941 Y54.856 E0.88193
G1 X24.94 Y55.502 F12000
G1 F2400
G1 X27.856 Y58.417 E1.04147
G1 X27.856 Y59.064 F12000
G1 F2400
G1 X24.939 Y56.147 E1.20108
G1 X24.938 Y56.792 F12000
G1 F2400
G1 X27.856 Y59.71 E1.36074
G1 X27.856 Y60.357 F12000
G1 F2400
G1 X24.937 Y57.438 E1.52045
G1 X24.936 Y58.083 F12000
G1 F2400
G1 X27.856 Y61.003 E1.68022
G1 X27.856 Y61.649 F12000
G1 F2400
G1 X24.935 Y58.729 E1.84004
G1 X24.934 Y59.374 F12000
G1 F2400
G1 X27.856 Y62.296 E1.99992
G1 X27.856 Y62.942 F12000
G1 F2400
G1 X24.933 Y60.019 E2.15985
G1 X24.932 Y60.665 F12000
G1 F2400
G1 X27.856 Y63.589 E2.31984
G1 X27.856 Y64.235 F12000
G1 F2400
G1 X24.931 Y61.31 E2.47988
G1 X24.93 Y61.956 F12000
G1 F2400
G1 X27.856 Y64.881 E2.63998
G1 X27.856 Y65.528 F12000
G1 F2400
G1 X24.929 Y62.601 E2.80013
G1 X24.928 Y63.246 F12000
G1 F2400
G1 X27.856 Y66.174 E2.96034
G1 X27.856 Y66.821 F12000
G1 F2400
G1 X24.927 Y63.892 E3.1206
G1 X24.926 Y64.537 F12000
G1 F2400
G1 X27.856 Y67.467 E3.28091
M73 P5 R15
G1 X27.856 Y68.114 F12000
G1 F2400
G1 X24.925 Y65.183 E3.44129
G1 X24.924 Y65.828 F12000
G1 F2400
G1 X27.856 Y68.76 E3.60171
G1 X27.856 Y69.406 F12000
G1 F2400
G1 X24.923 Y66.473 E3.7622
G1 X24.922 Y67.119 F12000
G1 F2400
G1 X27.599 Y69.796 E3.90867
G1 X27.298 Y70.142 F12000
G1 F2400
G1 X24.921 Y67.764 E4.03875
G1 X24.92 Y68.41 F12000
G1 F2400
G1 X26.998 Y70.488 E4.15245
G1 X26.961 Y71.097 F12000
G1 F2400
G1 X24.919 Y69.055 E4.26416
G1 X24.918 Y69.7 F12000
G1 F2400
G1 X26.967 Y71.75 E4.37631
G1 X26.974 Y72.403 F12000
G1 F2400
G1 X24.917 Y70.346 E4.48889
G1 X24.916 Y70.991 F12000
G1 F2400
G1 X26.981 Y73.057 E4.60191
G1 X26.658 Y73.379 F12000
G1 F2400
G1 X24.915 Y71.637 E4.69727
G1 X24.914 Y72.282 F12000
G1 F2400
G1 X26.24 Y73.608 E4.76982
G1 X25.822 Y73.837 F12000
G1 F2400
G1 X24.913 Y72.927 E4.81958
G1 X24.912 Y73.573 F12000
G1 F2400
G1 X25.434 Y74.095 E4.84816
G92 E0
G1 E-0.8 F3000
G1 X27.515 Y50.136 F12000
G1 E0 F1800
;TYPE:Gap fill
;WIDTH:0.134967
G1 X27.556 Y50.017 E0.00096
;WIDTH:0.208626
G1 X27.606 Y49.87 E0.00311
;WIDTH:0.30157
G1 X27.657 Y49.722 E0.00646
;WIDTH:0.329051
G1 X27.662 Y49.707 E0.00684
;WIDTH:0.376352
G1 X27.731 Y49.536 E0.01197
;WIDTH:0.505517
G1 X27.801 Y49.364 E0.0191
;WIDTH:0.578975
G1 X27.843 Y49.245 E0.0247
;WIDTH:0.690557
G1 X27.895 Y49.1 E0.03301
;WIDTH:0.724086
G1 X27.897 Y47.618 E0.11693
G1 X27.899 Y46.137 E0.20086
G1 X27.89 Y46.047 E0.20593
;WIDTH:0.663993
G1 X27.873 Y45.869 E0.21519
;WIDTH:0.583868
G1 X27.856 Y45.69 E0.22326
G92 E0
G1 E-0.8 F3000
G1 X41.772 Y27.872 F12000
G1 E0 F1800
;WIDTH:0.611316
G1 X41.971 Y27.886 E0.00942
;WIDTH:0.699737
G1 X42.169 Y27.9 E0.0203
G1 X45.683 Y27.9 E0.2122
G1 X45.882 Y27.886 E0.22308
;WIDTH:0.611315
G1 X46.081 Y27.872 E0.2325
G92 E0
G1 E-0.8 F3000
G1 X41.927 Y25.45 F12000
G1 E0 F1800
;TYPE:Solid infill
;WIDTH:0.506801
G1 F2400
G1 X41.398 Y24.921 E0.0288
G1 X40.753 Y24.922 F12000
G1 F2400
G1 X41.66 Y25.829 E0.07822
G1 X41.393 Y26.209 F12000
G1 F2400
G1 X40.107 Y24.923 E0.14826
G1 X39.462 Y24.924 F12000
G1 F2400
G1 X41.126 Y26.588 E0.23893
G1 X40.964 Y27.073 F12000
G1 F2400
G1 X38.816 Y24.925 E0.35593
G1 X38.171 Y24.926 F12000
G1 F2400
G1 X41.101 Y27.856 E0.51556
G1 X40.454 Y27.856 F12000
G1 F2400
G1 X37.525 Y24.927 E0.67513
G1 X36.88 Y24.928 F12000
G1 F2400
G1 X39.808 Y27.856 E0.83466
G1 X39.162 Y27.856 F12000
G1 F2400
G1 X36.234 Y24.929 E0.99414
G1 X35.589 Y24.929 F12000
G1 F2400
G1 X38.515 Y27.856 E1.15358
G1 X37.869 Y27.856 F12000
G1 F2400
G1 X34.943 Y24.93 E1.31296
G1 X34.298 Y24.931 F12000
G1 F2400
G1 X37.222 Y27.856 E1.4723
G1 X36.576 Y27.856 F12000
G1 F2400
G1 X33.652 Y24.932 E1.63159
G1 X33.007 Y24.933 F12000
G1 F2400
G1 X35.93 Y27.856 E1.79083
G1 X35.283 Y27.856 F12000
G1 F2400
G1 X32.361 Y24.934 E1.95002
G1 X31.716 Y24.935 F12000
G1 F2400
G1 X34.637 Y27.856 E2.10916
G1 X33.99 Y27.856 F12000
G1 F2400
G1 X31.07 Y24.936 E2.26826
G1 X30.425 Y24.936 F12000
G1 F2400
G1 X33.344 Y27.856 E2.4273
G1 X32.698 Y27.856 F12000
G1 F2400
G1 X29.779 Y24.937 E2.5863
G1 X29.134 Y24.938 F12000
G1 F2400
G1 X32.051 Y27.856 E2.74525
G1 X31.405 Y27.856 F12000
G1 F2400
G1 X28.488 Y24.939 E2.90416
G1 X27.842 Y24.94 F12000
G1 F2400
G1 X30.758 Y27.856 E3.06301
G1 X30.112 Y27.856 F12000
G1 F2400
G1 X27.197 Y24.941 E3.22182
G1 X26.551 Y24.942 F12000
G1 F2400
G1 X29.465 Y27.856 E3.38058
G1 X28.819 Y27.856 F12000
G1 F2400
G1 X25.906 Y24.943 E3.53929
G1 X25.26 Y24.944 F12000
G1 F2400
G1 X28.173 Y27.856 E3.69795
G1 X27.856 Y28.185 F12000
G1 F2400
G1 X24.944 Y25.274 E3.85658
G1 X24.944 Y25.92 F12000
G1 F2400
G1 X27.856 Y28.832 E4.0152
G1 X27.856 Y29.478 F12000
G1 F2400
G1 X24.944 Y26.567 E4.17383
G1 X24.944 Y27.213 F12000
G1 F2400
G1 X27.856 Y30.125 E4.33246
G1 X27.856 Y30.771 F12000
G1 F2400
G1 X24.944 Y27.859 E4.49109
G1 X24.944 Y28.506 F12000
G1 F2400
G1 X27.856 Y31.417 E4.64972
G1 X27.856 Y32.064 F12000
G1 F2400
G1 X24.944 Y29.152 E4.80835
G1 X24.944 Y29.799 F12000
G1 F2400
G1 X27.856 Y32.71 E4.96698
G1 X27.856 Y33.357 F12000
G1 F2400
G1 X24.944 Y30.445 E5.12561
G1 X24.944 Y31.091 F12000
G1 F2400
G1 X27.856 Y34.003 E5.28424
G1 X27.856 Y34.65 F12000
G1 F2400
G1 X24.944 Y31.738 E5.44288
G1 X24.944 Y32.384 F12000
G1 F2400
G1 X27.856 Y35.296 E5.60151
G1 X27.856 Y35.942 F12000
G1 F2400
G1 X24.944 Y33.031 E5.76014
G1 X24.944 Y33.677 F12000
G1 F2400
G1 X27.856 Y36.589 E5.91878
G1 X27.856 Y37.235 F12000
G1 F2400
G1 X24.944 Y34.323 E6.07741
G1 X24.944 Y34.97 F12000
G1 F2400
G1 X27.856 Y37.882 E6.23605
G1 X27.856 Y38.528 F12000
G1 F2400
G1 X24.944 Y35.616 E6.39468
G1 X24.944 Y36.263 F12000
G1 F2400
G1 X27.856 Y39.174 E6.55332
G1 X27.856 Y39.821 F12000
G1 F2400
G1 X24.944 Y36.909 E6.71195
G1 X24.944 Y37.555 F12000
G1 F2400
G1 X27.856 Y40.467 E6.87059
G1 X27.856 Y41.114 F12000
G1 F2400
G1 X24.944 Y38.202 E7.02923
G1 X24.944 Y38.848 F12000
G1 F2400
G1 X27.856 Y41.76 E7.18787
G1 X27.856 Y42.407 F12000
G1 F2400
G1 X24.944 Y39.495 E7.34651
G1 X24.944 Y40.141 F12000
G1 F2400
G1 X27.856 Y43.053 E7.50515
G1 X27.856 Y43.699 F12000
G1 F2400
G1 X24.944 Y40.788 E7.66379
G1 X24.944 Y41.434 F12000
G1 F2400
G1 X27.856 Y44.346 E7.82243
G1 X27.856 Y44.992 F12000
G1 F2400
G1 X24.944 Y42.08 E7.98107
G1 X24.944 Y42.727 F12000
G1 F2400
G1 X26.614 Y44.396 E8.07203
G92 E0
G1 E-0.8 F3000
G1 X66.153 Y24.944 F12000
G1 E0 F1800
;WIDTH:0.513172
G1 F2400
G1 X69.065 Y27.856 E0.16062
G1 X68.419 Y27.856 F12000
G1 F2400
G1 X65.507 Y24.944 E0.32125
M73 P6 R15
G1 X64.861 Y24.944 F12000
G1 F2400
G1 X67.772 Y27.856 E0.48187
G1 X67.126 Y27.856 F12000
G1 F2400
G1 X64.214 Y24.944 E0.64249
G1 X63.568 Y24.944 F12000
G1 F2400
G1 X66.48 Y27.856 E0.80312
G1 X65.833 Y27.856 F12000
G1 F2400
G1 X62.921 Y24.944 E0.96374
G1 X62.275 Y24.944 F12000
G1 F2400
G1 X64.287 Y26.956 E1.07472
G1 X63.64 Y26.956 F12000
G1 F2400
G1 X61.629 Y24.944 E1.1857
G1 X60.982 Y24.944 F12000
G1 F2400
G1 X62.994 Y26.956 E1.29668
