; HEADER_BLOCK_START
; generated by OrcaSlicer 1.6.3 on 2023-06-19 at 15:04:27
; total layer number: 304
; HEADER_BLOCK_END

; THUMBNAIL_BLOCK_START
; THUMBNAIL_BLOCK_END

; external perimeters extrusion width = 0.40mm
; perimeters extrusion width = 0.45mm
; infill extrusion width = 0.45mm
; solid infill extrusion width = 0.40mm
; top infill extrusion width = 0.40mm
; support material extrusion width = 0.40mm
; first layer extrusion width = 0.50mm

; EXECUTABLE_BLOCK_START
EXCLUDE_OBJECT_DEFINE NAME=ServoMount.stl_id_0_copy_0 CENTER=60,60 POLYGON=[[43.925,40.375],[43.9626,40.0412],[43.9781,39.982],[44.0735,39.7242],[44.2523,39.4398],[44.3307,39.3591],[44.4898,39.2023],[44.7742,39.0235],[44.9517,38.9573],[45.0912,38.9126],[45.425,38.875],[69.525,38.875],[74.575,38.875],[74.7446,38.8846],[74.9088,38.9126],[74.9119,38.9133],[75.075,38.9608],[75.1946,39.0091],[75.2258,39.0235],[75.3112,39.0683],[75.5102,39.2023],[75.5248,39.2141],[75.6998,39.3826],[75.7477,39.4398],[75.8348,39.5612],[75.9265,39.7242],[75.9415,39.7568],[76.0172,39.9629],[76.0374,40.0412],[76.061,40.1718],[76.075,40.375],[76.075,44.95],[76.061,45.1532],[71.6374,79.9588],[71.6219,80.018],[71.5265,80.2758],[71.3477,80.5602],[71.2693,80.6409],[71.1102,80.7977],[70.8258,80.9765],[70.6483,81.0427],[70.5088,81.0874],[70.175,81.125],[45.425,81.125],[45.0912,81.0874],[44.9517,81.0427],[44.7742,80.9765],[44.4898,80.7977],[44.3307,80.6409],[44.2523,80.5602],[44.0735,80.2758],[43.9781,80.018],[43.9626,79.9588],[43.925,79.625],[43.925,40.375]]
M73 P0 R34
;TYPE:Custom
START_PRINT T_BED=110 T_EXTRUDER=260
G90
G21
M83 ; use relative distances for extrusion
; Filament gcode

    PRESSURE_ADVANCE_SELECT FILAMENT=ABS
M106 S0
;LAYER_CHANGE
;Z:0.2
;HEIGHT:0.2
;BEFORE_LAYER_CHANGE
;0.2
G92 E0

;AFTER_LAYER_CHANGE
;0.2
M204 S500
; printing object ServoMount.stl id:0 copy 0
EXCLUDE_OBJECT_START NAME=ServoMount.stl_id_0_copy_0
G1 E-.5 F3000
G1 Z.2 F21000
G1 X79.141 Y50.463
G1 E.5 F1800
;TYPE:Support
;WIDTH:0.5
G1 F3000
G1 X73.405 Y50.463 E.20186
G1 X73.405 Y73.405 E.80743
G1 X71.051 Y73.405 E.08285
G1 X71.06 Y71.114 E.08064
G1 X70.87 Y70.911 E.00977
G1 X45.251 Y70.908 E.90165
G1 X45.041 Y70.941 E.00747
G1 X44.686 Y71.049 E.01307
G1 X44.548 Y71.234 E.00811
G1 X44.563 Y76.273 E.17735
G1 X40.859 Y76.273 E.13034
G1 X40.859 Y46.595 E1.04448
G1 X44.549 Y46.595 E.12985
G1 X44.54 Y48.893 E.08086
G1 X44.745 Y49.098 E.01021
G1 X70.855 Y49.098 E.91893
G1 X71.06 Y48.893 E.01021
G1 X71.037 Y44.561 E.15244
G1 X71.046 Y40.321 E.14923
G1 X70.989 Y40.1 E.00805
G1 X70.818 Y39.799 E.01218
G1 X70.751 Y39.732 E.00332
G1 X70.45 Y39.561 E.01218
G1 X70.229 Y39.504 E.00805
G1 X69.537 Y39.513 E.02433
G1 X69.537 Y35.124 E.15447
G1 X79.141 Y35.124 E.33797
G1 X79.141 Y50.394 E.53742
G1 E-.5
G1 Z.4 F21000
G1 X70.688 Y70.489
G1 Z.2
G1 E.5 F1800
G1 F3000
G1 X45.416 Y70.489 E.88942
G1 X44.99 Y70.53 E.01504
G1 X44.436 Y70.694 E.02033
G1 X44.137 Y71.097 E.01765
G1 X44.152 Y75.861 E.16768
G1 X41.271 Y75.861 E.10139
G1 X41.271 Y47.006 E1.01552
G1 X44.135 Y47.006 E.1008
G1 X44.128 Y49.063 E.07237
G1 X44.574 Y49.509 E.02222
G1 X71.026 Y49.509 E.93093
G1 X71.472 Y49.063 E.02222
G1 X71.449 Y44.56 E.15847
G1 X71.46 Y40.286 E.15043
G1 X71.362 Y39.923 E.01322
G1 X71.148 Y39.547 E.01522
G1 X71.003 Y39.402 E.00723
G1 X70.627 Y39.188 E.01522
G1 X70.521 Y39.147 E.00401
G1 X70.264 Y39.09 E.00924
G1 X69.949 Y39.102 E.01112
G1 X69.949 Y35.535 E.12552
G1 X78.729 Y35.535 E.30902
G1 X78.729 Y50.051 E.51088
G1 X72.994 Y50.051 E.20186
G1 X72.994 Y72.994 E.80743
G1 X71.465 Y72.994 E.05379
G1 X71.472 Y70.951 E.07189
G1 X71.058 Y70.511 E.02125
G1 X70.688 Y70.489 E.01308
G1 X70.695 Y69.981 F21000
G1 F3000
G1 X45.409 Y69.981 E.88991
G1 X44.897 Y70.031 E.01813
G1 X44.129 Y70.257 E.02818
G1 X43.63 Y70.928 E.02942
G1 X43.643 Y75.354 E.15575
G1 X41.779 Y75.354 E.06563
G1 X41.779 Y47.514 E.97978
G1 X43.624 Y47.514 E.06493
G1 X43.62 Y49.273 E.06189
G1 X44.364 Y50.017 E.03703
G1 X71.236 Y50.017 E.94575
G1 X71.98 Y49.273 E.03703
G1 X71.957 Y44.558 E.16592
G1 X71.956 Y40.544 E.14129
G1 X71.97 Y40.242 E.01064
G1 X71.891 Y39.882 E.01295
G1 X71.822 Y39.705 E.00669
G1 X71.556 Y39.236 E.01897
G1 X71.314 Y38.994 E.01206
G1 X70.845 Y38.728 E.01897
G1 X70.668 Y38.659 E.00669
G1 X70.457 Y38.613 E.00761
G1 X70.457 Y36.043 E.09043
G1 X78.221 Y36.043 E.27327
G1 X78.221 Y49.543 E.47513
G1 X72.486 Y49.543 E.20186
G1 X72.486 Y72.486 E.80743
G1 X71.976 Y72.486 E.01793
G1 X71.98 Y70.75 E.06108
G1 X71.291 Y70.016 E.03543
G1 X70.695 Y69.981 E.02099
G1 X70.703 Y69.473 F21000
G1 F3000
G1 X45.403 Y69.473 E.89041
G1 X45.145 Y69.485 E.0091
G1 X44.803 Y69.531 E.01213
G1 X43.821 Y69.82 E.03603
G1 X43.122 Y70.759 E.0412
G1 X43.133 Y74.846 E.14381
G1 X42.286 Y74.846 E.02978
G1 X42.286 Y48.022 E.94403
G1 X43.114 Y48.022 E.02911
G1 X43.112 Y49.483 E.0514
G1 X44.153 Y50.525 E.05185
G1 X71.447 Y50.525 E.96057
G1 X71.978 Y49.993 E.02645
G1 X71.978 Y70.006 E.70433
G1 X71.523 Y69.522 E.02338
G1 X70.703 Y69.473 E.02891
G1 X70.711 Y68.965 F21000
G1 F3000
G1 X45.34 Y68.966 E.8929
G1 X44.995 Y68.989 E.01219
G1 X44.546 Y69.069 E.01603
G1 X43.513 Y69.383 E.038
G1 X43.108 Y69.928 E.02391
G1 X42.794 Y69.824 E.01162
G1 X42.794 Y49.883 E.7018
G1 X43.943 Y51.033 E.05719
G1 X71.47 Y51.033 E.9688
G1 X71.47 Y69.01 E.63268
G1 X70.711 Y68.965 E.02676
G1 X70.719 Y68.457 F21000
G1 F3000
G1 X45.39 Y68.457 E.89141
G1 X45.069 Y68.471 E.01131
G1 X44.616 Y68.532 E.0161
G1 X44.416 Y68.577 E.00721
G1 X43.302 Y68.916 E.04097
G1 X43.302 Y51.11 E.62666
M73 P1 R34
G1 X43.732 Y51.541 E.02141
G1 X70.962 Y51.541 E.95833
G1 X70.962 Y68.465 E.59562
G1 X70.719 Y68.457 E.00857
G1 X70.454 Y67.949 F21000
G1 F3000
G1 X45.384 Y67.949 E.88232
G1 X45.032 Y67.965 E.01242
G1 X44.523 Y68.033 E.01808
G1 X43.81 Y68.231 E.02603
G1 X43.81 Y52.049 E.56952
G1 X70.454 Y52.049 E.93772
G1 X70.454 Y67.949 E.55961
G1 X69.946 Y67.441 F21000
G1 F3000
G1 X45.378 Y67.441 E.86466
G1 X44.806 Y67.477 E.02015
G1 X44.318 Y67.55 E.01738
G1 X44.318 Y52.556 E.52768
G1 X69.946 Y52.556 E.90197
G1 X69.946 Y67.441 E.52386
G1 X69.439 Y66.934 F21000
G1 F3000
G1 X45.372 Y66.934 E.84701
G1 X44.826 Y66.958 E.01923
G1 X44.826 Y53.064 E.48897
G1 X69.439 Y53.064 E.86622
G1 X69.439 Y66.934 E.48812
G1 X68.931 Y66.426 F21000
G1 F3000
G1 X45.334 Y66.426 E.83047
G1 X45.334 Y53.572 E.45237
G1 X68.931 Y53.572 E.83047
G1 X68.931 Y66.426 E.45237
G1 X68.423 Y65.918 F21000
G1 F3000
G1 X45.841 Y65.918 E.79473
G1 X45.841 Y54.08 E.41662
G1 X68.423 Y54.08 E.79473
G1 X68.423 Y65.918 E.41662
G1 X67.915 Y65.41 F21000
G1 F3000
G1 X46.349 Y65.41 E.75898
G1 X46.349 Y54.588 E.38087
G1 X67.915 Y54.588 E.75898
G1 X67.915 Y65.41 E.38087
G1 X67.407 Y64.902 F21000
G1 F3000
G1 X46.857 Y64.902 E.72323
M73 P1 R33
G1 X46.857 Y55.096 E.34512
G1 X67.407 Y55.096 E.72323
G1 X67.407 Y64.902 E.34513
G1 X66.899 Y64.394 F21000
G1 F3000
G1 X47.365 Y64.394 E.68748
G1 X47.365 Y55.604 E.30938
G1 X66.899 Y55.604 E.68748
G1 X66.899 Y64.394 E.30938
G1 X66.391 Y63.886 F21000
G1 F3000
G1 X47.873 Y63.886 E.65174
G1 X47.873 Y56.111 E.27363
G1 X66.391 Y56.111 E.65174
G1 X66.391 Y63.886 E.27363
G1 X65.884 Y63.379 F21000
G1 F3000
G1 X48.381 Y63.379 E.61599
G1 X48.381 Y56.619 E.23788
G1 X65.884 Y56.619 E.61599
G1 X65.884 Y63.379 E.23788
G1 X65.376 Y62.871 F21000
G1 F3000
G1 X48.889 Y62.871 E.58024
G1 X48.889 Y57.127 E.20214
G1 X65.376 Y57.127 E.58024
G1 X65.376 Y62.871 E.20214
G1 X64.868 Y62.363 F21000
G1 F3000
G1 X49.397 Y62.363 E.54449
G1 X49.397 Y57.635 E.16639
G1 X64.868 Y57.635 E.54449
G1 X64.868 Y62.363 E.16639
G1 X64.36 Y61.855 F21000
G1 F3000
G1 X49.904 Y61.855 E.50875
G1 X49.904 Y58.143 E.13064
G1 X64.36 Y58.143 E.50875
M73 P2 R33
G1 X64.36 Y61.855 E.13064
G1 X63.852 Y61.347 F21000
G1 F3000
G1 X50.412 Y61.347 E.473
G1 X50.412 Y58.651 E.09489
G1 X63.852 Y58.651 E.473
G1 X63.852 Y61.347 E.09489
G1 X63.344 Y60.839 F21000
G1 F3000
G1 X50.92 Y60.839 E.43725
G1 X50.92 Y59.159 E.05915
G1 X63.344 Y59.159 E.43725
G1 X63.344 Y60.839 E.05915
G1 X62.836 Y60.331 F21000
G1 F3000
G1 X51.428 Y60.331 E.4015
G1 X51.428 Y59.667 E.0234
G1 X62.836 Y59.667 E.4015
G1 X62.836 Y60.331 E.0234
G1 X72.488 Y49.035 F21000
G1 F3000
G1 X72.464 Y44.557 E.15763
G1 X72.464 Y40.555 E.14082
G1 X72.481 Y40.198 E.0126
G1 X72.378 Y39.735 E.01667
G1 X72.283 Y39.487 E.00936
G1 X71.963 Y38.926 E.02272
G1 X71.624 Y38.587 E.01688
G1 X70.965 Y38.211 E.02671
G1 X70.965 Y36.551 E.05844
G1 X77.714 Y36.551 E.23752
G1 X77.714 Y49.035 E.43938
G1 X72.488 Y49.035 E.18392
G1 X72.995 Y48.528 F21000
G1 F3000
G1 X72.972 Y44.555 E.13982
G1 X72.972 Y40.567 E.14035
G1 X72.991 Y40.154 E.01457
G1 X72.866 Y39.588 E.02039
G1 X72.743 Y39.269 E.01204
G1 X72.371 Y38.615 E.02647
G1 X71.935 Y38.179 E.0217
G1 X71.472 Y37.916 E.01873
G1 X71.472 Y37.059 E.03017
G1 X77.206 Y37.059 E.20178
G1 X77.206 Y48.528 E.40364
G1 X72.995 Y48.528 E.14819
G1 X73.504 Y48.02 F21000
G1 F3000
G1 X73.48 Y44.553 E.122
G1 X73.48 Y40.579 E.13987
G1 X73.502 Y40.11 E.01653
G1 X73.353 Y39.441 E.0241
G1 X73.203 Y39.051 E.01471
G1 X72.779 Y38.304 E.03022
G1 X72.041 Y37.567 E.03673
G1 X76.698 Y37.567 E.1639
G1 X76.698 Y48.02 E.36789
G1 X73.504 Y48.02 E.11242
G1 X74.008 Y47.512 F21000
G1 F3000
G1 X73.988 Y40.591 E.24359
G1 X74.012 Y40.066 E.0185
G1 X73.841 Y39.294 E.02782
G1 X73.663 Y38.833 E.01739
G1 X73.232 Y38.074 E.0307
G1 X76.19 Y38.074 E.1041
G1 X76.19 Y47.512 E.33214
G1 X74.008 Y47.512 E.07679
G1 X74.512 Y47.004 F21000
G1 F3000
G1 X74.496 Y40.602 E.2253
G1 X74.523 Y40.022 E.02046
G1 X74.329 Y39.147 E.03154
G1 X74.111 Y38.582 E.02129
G1 X75.682 Y38.582 E.05529
G1 X75.682 Y47.004 E.29639
G1 X74.512 Y47.004 E.04117
G1 E-.5
G1 Z.4 F21000
G1 X52.486 Y76.386
G1 Z.2
G1 E.5 F1800
;TYPE:Inner wall
;WIDTH:0.499999
G1 F3000
G1 X52.498 Y76.643 E.00903
G1 X52.679 Y77.323 E.02477
G1 X53 Y77.956 E.02498
G1 X53.456 Y78.516 E.02542
G1 X46.525 Y78.516 E.24395
G1 X46.52 Y72.871 E.19865
G1 X54.592 Y72.872 E.28408
G1 X54.889 Y72.858 E.01045
;WIDTH:0.47221
G1 X55.185 Y72.844 E.00981
;WIDTH:0.475592
G1 X54.966 Y72.882 E.00741
;WIDTH:0.499999
G1 X54.305 Y73.121 E.02475
G1 X53.713 Y73.503 E.02477
G1 X53.214 Y73.999 E.02477
G1 X52.829 Y74.589 E.02477
G1 X52.575 Y75.245 E.02477
G1 X52.463 Y75.94 E.02477
G1 X52.483 Y76.326 E.01362
G1 E-.5
G1 Z.4 F21000
G1 X56.351 Y72.836
G1 Z.2
G1 E.5 F1800
;WIDTH:0.464345
G1 F3000
G1 X56.704 Y72.854 E.01149
;WIDTH:0.499999
G1 X57.058 Y72.872 E.01246
G1 X69.08 Y72.872 E.42311
G1 X69.066 Y75.429 E.08998
G1 X69.072 Y78.516 E.10864
G1 X58.941 Y78.516 E.35654
G1 X58.212 Y78.499 E.02567
G1 X58.653 Y77.951 E.02477
G1 X58.971 Y77.323 E.02477
G1 X59.152 Y76.643 E.02477
G1 X59.184 Y75.851 E.0279
G1 X59.075 Y75.245 E.02167
G1 X58.821 Y74.589 E.02477
G1 X58.436 Y73.999 E.02477
G1 X57.937 Y73.503 E.02477
G1 X57.345 Y73.121 E.02477
G1 X56.688 Y72.871 E.02477
;WIDTH:0.489026
G1 X56.519 Y72.854 E.00581
;WIDTH:0.458858
G1 X56.411 Y72.842 E.0035
G1 E-.5
G1 Z.4 F21000
G1 X46.063 Y72.414
G1 Z.2
G1 E.5 F1800
;WIDTH:0.499999
G1 F3000
G1 X69.54 Y72.415 E.82624
G1 X69.523 Y75.431 E.10616
G1 X69.53 Y78.973 E.12464
G1 X56.39 Y78.978 E.46245
;WIDTH:0.493713
G1 X56.545 Y78.942 E.00555
;WIDTH:0.499999
G1 X57.117 Y78.733 E.02141
G1 X57.631 Y78.407 E.02141
G1 X58.066 Y77.982 E.02142
G1 X58.403 Y77.476 E.02141
G1 X58.628 Y76.91 E.02141
G1 X58.73 Y76.31 E.02141
G1 X58.705 Y75.702 E.02141
G1 X58.554 Y75.113 E.02141
G1 X58.284 Y74.568 E.02141
G1 X57.906 Y74.09 E.02141
G1 X57.438 Y73.702 E.02141
G1 X56.899 Y73.42 E.02141
G1 X56.308 Y73.255 E.02157
G1 X55.699 Y73.218 E.0215
G1 X55.104 Y73.305 E.02117
G1 X54.533 Y73.517 E.02141
G1 X54.019 Y73.843 E.02141
G1 X53.584 Y74.268 E.02141
G1 X53.247 Y74.774 E.02141
G1 X53.022 Y75.34 E.02141
G1 X52.92 Y75.94 E.02141
G1 X52.945 Y76.548 E.02141
G1 X53.096 Y77.137 E.02141
G1 X53.369 Y77.686 E.02157
G1 X53.749 Y78.164 E.0215
G1 X54.212 Y78.548 E.02117
G1 X54.751 Y78.83 E.02141
G1 X55.338 Y78.984 E.02135
G1 X46.068 Y78.973 E.32626
G1 X46.063 Y72.474 E.22871
G1 X45.605 Y71.957 F21000
G1 F3000
G1 X69.999 Y71.958 E.85851
G1 X69.98 Y75.434 E.12233
G1 X69.988 Y79.43 E.14064
G1 X45.611 Y79.43 E.85792
G1 X45.605 Y72.017 E.26089
G1 X45.447 Y71.5 F21000
;TYPE:Outer wall
G1 F3000
G1 X70.459 Y71.501 E.88025
G1 X70.437 Y75.436 E.13851
G1 X70.446 Y79.674 E.14913
G1 X70.25 Y79.871 E.00978
G1 X70.154 Y79.887 E.00342
G1 X45.493 Y79.887 E.86791
G1 X45.318 Y79.86 E.00625
G1 X45.155 Y79.677 E.00862
G1 X45.148 Y71.556 E.28582
G1 X45.388 Y71.511 E.0086
G1 X45.516 Y71.541
G1 E-.5
G1 Z.4 F21000
G1 X53.389 Y76.328
G1 Z.2
G1 E.5 F1800
;TYPE:Inner wall
G1 F3000
G1 X53.378 Y75.94 E.01367
G1 X53.469 Y75.435 E.01806
G1 X53.664 Y74.96 E.01806
G1 X53.954 Y74.537 E.01806
G1 X54.325 Y74.182 E.01806
G1 X54.762 Y73.913 E.01806
G1 X55.245 Y73.74 E.01806
G1 X55.747 Y73.672 E.01782
G1 X56.262 Y73.71 E.0182
G1 X56.757 Y73.855 E.01815
G1 X57.209 Y74.098 E.01806
G1 X57.6 Y74.43 E.01806
G1 X57.914 Y74.836 E.01806
G1 X58.136 Y75.299 E.01806
G1 X58.258 Y75.797 E.01806
G1 X58.272 Y76.31 E.01806
G1 X58.181 Y76.815 E.01806
G1 X57.986 Y77.29 E.01806
G1 X57.696 Y77.713 E.01806
G1 X57.325 Y78.068 E.01806
G1 X56.888 Y78.337 E.01806
G1 X56.405 Y78.51 E.01806
G1 X55.897 Y78.578 E.01806
G1 X55.385 Y78.54 E.01806
G1 X54.893 Y78.395 E.01806
G1 X54.441 Y78.152 E.01806
G1 X54.055 Y77.824 E.01782
G1 X53.738 Y77.416 E.0182
G1 X53.514 Y76.951 E.01815
G1 X53.392 Y76.453 E.01806
G1 X53.391 Y76.388 E.00228
G1 X53.835 Y76.261 F21000
;TYPE:Outer wall
G1 F3000
G1 X53.84 Y75.892 E.01298
G1 X53.931 Y75.485 E.01471
G1 X54.106 Y75.105 E.01471
G1 X54.356 Y74.77 E.01471
G1 X54.669 Y74.494 E.01471
G1 X55.034 Y74.289 E.01471
G1 X55.433 Y74.165 E.01471
G1 X55.841 Y74.127 E.01444
G1 X56.264 Y74.175 E.01497
G1 X56.66 Y74.309 E.01471
G1 X57.019 Y74.522 E.01471
G1 X57.326 Y74.805 E.01471
G1 X57.568 Y75.146 E.01471
G1 X57.733 Y75.53 E.01471
G1 X57.815 Y75.94 E.01471
G1 X57.815 Y76.31 E.01303
G1 X57.719 Y76.765 E.01638
G1 X57.544 Y77.145 E.01471
G1 X57.294 Y77.48 E.01471
G1 X56.981 Y77.756 E.01471
G1 X56.616 Y77.961 E.01471
G1 X56.217 Y78.085 E.01471
G1 X55.801 Y78.124 E.01471
G1 X55.386 Y78.075 E.01471
G1 X54.99 Y77.941 E.01471
G1 X54.631 Y77.728 E.01471
G1 X54.329 Y77.45 E.01444
G1 X54.082 Y77.104 E.01497
G1 X53.917 Y76.72 E.01471
G1 X53.837 Y76.321 E.01432
G1 X53.768 Y76.23
G1 E-.5
G1 Z.4 F21000
G1 X56.39 Y78.978
G1 Z.2
G1 E.5 F1800
;TYPE:Inner wall
;WIDTH:0.489422
G1 F3000
G1 X56.107 Y78.992 E.00972
;WIDTH:0.461514
G1 X55.825 Y79.006 E.00911
;WIDTH:0.478518
G1 X55.338 Y78.984 E.01634
G1 E-.5
G1 Z.4 F21000
G1 X55.185 Y72.844
G1 Z.2
G1 E.5 F1800
;WIDTH:0.44442
G1 F3000
G1 X55.502 Y72.828 E.0098
;WIDTH:0.413594
G1 X55.818 Y72.813 E.00905
;WIDTH:0.42869
G1 X56.351 Y72.836 E.01584
G1 E-.5
G1 Z.4 F21000
G1 X53.116 Y73.012
G1 Z.2
G1 E.5 F1800
;TYPE:Bottom surface
;WIDTH:0.522408
G1 F6300
G1 X53.414 Y73.311 E.01557
G1 X53.204 Y73.5 E.01045
G1 X53.072 Y73.646 E.00728
G1 X52.643 Y73.218 E.0224
G1 X51.965 Y73.217 E.02506
G1 X52.772 Y74.024 E.04217
G1 X52.517 Y74.447 E.01824
G1 X51.286 Y73.216 E.06428
G1 X50.607 Y73.215 E.02506
G1 X52.319 Y74.928 E.0894
G1 X52.241 Y75.168 E.00932
G1 X52.178 Y75.465 E.01121
G1 X49.928 Y73.215 E.11748
G1 X49.249 Y73.214 E.02506
G1 X52.122 Y76.087 E.14998
G1 X52.121 Y76.316 E.00846
G1 X52.188 Y76.831 E.01917
G1 X48.571 Y73.214 E.18882
G1 X47.893 Y73.214 E.02504
G1 X52.564 Y77.885 E.24388
G1 X52.731 Y78.173 E.01228
G1 X52.174 Y78.173 E.02057
G1 X47.215 Y73.214 E.25891
G1 X46.863 Y73.214 E.01299
G1 X46.864 Y73.541 E.01206
G1 X51.496 Y78.173 E.24187
G1 X50.818 Y78.173 E.02503
G1 X46.864 Y74.219 E.20643
G1 X46.865 Y74.898 E.02505
G1 X50.14 Y78.173 E.171
M73 P3 R33
G1 X49.462 Y78.173 E.02503
G1 X46.865 Y75.577 E.13557
G1 X46.866 Y76.255 E.02505
G1 X48.784 Y78.173 E.10014
G1 X48.105 Y78.173 E.02503
G1 X46.866 Y76.934 E.0647
G1 X46.867 Y77.612 E.02505
G1 X47.633 Y78.379 E.04001
G1 E-.5 F3000
G1 Z.4 F21000
G1 X68.941 Y73.953
G1 Z.2
G1 E.5 F1800
;WIDTH:0.510083
G1 F6300
G1 X68.202 Y73.215 E.03756
G1 X67.541 Y73.215 E.02377
G1 X68.734 Y74.408 E.06067
G1 X68.733 Y75.067 E.02373
G1 X66.881 Y73.215 E.09424
G1 X66.22 Y73.215 E.02377
G1 X68.732 Y75.727 E.1278
G1 X68.731 Y76.387 E.02373
G1 X65.559 Y73.215 E.16136
G1 X64.899 Y73.215 E.02377
