; HEADER_BLOCK_START
; generated by OrcaSlicer 1.7.0-beta on 2023-09-18 at 09:52:54
; total layer number: 231
; HEADER_BLOCK_END

; THUMBNAIL_BLOCK_START
; THUMBNAIL_BLOCK_END

; external perimeters extrusion width = 0.40mm
; perimeters extrusion width = 0.46mm
; infill extrusion width = 0.64mm
; solid infill extrusion width = 0.56mm
; top infill extrusion width = 0.40mm
; support material extrusion width = 0.46mm
; first layer extrusion width = 0.50mm

; EXECUTABLE_BLOCK_START
EXCLUDE_OBJECT_DEFINE NAME=ServoMount.stl_id_0_copy_0 CENTER=59.1371,48.4635 POLYGON=[[38.0121,33.8885],[38.0497,33.5547],[38.0944,33.4152],[38.1607,33.2376],[38.3394,32.9532],[38.4962,32.7942],[38.5769,32.7157],[38.8613,32.537],[39.1191,32.4416],[39.1783,32.4261],[39.5121,32.3885],[78.7621,32.3885],[79.0959,32.4261],[79.1551,32.4416],[79.4129,32.537],[79.6974,32.7157],[79.7781,32.7942],[79.9349,32.9532],[80.1136,33.2376],[80.1798,33.4152],[80.2245,33.5547],[80.2621,33.8885],[80.2621,58.6385],[80.2245,58.9722],[80.1798,59.1117],[80.1136,59.2893],[79.9349,59.5737],[79.7781,59.7327],[79.6974,59.8112],[79.4129,59.9899],[79.1551,60.0853],[79.0959,60.1009],[44.2903,64.5244],[44.0871,64.5385],[39.5121,64.5385],[39.309,64.5244],[39.1783,64.5009],[39.1,64.4807],[38.8939,64.405],[38.8613,64.3899],[38.6983,64.2983],[38.5769,64.2112],[38.5198,64.1632],[38.3513,63.9883],[38.3394,63.9737],[38.2055,63.7747],[38.1607,63.6893],[38.1462,63.6581],[38.0979,63.5385],[38.0504,63.3754],[38.0497,63.3722],[38.0217,63.208],[38.0121,63.0385],[38.0121,33.8885]]
M73 P0 R25
;TYPE:Custom
START_PRINT T_BED=110 T_EXTRUDER=260
G90
G21
M83 ; use relative distances for extrusion
; Filament gcode

    PRESSURE_ADVANCE_SELECT FILAMENT=ABS
M106 S0
;LAYER_CHANGE
;Z:0.2
;HEIGHT:0.2
;BEFORE_LAYER_CHANGE
;0.2
G92 E0

;AFTER_LAYER_CHANGE
;0.2
;_SET_FAN_SPEED_CHANGING_LAYER
SET_VELOCITY_LIMIT ACCEL=1000 ACCEL_TO_DECEL=500
SET_VELOCITY_LIMIT SQUARE_CORNER_VELOCITY=9
G1 E-.5 F3000
G1 Z.2 F21000
G1 X33.84 Y42.813
G1 Z.2
G1 E.5 F1800
;TYPE:Skirt
;WIDTH:0.5
G1 F3000
G1 X36.199 Y33.016 E.35465
G1 X36.289 Y32.713 E.01112
G1 X37.107 Y31.477 E.05215
G1 X37.642 Y31.022 E.02473
G1 X43.821 Y26.628 E.26685
G1 X45.51 Y26.088 E.0624
G1 X75.681 Y26.088 E1.06182
G1 X77.143 Y26.482 E.05327
G1 X77.998 Y27.235 E.04012
G1 X81.543 Y31.883 E.20572
G1 X81.985 Y32.713 E.0331
G1 X82.148 Y33.408 E.02512
G1 X82.188 Y58.638 E.88796
G1 X81.985 Y59.814 E.04199
G1 X81.168 Y61.05 E.05215
G1 X80.202 Y61.758 E.04214
G1 X74.023 Y64.718 E.24113
G1 X73.471 Y64.917 E.02066
G1 X50.134 Y70.752 E.84658
G1 X49.427 Y70.839 E.02506
G1 X33.842 Y70.839 E.5485
G1 X32.38 Y70.445 E.05327
G1 X31.313 Y69.372 E.05327
G1 X30.928 Y67.924 E.05272
G1 X30.928 Y55.256 E.44584
G1 X31.009 Y54.574 E.02417
G1 X33.831 Y42.852 E.42435
G1 X34.275 Y42.959 F21000
G1 F3000
G1 X36.643 Y33.123 E.35605
G1 X36.722 Y32.86 E.00965
G1 X37.411 Y31.818 E.04397
G1 X37.907 Y31.395 E.02295
G1 X44.086 Y27 E.26685
G1 X45.51 Y26.545 E.05261
G1 X75.681 Y26.545 E1.06182
G1 X77.012 Y26.937 E.04884
G1 X77.635 Y27.512 E.02982
G1 X81.18 Y32.16 E.20572
G1 X81.553 Y32.86 E.02791
G1 X81.698 Y33.483 E.02252
G1 X81.731 Y58.638 E.88531
G1 X81.553 Y59.667 E.03674
G1 X80.863 Y60.709 E.04397
G1 X80.004 Y61.346 E.03762
G1 X73.36 Y64.474 E.25847
G1 X50.023 Y70.308 E.84658
G1 X49.427 Y70.381 E.02113
G1 X33.842 Y70.381 E.5485
G1 X32.511 Y69.99 E.04884
G1 X31.604 Y68.939 E.04884
G1 X31.385 Y67.924 E.03653
G1 X31.385 Y55.256 E.44584
G1 X31.453 Y54.681 E.02038
G1 X34.266 Y42.997 E.42294
; printing object ServoMount.stl id:0 copy 0
G1 E-.5
EXCLUDE_OBJECT_START NAME=ServoMount.stl_id_0_copy_0
G1 Z.4 F21000
G1 X75.681 Y32.776 Z.4
G1 Z.2
G1 E.5 F1800
;TYPE:Support
G1 F3000
G1 X70.287 Y32.762 E.18983
G1 X69.969 Y32.999 E.01395
G1 X69.834 Y33.449 E.01655
G1 X69.799 Y33.667 E.00775
G1 X69.789 Y59.422 E.90644
G1 X70.141 Y59.774 E.01751
G1 X72.764 Y59.763 E.0923
G1 X72.764 Y62.09 E.0819
G1 X49.427 Y62.09 E.82131
G1 X49.427 Y67.924 E.20533
G1 X33.842 Y67.924 E.5485
G1 X33.842 Y55.256 E.44584
G1 X38.4 Y55.256 E.16041
G1 X38.389 Y58.714 E.12169
G1 X38.471 Y59.021 E.01119
G1 X38.668 Y59.368 E.01403
G1 X38.783 Y59.482 E.0057
G1 X39.213 Y59.712 E.01716
G1 X39.437 Y59.761 E.00806
G1 X43.698 Y59.751 E.14996
G1 X48.133 Y59.774 E.1561
G1 X48.485 Y59.422 E.01751
G1 X48.487 Y33.378 E.91659
G1 X48.469 Y33.079 E.01056
G1 X48.122 Y32.753 E.01675
G1 X45.51 Y32.764 E.09192
G1 X45.51 Y29.003 E.13238
G1 X75.681 Y29.003 E1.06182
G1 X75.681 Y32.708 E.1304
G1 E-.5
G1 Z.4 F21000
G1 X74.44 Y33.976 Z.4
G1 X70.988 Y37.419
G1 X48.896 Y59.593
G1 Z.2
G1 E.5 F1800
G1 F3000
G1 X48.898 Y33.372 E.92281
G1 X48.87 Y32.891 E.01698
G1 X48.285 Y32.341 E.02823
G1 X45.922 Y32.35 E.08317
G1 X45.922 Y29.414 E.10332
G1 X75.27 Y29.414 E1.03286
G1 X75.27 Y32.365 E.10386
G1 X70.15 Y32.351 E.18018
G1 X69.614 Y32.75 E.02352
G1 X69.436 Y33.345 E.02186
G1 X69.386 Y33.665 E.0114
G1 X69.378 Y59.593 E.91249
G1 X69.971 Y60.185 E.02951
G1 X72.353 Y60.177 E.08381
G1 X72.353 Y61.679 E.05285
G1 X49.016 Y61.679 E.82131
M73 P1 R25
G1 X49.016 Y67.513 E.20533
G1 X34.253 Y67.513 E.51955
G1 X34.253 Y55.668 E.41688
G1 X37.989 Y55.668 E.13146
G1 X37.976 Y58.75 E.10847
G1 X38.044 Y59.057 E.01107
G1 X38.099 Y59.198 E.00533
G1 X38.338 Y59.619 E.01706
G1 X38.531 Y59.812 E.00961
G1 X38.953 Y60.052 E.01706
G1 X39.094 Y60.106 E.00533
G1 X39.401 Y60.175 E.01107
G1 X43.696 Y60.162 E.15117
G1 X48.303 Y60.185 E.16213
G1 X48.896 Y59.593 E.02951
G1 X49.404 Y59.803 F21000
G1 F3000
G1 X49.406 Y33.364 E.93049
G1 X49.364 Y32.658 E.02489
G1 X48.486 Y31.833 E.04241
G1 X46.43 Y31.838 E.07237
G1 X46.43 Y29.922 E.06746
G1 X74.762 Y29.922 E.99712
G1 X74.762 Y31.858 E.06815
G1 X69.981 Y31.843 E.16826
G1 X69.176 Y32.444 E.03533
G1 X68.944 Y33.217 E.02841
G1 X68.879 Y33.628 E.01465
G1 X68.87 Y59.803 E.92122
G1 X69.761 Y60.694 E.04433
G1 X71.845 Y60.688 E.07333
G1 X71.845 Y61.171 E.01698
G1 X48.508 Y61.171 E.82131
G1 X48.508 Y67.005 E.20533
G1 X34.761 Y67.005 E.4838
G1 X34.761 Y56.175 E.38114
G1 X37.481 Y56.175 E.09571
G1 X37.481 Y58.468 E.08068
G1 X37.465 Y58.793 E.01147
G1 X37.557 Y59.204 E.01479
G1 X37.638 Y59.416 E.008
G1 X37.931 Y59.93 E.02081
G1 X38.221 Y60.22 E.01443
G1 X38.735 Y60.512 E.02081
G1 X38.947 Y60.594 E.008
G1 X39.357 Y60.685 E.01478
G1 X39.682 Y60.67 E.01144
G1 X43.695 Y60.67 E.14123
G1 X48.513 Y60.694 E.16958
G1 X49.404 Y59.803 E.04433
G1 X48 Y61.201 F21000
G1 F3000
G1 X48 Y66.497 E.1864
G1 X35.269 Y66.497 E.44805
G1 X35.269 Y56.683 E.34539
G1 X36.973 Y56.683 E.05996
G1 X36.973 Y58.456 E.06238
G1 X36.955 Y58.837 E.01343
G1 X37.069 Y59.351 E.01852
G1 X37.178 Y59.634 E.01068
G1 X37.523 Y60.241 E.02456
G1 X37.91 Y60.627 E.01925
G1 X38.517 Y60.973 E.02456
G1 X38.8 Y61.082 E.01068
G1 X39.313 Y61.195 E.0185
G1 X39.693 Y61.178 E.0134
G1 X43.693 Y61.178 E.14076
G1 X48 Y61.201 E.15159
G1 X47.492 Y61.708 F21000
G1 F3000
G1 X47.492 Y65.989 E.15067
G1 X35.777 Y65.989 E.41231
G1 X35.777 Y57.191 E.30964
G1 X36.465 Y57.191 E.02422
G1 X36.465 Y58.444 E.04409
G1 X36.445 Y58.881 E.0154
G1 X36.581 Y59.498 E.02224
G1 X36.718 Y59.852 E.01336
G1 X37.116 Y60.551 E.02831
G1 X37.599 Y61.035 E.02408
G1 X38.299 Y61.433 E.02831
G1 X38.653 Y61.569 E.01336
G1 X39.269 Y61.706 E.02222
G1 X39.705 Y61.686 E.01537
G1 X43.691 Y61.686 E.14028
G1 X47.492 Y61.708 E.13377
G1 X46.984 Y62.216 F21000
G1 F3000
G1 X46.984 Y65.482 E.11493
G1 X36.285 Y65.482 E.37656
G1 X36.285 Y60.806 E.16454
G1 X36.625 Y60.716 E.01238
G1 X36.708 Y60.862 E.0059
G1 X37.289 Y61.443 E.0289
G1 X38.081 Y61.893 E.03206
G1 X38.506 Y62.057 E.01603
G1 X39.225 Y62.216 E.02594
G1 X39.717 Y62.194 E.01733
G1 X43.69 Y62.194 E.13981
G1 X46.984 Y62.216 E.11596
G1 X46.477 Y62.72 F21000
G1 F3000
G1 X46.477 Y64.974 E.07931
G1 X36.793 Y64.974 E.34081
G1 X36.793 Y61.745 E.11364
G1 X37.863 Y62.353 E.04331
G1 X38.359 Y62.544 E.01871
G1 X39.181 Y62.727 E.02965
G1 X39.729 Y62.701 E.0193
G1 X46.477 Y62.72 E.23748
G1 X45.969 Y63.225 F21000
G1 F3000
G1 X45.969 Y64.466 E.04368
G1 X37.301 Y64.466 E.30506
G1 X37.301 Y62.618 E.06503
G1 X37.644 Y62.814 E.01392
G1 X38.211 Y63.032 E.02138
G1 X39.137 Y63.237 E.03337
G1 X39.741 Y63.209 E.02126
G1 X45.969 Y63.225 E.21919
G1 X49.262 Y60.663 F21000
G1 F3000
G1 X49.912 Y60.014 E.03232
G1 X49.914 Y33.357 E.93818
G1 X49.859 Y32.426 E.03281
G1 X48.687 Y31.325 E.05658
G1 X46.937 Y31.327 E.06156
G1 X46.937 Y30.43 E.03159
G1 X74.254 Y30.43 E.96137
G1 X74.254 Y31.348 E.03231
G1 X69.811 Y31.336 E.15635
G1 X68.738 Y32.137 E.04714
G1 X68.421 Y33.231 E.04009
G1 X68.372 Y33.59 E.01275
M73 P1 R24
G1 X68.36 Y33.863 E.00962
G1 X68.362 Y60.014 E.92034
G1 X69.012 Y60.663 E.03232
G1 X49.262 Y60.663 E.69508
G1 X50.42 Y60.155 F21000
G1 F3000
G1 X50.42 Y33.27 E.94618
G1 X50.353 Y32.194 E.03797
G1 X49.016 Y30.938 E.06458
G1 X68.973 Y30.938 E.70238
G1 X69.077 Y31.251 E.01161
G1 X68.3 Y31.83 E.03412
G1 X67.961 Y32.96 E.0415
G1 X67.878 Y33.429 E.01678
G1 X67.854 Y33.794 E.01287
G1 X67.854 Y60.155 E.92774
G1 X50.42 Y60.155 E.61359
G1 X50.928 Y59.647 F21000
G1 F3000
G1 X50.93 Y33.341 E.92582
M73 P2 R24
G1 X50.848 Y31.961 E.04864
G1 X50.298 Y31.445 E.02652
G1 X67.885 Y31.445 E.61895
G1 X67.469 Y32.832 E.05093
G1 X67.374 Y33.367 E.01915
G1 X67.344 Y33.851 E.01706
G1 X67.346 Y59.647 E.90788
G1 X50.928 Y59.647 E.57784
G1 X51.436 Y59.14 F21000
G1 F3000
G1 X51.438 Y33.333 E.90822
G1 X51.356 Y31.953 E.04865
G1 X67.203 Y31.953 E.5577
G1 X66.977 Y32.703 E.02755
G1 X66.922 Y32.953 E.00902
G1 X66.852 Y33.478 E.01862
G1 X66.836 Y33.845 E.01293
G1 X66.839 Y59.14 E.89022
G1 X51.436 Y59.14 E.54209
G1 X51.944 Y58.632 F21000
G1 F3000
G1 X51.946 Y33.325 E.89062
G1 X51.896 Y32.461 E.03047
G1 X66.511 Y32.461 E.51436
G1 X66.422 Y32.86 E.0144
G1 X66.365 Y33.243 E.01359
G1 X66.329 Y33.838 E.02101
G1 X66.331 Y58.632 E.87257
G1 X51.944 Y58.632 E.50634
G1 X52.451 Y58.124 F21000
G1 F3000
G1 X52.443 Y32.969 E.8853
G1 X65.882 Y32.969 E.47298
G1 X65.821 Y33.832 E.03046
G1 X65.823 Y58.124 E.85492
G1 X52.451 Y58.124 E.47059
G1 X52.959 Y57.616 F21000
G1 F3000
G1 X52.961 Y33.477 E.84955
G1 X65.321 Y33.477 E.435
G1 X65.315 Y57.616 E.84955
G1 X52.959 Y57.616 E.43484
G1 X53.467 Y57.108 F21000
G1 F3000
G1 X53.469 Y33.985 E.8138
G1 X64.805 Y33.985 E.39895
G1 X64.807 Y57.108 E.8138
G1 X53.467 Y57.108 E.39909
G1 X53.975 Y56.6 F21000
G1 F3000
G1 X53.977 Y34.493 E.77805
G1 X64.297 Y34.493 E.36321
G1 X64.299 Y56.6 E.77805
G1 X53.975 Y56.6 E.36334
G1 X54.483 Y56.092 F21000
G1 F3000
G1 X54.485 Y35 E.74231
G1 X63.789 Y35 E.32746
G1 X63.791 Y56.092 E.74231
G1 X54.483 Y56.092 E.32759
G1 X54.991 Y55.584 F21000
G1 F3000
G1 X54.993 Y35.508 E.70656
G1 X63.281 Y35.508 E.29172
G1 X63.283 Y55.584 E.70656
G1 X54.991 Y55.584 E.29184
G1 X55.499 Y55.077 F21000
G1 F3000
G1 X55.5 Y36.016 E.67081
G1 X62.774 Y36.016 E.25597
G1 X62.775 Y55.077 E.67081
G1 X55.499 Y55.077 E.25608
M73 P3 R24
G1 X56.007 Y54.569 F21000
G1 F3000
G1 X56.008 Y36.524 E.63506
G1 X62.266 Y36.524 E.22023
G1 X62.267 Y54.569 E.63506
G1 X56.007 Y54.569 E.22033
G1 X56.515 Y54.061 F21000
G1 F3000
G1 X56.516 Y37.032 E.59932
G1 X61.758 Y37.032 E.18448
G1 X61.759 Y54.061 E.59932
G1 X56.515 Y54.061 E.18458
G1 X57.023 Y53.553 F21000
G1 F3000
G1 X57.024 Y37.54 E.56357
G1 X61.25 Y37.54 E.14874
G1 X61.252 Y53.553 E.56357
G1 X57.023 Y53.553 E.14883
G1 X57.531 Y53.045 F21000
G1 F3000
G1 X57.532 Y38.048 E.52782
G1 X60.742 Y38.048 E.11299
G1 X60.744 Y53.045 E.52782
G1 X57.531 Y53.045 E.11308
G1 X58.038 Y52.537 F21000
G1 F3000
G1 X58.04 Y38.555 E.49207
G1 X60.235 Y38.555 E.07725
G1 X60.236 Y52.537 E.49207
G1 X58.038 Y52.537 E.07733
G1 X58.546 Y52.029 F21000
G1 F3000
G1 X58.547 Y39.063 E.45633
G1 X59.727 Y39.063 E.04151
G1 X59.728 Y52.029 E.45633
G1 X58.546 Y52.029 E.04158
G1 E-.5
G1 Z.4 F21000
G1 X47.537 Y33.705 Z.4
G1 Z.2
G1 E.5 F1800
;TYPE:Outer wall
G1 F3000
G1 X47.537 Y33.884 E.00629
G1 X47.535 Y58.822 E.87769
G1 X43.701 Y58.801 E.13495
G1 X39.513 Y58.805 E.14738
G1 X39.407 Y58.744 E.00431
G1 X39.346 Y58.638 E.00431
G1 X39.362 Y33.847 E.87248
G1 X39.498 Y33.719 E.00658
G1 X43.7 Y33.726 E.14788
G1 X47.497 Y33.705 E.13362
G1 X47.037 Y34.208 F21000
;TYPE:Inner wall
G1 F3000
G1 X47.035 Y58.319 E.84859
G1 X39.846 Y58.304 E.25301
G1 X39.85 Y34.22 E.84762
G1 X43.701 Y34.226 E.13555
G1 X46.997 Y34.208 E.11599
G1 E-.5
G1 Z.4 F21000
G1 X44.92 Y43.412 Z.4
G1 Z.2
G1 E.5 F1800
;TYPE:Outer wall
G1 F3000
G1 X44.933 Y43.434 E.0009
G1 X45.069 Y43.859 E.0157
G1 X45.114 Y44.288 E.0152
G1 X45.068 Y44.725 E.01546
G1 X44.932 Y45.143 E.01547
G1 X44.713 Y45.524 E.01546
G1 X44.419 Y45.851 E.01547
G1 X44.063 Y46.109 E.01547
G1 X43.662 Y46.288 E.01547
G1 X43.232 Y46.379 E.01546
G1 X42.792 Y46.379 E.01546
G1 X42.363 Y46.288 E.01546
G1 X41.961 Y46.109 E.01547
G1 X41.606 Y45.85 E.01546
G1 X41.312 Y45.524 E.01547
G1 X41.092 Y45.143 E.01549
G1 X40.955 Y44.718 E.0157
G1 X40.91 Y44.288 E.0152
G1 X40.956 Y43.851 E.01546
G1 X41.092 Y43.434 E.01546
G1 X41.312 Y43.053 E.01547
G1 X41.606 Y42.726 E.01547
G1 X41.961 Y42.468 E.01547
G1 X42.363 Y42.289 E.01546
G1 X42.792 Y42.198 E.01546
G1 X43.232 Y42.198 E.01546
G1 X43.662 Y42.289 E.01546
G1 X44.063 Y42.468 E.01547
G1 X44.419 Y42.726 E.01546
G1 X44.713 Y43.053 E.01546
G1 X44.9 Y43.377 E.01318
G1 X45.371 Y43.194 F21000
;TYPE:Inner wall
G1 F3000
G1 X45.392 Y43.23 E.0015
G1 X45.561 Y43.755 E.0194
G1 X45.617 Y44.288 E.01887
G1 X45.56 Y44.83 E.01916
G1 X45.392 Y45.348 E.01916
G1 X45.119 Y45.819 E.01916
G1 X44.755 Y46.224 E.01916
G1 X44.314 Y46.544 E.01916
G1 X43.817 Y46.766 E.01916
G1 X43.284 Y46.879 E.01916
G1 X42.74 Y46.879 E.01916
G1 X42.207 Y46.766 E.01916
G1 X41.71 Y46.544 E.01917
G1 X41.269 Y46.224 E.01916
G1 X40.905 Y45.819 E.01916
G1 X40.632 Y45.346 E.01922
G1 X40.463 Y44.822 E.0194
G1 X40.407 Y44.288 E.01887
G1 X40.464 Y43.747 E.01916
G1 X40.633 Y43.229 E.01916
G1 X40.905 Y42.757 E.01916
G1 X41.269 Y42.353 E.01916
G1 X41.71 Y42.033 E.01916
G1 X42.207 Y41.811 E.01916
G1 X42.74 Y41.698 E.01916
G1 X43.284 Y41.698 E.01916
G1 X43.817 Y41.811 E.01916
G1 X44.314 Y42.033 E.01916
G1 X44.755 Y42.353 E.01916
G1 X45.119 Y42.757 E.01916
G1 X45.351 Y43.159 E.01632
G1 E-.5
G1 Z.4 F21000
G1 X46.58 Y34.667 Z.4
G1 Z.2
G1 E.5 F1800
G1 F3000
G1 X46.578 Y57.86 E.81623
G1 X40.303 Y57.847 E.22083
G1 X40.305 Y45.837 E.42269
G1 X40.962 Y46.566 E.03453
G1 X41.48 Y46.942 E.02254
G1 X42.065 Y47.203 E.02255
G1 X42.692 Y47.336 E.02255
G1 X43.332 Y47.336 E.02255
G1 X43.959 Y47.203 E.02255
G1 X44.544 Y46.942 E.02255
G1 X45.063 Y46.566 E.02255
G1 X45.491 Y46.09 E.02255
G1 X45.811 Y45.535 E.02254
G1 X46.009 Y44.926 E.02255
G1 X46.076 Y44.288 E.02255
G1 X46.01 Y43.661 E.02222
G1 X45.813 Y43.044 E.02278
G1 X45.491 Y42.487 E.02263
G1 X45.063 Y42.011 E.02255
G1 X44.544 Y41.635 E.02255
G1 X43.959 Y41.374 E.02255
G1 X43.332 Y41.241 E.02255
G1 X42.692 Y41.241 E.02254
G1 X42.065 Y41.374 E.02255
G1 X41.48 Y41.635 E.02255
G1 X40.962 Y42.011 E.02255
G1 X40.306 Y42.74 E.0345
G1 X40.307 Y34.678 E.28373
G1 X46.54 Y34.667 E.21936
G1 E-.5
G1 Z.4 F21000
G1 X45.919 Y42.314 Z.4
G1 Z.2
G1 E.5 F1800
G1 F3000
G1 X45.863 Y42.217 E.00394
G1 X45.37 Y41.67 E.02593
G1 X44.774 Y41.237 E.02593
G1 X44.101 Y40.937 E.02593
G1 X43.38 Y40.784 E.02593
G1 X42.644 Y40.784 E.02593
G1 X41.923 Y40.937 E.02593
G1 X41.25 Y41.237 E.02593
G1 X40.763 Y41.591 E.0212
G1 X40.764 Y35.136 E.22718
G1 X46.123 Y35.127 E.1886
G1 X46.122 Y42.26 E.25103
G1 X45.958 Y42.304 E.006
G1 E-.5
G1 Z.4 F21000
G1 X45.665 Y41.319 Z.4
G1 Z.2
G1 E.5 F1800
G1 F3000
G1 X45.004 Y40.839 E.02877
G1 X44.243 Y40.5 E.02931
G1 X43.428 Y40.327 E.02931
G1 X42.596 Y40.327 E.02931
G1 X41.781 Y40.5 E.02931
G1 X41.22 Y40.75 E.02161
G1 X41.221 Y35.593 E.18147
G1 X45.666 Y35.586 E.15642
G1 X45.665 Y41.279 E.20035
G1 E-.5
G1 Z.4 F21000
G1 X45.919 Y46.263 Z.4
G1 Z.2
G1 E.5 F1800
G1 F3000
G1 X46.122 Y46.318 E.00741
G1 X46.121 Y57.4 E.39002
G1 X40.76 Y57.389 E.18866
G1 X40.762 Y46.986 E.36614
G1 X41.25 Y47.34 E.02123
G1 X41.923 Y47.64 E.02593
G1 X42.644 Y47.793 E.02593
G1 X43.38 Y47.793 E.02593
G1 X44.101 Y47.64 E.02593
G1 X44.774 Y47.34 E.02593
G1 X45.37 Y46.907 E.02593
G1 X45.863 Y46.36 E.02593
G1 X45.899 Y46.298 E.0025
G1 X45.665 Y47.258 F21000
G1 F3000
G1 X45.664 Y56.94 E.34076
G1 X41.218 Y56.932 E.15649
G1 X41.219 Y47.827 E.32044
