; HEADER_BLOCK_START
; generated by OrcaSlicer 1.6.2 on 2023-05-21 at 10:13:20
; total layer number: 172
; HEADER_BLOCK_END

; THUMBNAIL_BLOCK_START
; THUMBNAIL_BLOCK_END

; external perimeters extrusion width = 0.40mm
; perimeters extrusion width = 0.45mm
; infill extrusion width = 0.45mm
; solid infill extrusion width = 0.40mm
; top infill extrusion width = 0.40mm
; support material extrusion width = 0.40mm
; first layer extrusion width = 0.50mm

; EXECUTABLE_BLOCK_START
EXCLUDE_OBJECT_DEFINE NAME=SexBolt_EndstopHousingBlank.stl_id_0_copy_0 CENTER=60,60 POLYGON=[[44.8,40.25],[44.812,40.005],[44.8166,39.9676],[44.848,39.7623],[44.8683,39.6744],[44.9077,39.5243],[44.957,39.3799],[44.9903,39.2933],[45.0838,39.0932],[45.0952,39.0715],[45.2213,38.8611],[45.3675,38.664],[45.3813,38.6478],[45.5322,38.4822],[45.714,38.3175],[45.7733,38.2707],[45.9111,38.1713],[46.1215,38.0452],[46.2404,37.9857],[46.3433,37.9403],[46.4484,37.9024],[46.5743,37.8577],[46.8123,37.798],[46.9778,37.7728],[47.055,37.762],[47.3,37.75],[54.3,37.75],[54.545,37.762],[54.7877,37.798],[54.9909,37.8476],[55.0257,37.8577],[55.1841,37.9135],[55.2567,37.9403],[55.4785,38.0452],[55.6889,38.1713],[55.886,38.3175],[74.286,53.8175],[74.4678,53.9822],[74.6325,54.164],[74.7787,54.3611],[74.9048,54.5715],[75.0097,54.7933],[75.0365,54.8659],[75.0924,55.0243],[75.1024,55.0591],[75.152,55.2623],[75.188,55.505],[75.2,55.75],[75.2,79.75],[75.188,79.995],[75.1834,80.0324],[75.152,80.2377],[75.1317,80.3256],[75.0923,80.4757],[75.043,80.6201],[75.0097,80.7067],[74.9162,80.9068],[74.9048,80.9285],[74.7787,81.1389],[74.6325,81.336],[74.6187,81.3522],[74.4678,81.5178],[74.286,81.6825],[74.2267,81.7293],[74.0889,81.8287],[73.8785,81.9548],[73.7596,82.0143],[73.6567,82.0597],[73.5516,82.0976],[73.4257,82.1423],[73.1877,82.202],[73.0223,82.2272],[72.945,82.238],[72.7,82.25],[46.8,82.25],[46.6452,82.2419],[46.5909,82.239],[46.4909,82.2235],[46.3842,82.2063],[46.182,82.1521],[45.9865,82.0771],[45.8,81.982],[45.6244,81.868],[45.4617,81.7363],[45.3137,81.5883],[45.182,81.4256],[45.0679,81.25],[44.9729,81.0635],[44.8979,80.868],[44.8677,80.7554],[44.8437,80.6658],[44.811,80.4591],[44.8061,80.3774],[44.8,80.25],[44.8,40.25]]
M73 P0 R28
;TYPE:Custom
START_PRINT T_BED=110 T_EXTRUDER=245
G90
G21
M83 ; use relative distances for extrusion
; Filament gcode

    PRESSURE_ADVANCE_SELECT FILAMENT=ABS
M106 S0
;LAYER_CHANGE
;Z:0.2
;HEIGHT:0.2
;BEFORE_LAYER_CHANGE
;0.2
G92 E0

;AFTER_LAYER_CHANGE
;0.2
M204 S500
; printing object SexBolt_EndstopHousingBlank.stl id:0 copy 0
EXCLUDE_OBJECT_START NAME=SexBolt_EndstopHousingBlank.stl_id_0_copy_0
G1 E-.5 F3000
G1 Z.2 F21000
G1 X47.429 Y40.78
G1 E.5 F1800
;TYPE:Support
;WIDTH:0.5
G1 F3000
G1 X47.621 Y40.563 E.01018
G1 X47.825 Y40.358 E.01018
G1 X48.042 Y40.167 E.01018
G1 X48.271 Y39.99 E.01018
G1 X48.51 Y39.827 E.01018
G1 X48.759 Y39.68 E.01018
G1 X49.017 Y39.548 E.01018
G1 X49.282 Y39.434 E.01018
G1 X49.555 Y39.336 E.01018
G1 X49.832 Y39.255 E.01018
G1 X50.115 Y39.192 E.01018
G1 X50.4 Y39.147 E.01018
G1 X50.688 Y39.119 E.01018
G1 X50.978 Y39.11 E.01018
G1 X51.267 Y39.119 E.01018
G1 X51.555 Y39.147 E.01018
G1 X51.841 Y39.192 E.01018
G1 X52.123 Y39.255 E.01018
G1 X52.401 Y39.336 E.01018
G1 X52.673 Y39.434 E.01018
G1 X52.938 Y39.548 E.01018
G1 X53.196 Y39.68 E.01018
G1 X53.445 Y39.827 E.01018
G1 X53.684 Y39.99 E.01018
G1 X53.913 Y40.167 E.01018
G1 X54.13 Y40.358 E.01018
G1 X54.335 Y40.563 E.01018
G1 X54.526 Y40.78 E.01018
G1 X54.703 Y41.009 E.01018
G1 X54.866 Y41.248 E.01018
G1 X55.013 Y41.497 E.01018
G1 X55.144 Y41.755 E.01018
G1 X55.259 Y42.02 E.01018
G1 X55.357 Y42.292 E.01018
G1 X55.438 Y42.57 E.01018
G1 X55.501 Y42.852 E.01018
G1 X55.546 Y43.138 E.01018
G1 X55.574 Y43.426 E.01018
G1 X55.583 Y43.715 E.01018
G1 X55.574 Y44.004 E.01018
G1 X55.546 Y44.292 E.01018
G1 X55.501 Y44.578 E.01018
G1 X55.438 Y44.861 E.01018
G1 X55.357 Y45.138 E.01018
G1 X55.259 Y45.411 E.01018
G1 X55.144 Y45.676 E.01018
G1 X55.013 Y45.934 E.01018
G1 X54.866 Y46.183 E.01018
G1 X54.703 Y46.422 E.01018
G1 X54.526 Y46.651 E.01018
G1 X54.335 Y46.868 E.01018
G1 X54.13 Y47.072 E.01018
G1 X53.913 Y47.264 E.01018
G1 X53.684 Y47.441 E.01018
G1 X53.445 Y47.604 E.01018
G1 X53.319 Y47.678 E.00514
G1 X53.336 Y47.957 E.00982
G1 X53.652 Y48.096 E.01215
G1 X53.912 Y48.229 E.01028
G1 X54.163 Y48.379 E.01028
G1 X54.404 Y48.544 E.01028
G1 X54.634 Y48.723 E.01028
G1 X54.853 Y48.917 E.01028
G1 X55.06 Y49.123 E.01028
G1 X55.254 Y49.342 E.01028
G1 X55.434 Y49.572 E.01028
G1 X55.599 Y49.813 E.01028
G1 X55.749 Y50.063 E.01028
G1 X55.883 Y50.323 E.01028
G1 X56.001 Y50.59 E.01027
G1 X56.102 Y50.863 E.01027
G1 X56.186 Y51.143 E.01027
G1 X56.252 Y51.427 E.01027
G1 X56.301 Y51.715 E.01026
G1 X56.331 Y52.004 E.01026
G1 X56.343 Y52.296 E.01026
G1 X56.337 Y52.587 E.01025
G1 X56.312 Y52.877 E.01025
G1 X56.281 Y53.084 E.00735
G1 X55.693 Y53.294 E.02199
G1 X55.646 Y53.326 E.00198
G1 X54.725 Y54.342 E.04827
G1 X54.699 Y54.391 E.00198
G1 X54.375 Y55.683 E.04687
G1 X54.371 Y55.711 E.00099
G1 X54.371 Y56.101 E.01373
G1 X54.212 Y56.209 E.00677
G1 X53.961 Y56.355 E.01024
G1 X53.701 Y56.486 E.01024
G1 X53.433 Y56.599 E.01024
G1 X53.158 Y56.696 E.01024
G1 X52.878 Y56.774 E.01025
G1 X52.593 Y56.835 E.01025
G1 X52.305 Y56.878 E.01025
G1 X52.015 Y56.903 E.01026
G1 X51.821 Y56.907 E.00682
G1 X51.691 Y57.124 E.0089
G1 X51.823 Y57.383 E.01024
G1 X51.938 Y57.649 E.01018
G1 X52.036 Y57.921 E.01018
G1 X52.117 Y58.198 E.01018
G1 X52.18 Y58.481 E.01018
G1 X52.225 Y58.767 E.01018
G1 X52.252 Y59.055 E.01018
G1 X52.262 Y59.344 E.01018
G1 X52.252 Y59.633 E.01018
G1 X52.225 Y59.921 E.01018
G1 X52.18 Y60.207 E.01018
G1 X52.117 Y60.489 E.01018
G1 X52.036 Y60.767 E.01018
G1 X51.938 Y61.039 E.01018
G1 X51.823 Y61.304 E.01018
G1 X51.692 Y61.562 E.01018
G1 X51.545 Y61.811 E.01018
G1 X51.382 Y62.051 E.01018
G1 X51.205 Y62.279 E.01018
G1 X51.013 Y62.496 E.01018
G1 X50.809 Y62.701 E.01018
G1 X50.592 Y62.892 E.01018
G1 X50.363 Y63.069 E.01018
G1 X50.124 Y63.232 E.01018
G1 X49.875 Y63.379 E.01018
G1 X49.617 Y63.511 E.01018
G1 X49.352 Y63.625 E.01018
G1 X49.08 Y63.723 E.01018
G1 X48.802 Y63.804 E.01018
G1 X48.519 Y63.867 E.01018
G1 X48.234 Y63.913 E.01018
G1 X47.946 Y63.94 E.01018
G1 X47.656 Y63.949 E.01018
G1 X47.367 Y63.94 E.01018
G1 X47.079 Y63.913 E.01018
G1 X46.794 Y63.867 E.01018
G1 X46.511 Y63.804 E.01018
G1 X46.233 Y63.723 E.01018
G1 X45.961 Y63.625 E.01018
G1 X45.696 Y63.511 E.01018
G1 X45.438 Y63.379 E.01018
G1 X45.189 Y63.232 E.01018
G1 X44.95 Y63.069 E.01018
G1 X44.721 Y62.892 E.01018
G1 X44.504 Y62.701 E.01018
G1 X44.299 Y62.496 E.01018
G1 X44.108 Y62.279 E.01018
G1 X43.931 Y62.051 E.01018
G1 X43.768 Y61.811 E.01018
G1 X43.621 Y61.562 E.01018
G1 X43.49 Y61.304 E.01018
G1 X43.375 Y61.039 E.01018
G1 X43.277 Y60.767 E.01018
G1 X43.196 Y60.489 E.01018
G1 X43.133 Y60.207 E.01018
G1 X43.088 Y59.921 E.01018
G1 X43.06 Y59.633 E.01018
G1 X43.051 Y59.344 E.01018
G1 X43.06 Y59.055 E.01018
G1 X43.088 Y58.767 E.01018
G1 X43.133 Y58.481 E.01018
G1 X43.196 Y58.198 E.01018
G1 X43.277 Y57.921 E.01018
G1 X43.375 Y57.649 E.01018
G1 X43.49 Y57.383 E.01018
G1 X43.621 Y57.125 E.01018
G1 X43.768 Y56.876 E.01018
G1 X43.931 Y56.637 E.01018
G1 X44.108 Y56.408 E.01018
G1 X44.299 Y56.191 E.01018
G1 X44.504 Y55.987 E.01018
G1 X44.721 Y55.795 E.01018
G1 X44.95 Y55.618 E.01018
G1 X45.189 Y55.456 E.01018
G1 X45.438 Y55.308 E.01018
G1 X45.696 Y55.177 E.01018
G1 X45.961 Y55.062 E.01018
G1 X46.233 Y54.964 E.01018
G1 X46.511 Y54.883 E.01018
G1 X46.794 Y54.82 E.01018
G1 X47.079 Y54.775 E.01018
G1 X47.367 Y54.748 E.01018
G1 X47.546 Y54.742 E.00629
G1 X47.674 Y54.525 E.00888
G1 X47.518 Y54.223 E.01194
G1 X47.4 Y53.956 E.01027
G1 X47.299 Y53.683 E.01027
G1 X47.215 Y53.403 E.01027
G1 X47.149 Y53.119 E.01027
G1 X47.1 Y52.831 E.01026
G1 X47.07 Y52.542 E.01026
G1 X47.058 Y52.25 E.01026
G1 X47.064 Y51.959 E.01025
G1 X47.089 Y51.669 E.01025
G1 X47.132 Y51.381 E.01025
G1 X47.193 Y51.096 E.01025
G1 X47.272 Y50.816 E.01024
G1 X47.368 Y50.542 E.01024
G1 X47.482 Y50.274 E.01024
G1 X47.613 Y50.014 E.01024
G1 X47.76 Y49.763 E.01023
G1 X47.923 Y49.522 E.01023
G1 X48.101 Y49.292 E.01023
G1 X48.293 Y49.074 E.01023
G1 X48.499 Y48.869 E.01023
G1 X48.717 Y48.677 E.01023
G1 X48.948 Y48.5 E.01023
G1 X49.299 Y48.263 E.0149
G1 X49.274 Y47.993 E.00954
G1 X49.017 Y47.882 E.00986
G1 X48.759 Y47.751 E.01018
G1 X48.51 Y47.604 E.01018
G1 X48.271 Y47.441 E.01018
G1 X48.042 Y47.264 E.01018
G1 X47.825 Y47.072 E.01018
G1 X47.621 Y46.868 E.01018
G1 X47.429 Y46.651 E.01018
G1 X47.252 Y46.422 E.01018
G1 X47.089 Y46.183 E.01018
G1 X46.942 Y45.934 E.01018
G1 X46.811 Y45.676 E.01018
G1 X46.696 Y45.411 E.01018
G1 X46.598 Y45.138 E.01018
G1 X46.517 Y44.861 E.01018
G1 X46.454 Y44.578 E.01018
G1 X46.409 Y44.292 E.01018
G1 X46.382 Y44.004 E.01018
G1 X46.373 Y43.715 E.01018
G1 X46.382 Y43.426 E.01018
G1 X46.409 Y43.138 E.01018
G1 X46.454 Y42.852 E.01018
G1 X46.517 Y42.57 E.01018
G1 X46.598 Y42.292 E.01018
G1 X46.696 Y42.02 E.01018
G1 X46.811 Y41.755 E.01018
G1 X46.942 Y41.497 E.01018
G1 X47.089 Y41.248 E.01018
G1 X47.252 Y41.009 E.01018
G1 X47.393 Y40.827 E.00807
G1 X47.754 Y41.107 F21000
G1 F3000
G1 X47.782 Y41.071 E.00161
G1 X47.954 Y40.876 E.00917
G1 X48.138 Y40.692 E.00917
G1 X48.334 Y40.519 E.00917
G1 X48.54 Y40.36 E.00917
G1 X48.755 Y40.213 E.00917
G1 X48.979 Y40.081 E.00917
G1 X49.212 Y39.962 E.00917
G1 X49.451 Y39.859 E.00917
G1 X49.696 Y39.771 E.00917
G1 X49.946 Y39.698 E.00917
G1 X50.2 Y39.641 E.00917
G1 X50.458 Y39.6 E.00917
G1 X50.717 Y39.576 E.00917
G1 X50.978 Y39.568 E.00917
G1 X51.238 Y39.576 E.00917
G1 X51.497 Y39.6 E.00917
G1 X51.755 Y39.641 E.00917
G1 X52.009 Y39.698 E.00917
G1 X52.259 Y39.771 E.00917
G1 X52.505 Y39.859 E.00917
G1 X52.744 Y39.962 E.00917
G1 X52.976 Y40.081 E.00917
G1 X53.2 Y40.213 E.00917
G1 X53.416 Y40.36 E.00917
G1 X53.622 Y40.519 E.00917
G1 X53.817 Y40.692 E.00917
G1 X54.001 Y40.876 E.00917
G1 X54.174 Y41.071 E.00917
G1 X54.333 Y41.277 E.00917
G1 X54.48 Y41.493 E.00917
G1 X54.612 Y41.717 E.00917
G1 X54.731 Y41.949 E.00917
G1 X54.834 Y42.188 E.00917
G1 X54.922 Y42.434 E.00917
G1 X54.995 Y42.684 E.00917
G1 X55.052 Y42.938 E.00917
G1 X55.093 Y43.195 E.00917
G1 X55.117 Y43.455 E.00917
G1 X55.125 Y43.715 E.00917
G1 X55.117 Y43.976 E.00917
G1 X55.093 Y44.235 E.00917
G1 X55.052 Y44.493 E.00917
G1 X54.995 Y44.747 E.00917
G1 X54.922 Y44.997 E.00917
G1 X54.834 Y45.242 E.00917
G1 X54.731 Y45.481 E.00917
G1 X54.612 Y45.714 E.00917
G1 X54.48 Y45.938 E.00917
G1 X54.333 Y46.153 E.00917
G1 X54.174 Y46.359 E.00917
G1 X54.001 Y46.555 E.00917
G1 X53.817 Y46.739 E.00917
G1 X53.622 Y46.911 E.00917
G1 X53.416 Y47.071 E.00917
G1 X53.2 Y47.217 E.00917
G1 X52.847 Y47.427 E.01446
G1 X52.897 Y48.263 E.02947
G1 X53.455 Y48.508 E.02148
G1 X53.69 Y48.629 E.00929
G1 X53.916 Y48.764 E.00929
G1 X54.134 Y48.913 E.00929
G1 X54.343 Y49.075 E.00929
G1 X54.541 Y49.25 E.00929
G1 X54.727 Y49.437 E.00929
G1 X54.902 Y49.634 E.00929
G1 X55.065 Y49.842 E.00929
G1 X55.214 Y50.06 E.00929
G1 X55.35 Y50.286 E.00928
G1 X55.471 Y50.52 E.00928
G1 X55.577 Y50.761 E.00927
G1 X55.669 Y51.008 E.00927
G1 X55.744 Y51.261 E.00927
G1 X55.804 Y51.517 E.00926
G1 X55.848 Y51.776 E.00926
G1 X55.875 Y52.038 E.00925
G1 X55.886 Y52.3 E.00924
G1 X55.88 Y52.563 E.00924
G1 X55.864 Y52.747 E.00653
G1 X55.486 Y52.883 E.01415
G1 X55.345 Y52.977 E.00595
G1 X54.349 Y54.077 E.05224
G1 X54.269 Y54.226 E.00595
G1 X53.925 Y55.6 E.04985
G1 X53.914 Y55.683 E.00296
G1 X53.914 Y55.853 E.00598
G1 X53.743 Y55.953 E.00699
G1 X53.509 Y56.071 E.00921
G1 X53.268 Y56.173 E.00922
G1 X53.02 Y56.26 E.00922
G1 X52.768 Y56.331 E.00923
G1 X52.512 Y56.385 E.00923
G1 X52.252 Y56.424 E.00924
G1 X51.99 Y56.446 E.00924
G1 X51.558 Y56.455 E.01521
G1 X51.169 Y57.106 E.02669
G1 X51.409 Y57.578 E.01863
G1 X51.513 Y57.817 E.00917
G1 X51.601 Y58.062 E.00917
G1 X51.674 Y58.312 E.00917
G1 X51.731 Y58.567 E.00917
G1 X51.772 Y58.824 E.00917
G1 X51.796 Y59.083 E.00917
G1 X51.804 Y59.344 E.00917
G1 X51.796 Y59.604 E.00917
G1 X51.772 Y59.864 E.00917
G1 X51.731 Y60.121 E.00917
G1 X51.674 Y60.375 E.00917
G1 X51.601 Y60.625 E.00917
G1 X51.513 Y60.871 E.00917
G1 X51.409 Y61.11 E.00917
G1 X51.291 Y61.342 E.00917
G1 X51.159 Y61.566 E.00917
G1 X51.012 Y61.782 E.00917
G1 X50.852 Y61.988 E.00917
G1 X50.68 Y62.183 E.00917
G1 X50.496 Y62.367 E.00917
G1 X50.3 Y62.54 E.00917
G1 X50.094 Y62.699 E.00917
G1 X49.879 Y62.846 E.00917
G1 X49.655 Y62.978 E.00917
G1 X49.422 Y63.097 E.00917
G1 X49.183 Y63.2 E.00917
G1 X48.938 Y63.289 E.00917
G1 X48.688 Y63.361 E.00917
G1 X48.434 Y63.418 E.00917
G1 X48.176 Y63.459 E.00917
G1 X47.917 Y63.483 E.00917
G1 X47.656 Y63.492 E.00917
G1 X47.396 Y63.483 E.00917
G1 X47.137 Y63.459 E.00917
G1 X46.879 Y63.418 E.00917
G1 X46.625 Y63.361 E.00917
G1 X46.375 Y63.289 E.00917
G1 X46.13 Y63.2 E.00917
G1 X45.89 Y63.097 E.00917
G1 X45.658 Y62.978 E.00917
G1 X45.434 Y62.846 E.00917
G1 X45.218 Y62.699 E.00917
G1 X45.013 Y62.54 E.00917
G1 X44.817 Y62.367 E.00917
G1 X44.633 Y62.183 E.00917
G1 X44.461 Y61.988 E.00917
G1 X44.301 Y61.782 E.00917
G1 X44.154 Y61.566 E.00917
G1 X44.022 Y61.342 E.00917
G1 X43.903 Y61.11 E.00917
G1 X43.8 Y60.871 E.00917
G1 X43.712 Y60.625 E.00917
G1 X43.639 Y60.375 E.00917
G1 X43.582 Y60.121 E.00917
G1 X43.541 Y59.864 E.00917
G1 X43.517 Y59.604 E.00917
G1 X43.509 Y59.344 E.00917
G1 X43.517 Y59.083 E.00917
G1 X43.541 Y58.824 E.00917
G1 X43.582 Y58.567 E.00917
G1 X43.639 Y58.312 E.00917
G1 X43.712 Y58.062 E.00917
G1 X43.8 Y57.817 E.00917
G1 X43.903 Y57.578 E.00917
G1 X44.022 Y57.346 E.00917
G1 X44.154 Y57.121 E.00917
G1 X44.301 Y56.906 E.00917
G1 X44.461 Y56.7 E.00917
G1 X44.633 Y56.504 E.00917
G1 X44.817 Y56.32 E.00917
G1 X45.013 Y56.148 E.00917
G1 X45.218 Y55.988 E.00917
G1 X45.434 Y55.842 E.00917
G1 X45.658 Y55.709 E.00917
G1 X45.89 Y55.591 E.00917
G1 X46.13 Y55.487 E.00917
G1 X46.375 Y55.399 E.00917
G1 X46.625 Y55.326 E.00917
G1 X46.879 Y55.269 E.00917
G1 X47.137 Y55.229 E.00917
G1 X47.396 Y55.204 E.00917
G1 X47.812 Y55.191 E.01466
G1 X48.195 Y54.538 E.02663
G1 X47.93 Y54.026 E.02032
G1 X47.824 Y53.785 E.00927
G1 X47.732 Y53.538 E.00927
G1 X47.657 Y53.285 E.00927
G1 X47.597 Y53.029 E.00926
G1 X47.553 Y52.77 E.00926
G1 X47.526 Y52.508 E.00925
G1 X47.515 Y52.246 E.00924
G1 X47.521 Y51.983 E.00924
G1 X47.543 Y51.722 E.00923
G1 X47.582 Y51.463 E.00923
G1 X47.637 Y51.206 E.00922
G1 X47.708 Y50.954 E.00922
G1 X47.795 Y50.707 E.00921
G1 X47.897 Y50.467 E.00921
G1 X48.015 Y50.233 E.00921
G1 X48.147 Y50.007 E.0092
G1 X48.293 Y49.79 E.0092
G1 X48.453 Y49.584 E.0092
G1 X48.626 Y49.387 E.0092
G1 X48.811 Y49.203 E.0092
G1 X49.008 Y49.03 E.0092
G1 X49.215 Y48.871 E.0092
G1 X49.779 Y48.491 E.02392
G1 X49.704 Y47.682 E.02861
G1 X49.212 Y47.468 E.01889
G1 X48.979 Y47.35 E.00917
G1 X48.755 Y47.217 E.00917
G1 X48.54 Y47.071 E.00917
G1 X48.334 Y46.911 E.00917
G1 X48.138 Y46.739 E.00917
G1 X47.954 Y46.555 E.00917
G1 X47.782 Y46.359 E.00917
G1 X47.622 Y46.153 E.00917
G1 X47.476 Y45.938 E.00917
G1 X47.343 Y45.714 E.00917
G1 X47.225 Y45.481 E.00917
G1 X47.121 Y45.242 E.00917
G1 X47.033 Y44.997 E.00917
G1 X46.96 Y44.747 E.00917
G1 X46.903 Y44.493 E.00917
G1 X46.863 Y44.235 E.00917
G1 X46.838 Y43.976 E.00917
G1 X46.83 Y43.715 E.00917
G1 X46.838 Y43.455 E.00917
G1 X46.863 Y43.195 E.00917
G1 X46.903 Y42.938 E.00917
G1 X46.96 Y42.684 E.00917
G1 X47.033 Y42.434 E.00917
G1 X47.121 Y42.188 E.00917
G1 X47.225 Y41.949 E.00917
G1 X47.343 Y41.717 E.00917
G1 X47.476 Y41.493 E.00917
G1 X47.622 Y41.277 E.00917
G1 X47.717 Y41.155 E.00545
G1 X48.078 Y41.435 F21000
G1 F3000
G1 X48.134 Y41.363 E.00321
G1 X48.287 Y41.189 E.00816
G1 X48.451 Y41.025 E.00816
G1 X48.625 Y40.872 E.00816
G1 X48.808 Y40.73 E.00816
G1 X49 Y40.599 E.00816
G1 X49.2 Y40.481 E.00816
G1 X49.406 Y40.376 E.00816
G1 X49.619 Y40.284 E.00816
G1 X49.837 Y40.205 E.00816
G1 X50.06 Y40.141 E.00816
G1 X50.286 Y40.09 E.00816
G1 X50.515 Y40.054 E.00816
G1 X50.746 Y40.032 E.00816
G1 X50.978 Y40.025 E.00816
G1 X51.209 Y40.032 E.00816
G1 X51.44 Y40.054 E.00816
G1 X51.669 Y40.09 E.00816
G1 X51.895 Y40.141 E.00816
G1 X52.118 Y40.205 E.00816
G1 X52.336 Y40.284 E.00816
G1 X52.549 Y40.376 E.00816
G1 X52.756 Y40.481 E.00816
