; HEADER_BLOCK_START
; generated by OrcaSlicer 1.7.0-beta on 2023-09-23 at 18:04:27
; total layer number: 125
; HEADER_BLOCK_END

; THUMBNAIL_BLOCK_START
; THUMBNAIL_BLOCK_END

; external perimeters extrusion width = 0.40mm
; perimeters extrusion width = 0.46mm
; infill extrusion width = 0.64mm
; solid infill extrusion width = 0.56mm
; top infill extrusion width = 0.40mm
; first layer extrusion width = 0.50mm

; EXECUTABLE_BLOCK_START
EXCLUDE_OBJECT_DEFINE NAME=shaft27right.stl_id_0_copy_0 CENTER=60,60 POLYGON=[[8.39584,54.1824],[8.40815,54.026],[8.44477,53.8734],[8.50483,53.7285],[8.58683,53.5947],[8.68872,53.4753],[12.1029,50.0611],[12.2223,49.9592],[12.3561,49.8772],[49.3383,29.8859],[49.3559,29.8768],[49.4272,29.8439],[49.5008,29.8167],[49.5197,29.8108],[49.6148,29.787],[49.6534,29.7801],[49.7117,29.7726],[49.8098,29.7678],[106.19,29.7678],[106.288,29.7726],[106.346,29.7801],[106.385,29.787],[106.48,29.8108],[106.499,29.8167],[106.573,29.8439],[106.644,29.8768],[106.661,29.8859],[106.746,29.9363],[106.778,29.9587],[106.824,29.9947],[106.897,30.0607],[111.311,34.4749],[111.413,34.5942],[111.495,34.728],[111.555,34.873],[111.592,35.0255],[111.604,35.182],[111.604,44.3536],[111.592,44.51],[111.555,44.6626],[111.495,44.8076],[89.2983,87.3033],[86.3694,90.2322],[82.2272,90.2322],[13.11,89.7678],[12.9536,89.7555],[12.801,89.7188],[12.6561,89.6588],[12.5223,89.5768],[12.4029,89.4749],[8.68872,85.7607],[8.58683,85.6413],[8.50483,85.5075],[8.44477,85.3626],[8.40815,85.21],[8.39584,85.0536],[8.39584,54.1824]]
M73 P0 R46
;TYPE:Custom
START_PRINT T_BED=110 T_EXTRUDER=260
G90
G21
M83 ; use relative distances for extrusion
; Filament gcode

    PRESSURE_ADVANCE_SELECT FILAMENT=ABS
M106 S0
;LAYER_CHANGE
;Z:0.2
;HEIGHT:0.2
;BEFORE_LAYER_CHANGE
;0.2
G92 E0

;AFTER_LAYER_CHANGE
;0.2
;_SET_FAN_SPEED_CHANGING_LAYER
SET_VELOCITY_LIMIT ACCEL=1000 ACCEL_TO_DECEL=500
SET_VELOCITY_LIMIT SQUARE_CORNER_VELOCITY=9
G1 E-.5 F3000
G1 Z.2 F21000
G1 X22.7 Y41.996
G1 Z.2
G1 E.5 F1800
;TYPE:Skirt
;WIDTH:0.5
G1 F3000
G1 X48.386 Y28.112 E1.02758
G1 X48.948 Y27.88 E.02141
G1 X49.79 Y27.755 E.02997
G1 X106.204 Y27.755 E1.98542
G1 X106.94 Y27.849 E.0261
G1 X107.847 Y28.252 E.03493
G1 X108.321 Y28.636 E.02148
G1 X112.735 Y33.051 E.2197
G1 X113.184 Y33.628 E.02574
G1 X113.578 Y34.695 E.04002
G1 X113.618 Y35.182 E.01719
G1 X113.578 Y44.84 E.33992
G1 X113.28 Y45.737 E.03325
G1 X90.979 Y88.283 E1.69059
G1 X90.459 Y88.991 E.03092
G1 X88.057 Y91.393 E.11954
G1 X85.997 Y92.246 E.0785
G1 X13.091 Y91.782 E2.5659
G1 X12.623 Y91.741 E.01651
G1 X11.557 Y91.348 E.04002
G1 X10.979 Y90.899 E.02574
G1 X6.949 Y86.812 E.202
G1 X6.473 Y85.779 E.04002
G1 X6.382 Y85.053 E.02575
G1 X6.383 Y54.167 E1.08702
G1 X6.535 Y53.237 E.03317
G1 X6.968 Y52.399 E.03318
G1 X10.679 Y48.637 E.18598
G1 X11.379 Y48.116 E.03072
G1 X22.665 Y42.015 E.45153
G1 X22.883 Y42.417 F21000
G1 F3000
G1 X48.603 Y28.514 E1.02899
G1 X49.08 Y28.317 E.01816
G1 X49.79 Y28.213 E.02527
G1 X106.204 Y28.212 E1.98542
G1 X106.825 Y28.292 E.02201
G1 X107.593 Y28.632 E.02958
G1 X107.998 Y28.96 E.01833
G1 X112.412 Y33.374 E.2197
G1 X112.794 Y33.867 E.02196
G1 X113.126 Y34.767 E.03374
G1 X113.161 Y35.182 E.01466
G1 X113.126 Y44.769 E.3374
G1 X112.876 Y45.525 E.02804
G1 X90.575 Y88.071 E1.69059
G1 X90.136 Y88.668 E.02607
G1 X87.734 Y91.07 E.11954
G1 X85.997 Y91.789 E.06618
G1 X13.094 Y91.325 E2.56579
G1 X12.695 Y91.29 E.01409
G1 X11.795 Y90.958 E.03374
G1 X11.302 Y90.576 E.02196
G1 X7.319 Y86.543 E.19948
G1 X6.918 Y85.673 E.03374
G1 X6.839 Y85.053 E.02196
G1 X6.84 Y54.167 E1.08702
G1 X6.97 Y53.378 E.02814
G1 X7.337 Y52.667 E.02815
G1 X11.002 Y48.96 E.18346
G1 X11.596 Y48.518 E.02608
G1 X22.847 Y42.436 E.45012
; printing object shaft27right.stl id:0 copy 0
G1 E-.5
EXCLUDE_OBJECT_START NAME=shaft27right.stl_id_0_copy_0
G1 Z.4 F21000
G1 X86.751 Y82.382 Z.4
G1 Z.2
G1 E.5 F1800
;TYPE:Outer wall
;WIDTH:0.585841
G1 F3000
G1 X88.048 Y83.679 E.07667
G1 X88.048 Y86.786 E.12987
G1 X85.852 Y88.982 E.12987
G1 X82.745 Y88.982 E.12987
G1 X79.844 Y86.083 E.17145
G1 X79.668 Y86.018 E.00785
G1 X30.295 Y86.018 E2.06395
G1 X30.113 Y86.097 E.0083
G1 X27.692 Y88.516 E.14306
G1 X13.221 Y88.518 E.60493
G1 X9.649 Y84.953 E.21097
G1 X9.647 Y54.286 E1.28195
G1 X12.911 Y51.022 E.19298
G1 X29.019 Y51.016 E.67338
G1 X29.6 Y50.929 E.02455
G1 X30.132 Y50.699 E.02425
G1 X30.57 Y50.361 E.02312
G1 X49.914 Y31.02 E1.14351
G1 X106.093 Y31.025 E2.34848
G1 X110.354 Y35.29 E.25201
G1 X110.354 Y36.65 E.05685
G1 X110.354 Y44.246 E.31754
G1 X107.089 Y47.514 E.19312
G1 X103.21 Y47.52 E.16217
G1 X102.627 Y47.607 E.02461
G1 X102.099 Y47.836 E.02407
G1 X101.659 Y48.175 E.02322
G1 X87.217 Y62.62 E.85387
G1 X86.864 Y63.099 E.02489
G1 X86.655 Y63.629 E.02379
G1 X86.584 Y64.177 E.02312
G1 X86.588 Y82.151 E.75138
G1 X86.663 Y82.294 E.00673
G1 X86.723 Y82.354 E.00353
G1 E-.5
G1 Z.4 F21000
G1 X86.588 Y82.494 Z.4
G1 X86.384 Y82.297
G1 X86.251 Y81.727
G1 X86.248 Y81.235
G1 X86.248 Y68.948
G1 X86.251 Y68.457
G1 X86.771 Y63.623
G1 X86.809 Y63.334
G1 X86.868 Y63.054
G1 X86.96 Y62.748
G1 X87.079 Y62.454
G1 X87.248 Y62.111
G1 X103.365 Y42.346
G1 X103.216 Y42.036
G1 Z.2
G1 E.5 F1800
G1 F3000
G1 X103.146 Y42.078 E.0034
G1 X102.644 Y42.204 E.02163
G1 X102.342 Y42.261 E.01285
G1 X101.68 Y42.211 E.02777
G1 X100.982 Y41.951 E.03112
G1 X100.393 Y41.496 E.03112
G1 X99.963 Y40.888 E.03112
G1 X99.75 Y40.238 E.02858
G1 X99.721 Y40.1 E.0059
G1 X99.721 Y39.436 E.02778
G1 X99.928 Y38.721 E.03112
G1 X100.338 Y38.099 E.03112
G1 X100.912 Y37.625 E.03112
G1 X101.601 Y37.342 E.03112
G1 X102.342 Y37.275 E.03112
G1 X103.07 Y37.428 E.03112
G1 X103.721 Y37.79 E.03112
G1 X104.236 Y38.328 E.03112
G1 X104.57 Y38.993 E.03112
G1 X104.696 Y39.768 E.03281
G1 X104.594 Y40.465 E.02946
G1 X104.282 Y41.141 E.03112
G1 X103.785 Y41.695 E.03112
G1 X103.25 Y42.015 E.02606
G1 X103.292 Y42.54 F21000
;TYPE:Inner wall
;WIDTH:0.499999
G1 F3000
G1 X102.755 Y42.692 E.01964
G1 X102.305 Y42.76 E.01604
G1 X101.642 Y42.71 E.02338
G1 X101.108 Y42.537 E.01976
G1 X100.6 Y42.301 E.0197
G1 X100.081 Y41.887 E.02338
G1 X99.925 Y41.718 E.00809
G1 X99.55 Y41.169 E.02338
G1 X99.451 Y40.962 E.00809
G1 X99.255 Y40.327 E.02338
G1 X99.221 Y40.1 E.00809
G1 X99.221 Y39.436 E.02339
G1 X99.255 Y39.208 E.00809
G1 X99.451 Y38.573 E.02338
G1 X99.55 Y38.366 E.00809
G1 X99.925 Y37.817 E.02338
G1 X100.081 Y37.649 E.00809
G1 X100.6 Y37.234 E.02338
G1 X100.8 Y37.119 E.00809
G1 X101.418 Y36.877 E.02338
G1 X101.642 Y36.826 E.00809
G1 X102.305 Y36.776 E.02338
G1 X102.534 Y36.793 E.00809
G1 X103.182 Y36.941 E.02338
G1 X103.396 Y37.025 E.00809
G1 X103.971 Y37.357 E.02338
G1 X104.151 Y37.501 E.00809
G1 X104.603 Y37.988 E.02338
G1 X104.732 Y38.178 E.00809
G1 X105.021 Y38.776 E.02338
G1 X105.088 Y38.996 E.00809
G1 X105.196 Y39.768 E.02743
G1 X105.088 Y40.54 E.02743
G1 X105.021 Y40.759 E.00809
G1 X104.732 Y41.358 E.02338
G1 X104.603 Y41.548 E.00809
G1 X104.151 Y42.035 E.02338
G1 X103.971 Y42.178 E.00809
G1 X103.396 Y42.511 E.02339
G1 X103.331 Y42.529 E.00237
G1 X103.496 Y42.957 F21000
G1 F3000
G1 X103.283 Y43.04 E.00802
G1 X102.636 Y43.188 E.02338
G1 X102.271 Y43.215 E.01289
G1 X101.608 Y43.166 E.02338
G1 X101.251 Y43.084 E.01289
G1 X100.633 Y42.842 E.02338
G1 X100.316 Y42.658 E.01289
G1 X99.796 Y42.244 E.02338
G1 X99.547 Y41.976 E.01289
G1 X99.173 Y41.427 E.02338
G1 X99.014 Y41.097 E.01289
G1 X98.818 Y40.462 E.02338
G1 X98.763 Y40.1 E.01289
G1 X98.763 Y39.436 E.02339
G1 X98.818 Y39.073 E.01289
G1 X99.014 Y38.439 E.02338
G1 X99.173 Y38.109 E.01289
G1 X99.547 Y37.56 E.02338
G1 X99.796 Y37.291 E.01289
G1 X100.315 Y36.877 E.02338
G1 X100.633 Y36.694 E.01289
G1 X101.251 Y36.451 E.02338
G1 X101.608 Y36.37 E.01289
G1 X102.271 Y36.32 E.02338
G1 X102.636 Y36.348 E.01289
G1 X103.283 Y36.495 E.02338
G1 X103.624 Y36.629 E.01289
G1 X104.2 Y36.961 E.02338
G1 X104.486 Y37.19 E.01289
G1 X104.938 Y37.677 E.02338
G1 X105.144 Y37.979 E.01289
G1 X105.432 Y38.578 E.02338
G1 X105.54 Y38.928 E.01289
G1 X105.653 Y39.768 E.02983
G1 X105.54 Y40.608 E.02983
G1 X105.432 Y40.958 E.01289
G1 X105.144 Y41.556 E.02338
G1 X104.938 Y41.859 E.01289
G1 X104.486 Y42.346 E.02338
G1 X104.2 Y42.574 E.01289
G1 X103.624 Y42.906 E.02339
G1 X103.533 Y42.942 E.00346
G1 X103.663 Y43.377 F21000
G1 F3000
G1 X103.385 Y43.486 E.01049
G1 X102.737 Y43.634 E.02338
G1 X102.236 Y43.671 E.01768
G1 X101.574 Y43.622 E.02338
G1 X101.084 Y43.51 E.01768
G1 X100.466 Y43.267 E.02338
G1 X100.031 Y43.016 E.01768
G1 X99.511 Y42.602 E.02338
G1 X99.169 Y42.233 E.01769
G1 X98.795 Y41.684 E.02338
G1 X98.577 Y41.232 E.01768
G1 X98.381 Y40.597 E.02338
G1 X98.306 Y40.1 E.01769
G1 X98.306 Y39.436 E.02339
G1 X98.381 Y38.939 E.01768
G1 X98.577 Y38.304 E.02338
G1 X98.795 Y37.851 E.01768
G1 X99.169 Y37.302 E.02338
G1 X99.511 Y36.934 E.01768
G1 X100.03 Y36.52 E.02338
G1 X100.466 Y36.269 E.01768
G1 X101.084 Y36.026 E.02338
G1 X101.574 Y35.914 E.01769
G1 X102.236 Y35.864 E.02338
G1 X102.737 Y35.902 E.01768
G1 X103.385 Y36.05 E.02338
G1 X103.853 Y36.233 E.01768
G1 X104.428 Y36.565 E.02338
G1 X104.821 Y36.879 E.01768
G1 X105.273 Y37.366 E.02338
G1 X105.556 Y37.781 E.01768
G1 X105.844 Y38.379 E.02338
G1 X105.992 Y38.86 E.01768
G1 X106.091 Y39.517 E.02338
G1 X106.11 Y39.768 E.00887
G1 X105.992 Y40.676 E.03223
G1 X105.844 Y41.156 E.01768
G1 X105.556 Y41.755 E.02338
G1 X105.273 Y42.17 E.01768
G1 X104.821 Y42.657 E.02338
G1 X104.428 Y42.97 E.01769
G1 X103.853 Y43.302 E.02339
G1 X103.7 Y43.362 E.00579
G1 X103.829 Y43.797 F21000
G1 F3000
G1 X103.487 Y43.931 E.01295
G1 X102.839 Y44.079 E.02338
G1 X102.31 Y44.132 E.01872
G1 X101.624 Y44.084 E.02421
G1 X101.079 Y43.991 E.01945
G1 X100.607 Y43.814 E.01774
G1 X100.069 Y43.586 E.02057
G1 X99.746 Y43.373 E.01362
G1 X99.226 Y42.959 E.02338
G1 X98.792 Y42.491 E.02248
G1 X98.417 Y41.942 E.02338
G1 X98.184 Y41.495 E.01773
G1 X97.962 Y40.79 E.02602
G1 X97.857 Y40.282 E.01825
G1 X97.849 Y39.436 E.02978
G1 X97.888 Y39.029 E.01436
G1 X98.14 Y38.169 E.03154
G1 X98.417 Y37.594 E.02248
G1 X98.792 Y37.045 E.02338
G1 X99.226 Y36.577 E.02248
G1 X99.745 Y36.162 E.02338
G1 X100.299 Y35.843 E.02248
G1 X100.917 Y35.6 E.02338
G1 X101.54 Y35.458 E.02248
G1 X102.202 Y35.409 E.02338
G1 X102.839 Y35.456 E.02248
G1 X103.487 Y35.604 E.02338
G1 X103.987 Y35.786 E.01872
G1 X104.657 Y36.17 E.02718
G1 X105.101 Y36.511 E.01973
G1 X105.608 Y37.055 E.02616
G1 X105.863 Y37.39 E.01483
G1 X106.256 Y38.181 E.03108
G1 X106.444 Y38.791 E.02248
G1 X106.543 Y39.448 E.02338
G1 X106.567 Y39.768 E.01127
G1 X106.444 Y40.744 E.03463
G1 X106.256 Y41.354 E.02248
G1 X105.968 Y41.953 E.02338
G1 X105.608 Y42.481 E.02247
G1 X105.156 Y42.968 E.02338
G1 X104.904 Y43.199 E.01206
G1 X104.081 Y43.698 E.03385
G1 X103.867 Y43.782 E.00812
G1 E-.5
G1 Z.4 F21000
G1 X87.248 Y62.111 Z.4
G1 X87.079 Y62.454
G1 X85.351 Y66.175
G1 Z.2
G1 E.5 F1800
;TYPE:Outer wall
;WIDTH:0.585841
G1 F3000
G1 X84.955 Y67.112 E.04253
G1 X84.37 Y67.962 E.04313
G1 X83.627 Y68.677 E.04313
G1 X82.754 Y69.227 E.04313
G1 X81.788 Y69.591 E.04313
G1 X80.77 Y69.752 E.04313
G1 X79.739 Y69.706 E.04313
G1 X78.739 Y69.452 E.04313
G1 X77.81 Y69.003 E.04313
G1 X76.951 Y68.338 E.04541
G1 X76.315 Y67.597 E.04084
G1 X75.788 Y66.647 E.04541
G1 X75.495 Y65.715 E.04084
G1 X75.385 Y64.689 E.04313
G1 X75.484 Y63.662 E.04313
G1 X75.788 Y62.676 E.04313
G1 X76.283 Y61.771 E.04313
G1 X76.938 Y60.999 E.04231
G1 X77.35 Y60.638 E.02294
G1 X77.775 Y60.341 E.02165
G1 X78.687 Y59.89 E.04256
G1 X79.685 Y59.626 E.04313
G1 X80.715 Y59.568 E.04313
G1 X81.243 Y59.619 E.02217
G1 X82.229 Y59.871 E.04256
G1 X83.158 Y60.32 E.04313
G1 X83.962 Y60.934 E.04231
G1 X84.344 Y61.328 E.02294
G1 X84.929 Y62.163 E.04261
G1 X85.357 Y63.161 E.04541
G1 X85.462 Y63.67 E.02172
G1 X85.559 Y64.173 E.02141
G1 X85.559 Y65.15 E.04084
G1 X85.362 Y66.136 E.04205
G1 E-.5
G1 Z.4 F21000
G1 X86.072 Y64.075 Z.4
G1 Z.2
G1 E.5 F1800
;TYPE:Inner wall
;WIDTH:0.537778
G1 F3000
G1 X86.072 Y65.15 E.04098
;WIDTH:0.536534
G1 X86.066 Y65.287 E.00519
G1 E-.5
G1 Z.4 F21000
G1 X84.127 Y83.249 Z.4
G1 Z.2
G1 E.5 F1800
;TYPE:Outer wall
;WIDTH:0.585841
G1 F3000
G1 X84.168 Y83.24 E.00176
G1 X84.597 Y83.258 E.01798
G1 X85.156 Y83.429 E.02443
G1 X85.708 Y83.818 E.02822
G1 X86.099 Y84.368 E.02822
G1 X86.292 Y85.086 E.03107
G1 X86.242 Y85.691 E.02539
G1 X85.978 Y86.312 E.02822
G1 X85.522 Y86.81 E.02822
G1 X84.99 Y87.096 E.02525
G1 X84.839 Y87.155 E.00678
G1 X84.259 Y87.229 E.02443
G1 X83.597 Y87.102 E.02822
G1 X83.014 Y86.761 E.02822
G1 X82.578 Y86.246 E.02821
G1 X82.338 Y85.615 E.02822
G1 X82.323 Y85.077 E.02249
G1 X82.338 Y84.85 E.00953
G1 X82.533 Y84.299 E.02443
G1 X82.945 Y83.764 E.02822
G1 X83.511 Y83.397 E.02821
G1 X84.088 Y83.259 E.02478
G1 X84.153 Y82.75 F21000
;TYPE:Inner wall
;WIDTH:0.499999
G1 F3000
G1 X84.551 Y82.747 E.014
G1 X85.043 Y82.872 E.01789
;WIDTH:0.536299
G1 X85.546 Y83.054 E.02031
;WIDTH:0.581888
G1 X85.644 Y83.097 E.00443
;WIDTH:0.627477
G1 X85.741 Y83.141 E.00481
;WIDTH:0.673066
G1 X85.838 Y83.185 E.00518
G1 X86.242 Y83.548 E.02634
;WIDTH:0.655197
G1 X86.309 Y83.683 E.00712
;WIDTH:0.616398
G1 X86.377 Y83.818 E.00667
;WIDTH:0.577598
G1 X86.445 Y83.953 E.00622
;WIDTH:0.538799
G1 X86.513 Y84.088 E.00577
;WIDTH:0.499999
G1 X86.62 Y84.326 E.00918
G1 X86.767 Y84.891 E.02057
G1 X86.792 Y85.086 E.0069
G1 X86.74 Y85.733 E.02287
G1 X86.593 Y86.166 E.01607
G1 X86.434 Y86.518 E.01362
G1 X86.288 Y86.734 E.00918
G1 X85.883 Y87.156 E.02057
G1 X85.674 Y87.311 E.00918
G1 X85.152 Y87.574 E.02057
G1 X84.903 Y87.65 E.00918
G1 X84.323 Y87.725 E.02057
G1 X84.062 Y87.714 E.00918
G1 X83.491 Y87.591 E.02057
G1 X83.249 Y87.493 E.00918
G1 X82.752 Y87.187 E.02057
G1 X82.556 Y87.015 E.00918
G1 X82.189 Y86.56 E.02057
G1 X82.062 Y86.332 E.00918
G1 X81.867 Y85.781 E.02057
G1 X81.823 Y85.524 E.00918
G1 X81.823 Y84.94 E.02057
G1 X81.867 Y84.683 E.00918
G1 X82.062 Y84.132 E.02056
G1 X82.189 Y83.904 E.00918
G1 X82.556 Y83.45 E.02057
G1 X82.752 Y83.278 E.00918
G1 X83.249 Y82.971 E.02056
G1 X83.491 Y82.874 E.00918
G1 X84.062 Y82.751 E.02057
G1 X84.113 Y82.75 E.00177
G1 E-.5
G1 Z.4 F21000
G1 X84.973 Y83.03 Z.4
G1 X85.305 Y83.237
G1 X85.607 Y83.463
G1 X85.881 Y83.716
G1 X86.126 Y83.997
G1 X86.344 Y84.308
G1 X86.445 Y84.673
G1 X86.485 Y85.046
G1 X86.57 Y87.004
G1 Z.2
G1 E.5 F1800
;WIDTH:0.367278
G1 F3000
G1 X86.161 Y87.422 E.01459
;WIDTH:0.372124
G1 X85.995 Y87.576 E.00573
G1 E-.5
G1 Z.4 F21000
G1 X83.833 Y87.393 Z.4
G1 X83.459 Y87.321
G1 X83.138 Y87.117
G1 X57.224 Y66.746
G1 X57.108 Y66.635
G1 X57.012 Y66.505
G1 X56.959 Y66.353
G1 X56.933 Y66.199
G1 X56.931 Y66.045
G1 X56.953 Y65.896
G1 X56.97 Y65.843
G1 X57.225 Y65.921
G1 Z.2
G1 E.5 F1800
;TYPE:Outer wall
;WIDTH:0.585841
G1 F3000
G1 X57.354 Y65.623 E.01358
G1 X57.398 Y65.568 E.00293
G1 X60.4 Y62.708 E.17333
G1 X60.679 Y62.567 E.01307
;WIDTH:0.635652
G1 X61.042 Y62.563 E.01659
;WIDTH:0.666046
G1 X61.158 Y62.615 E.0061
;WIDTH:0.696439
G1 X61.274 Y62.667 E.00639
G1 X64.308 Y65.526 E.20978
G1 X64.434 Y65.747 E.01282
;WIDTH:0.65522
G1 X64.436 Y65.945 E.00933
;WIDTH:0.620531
G1 X64.437 Y66.143 E.0088
;WIDTH:0.585841
G1 X64.282 Y66.433 E.01374
G1 X64.113 Y66.543 E.00843
G1 X63.899 Y66.615 E.00944
G1 X57.818 Y66.619 E.2542
G1 X57.493 Y66.523 E.01416
G1 X57.258 Y66.246 E.01522
G1 X57.229 Y65.961 E.01196
G1 E-.5
G1 Z.4 F21000
G1 X56.95 Y65.92 Z.4
G1 X56.931 Y66.045
G1 X56.933 Y66.199
G1 X56.959 Y66.353
G1 X57.012 Y66.505
G1 X57.108 Y66.635
G1 X57.224 Y66.746
G1 X57.357 Y66.837
G1 X57.504 Y66.903
G1 X57.659 Y66.944
G1 X57.791 Y66.955
G1 X71.289 Y66.955
G1 X71.42 Y66.944
G1 X71.576 Y66.903
G1 X71.723 Y66.836
G1 X71.857 Y66.745
G1 X71.973 Y66.633
G1 X72.069 Y66.503
G1 X72.141 Y66.359
G1 X72.187 Y66.204
G1 X72.207 Y66.044
G1 X72.199 Y65.883
G1 X72.191 Y65.844
G1 X71.854 Y65.919
G1 Z.2
G1 E.5 F1800
G1 F3000
G1 X71.813 Y66.263 E.0145
G1 X71.539 Y66.551 E.01659
G1 X71.261 Y66.619 E.01197
G1 X67.05 Y66.619 E.17601
G1 X66.653 Y66.547 E.01687
G1 X66.409 Y66.458 E.01086
M73 P1 R46
G1 X66 Y66.147 E.02148
G1 X65.36 Y65.544 E.03676
;WIDTH:0.626423
G1 X65.199 Y65.42 E.00914
;WIDTH:0.667004
G1 X65.038 Y65.295 E.00977
;WIDTH:0.707585
G1 X64.877 Y65.171 E.01041
G1 X64.756 Y65.05 E.00874
;WIDTH:0.696443
G1 X61.722 Y62.191 E.20979
