; generated by SuperSlicer 2.5.59 on 2023-01-09 at 00:12:58 UTC


;
;

;
;
; 

; external perimeters extrusion width = 0.40mm
; perimeters extrusion width = 0.46mm
; infill extrusion width = 0.64mm
; solid infill extrusion width = 0.56mm
; top infill extrusion width = 0.40mm
; first layer extrusion width = 0.50mm

; object:{"name":"SKR_PICO_HOLDER(1)","id":"SKR_PICO_HOLDER(1) id:0 copy 0","object_center":[60.000002,60.000000,0.000000],"boundingbox_center":[60.000002,60.000000,4.830000],"boundingbox_size":[63.987635,54.999657,9.660000]}
; plater:{"center":[60.000002,60.000000,0.000000],"boundingbox_center":[60.000002,60.000000,4.830000],"boundingbox_size":[63.987635,54.999657,9.660000]}

M73 P0 R18
;TYPE:Custom
; custom gcode: start_gcode
START_PRINT T_BED=110 T_EXTRUDER=240
; custom gcode end: start_gcode
M107
G21 ; set units to millimeters
G90 ; use absolute coordinates
M83 ; use relative distances for extrusion
; custom gcode: start_filament_gcode
; Filament gcode

    PRESSURE_ADVANCE_SELECT FILAMENT=ABS
; custom gcode end: start_filament_gcode
;_TOOLCHANGE 0
M104 S240 ; set temperature
M109 S240 ; set temperature and wait for it to be reached
M190 S110 ; set bed temperature and wait for it to be reached
;LAYER_CHANGE
;Z:0.2
;HEIGHT:0.2
G1 Z0.2 F12000
G92 E0
M73 P0 R18
G1 E-0.5 F3000
M204 S2000
G1 X26.65 Y30.837 F12000
G1 E0.5 F1800
;TYPE:Skirt
;WIDTH:0.52
G1 X25.886 Y31.705 E0.04587
G1 X25.174 Y32.928 E0.05614
G1 X24.75 Y34.278 E0.05614
G1 X24.634 Y35.753 E0.05869
M73 P0 R18
G1 X24.644 Y84.904 E1.94978
G1 X24.75 Y85.722 E0.03274
G1 X25.093 Y86.899 E0.04865
G1 X25.478 Y87.68 E0.03452
G1 X26.263 Y88.756 E0.05284
G1 X27.083 Y89.528 E0.04467
G1 X28.304 Y90.277 E0.05682
G1 X29.754 Y90.749 E0.06048
G1 X30.902 Y90.881 E0.04586
G1 X89.109 Y90.881 E2.30903
G1 X90.259 Y90.749 E0.0459
G1 X91.33 Y90.438 E0.04427
G1 X92.258 Y89.99 E0.04085
G1 X93.362 Y89.163 E0.05475
G1 X94.126 Y88.295 E0.04587
G1 X94.838 Y87.072 E0.05614
G1 X95.262 Y85.722 E0.05614
G1 X95.368 Y84.904 E0.03274
G1 X95.368 Y35.096 E1.97582
G1 X95.262 Y34.278 E0.03274
G1 X94.838 Y32.928 E0.05614
G1 X94.126 Y31.705 E0.05614
G1 X93.362 Y30.837 E0.04586
G1 X92.597 Y30.23 E0.03874
G1 X91.708 Y29.723 E0.0406
G1 X90.826 Y29.384 E0.03749
G1 X89.468 Y29.136 E0.05477
G1 X30.903 Y29.119 E2.32323
G1 X29.754 Y29.251 E0.0459
G1 X28.682 Y29.562 E0.04427
G1 X27.755 Y30.01 E0.04085
G1 X26.65 Y30.837 E0.05475
G1 X26.97 Y31.191 F12000
G1 F1800
G1 X26.256 Y32.007 E0.04301
G1 X25.601 Y33.141 E0.05194
G1 X25.214 Y34.391 E0.05194
G1 X25.111 Y35.753 E0.05417
G1 X25.121 Y84.895 E1.94945
G1 X25.214 Y85.609 E0.02853
G1 X25.531 Y86.709 E0.04543
G1 X25.9 Y87.457 E0.03308
G1 X26.632 Y88.454 E0.04909
G1 X27.365 Y89.142 E0.03986
G1 X28.492 Y89.838 E0.05254
M73 P1 R17
G1 X29.33 Y90.161 E0.03564
G1 X30.902 Y90.404 E0.06312
G1 X89.109 Y90.404 E2.30903
G1 X90.187 Y90.277 E0.04304
G1 X91.143 Y89.999 E0.0395
G1 X92.02 Y89.577 E0.03862
G1 X93.043 Y88.809 E0.05073
G1 X93.757 Y87.993 E0.04301
G1 X94.411 Y86.859 E0.05194
G1 X94.799 Y85.609 E0.05194
G1 X94.891 Y84.895 E0.02853
G1 X94.891 Y35.105 E1.97517
G1 X94.799 Y34.391 E0.02853
G1 X94.411 Y33.141 E0.05194
G1 X93.757 Y32.007 E0.05194
G1 X93.043 Y31.191 E0.04301
G1 X92.316 Y30.615 E0.03677
G1 X91.521 Y30.162 E0.03631
G1 X90.681 Y29.838 E0.03569
G1 X89.423 Y29.61 E0.05074
G1 X30.903 Y29.596 E2.32142
G1 X29.826 Y29.723 E0.04304
G1 X28.869 Y30.001 E0.0395
G1 X27.992 Y30.423 E0.03862
G1 X26.97 Y31.191 E0.05073
G1 E-0.5 F3000
; printing object SKR_PICO_HOLDER(1) id:0 copy 0
; acceleration to travel
M204 S4000
G1 X28.97 Y33.343 F12000
; decel to extrusion
M204 S2000
G1 X29.97 Y34.419
; end travel
G1 E0.5 F1800
;TYPE:Internal perimeter
;WIDTH:0.5
G1 X30.308 Y34.177 E0.0158
G1 X30.618 Y34.055 E0.01268
G1 X30.962 Y34.003 E0.01322
G1 X31.213 Y34.015 E0.00955
G1 X31.252 Y34.02 E0.00148
G1 X31.598 Y34.125 E0.01373
G1 X31.887 Y34.288 E0.01262
G1 X32.132 Y34.512 E0.01262
G1 X32.322 Y34.785 E0.01262
G1 X32.52 Y35.269 E0.01988
G1 X33.219 Y36.663 E0.05926
G1 X34.157 Y38.373 E0.07412
G1 X34.897 Y39.609 E0.05477
G1 X35.662 Y40.792 E0.05353
G1 X36.334 Y41.759 E0.04477
G1 X37.025 Y42.69 E0.04405
G1 X37.736 Y43.585 E0.04345
G1 X38.467 Y44.445 E0.04289
G1 X39.218 Y45.269 E0.04237
G1 X39.992 Y46.06 E0.04209
G1 X41.092 Y47.089 E0.05722
G1 X41.919 Y47.797 E0.04138
G1 X43.217 Y48.804 E0.06245
G1 X44.907 Y49.94 E0.07739
G1 X46.533 Y50.867 E0.07116
G1 X48.214 Y51.67 E0.0708
G1 X49.574 Y52.218 E0.05573
G1 X51.359 Y52.811 E0.07149
G1 X53.204 Y53.282 E0.07238
G1 X55.1 Y53.632 E0.07324
G1 X56.621 Y53.827 E0.0583
G1 X58.172 Y53.945 E0.05913
G1 X60.006 Y53.995 E0.06973
G1 X61.838 Y53.945 E0.06966
G1 X63.205 Y53.845 E0.05208
G1 X64.516 Y53.692 E0.05016
G1 X66.203 Y53.408 E0.06504
G1 X67.457 Y53.132 E0.04879
G1 X68.688 Y52.8 E0.04844
G1 X70.267 Y52.28 E0.06318
G1 X71.438 Y51.824 E0.04774
G1 X72.584 Y51.313 E0.04769
G1 X74.047 Y50.559 E0.06259
G1 X75.015 Y49.995 E0.04258
G1 X75.957 Y49.391 E0.0425
G1 X76.876 Y48.746 E0.04269
G1 X77.773 Y48.059 E0.04295
G1 X78.648 Y47.33 E0.04327
G1 X79.501 Y46.561 E0.04365
G1 X80.331 Y45.75 E0.04409
G1 X81.138 Y44.899 E0.04458
G1 X81.923 Y44.008 E0.04514
G1 X82.687 Y43.074 E0.04586
G1 X83.69 Y41.743 E0.06332
G1 X84.402 Y40.715 E0.04754
G1 X85.09 Y39.651 E0.04815
G1 X85.755 Y38.547 E0.04897
G1 X86.402 Y37.399 E0.0501
G1 X87.491 Y35.274 E0.09075
G1 X87.69 Y34.785 E0.02008
G1 X87.88 Y34.512 E0.01262
G1 X88.126 Y34.288 E0.01262
G1 X88.414 Y34.125 E0.01262
G1 X88.728 Y34.03 E0.01246
G1 X89.096 Y34.007 E0.014
G1 X89.394 Y34.054 E0.01148
G1 X89.714 Y34.18 E0.01306
G1 X90.051 Y34.43 E0.01594
G1 X90.264 Y34.691 E0.01282
G1 X90.412 Y34.988 E0.01261
G1 X90.491 Y35.31 E0.01261
G1 X90.497 Y35.642 E0.01262
G1 X90.429 Y35.967 E0.01262
G1 X90.291 Y36.27 E0.01262
G1 X90.037 Y36.604 E0.01598
G1 X88.604 Y38.191 E0.08126
G1 X86.762 Y40.304 E0.10654
G1 X84.949 Y42.484 E0.10777
G1 X83.198 Y44.713 E0.10772
G1 X81.64 Y46.84 E0.1002
G1 X80.927 Y47.875 E0.04777
G1 X80.264 Y48.882 E0.04581
G1 X79.648 Y49.865 E0.04409
G1 X79.083 Y50.82 E0.04219
G1 X78.564 Y51.753 E0.04057
G1 X78.091 Y52.664 E0.039
G1 X77.666 Y53.553 E0.03744
G1 X77.332 Y54.316 E0.03166
G1 X77.035 Y55.063 E0.03055
G1 X76.774 Y55.795 E0.02954
G1 X76.551 Y56.513 E0.02859
G1 X76.365 Y57.217 E0.02769
G1 X76.217 Y57.909 E0.02687
G1 X76.108 Y58.588 E0.02613
G1 X76.039 Y59.257 E0.02557
G1 X76.011 Y60.006 E0.02847
G1 X76.054 Y60.934 E0.03533
G1 X76.181 Y61.895 E0.03684
G1 X76.388 Y62.882 E0.03832
G1 X76.673 Y63.895 E0.04001
G1 X77.035 Y64.937 E0.0419
G1 X77.471 Y66.009 E0.04397
G1 X77.98 Y67.111 E0.04618
M73 P2 R17
G1 X78.562 Y68.245 E0.04844
G1 X79.083 Y69.18 E0.04067
G1 X79.648 Y70.135 E0.04219
G1 X80.261 Y71.113 E0.04384
G1 X80.921 Y72.116 E0.04566
G1 X81.995 Y73.659 E0.07143
G1 X83.176 Y75.257 E0.07553
G1 X84.462 Y76.91 E0.07959
G1 X85.852 Y78.616 E0.08362
G1 X86.716 Y79.642 E0.05099
G1 X88.541 Y81.738 E0.10563
G1 X90.037 Y83.396 E0.08486
G1 X90.291 Y83.73 E0.01598
G1 X90.435 Y84.046 E0.01319
G1 X90.446 Y84.09 E0.00172
G1 X90.497 Y84.351 E0.0101
G1 X90.491 Y84.69 E0.01288
G1 X90.412 Y85.012 E0.01261
G1 X90.264 Y85.309 E0.01261
G1 X90.042 Y85.581 E0.01333
G1 X89.704 Y85.823 E0.0158
G1 X89.394 Y85.945 E0.01268
G1 X89.059 Y85.996 E0.01289
G1 X88.739 Y85.974 E0.01217
G1 X88.414 Y85.875 E0.01289
G1 X88.126 Y85.712 E0.01262
G1 X87.88 Y85.488 E0.01262
G1 X87.69 Y85.215 E0.01262
G1 X87.493 Y84.731 E0.01988
G1 X86.793 Y83.337 E0.05926
G1 X85.856 Y81.627 E0.07412
G1 X85.116 Y80.391 E0.05476
G1 X84.351 Y79.208 E0.05353
G1 X83.678 Y78.241 E0.04477
G1 X82.987 Y77.31 E0.04405
G1 X82.277 Y76.415 E0.04345
G1 X81.546 Y75.555 E0.04289
G1 X80.794 Y74.731 E0.04237
G1 X80.02 Y73.94 E0.04209
G1 X78.921 Y72.911 E0.05722
G1 X78.094 Y72.203 E0.04138
G1 X76.796 Y71.196 E0.06245
G1 X75.106 Y70.06 E0.07739
G1 X73.479 Y69.133 E0.07116
G1 X71.798 Y68.33 E0.0708
G1 X70.448 Y67.785 E0.05534
G1 X70.036 Y67.639 E0.01662
G1 X68.656 Y67.191 E0.05512
G1 X68.231 Y67.075 E0.01677
G1 X66.81 Y66.718 E0.05567
G1 X65.75 Y66.513 E0.04104
G1 X64.91 Y66.367 E0.03241
G1 X63.833 Y66.225 E0.04127
G1 X63.387 Y66.173 E0.01707
G1 X61.84 Y66.055 E0.05896
G1 X60.011 Y66.005 E0.06956
G1 X58.607 Y66.034 E0.05336
G1 X56.811 Y66.155 E0.06841
G1 X55.501 Y66.307 E0.05012
G1 X54.216 Y66.514 E0.04948
G1 X52.56 Y66.867 E0.06437
G1 X51.329 Y67.199 E0.04842
G1 X50.125 Y67.585 E0.04806
G1 X48.579 Y68.174 E0.06289
G1 X47.433 Y68.685 E0.04767
G1 X46.317 Y69.249 E0.04755
G1 X45.001 Y70.003 E0.05764
G1 X44.056 Y70.609 E0.04268
G1 X43.136 Y71.254 E0.0427
G1 X42.239 Y71.941 E0.04295
G1 X41.364 Y72.67 E0.04327
G1 X40.512 Y73.439 E0.04365
G1 X39.682 Y74.25 E0.04409
G1 X38.872 Y75.104 E0.04474
G1 X37.809 Y76.327 E0.06158
G1 X37.052 Y77.275 E0.04611
G1 X36.32 Y78.26 E0.04664
G1 X35.61 Y79.285 E0.04738
G1 X34.923 Y80.349 E0.04815
G1 X34.257 Y81.453 E0.04898
G1 X33.611 Y82.601 E0.0501
G1 X32.522 Y84.726 E0.09075
G1 X32.322 Y85.215 E0.02008
G1 X32.131 Y85.49 E0.01273
G1 X31.888 Y85.711 E0.01246
G1 X31.598 Y85.875 E0.01269
G1 X31.28 Y85.972 E0.01262
G1 X30.949 Y85.995 E0.01261
G1 X30.618 Y85.945 E0.01271
G1 X30.295 Y85.818 E0.01322
G1 X29.961 Y85.57 E0.01577
G1 X29.738 Y85.297 E0.0134
G1 X29.623 Y85.078 E0.0094
G1 X29.608 Y85.044 E0.00141
G1 X29.521 Y84.69 E0.01388
G1 X29.515 Y84.351 E0.01288
G1 X29.567 Y84.09 E0.0101
G1 X29.577 Y84.046 E0.00172
G1 X29.721 Y83.73 E0.01319
G1 X29.976 Y83.396 E0.01598
G1 X31.409 Y81.809 E0.08126
G1 X33.25 Y79.696 E0.10654
G1 X35.06 Y77.52 E0.10758
G1 X35.965 Y76.385 E0.05514
G1 X37.616 Y74.212 E0.10375
G1 X39.084 Y72.127 E0.0969
G1 X39.748 Y71.118 E0.04589
G1 X40.364 Y70.135 E0.04409
G1 X40.93 Y69.18 E0.04219
G1 X41.449 Y68.247 E0.04057
G1 X41.921 Y67.336 E0.03901
G1 X42.346 Y66.447 E0.03744
G1 X42.68 Y65.684 E0.03166
G1 X42.977 Y64.937 E0.03055
G1 X43.238 Y64.205 E0.02954
G1 X43.462 Y63.487 E0.02859
G1 X43.648 Y62.783 E0.02769
G1 X43.796 Y62.091 E0.02687
G1 X43.905 Y61.412 E0.02613
G1 X43.974 Y60.743 E0.02557
G1 X44.001 Y59.994 E0.02847
G1 X43.959 Y59.066 E0.03533
G1 X43.832 Y58.105 E0.03684
G1 X43.624 Y57.118 E0.03832
G1 X43.339 Y56.105 E0.04001
G1 X42.978 Y55.063 E0.0419
G1 X42.542 Y53.991 E0.04397
G1 X42.032 Y52.888 E0.04618
G1 X41.45 Y51.755 E0.04844
G1 X40.93 Y50.82 E0.04067
G1 X40.364 Y49.865 E0.04219
G1 X39.752 Y48.887 E0.04385
G1 X39.091 Y47.884 E0.04566
G1 X38.017 Y46.341 E0.07143
G1 X36.836 Y44.743 E0.07554
G1 X35.55 Y43.09 E0.07959
G1 X34.161 Y41.384 E0.08362
G1 X33.296 Y40.358 E0.05099
G1 X31.471 Y38.262 E0.10564
G1 X29.976 Y36.604 E0.08486
G1 X29.721 Y36.27 E0.01598
G1 X29.582 Y35.964 E0.01276
G1 X29.515 Y35.645 E0.0124
G1 X29.521 Y35.31 E0.01271
G1 X29.6 Y34.988 E0.01262
G1 X29.748 Y34.691 E0.01261
G1 X29.97 Y34.419 E0.01333
G1 X29.654 Y34.083 F12000
G1 F1800
G1 X29.716 Y34.027 E0.00316
G1 X30.088 Y33.773 E0.01713
G1 X30.499 Y33.611 E0.01678
G1 X30.939 Y33.544 E0.01693
G1 X31.252 Y33.56 E0.01189
G1 X31.346 Y33.571 E0.0036
G1 X31.779 Y33.702 E0.01721
G1 X32.157 Y33.916 E0.0165
G1 X32.478 Y34.209 E0.0165
G1 X32.726 Y34.565 E0.01651
G1 X32.936 Y35.08 E0.02114
G1 X33.624 Y36.45 E0.05826
G1 X34.553 Y38.145 E0.07348
G1 X35.285 Y39.368 E0.05413
G1 X36.041 Y40.537 E0.05294
G1 X36.705 Y41.492 E0.04421
G1 X37.387 Y42.411 E0.0435
G1 X38.089 Y43.295 E0.04288
G1 X38.81 Y44.143 E0.0423
G1 X39.55 Y44.955 E0.04177
G1 X40.312 Y45.733 E0.0414
G1 X41.397 Y46.748 E0.05646
G1 X42.208 Y47.443 E0.04057
G1 X43.485 Y48.434 E0.06144
G1 X45.148 Y49.551 E0.07615
G1 X46.745 Y50.462 E0.06989
G1 X48.398 Y51.252 E0.06963
G1 X49.732 Y51.789 E0.05464
G1 X51.488 Y52.372 E0.07034
G1 X53.303 Y52.836 E0.07118
G1 X55.17 Y53.181 E0.07217
G1 X56.667 Y53.372 E0.05737
G1 X58.196 Y53.488 E0.05826
G1 X60.006 Y53.537 E0.06883
G1 X61.816 Y53.488 E0.06879
G1 X63.162 Y53.39 E0.05131
G1 X64.451 Y53.24 E0.04934
G1 X66.116 Y52.959 E0.06416
G1 X67.348 Y52.687 E0.04795
G1 X68.557 Y52.362 E0.04756
G1 X70.112 Y51.85 E0.06225
G1 X71.261 Y51.403 E0.04686
G1 X72.386 Y50.901 E0.04678
G1 X73.827 Y50.158 E0.06165
G1 X74.777 Y49.604 E0.04177
G1 X75.702 Y49.011 E0.04177
G1 X76.606 Y48.377 E0.04197
G1 X77.488 Y47.701 E0.04224
G1 X78.349 Y46.985 E0.04257
G1 X79.188 Y46.227 E0.04296
G1 X80.005 Y45.429 E0.04341
G1 X80.8 Y44.591 E0.04393
G1 X81.574 Y43.712 E0.0445
G1 X82.327 Y42.791 E0.0452
G1 X83.319 Y41.476 E0.06263
G1 X84.022 Y40.461 E0.04691
G1 X84.702 Y39.409 E0.0476
G1 X85.36 Y38.317 E0.04845
G1 X85.999 Y37.182 E0.0495
G1 X87.075 Y35.083 E0.08966
G1 X87.286 Y34.565 E0.02127
G1 X87.535 Y34.209 E0.01651
G1 X87.856 Y33.916 E0.0165
G1 X88.233 Y33.702 E0.0165
G1 X88.647 Y33.577 E0.01642
G1 X89.118 Y33.547 E0.01794
G1 X89.516 Y33.61 E0.01531
G1 X89.938 Y33.777 E0.01724
G1 X90.014 Y33.821 E0.00337
G1 X90.369 Y34.096 E0.01705
G1 X90.651 Y34.441 E0.01693
G1 X90.844 Y34.83 E0.01649
G1 X90.947 Y35.251 E0.0165
G1 X90.955 Y35.685 E0.0165
G1 X90.866 Y36.111 E0.0165
G1 X90.686 Y36.506 E0.01651
G1 X90.389 Y36.896 E0.01865
G1 X88.946 Y38.494 E0.08184
G1 X87.11 Y40.6 E0.10618
G1 X85.304 Y42.772 E0.10732
G1 X83.563 Y44.99 E0.10718
G1 X82.013 Y47.105 E0.09966
G1 X81.306 Y48.131 E0.04734
G1 X80.649 Y49.129 E0.04542
G1 X80.039 Y50.103 E0.04368
G1 X79.479 Y51.047 E0.04174
G1 X78.966 Y51.969 E0.04008
G1 X78.5 Y52.868 E0.03847
G1 X78.082 Y53.743 E0.03687
G1 X77.754 Y54.492 E0.03108
G1 X77.463 Y55.224 E0.02994
G1 X77.208 Y55.94 E0.02887
G1 X76.99 Y56.639 E0.02786
G1 X76.809 Y57.324 E0.0269
G1 X76.666 Y57.993 E0.02601
G1 X76.561 Y58.647 E0.02519
G1 X76.495 Y59.289 E0.02452
G1 X76.468 Y60.004 E0.02718
G1 X76.51 Y60.894 E0.03386
G1 X76.632 Y61.818 E0.03544
G1 X76.832 Y62.773 E0.03708
G1 X77.11 Y63.758 E0.03891
G1 X77.463 Y64.776 E0.04093
G1 X77.89 Y65.826 E0.04311
G1 X78.391 Y66.911 E0.04541
G1 X78.965 Y68.03 E0.04779
G1 X79.479 Y68.953 E0.04014
G1 X80.039 Y69.897 E0.04174
G1 X80.645 Y70.866 E0.04343
G1 X81.3 Y71.86 E0.04524
G1 X82.367 Y73.392 E0.07096
G1 X83.54 Y74.981 E0.07507
G1 X84.82 Y76.625 E0.07918
G1 X86.204 Y78.324 E0.08328
G1 X87.063 Y79.345 E0.05071
G1 X88.883 Y81.435 E0.10533
G1 X90.389 Y83.104 E0.08543
G1 X90.686 Y83.494 E0.01865
G1 X90.87 Y83.898 E0.01687
G1 X90.893 Y83.994 E0.00376
G1 X90.955 Y84.31 E0.01224
G1 X90.947 Y84.749 E0.01667
G1 X90.844 Y85.17 E0.0165
G1 X90.651 Y85.559 E0.01649
G1 X90.358 Y85.917 E0.01759
G1 X90.296 Y85.973 E0.00316
G1 X89.924 Y86.227 E0.01713
G1 X89.514 Y86.389 E0.01678
G1 X89.078 Y86.455 E0.01676
G1 X88.656 Y86.426 E0.01606
G1 X88.233 Y86.298 E0.01679
G1 X87.856 Y86.084 E0.0165
G1 X87.535 Y85.791 E0.01651
G1 X87.286 Y85.435 E0.01651
G1 X87.076 Y84.92 E0.02114
G1 X86.388 Y83.55 E0.05827
G1 X85.459 Y81.855 E0.07348
G1 X84.728 Y80.632 E0.05413
M73 P3 R17
G1 X83.971 Y79.463 E0.05294
G1 X83.307 Y78.508 E0.04421
G1 X82.625 Y77.589 E0.0435
G1 X81.923 Y76.705 E0.04288
G1 X81.202 Y75.857 E0.0423
G1 X80.462 Y75.045 E0.04177
G1 X79.7 Y74.267 E0.0414
G1 X78.616 Y73.252 E0.05646
G1 X77.805 Y72.557 E0.04058
G1 X76.528 Y71.566 E0.06144
G1 X74.865 Y70.449 E0.07615
G1 X73.267 Y69.538 E0.06989
G1 X71.614 Y68.748 E0.06963
G1 X70.285 Y68.213 E0.05444
G1 X69.888 Y68.071 E0.01602
G1 X68.526 Y67.629 E0.05445
G1 X68.115 Y67.518 E0.01618
G1 X66.711 Y67.165 E0.05503
G1 X65.667 Y66.962 E0.04039
G1 X64.841 Y66.819 E0.03189
G1 X63.776 Y66.679 E0.0408
G1 X63.343 Y66.628 E0.01659
G1 X61.817 Y66.512 E0.05817
G1 X60.009 Y66.463 E0.06873
G1 X58.627 Y66.491 E0.05254
G1 X56.853 Y66.61 E0.06758
G1 X55.564 Y66.76 E0.04932
G1 X54.3 Y66.964 E0.04866
G1 X52.667 Y67.312 E0.06347
G1 X51.459 Y67.637 E0.04755
G1 X50.277 Y68.016 E0.04718
G1 X48.754 Y68.596 E0.06194
G1 X47.63 Y69.097 E0.04676
G1 X46.534 Y69.652 E0.04667
G1 X45.238 Y70.394 E0.05676
G1 X44.31 Y70.989 E0.04188
G1 X43.407 Y71.623 E0.04197
G1 X42.524 Y72.299 E0.04223
G1 X41.664 Y73.015 E0.04257
G1 X40.825 Y73.773 E0.04296
G1 X40.007 Y74.571 E0.04342
G1 X39.21 Y75.411 E0.04403
G1 X38.16 Y76.62 E0.06084
G1 X37.414 Y77.554 E0.04545
G1 X36.691 Y78.527 E0.04605
G1 X35.99 Y79.539 E0.0468
G1 X35.311 Y80.591 E0.0476
G1 X34.652 Y81.683 E0.04845
G1 X34.014 Y82.818 E0.0495
G1 X32.937 Y84.917 E0.08966
G1 X32.726 Y85.435 E0.02127
G1 X32.476 Y85.794 E0.01662
G1 X32.158 Y86.083 E0.01634
G1 X31.779 Y86.298 E0.01656
G1 X31.364 Y86.424 E0.0165
G1 X30.931 Y86.455 E0.0165
