; HEADER_BLOCK_START
; generated by OrcaSlicer 1.7.0-beta on 2023-09-16 at 19:25:37
; total layer number: 266
; HEADER_BLOCK_END

; THUMBNAIL_BLOCK_START
; THUMBNAIL_BLOCK_END

; external perimeters extrusion width = 0.40mm
; perimeters extrusion width = 0.46mm
; infill extrusion width = 0.64mm
; solid infill extrusion width = 0.56mm
; top infill extrusion width = 0.40mm
; support material extrusion width = 0.46mm
; first layer extrusion width = 0.50mm

; EXECUTABLE_BLOCK_START
EXCLUDE_OBJECT_DEFINE NAME=SliderSupport.stl_id_0_copy_0 CENTER=60,60 POLYGON=[[32.5,42.5],[41.5,42.5],[87.5,58.5],[87.5,77.5],[32.5,77.5],[32.5,42.5]]
M73 P0 R35
;TYPE:Custom
START_PRINT T_BED=110 T_EXTRUDER=260
G90
G21
M83 ; use relative distances for extrusion
; Filament gcode

    PRESSURE_ADVANCE_SELECT FILAMENT=ABS
M106 S0
;LAYER_CHANGE
;Z:0.1
;HEIGHT:0.1
;BEFORE_LAYER_CHANGE
;0.1
G92 E0

;AFTER_LAYER_CHANGE
;0.1
;_SET_FAN_SPEED_CHANGING_LAYER
SET_VELOCITY_LIMIT ACCEL=500 ACCEL_TO_DECEL=250
G1 E-.5 F3000
G1 Z.2 F21000
G1 X28.017 Y79.551
G1 Z.2
G1 Z.1
G1 E.5 F1800
;TYPE:Skirt
;WIDTH:0.5
G1 F3000
G1 X26.661 Y78.854 E.0281
G1 X25.832 Y77.574 E.0281
G1 X25.688 Y76.662 E.01701
G1 X25.688 Y43.338 E.61393
G1 X26.082 Y41.865 E.0281
G1 X27.157 Y40.783 E.0281
G1 X28.017 Y40.449 E.01701
G1 X31.872 Y39.61 E.07267
G1 X32.5 Y39.543 E.01164
G1 X41.5 Y39.543 E.16581
G1 X42.337 Y39.664 E.01559
G1 X45.318 Y40.548 E.05728
G1 X88.48 Y55.71 E.84281
G1 X89.74 Y56.569 E.0281
G1 X90.457 Y58.5 E.03794
G1 X90.457 Y77.5 E.35004
G1 X90.064 Y78.973 E.0281
G1 X88.989 Y80.055 E.0281
G1 X87.5 Y80.457 E.02841
G1 X32.5 Y80.457 E1.01327
G1 X31.872 Y80.39 E.01164
G1 X28.056 Y79.56 E.07194
G1 X28.152 Y79.091 F21000
G1 F3000
G1 X28.119 Y79.084 E.00063
G1 X26.895 Y78.417 E.02568
G1 X26.167 Y76.662 E.035
G1 X26.167 Y43.338 E.61393
G1 X26.559 Y42.001 E.02568
G1 X28.119 Y40.916 E.035
G1 X31.973 Y40.078 E.07267
G1 X32.5 Y40.021 E.00976
G1 X41.5 Y40.022 E.16581
G1 X42.202 Y40.123 E.01307
G1 X45.159 Y41 E.05683
G1 X88.321 Y56.162 E.84281
G1 X89.454 Y56.975 E.02568
G1 X89.979 Y58.5 E.02972
G1 X89.979 Y77.5 E.35004
G1 X89.587 Y78.838 E.02568
G1 X88.535 Y79.752 E.02568
G1 X87.5 Y79.979 E.01951
G1 X32.5 Y79.979 E1.01327
G1 X28.191 Y79.099 E.08102
; printing object SliderSupport.stl id:0 copy 0
G1 E-.5
EXCLUDE_OBJECT_START NAME=SliderSupport.stl_id_0_copy_0
G1 Z.3 F21000
G1 X31.9 Y76.662 Z.3
G1 Z.1
G1 E.5 F1800
;TYPE:Support
G1 F3000
G1 X28.645 Y76.662 E.05996
G1 X28.645 Y69.785 E.12669
G1 X31.9 Y69.785 E.05996
G1 X31.9 Y76.59 E.12537
G1 X31.469 Y70.216 F21000
G1 F3000
G1 X31.469 Y76.231 E.11082
G1 X29.076 Y76.231 E.04409
G1 X29.076 Y70.216 E.11082
G1 X31.469 Y70.216 E.04409
G1 X30.938 Y70.747 F21000
G1 F3000
G1 X30.938 Y75.699 E.09123
G1 X29.608 Y75.699 E.0245
G1 X29.608 Y70.747 E.09123
G1 X30.938 Y70.747 E.0245
G1 E-.5
G1 Z.3 F21000
G1 X31.9 Y50.215 Z.3
G1 Z.1
G1 E.5 F1800
G1 F3000
G1 X28.645 Y50.215 E.05996
G1 X28.645 Y43.338 E.12669
G1 X31.9 Y43.338 E.05996
G1 X31.9 Y50.143 E.12537
G1 X31.469 Y49.784 F21000
G1 F3000
G1 X29.076 Y49.784 E.04409
G1 X29.076 Y43.769 E.11082
G1 X31.469 Y43.769 E.04409
G1 X31.469 Y49.784 E.11082
G1 X30.938 Y49.253 F21000
G1 F3000
G1 X29.608 Y49.253 E.0245
G1 X29.608 Y44.301 E.09123
G1 X30.938 Y44.301 E.0245
G1 X30.938 Y49.253 E.09123
G1 E-.5
G1 Z.3 F21000
G1 X33.1 Y48.899 Z.3
G1 X42.076 Y47.431
G1 X44.338 Y47.061
G1 Z.1
G1 E.5 F1800
G1 F3000
G1 X43.253 Y47.19 E.02014
G1 X42.32 Y43.338 E.07302
G1 X44.338 Y43.338 E.03717
G1 X44.338 Y46.989 E.06726
G1 X43.907 Y46.679 F21000
G1 F3000
G1 X43.581 Y46.718 E.00605
G1 X42.868 Y43.769 E.05589
G1 X43.907 Y43.769 E.01915
G1 X43.907 Y46.679 E.05361
G1 E-.5
G1 Z.3 F21000
G1 X44.285 Y55.069 Z.3
G1 Z.1
G1 E.5 F1800
;TYPE:Outer wall
G1 F3000
G1 X44.286 Y55.072 E.00006
G1 X52.446 Y58.75 E.16491
G1 X87.25 Y58.75 E.64119
G1 X87.25 Y77.25 E.34083
G1 X32.75 Y77.25 E1.00406
G1 X32.75 Y42.75 E.6356
G1 X41.303 Y42.75 E.15758
G1 X44.276 Y55.03 E.23276
G1 X43.955 Y55.448 F21000
;TYPE:Inner wall
G1 F3000
G1 X52.343 Y59.229 E.16952
G1 X86.771 Y59.229 E.63427
G1 X86.771 Y76.771 E.3232
G1 X33.229 Y76.771 E.98643
G1 X33.229 Y43.229 E.61797
M73 P1 R35
G1 X40.927 Y43.229 E.14183
G1 X43.876 Y55.412 E.23094
G1 X43.918 Y55.431 E.00086
G1 X43.625 Y55.824 F21000
G1 F3000
G1 X52.241 Y59.707 E.17409
G1 X86.293 Y59.707 E.62735
G1 X86.293 Y76.293 E.30556
G1 X33.707 Y76.293 E.9688
G1 X33.707 Y43.707 E.60033
G1 X40.55 Y43.707 E.12607
G1 X43.466 Y55.752 E.22831
G1 X43.589 Y55.808 E.00249
G1 E-.5
G1 Z.3 F21000
G1 X73.379 Y74.448 Z.3
G1 X73.829 Y74.686
G1 X74.319 Y74.823
G1 X74.827 Y74.85
G1 X75.33 Y74.768
G1 X75.691 Y74.624
G1 X75.561 Y74.299
G1 Z.1
G1 E.5 F1800
;TYPE:Outer wall
G1 F3000
G1 X75.235 Y74.428 E.00646
G3 X74.376 Y70.525 I-.535 J-1.929 E.11983
G1 X74.808 Y70.501 E.00797
G3 X75.637 Y74.268 I-.108 J1.999 E.09587
G1 X75.598 Y74.284 E.00078
G1 X75.827 Y74.708 F21000
;TYPE:Inner wall
G1 F3000
G1 X75.364 Y74.892 E.00917
G1 X74.834 Y74.979 E.00989
G1 X74.298 Y74.95 E.00989
G1 X73.781 Y74.806 E.00989
G1 X73.307 Y74.555 E.00989
G1 X72.897 Y74.207 E.00989
G1 X72.573 Y73.78 E.00989
G1 X72.347 Y73.293 E.00989
G1 X72.232 Y72.768 E.00989
G1 X72.232 Y72.231 E.00989
G1 X72.347 Y71.707 E.00989
G1 X72.573 Y71.22 E.00989
G1 X72.898 Y70.792 E.00989
G1 X73.307 Y70.445 E.00989
G1 X73.781 Y70.193 E.00989
G1 X74.298 Y70.05 E.00989
G1 X74.835 Y70.021 E.00989
G1 X75.364 Y70.108 E.00989
G1 X75.863 Y70.306 E.00989
G1 X76.307 Y70.608 E.00989
G1 X76.677 Y70.998 E.00989
G1 X76.953 Y71.458 E.00989
G1 X77.125 Y71.966 E.00989
G1 X77.183 Y72.5 E.00989
G1 X77.125 Y73.034 E.00989
G1 X76.953 Y73.543 E.00989
G1 X76.676 Y74.003 E.00989
G1 X76.307 Y74.392 E.00989
G1 X75.864 Y74.693 E.00987
G1 X76.011 Y75.15 F21000
G1 F3000
G1 X75.493 Y75.356 E.01028
G1 X74.86 Y75.46 E.01181
G1 X74.22 Y75.425 E.01181
G1 X73.603 Y75.254 E.01181
G1 X73.036 Y74.953 E.01181
G1 X72.548 Y74.538 E.01181
G1 X72.16 Y74.028 E.01181
G1 X71.891 Y73.446 E.01181
G1 X71.753 Y72.82 E.01181
G1 X71.753 Y72.179 E.01181
G1 X71.891 Y71.553 E.01181
G1 X72.16 Y70.972 E.01181
G1 X72.548 Y70.461 E.01181
G1 X73.037 Y70.047 E.01181
G1 X73.603 Y69.746 E.01181
G1 X74.221 Y69.575 E.01181
G1 X74.861 Y69.54 E.01181
G1 X75.493 Y69.644 E.01181
G1 X76.089 Y69.881 E.01181
G1 X76.619 Y70.241 E.01181
G1 X77.06 Y70.706 E.01181
G1 X77.39 Y71.255 E.01181
G1 X77.595 Y71.863 E.01181
G1 X77.664 Y72.5 E.01181
G1 X77.595 Y73.137 E.01181
G1 X77.39 Y73.745 E.01181
G1 X77.06 Y74.294 E.01181
G1 X76.619 Y74.759 E.01181
G1 X76.088 Y75.119 E.01181
G1 X76.048 Y75.135 E.00079
G1 E-.5
G1 Z.3 F21000
G1 X49.466 Y70.52 Z.3
G1 Z.1
G1 E.5 F1800
;TYPE:Outer wall
G1 F3000
G1 X49.808 Y70.501 E.00631
G3 X49.376 Y70.525 I-.108 J1.999 E.22369
G1 X49.426 Y70.522 E.00092
G1 X49.982 Y70.045 F21000
;TYPE:Inner wall
G1 F3000
G1 X50.364 Y70.108 E.00715
G1 X50.863 Y70.306 E.00989
G1 X51.307 Y70.608 E.00989
G1 X51.677 Y70.998 E.00989
G1 X51.953 Y71.458 E.00989
G1 X52.125 Y71.966 E.00989
G1 X52.183 Y72.5 E.00989
G1 X52.125 Y73.034 E.00989
G1 X51.953 Y73.543 E.00989
G1 X51.676 Y74.003 E.00989
G1 X51.307 Y74.392 E.00989
G1 X50.863 Y74.694 E.00989
G1 X50.364 Y74.892 E.00989
G1 X49.834 Y74.979 E.00989
G1 X49.298 Y74.95 E.00989
G1 X48.781 Y74.806 E.00989
G1 X48.307 Y74.555 E.00989
G1 X47.897 Y74.207 E.00989
G1 X47.573 Y73.78 E.00989
G1 X47.347 Y73.293 E.00989
G1 X47.232 Y72.768 E.00989
G1 X47.232 Y72.231 E.00989
G1 X47.347 Y71.707 E.00989
G1 X47.573 Y71.22 E.00989
G1 X47.898 Y70.792 E.00989
G1 X48.307 Y70.445 E.00989
G1 X48.781 Y70.193 E.00989
G1 X49.298 Y70.05 E.00989
G1 X49.835 Y70.021 E.00989
G1 X49.942 Y70.038 E.00201
G1 X50.364 Y69.623 F21000
G1 F3000
G1 X50.493 Y69.644 E.00241
G1 X51.089 Y69.881 E.01181
G1 X51.619 Y70.241 E.01181
G1 X52.06 Y70.706 E.01181
G1 X52.39 Y71.255 E.01181
G1 X52.595 Y71.863 E.01181
G1 X52.664 Y72.5 E.01181
G1 X52.595 Y73.137 E.01181
G1 X52.39 Y73.745 E.01181
G1 X52.06 Y74.294 E.01181
G1 X51.619 Y74.759 E.01181
G1 X51.088 Y75.119 E.01181
G1 X50.493 Y75.356 E.01181
G1 X49.86 Y75.46 E.01181
G1 X49.22 Y75.425 E.01181
G1 X48.603 Y75.254 E.01181
G1 X48.036 Y74.953 E.01181
G1 X47.548 Y74.538 E.01181
G1 X47.16 Y74.028 E.01181
G1 X46.891 Y73.446 E.01181
G1 X46.753 Y72.82 E.01181
G1 X46.753 Y72.179 E.01181
G1 X46.891 Y71.553 E.01181
G1 X47.16 Y70.972 E.01181
G1 X47.548 Y70.461 E.01181
G1 X48.037 Y70.047 E.01181
G1 X48.603 Y69.746 E.01181
G1 X49.221 Y69.575 E.01181
G1 X49.861 Y69.54 E.01181
G1 X50.324 Y69.616 E.00866
G1 E-.5
G1 Z.3 F21000
G1 X51.574 Y71.076 Z.3
G1 X51.836 Y71.512
G1 X51.999 Y71.994
G1 X52.054 Y72.5
G1 X51.999 Y73.006
G1 X51.836 Y73.488
G1 X51.005 Y75.744
G1 Z.1
G1 E.5 F1800
;TYPE:Gap infill
;WIDTH:0.5428
G1 F3000
G1 X50.647 Y75.812 E.00732
;WIDTH:0.504176
G1 X50.595 Y75.819 E.00096
;WIDTH:0.490124
G1 X50.364 Y75.838 E.00418
;WIDTH:0.45251
G1 X50.133 Y75.857 E.00385
;WIDTH:0.386017
G3 X49.864 Y75.877 I-.318 J-2.477 E.00379
G3 X49.128 Y75.855 I-.163 J-6.767 E.01034
;WIDTH:0.419754
G1 X48.897 Y75.823 E.00358
;WIDTH:0.459399
G1 X48.665 Y75.791 E.00394
;WIDTH:0.499044
G1 X48.434 Y75.76 E.00429
G1 E-.5
G1 Z.3 F21000
G1 X73.434 Y75.76 Z.3
G1 Z.1
G1 E.5 F1800
G1 F3000
G1 X73.665 Y75.791 E.00429
;WIDTH:0.459399
G1 X73.897 Y75.823 E.00394
;WIDTH:0.419754
G1 X74.128 Y75.855 E.00358
;WIDTH:0.386017
G2 X74.864 Y75.877 I.572 J-6.744 E.01034
G2 X75.133 Y75.857 I-.049 J-2.497 E.00379
;WIDTH:0.452509
G1 X75.364 Y75.838 E.00385
;WIDTH:0.490122
G1 X75.595 Y75.819 E.00418
;WIDTH:0.504174
G1 X75.647 Y75.812 E.00096
;WIDTH:0.542802
G1 X76.005 Y75.744 E.00732
G1 E-.5
G1 Z.3 F21000
G1 X85.177 Y59.851 Z.3
G1 Z.1
G1 E.5 F1800
;TYPE:Bottom surface
;WIDTH:0.502385
G1 F6300
G1 X85.934 Y60.608 E.01982
G1 X85.934 Y61.288 E.01259
G1 X84.712 Y60.066 E.03199
G1 X84.032 Y60.066 E.01259
G1 X85.934 Y61.968 E.0498
G1 X85.934 Y62.648 E.01259
G1 X83.352 Y60.066 E.06761
G1 X82.672 Y60.066 E.01259
G1 X85.934 Y63.328 E.08542
G1 X85.934 Y64.008 E.01259
G1 X81.992 Y60.066 E.10323
G1 X81.312 Y60.066 E.01259
G1 X85.934 Y64.688 E.12104
G1 X85.934 Y65.369 E.01259
G1 X80.631 Y60.066 E.13884
G1 X79.951 Y60.066 E.01259
G1 X85.934 Y66.049 E.15665
G1 X85.934 Y66.729 E.01259
G1 X79.271 Y60.066 E.17446
G1 X78.591 Y60.066 E.01259
G1 X85.934 Y67.409 E.19227
G1 X85.934 Y68.089 E.01259
G1 X77.911 Y60.066 E.21008
G1 X77.231 Y60.066 E.01259
G1 X85.934 Y68.769 E.22789
G1 X85.934 Y69.449 E.01259
G1 X76.551 Y60.066 E.2457
G1 X75.87 Y60.066 E.01259
G1 X85.934 Y70.13 E.26351
G1 X85.934 Y70.81 E.01259
G1 X75.19 Y60.066 E.28131
G1 X74.51 Y60.066 E.01259
G1 X85.934 Y71.49 E.29912
G1 X85.934 Y72.17 E.01259
G1 X73.83 Y60.066 E.31693
G1 X73.15 Y60.066 E.01259
G1 X85.934 Y72.85 E.33474
G1 X85.934 Y73.53 E.01259
G1 X72.47 Y60.066 E.35255
G1 X71.79 Y60.066 E.01259
G1 X85.934 Y74.21 E.37036
G1 X85.934 Y74.89 E.01259
G1 X71.11 Y60.066 E.38817
G1 X70.429 Y60.066 E.01259
G1 X85.934 Y75.571 E.40597
G1 X85.934 Y75.934 E.00673
G1 X85.617 Y75.934 E.00586
G1 X69.749 Y60.066 E.41549
G1 X69.069 Y60.066 E.01259
G1 X84.937 Y75.934 E.41549
G1 X84.257 Y75.934 E.01259
G1 X68.389 Y60.066 E.41549
G1 X67.709 Y60.066 E.01259
G1 X83.577 Y75.934 E.41549
G1 X82.897 Y75.934 E.01259
G1 X67.029 Y60.066 E.41549
G1 X66.349 Y60.066 E.01259
G1 X75.577 Y69.294 E.24162
G1 X76.258 Y69.562 E.01355
G1 X76.853 Y69.966 E.01331
G1 X77.347 Y70.488 E.01331
G1 X77.718 Y71.104 E.01331
G1 X77.886 Y71.604 E.00976
G1 X82.217 Y75.934 E.11339
G1 X81.537 Y75.934 E.01259
G1 X78.016 Y72.413 E.09219
G1 X78.025 Y72.5 E.00162
G1 X77.966 Y73.044 E.01012
G1 X80.856 Y75.934 E.07568
G1 X80.176 Y75.934 E.01259
G1 X77.824 Y73.582 E.0616
G3 X77.62 Y74.058 I-1.184 J-.224 E.00967
G1 X79.496 Y75.934 E.04912
G1 X78.816 Y75.934 E.01259
G1 X77.365 Y74.483 E.038
G1 X77.039 Y74.837 E.00891
G1 X78.136 Y75.934 E.02872
G1 X77.456 Y75.934 E.01259
G1 X76.676 Y75.154 E.02042
G1 X76.305 Y75.405 E.00829
G1 X76.319 Y75.478 E.00136
G1 X76.991 Y76.149 E.01759
G1 E-.5 F3000
G1 Z.3 F21000
G1 X77.054 Y72.5 Z.3
G1 X76.999 Y71.994
G1 X76.836 Y71.512
G1 X76.574 Y71.076
G1 X75.024 Y69.422
G1 Z.1
G1 E.5 F1800
G1 F6300
G1 X65.669 Y60.066 E.24497
G1 X64.988 Y60.066 E.01259
G1 X74.146 Y69.223 E.23977
G1 X73.613 Y69.371 E.01023
G1 X64.308 Y60.066 E.24364
M73 P2 R35
G1 X63.628 Y60.066 E.01259
G1 X73.145 Y69.583 E.24919
G1 X72.834 Y69.748 E.00652
G1 X72.724 Y69.842 E.00268
G1 X62.948 Y60.066 E.25596
G1 X62.268 Y60.066 E.01259
G1 X72.356 Y70.154 E.26414
G1 X72.286 Y70.213 E.00169
G1 X72.048 Y70.526 E.00728
G1 X61.588 Y60.066 E.27389
G1 X60.908 Y60.066 E.01259
G1 X71.78 Y70.938 E.28469
G1 X71.565 Y71.403 E.00949
G1 X60.227 Y60.066 E.29686
G1 X59.547 Y60.066 E.01259
G1 X71.435 Y71.954 E.31128
G1 X71.394 Y72.14 E.00353
G1 X71.394 Y72.593 E.00838
G1 X58.867 Y60.066 E.32801
G1 X58.187 Y60.066 E.01259
G1 X71.511 Y73.39 E.34888
G1 X71.549 Y73.562 E.00326
G1 X71.851 Y74.214 E.01331
G1 X72.286 Y74.787 E.01331
G1 X72.834 Y75.252 E.01331
G1 X73.12 Y75.404 E.006
G1 X73.087 Y75.646 E.00453
G1 X57.507 Y60.066 E.40795
G1 X56.827 Y60.066 E.01259
G1 X72.695 Y75.934 E.41549
G1 X72.015 Y75.934 E.01259
G1 X56.147 Y60.066 E.41549
G1 X55.467 Y60.066 E.01259
G1 X71.335 Y75.934 E.41549
G1 X70.654 Y75.934 E.01259
G1 X54.786 Y60.066 E.41549
G1 X54.106 Y60.066 E.01259
G1 X69.974 Y75.934 E.41549
G1 X69.294 Y75.934 E.01259
G1 X53.426 Y60.066 E.41549
G1 X52.746 Y60.066 E.01259
G1 X68.614 Y75.934 E.41549
G1 X67.934 Y75.934 E.01259
G1 X51.986 Y59.986 E.41759
G1 X50.748 Y59.428 E.02515
G1 X67.254 Y75.934 E.4322
G1 X66.574 Y75.934 E.01259
G1 X49.51 Y58.87 E.44681
G1 X48.271 Y58.312 E.02515
G1 X65.894 Y75.934 E.46142
G1 X65.213 Y75.934 E.01259
G1 X47.033 Y57.754 E.47603
G1 X45.795 Y57.196 E.02515
G1 X64.533 Y75.934 E.49065
G1 X63.853 Y75.934 E.01259
G1 X44.127 Y56.208 E.51652
G1 E-.5 F3000
G1 Z.3 F21000
G1 X40.599 Y44.518 Z.3
G1 Z.1
G1 E.5 F1800
G1 F6300
G1 X40.147 Y44.066 E.01184
G1 X39.467 Y44.066 E.01259
G1 X40.524 Y45.123 E.02768
G1 X40.741 Y46.02 E.01709
G1 X38.787 Y44.066 E.05117
G1 X38.106 Y44.066 E.01259
G1 X40.958 Y46.918 E.07467
M73 P2 R34
G1 X41.175 Y47.815 E.01709
G1 X37.426 Y44.066 E.09817
G1 X36.746 Y44.066 E.01259
G1 X41.393 Y48.712 E.12166
G1 X41.61 Y49.61 E.01709
G1 X36.066 Y44.066 E.14516
G1 X35.386 Y44.066 E.01259
G1 X41.827 Y50.507 E.16865
G1 X42.044 Y51.404 E.01709
G1 X34.706 Y44.066 E.19215
G1 X34.066 Y44.066 E.01184
G1 X34.066 Y44.106 E.00075
G1 X42.261 Y52.302 E.21459
G1 X42.478 Y53.199 E.01709
G1 X34.066 Y44.787 E.22027
G1 X34.066 Y45.467 E.01259
G1 X42.696 Y54.096 E.22596
G1 X42.913 Y54.994 E.01709
G1 X34.066 Y46.147 E.23165
G1 X34.066 Y46.827 E.01259
G1 X63.173 Y75.934 E.76214
G1 X62.493 Y75.934 E.01259
G1 X34.066 Y47.507 E.74433
G1 X34.066 Y48.187 E.01259
G1 X61.813 Y75.934 E.72653
G1 X61.133 Y75.934 E.01259
G1 X34.066 Y48.867 E.70872
G1 X34.066 Y49.547 E.01259
G1 X60.453 Y75.934 E.69091
G1 X59.772 Y75.934 E.01259
G1 X34.066 Y50.228 E.6731
G1 X34.066 Y50.908 E.01259
G1 X59.092 Y75.934 E.65529
G1 X58.412 Y75.934 E.01259
G1 X34.066 Y51.588 E.63748
G1 X34.066 Y52.268 E.01259
G1 X57.732 Y75.934 E.61967
G1 X57.052 Y75.934 E.01259
G1 X52.953 Y71.835 E.10733
G1 X53.025 Y72.5 E.01238
G1 X53.017 Y72.579 E.00147
G1 X56.372 Y75.934 E.08785
G1 X55.692 Y75.934 E.01259
G1 X52.95 Y73.192 E.07179
G1 X52.782 Y73.705 E.00998
G1 X55.011 Y75.934 E.05837
G1 X54.331 Y75.934 E.01259
G1 X52.558 Y74.161 E.04642
G1 X52.347 Y74.512 E.00759
G1 X52.29 Y74.573 E.00154
G1 X53.651 Y75.934 E.03564
G1 X52.971 Y75.934 E.01259
G1 X51.959 Y74.922 E.0265
G1 X51.853 Y75.034 E.00287
G1 X51.578 Y75.221 E.00615
G1 X52.291 Y75.934 E.01868
G1 X51.611 Y75.934 E.01259
G1 X51.087 Y75.41 E.01372
G1 E-.5 F3000
G1 Z.3 F21000
G1 X51.836 Y73.488 Z.3
G1 X51.999 Y73.006
G1 X52.054 Y72.5
G1 X51.999 Y71.994
G1 X51.836 Y71.512
G1 X50.683 Y69.565
G1 Z.1
G1 E.5 F1800
G1 F6300
G1 X34.066 Y52.948 E.4351
G1 X34.066 Y53.628 E.01259
G1 X49.631 Y69.193 E.40755
G1 X49.162 Y69.219 E.00869
G1 X49.017 Y69.259 E.0028
G1 X34.066 Y54.308 E.39147
G1 X34.066 Y54.989 E.01259
G1 X48.484 Y69.407 E.37753
G1 X48.037 Y69.64 E.00933
G1 X34.066 Y55.669 E.36583
G1 X34.066 Y56.349 E.01259
G1 X47.634 Y69.917 E.35528
M73 P3 R34
G1 X47.271 Y70.233 E.00893
G1 X34.066 Y57.029 E.34575
G1 X34.066 Y57.709 E.01259
G1 X46.977 Y70.62 E.33806
G2 X46.728 Y71.051 I.855 J.781 E.00929
