; HEADER_BLOCK_START
; generated by OrcaSlicer 1.7.0-beta on 2023-09-29 at 15:46:07
; total layer number: 75
; HEADER_BLOCK_END

; THUMBNAIL_BLOCK_START
; THUMBNAIL_BLOCK_END

; external perimeters extrusion width = 0.40mm
; perimeters extrusion width = 0.46mm
; infill extrusion width = 0.64mm
; solid infill extrusion width = 0.56mm
; top infill extrusion width = 0.40mm
; first layer extrusion width = 0.50mm

; EXECUTABLE_BLOCK_START
EXCLUDE_OBJECT_DEFINE NAME=Sorbothane_Printer_Foot_V2_id_0_copy_0 CENTER=60,60 POLYGON=[[40,60],[40.0042,59.5893],[40.0117,59.3172],[40.0298,58.9083],[40.0466,58.6351],[40.0786,58.2287],[40.1049,57.9547],[40.1505,57.5511],[40.1863,57.2767],[40.2454,56.8763],[40.2908,56.6018],[40.3633,56.2052],[40.4183,55.9309],[40.504,55.5385],[40.5687,55.2647],[40.6673,54.877],[40.7417,54.6041],[40.853,54.2214],[40.9371,53.9497],[41.061,53.5725],[41.1548,53.3024],[41.2909,52.931],[41.3944,52.6629],[41.5426,52.2978],[41.6558,52.032],[41.8157,51.6735],[41.9385,51.4103],[42.1099,51.0589],[42.2423,50.7987],[42.4248,50.4547],[42.5668,50.1978],[42.7602,49.8615],[42.9116,49.6083],[43.1156,49.2801],[43.2764,49.031],[43.4905,48.7112],[43.6606,48.4664],[43.8847,48.1553],[44.0639,47.9153],[44.2975,47.6132],[44.4858,47.3782],[44.7286,47.0855],[44.9257,46.8559],[45.1774,46.5728],[45.3833,46.3489],[45.6434,46.0757],[45.8579,45.8579],[46.126,45.5947],[46.3489,45.3833],[46.6248,45.1304],[46.8559,44.9257],[47.1391,44.6834],[47.3782,44.4858],[47.6683,44.2542],[47.9153,44.0639],[48.2119,43.8433],[48.4664,43.6606],[48.7691,43.4511],[49.031,43.2764],[49.3393,43.0781],[49.6083,42.9116],[49.922,42.7248],[50.1978,42.5668],[50.5163,42.3915],[50.7987,42.2423],[51.1216,42.0787],[51.4103,41.9385],[51.7373,41.7866],[52.032,41.6558],[52.3625,41.5157],[52.6629,41.3944],[52.9966,41.2663],[53.3024,41.1548],[53.6388,41.0386],[53.9497,40.9371],[54.2885,40.8329],[54.6041,40.7417],[54.9447,40.6494],[55.2647,40.5687],[55.6068,40.4885],[55.9309,40.4183],[56.274,40.3501],[56.6018,40.2908],[56.9456,40.2346],[57.2767,40.1863],[57.6206,40.142],[57.9547,40.1049],[58.2985,40.0725],[58.6352,40.0466],[58.9783,40.0261],[59.3172,40.0117],[59.6593,40.0029],[60,40],[60.3407,40.0029],[60.6828,40.0117],[61.0217,40.0261],[61.3648,40.0466],[61.7015,40.0725],[62.0453,40.1049],[62.3794,40.142],[62.7233,40.1863],[63.0544,40.2346],[63.3982,40.2908],[63.726,40.3501],[64.0691,40.4183],[64.3932,40.4885],[64.7353,40.5687],[65.0553,40.6494],[65.3959,40.7417],[65.7115,40.8329],[66.0503,40.9371],[66.3612,41.0386],[66.6976,41.1548],[67.0034,41.2663],[67.3371,41.3944],[67.6375,41.5157],[67.968,41.6558],[68.2627,41.7866],[68.5897,41.9385],[68.8784,42.0787],[69.2013,42.2423],[69.4837,42.3915],[69.8022,42.5668],[70.078,42.7248],[70.3917,42.9116],[70.6607,43.0781],[70.969,43.2764],[71.2309,43.4511],[71.5336,43.6606],[71.7881,43.8433],[72.0847,44.0639],[72.3317,44.2542],[72.6218,44.4858],[72.8609,44.6834],[73.1441,44.9257],[73.3752,45.1304],[73.6511,45.3833],[73.874,45.5947],[74.1421,45.8579],[74.3566,46.0757],[74.6167,46.3489],[74.8226,46.5728],[75.0743,46.8559],[75.2714,47.0855],[75.5142,47.3782],[75.7025,47.6132],[75.9361,47.9153],[76.1153,48.1553],[76.3394,48.4664],[76.5095,48.7112],[76.7236,49.031],[76.8844,49.2801],[77.0884,49.6083],[77.2398,49.8615],[77.4332,50.1978],[77.5752,50.4547],[77.7577,50.7987],[77.8901,51.0589],[78.0615,51.4103],[78.1843,51.6735],[78.3442,52.032],[78.4574,52.2978],[78.6056,52.6629],[78.7091,52.931],[78.8452,53.3024],[78.939,53.5725],[79.0629,53.9497],[79.147,54.2214],[79.2583,54.6041],[79.3327,54.877],[79.4313,55.2647],[79.496,55.5385],[79.5817,55.9309],[79.6367,56.2052],[79.7092,56.6018],[79.7546,56.8763],[79.8137,57.2767],[79.8495,57.5511],[79.8951,57.9547],[79.9214,58.2287],[79.9534,58.6351],[79.9702,58.9083],[79.9883,59.3172],[79.9958,59.5893],[80,60],[79.9982,60.2707],[79.9883,60.6828],[79.9773,60.9517],[79.9534,61.3648],[79.9333,61.6317],[79.8951,62.0453],[79.8662,62.3098],[79.8137,62.7233],[79.776,62.9852],[79.7092,63.3982],[79.6628,63.6571],[79.5817,64.0691],[79.5268,64.3248],[79.4313,64.7353],[79.3681,64.9875],[79.2583,65.3959],[79.187,65.6444],[79.0629,66.0503],[78.9836,66.2947],[78.8452,66.6976],[78.7581,66.9377],[78.6056,67.3371],[78.5109,67.5727],[78.3442,67.968],[78.2422,68.1989],[78.0615,68.5897],[77.9523,68.8155],[77.7577,69.2013],[77.6416,69.422],[77.4332,69.8022],[77.3104,70.0175],[77.0884,70.3917],[76.9591,70.6013],[76.7236,70.969],[76.5881,71.1729],[76.3394,71.5336],[76.1979,71.7315],[75.9361,72.0847],[75.7889,72.2764],[75.5142,72.6218],[75.3615,72.8072],[75.0743,73.1441],[74.9163,73.323],[74.6167,73.6511],[74.4538,73.8234],[74.1421,74.1421],[73.9745,74.3078],[73.6511,74.6167],[73.479,74.7755],[73.1441,75.0743],[72.9679,75.2261],[72.6218,75.5142],[72.4417,75.659],[72.0847,75.9361],[71.901,76.0737],[71.5336,76.3394],[71.3466,76.4698],[70.969,76.7236],[70.7789,76.8468],[70.3917,77.0884],[70.1988,77.2042],[69.8022,77.4332],[69.6068,77.5416],[69.2013,77.7577],[69.0037,77.8587],[68.5897,78.0615],[68.3901,78.1551],[67.968,78.3442],[67.7668,78.4303],[67.3371,78.6056],[67.1344,78.6842],[66.8985,78.7726],[66.6976,78.8452],[66.6617,78.8579],[66.4247,78.94],[66.1876,79.0188],[66.0503,79.0629],[65.951,79.0941],[65.7152,79.166],[65.4805,79.2344],[65.3959,79.2583],[65.2472,79.2994],[64.9336,79.3819],[64.7353,79.4313],[64.6148,79.4603],[64.2931,79.5338],[64.0691,79.5817],[63.9695,79.6021],[63.644,79.6652],[63.3982,79.7092],[63.317,79.723],[62.9888,79.7754],[62.7233,79.8137],[62.6595,79.8224],[62.3843,79.8569],[62.1206,79.8869],[62.0453,79.8951],[61.9979,79.9],[61.8564,79.9134],[61.5918,79.9364],[61.3648,79.9534],[61.3332,79.9555],[61.0617,79.9717],[60.7963,79.9841],[60.6828,79.9883],[60.6668,79.9889],[60.5309,79.9929],[60.2654,79.9982],[60,80],[59.6799,79.9974],[59.3597,79.9897],[59.3332,79.9889],[59.3172,79.9883],[59.0397,79.9769],[58.7198,79.9589],[58.6668,79.9555],[58.6352,79.9534],[58.3272,79.9297],[58.0021,79.9],[57.9547,79.8951],[57.5445,79.8482],[57.3405,79.8224],[57.2767,79.8137],[57.0112,79.7754],[56.683,79.723],[56.6018,79.7092],[56.356,79.6652],[56.0305,79.6021],[55.9309,79.5817],[55.7069,79.5338],[55.3852,79.4603],[55.2647,79.4313],[55.0664,79.3819],[54.7528,79.2994],[54.6041,79.2583],[54.5195,79.2344],[54.2848,79.166],[54.049,79.0941],[53.9497,79.0629],[53.8124,79.0188],[53.5753,78.94],[53.3383,78.8579],[53.3024,78.8452],[53.1015,78.7726],[52.8656,78.6842],[52.6629,78.6056],[52.2332,78.4303],[52.032,78.3442],[51.6099,78.1551],[51.4103,78.0615],[50.9963,77.8587],[50.7987,77.7577],[50.3932,77.5416],[50.1978,77.4332],[49.8012,77.2042],[49.6083,77.0884],[49.2211,76.8468],[49.031,76.7236],[48.6534,76.4698],[48.4664,76.3394],[48.099,76.0737],[47.9153,75.9361],[47.5583,75.659],[47.3782,75.5142],[47.0321,75.2261],[46.8559,75.0743],[46.521,74.7755],[46.3489,74.6167],[46.0255,74.3078],[45.8579,74.1421],[45.5462,73.8234],[45.3833,73.6511],[45.0837,73.323],[44.9257,73.1441],[44.6385,72.8072],[44.4858,72.6218],[44.2111,72.2764],[44.0639,72.0847],[43.8021,71.7315],[43.6606,71.5336],[43.4119,71.1729],[43.2764,70.969],[43.0409,70.6013],[42.9116,70.3917],[42.6896,70.0175],[42.5668,69.8022],[42.3584,69.422],[42.2423,69.2013],[42.0477,68.8155],[41.9385,68.5897],[41.7578,68.1989],[41.6558,67.968],[41.4891,67.5727],[41.3944,67.3371],[41.2419,66.9377],[41.1548,66.6976],[41.0164,66.2947],[40.9371,66.0503],[40.813,65.6444],[40.7417,65.3959],[40.6319,64.9875],[40.5687,64.7353],[40.4732,64.3248],[40.4183,64.0691],[40.3372,63.6571],[40.2908,63.3982],[40.224,62.9852],[40.1863,62.7233],[40.1338,62.3098],[40.1049,62.0453],[40.0667,61.6317],[40.0466,61.3648],[40.0227,60.9517],[40.0117,60.6828],[40.0018,60.2707],[40,60]]
M73 P0 R14
;TYPE:Custom
START_PRINT T_BED=110 T_EXTRUDER=260
G90
G21
M83 ; use relative distances for extrusion
; Filament gcode

    PRESSURE_ADVANCE_SELECT FILAMENT=ABS
M106 S0
;LAYER_CHANGE
;Z:0.2
;HEIGHT:0.2
;BEFORE_LAYER_CHANGE
;0.2
G92 E0

;AFTER_LAYER_CHANGE
;0.2
;_SET_FAN_SPEED_CHANGING_LAYER
SET_VELOCITY_LIMIT ACCEL=1000 ACCEL_TO_DECEL=500
SET_VELOCITY_LIMIT SQUARE_CORNER_VELOCITY=9
G1 E-.5 F3000
G1 Z.2 F21000
G1 X44.593 Y43.451
G1 Z.2
G1 E.5 F1800
;TYPE:Skirt
;WIDTH:0.5
G1 F3000
G1 X44.64 Y43.404 E.00233
G1 X46.433 Y41.909 E.08216
G1 X47.945 Y40.868 E.06461
G1 X49.821 Y39.807 E.07587
G1 X51.958 Y38.865 E.08216
G1 X54.18 Y38.148 E.08216
G1 X56.364 Y37.681 E.07864
G1 X58.685 Y37.425 E.08216
G1 X60.437 Y37.391 E.06167
G1 X62.766 Y37.556 E.08216
G1 X65.065 Y37.961 E.08216
G1 X67.31 Y38.601 E.08216
G1 X69.314 Y39.394 E.07584
G1 X70.955 Y40.217 E.06465
G1 X72.937 Y41.452 E.08216
G1 X74.704 Y42.82 E.07864
G1 X76.397 Y44.427 E.08216
G1 X77.915 Y46.201 E.08216
G1 X78.878 Y47.549 E.05832
G1 X80.061 Y49.562 E.08216
G1 X81.029 Y51.683 E.08206
G1 X81.748 Y53.802 E.07874
G1 X82.271 Y56.077 E.08216
G1 X82.557 Y58.394 E.08216
G1 X82.602 Y60.728 E.08216
G1 X82.407 Y63.055 E.08216
G1 X81.972 Y65.348 E.08216
G1 X81.304 Y67.585 E.08216
G1 X80.625 Y69.271 E.06396
G1 X79.64 Y71.21 E.07652
G1 X78.38 Y73.175 E.08216
G1 X76.99 Y74.924 E.07864
G1 X75.36 Y76.596 E.08216
G1 X73.567 Y78.091 E.08216
G1 X72.055 Y79.132 E.06461
G1 X70.179 Y80.193 E.07587
G1 X68.042 Y81.135 E.08216
G1 X65.82 Y81.851 E.08216
G1 X63.636 Y82.319 E.07864
G1 X61.315 Y82.575 E.08216
G1 X59.563 Y82.609 E.06167
G1 X57.234 Y82.444 E.08216
G1 X54.935 Y82.039 E.08216
G1 X52.69 Y81.399 E.08216
G1 X50.686 Y80.606 E.07584
G1 X49.045 Y79.783 E.06465
G1 X47.063 Y78.548 E.08216
G1 X45.296 Y77.18 E.07864
G1 X43.603 Y75.573 E.08216
G1 X42.085 Y73.799 E.08216
G1 X41.122 Y72.451 E.05832
G1 X39.939 Y70.438 E.08216
G1 X38.971 Y68.317 E.08206
G1 X38.252 Y66.198 E.07874
G1 X37.729 Y63.923 E.08216
G1 X37.443 Y61.606 E.08216
G1 X37.398 Y59.272 E.08216
G1 X37.593 Y56.945 E.08216
G1 X38.028 Y54.652 E.08216
G1 X38.696 Y52.415 E.08216
G1 X39.375 Y50.729 E.06396
G1 X40.36 Y48.79 E.07652
G1 X41.62 Y46.825 E.08216
G1 X43.01 Y45.076 E.07864
G1 X44.566 Y43.48 E.07843
G1 X44.892 Y43.799 F21000
G1 F3000
G1 X44.955 Y43.735 E.00318
G1 X46.712 Y42.27 E.0805
G1 X48.185 Y41.257 E.0629
G1 X50.021 Y40.218 E.07426
G1 X52.114 Y39.295 E.0805
G1 X54.291 Y38.592 E.0805
G1 X56.445 Y38.131 E.07753
G1 X58.718 Y37.881 E.0805
G1 X60.435 Y37.848 E.06043
G1 X62.717 Y38.011 E.0805
G1 X64.969 Y38.408 E.0805
G1 X67.169 Y39.035 E.0805
G1 X69.13 Y39.812 E.07423
G1 X70.728 Y40.614 E.06293
G1 X72.67 Y41.823 E.0805
G1 X74.412 Y43.171 E.07753
G1 X76.07 Y44.747 E.0805
G1 X77.557 Y46.485 E.0805
G1 X78.492 Y47.795 E.05666
G1 X79.618 Y49.701 E.07788
G1 X80.602 Y51.845 E.08304
G1 X81.31 Y53.934 E.07762
G1 X81.822 Y56.163 E.0805
G1 X82.101 Y58.433 E.0805
G1 X82.145 Y60.72 E.0805
G1 X81.953 Y63 E.0805
G1 X81.526 Y65.247 E.0805
G1 X80.871 Y67.438 E.0805
G1 X80.208 Y69.082 E.06236
G1 X79.246 Y70.977 E.0748
G1 X78.012 Y72.903 E.0805
G1 X76.586 Y74.691 E.0805
G1 X75.045 Y76.265 E.07753
G1 X73.288 Y77.73 E.0805
G1 X71.815 Y78.743 E.0629
G1 X69.979 Y79.782 E.07426
G1 X67.886 Y80.705 E.0805
G1 X65.709 Y81.408 E.0805
G1 X63.555 Y81.869 E.07753
G1 X61.282 Y82.119 E.0805
G1 X59.565 Y82.152 E.06043
G1 X57.283 Y81.989 E.0805
G1 X55.031 Y81.592 E.0805
G1 X52.831 Y80.965 E.0805
G1 X50.87 Y80.188 E.07423
G1 X49.272 Y79.386 E.06293
G1 X47.33 Y78.177 E.0805
G1 X45.588 Y76.829 E.07753
G1 X43.93 Y75.253 E.0805
G1 X42.443 Y73.515 E.0805
G1 X41.508 Y72.205 E.05666
G1 X40.382 Y70.299 E.07788
G1 X39.398 Y68.155 E.08304
G1 X38.69 Y66.066 E.07762
G1 X38.178 Y63.837 E.0805
G1 X37.899 Y61.567 E.0805
G1 X37.855 Y59.28 E.0805
G1 X38.047 Y57 E.0805
G1 X38.474 Y54.753 E.0805
G1 X39.129 Y52.562 E.0805
G1 X39.792 Y50.918 E.06236
G1 X40.754 Y49.023 E.0748
G1 X41.988 Y47.097 E.0805
G1 X43.414 Y45.309 E.0805
G1 X44.864 Y43.828 E.07294
; printing object Sorbothane Printer Foot V2 id:0 copy 0
G1 E-.5
EXCLUDE_OBJECT_START NAME=Sorbothane_Printer_Foot_V2_id_0_copy_0
G1 Z.4 F21000
G1 X63.326 Y79.055 Z.4
G1 Z.2
G1 E.5 F1800
;TYPE:Outer wall
G1 F3000
G1 X63.068 Y79.105 E.00927
G1 X62.244 Y79.219 E.02925
G1 X61.081 Y79.319 E.04109
G1 X60.417 Y79.345 E.02339
G1 X59.584 Y79.345 E.0293
G1 X58.419 Y79.285 E.04107
G1 X57.592 Y79.199 E.02925
G1 X56.439 Y79.019 E.04108
G1 X55.625 Y78.848 E.02925
G1 X54.497 Y78.55 E.04107
G1 X53.704 Y78.297 E.02931
G1 X53.08 Y78.07 E.02336
G1 X52.003 Y77.619 E.0411
G1 X51.252 Y77.259 E.02931
G1 X50.665 Y76.949 E.02336
G1 X49.66 Y76.354 E.0411
G1 X48.967 Y75.896 E.02925
G1 X48.029 Y75.201 E.04108
G1 X47.386 Y74.673 E.02925
G1 X46.525 Y73.886 E.04108
G1 X45.941 Y73.295 E.02925
G1 X45.166 Y72.422 E.04108
G1 X44.645 Y71.775 E.02925
G1 X43.964 Y70.826 E.04108
G1 X43.513 Y70.129 E.02923
G1 X42.855 Y68.97 E.04692
G1 X42.277 Y67.767 E.04696
G1 X41.786 Y66.533 E.04672
G1 X41.379 Y65.262 E.04697
G1 X41.098 Y64.13 E.04104
G1 X40.936 Y63.316 E.02923
G1 X40.753 Y61.993 E.047
G1 X40.696 Y61.333 E.0233
G1 X40.65 Y60 E.04696
G1 X40.696 Y58.667 E.04696
G1 X40.833 Y57.345 E.04678
G1 X40.967 Y56.523 E.0293
G1 X41.21 Y55.38 E.04112
M73 P0 R13
G1 X41.379 Y54.74 E.02331
G1 X41.786 Y53.467 E.04703
G1 X42.021 Y52.847 E.02334
G1 X42.347 Y52.08 E.02931
G1 X42.855 Y51.029 E.0411
G1 X43.172 Y50.448 E.02331
G1 X43.872 Y49.309 E.04703
G1 X44.247 Y48.764 E.02329
G1 X45.06 Y47.703 E.04703
G1 X45.489 Y47.199 E.02329
G1 X46.407 Y46.228 E.04703
G1 X46.888 Y45.77 E.02335
G1 X47.513 Y45.22 E.02931
G1 X48.426 Y44.493 E.0411
G1 X48.965 Y44.105 E.02336
G1 X49.66 Y43.646 E.02931
G1 X50.665 Y43.051 E.0411
G1 X51.25 Y42.742 E.02331
G1 X52.462 Y42.179 E.04703
G1 X53.076 Y41.932 E.0233
G1 X54.34 Y41.497 E.04703
G1 X54.976 Y41.314 E.0233
G1 X56.278 Y41.012 E.04703
G1 X56.929 Y40.896 E.0233
G1 X58.255 Y40.729 E.04702
G1 X58.916 Y40.681 E.02331
G1 X60.084 Y40.654 E.04115
G1 X61.084 Y40.681 E.0352
G1 X62.407 Y40.801 E.04675
G1 X63.726 Y41.013 E.04701
G1 X64.374 Y41.151 E.02331
G1 X65.664 Y41.498 E.04701
G1 X66.294 Y41.703 E.02331
G1 X67.54 Y42.18 E.04696
G1 X68.75 Y42.742 E.04695
G1 X69.335 Y43.051 E.02329
G1 X70.482 Y43.735 E.04702
G1 X71.033 Y44.104 E.02331
G1 X72.103 Y44.903 E.04702
G1 X72.613 Y45.326 E.02331
G1 X73.595 Y46.231 E.04702
G1 X74.058 Y46.704 E.0233
G1 X74.942 Y47.706 E.04702
G1 X75.355 Y48.225 E.02332
G1 X76.036 Y49.174 E.04111
G1 X76.488 Y49.873 E.02931
M73 P1 R13
G1 X77.144 Y51.028 E.04677
G1 X77.722 Y52.232 E.04698
G1 X78.156 Y53.314 E.04104
G1 X78.429 Y54.101 E.0293
G1 X78.62 Y54.736 E.02334
G1 X78.939 Y56.033 E.04703
G1 X79.064 Y56.683 E.0233
G1 X79.247 Y58.007 E.04703
G1 X79.304 Y58.667 E.0233
G1 X79.35 Y60 E.04696
G1 X79.304 Y61.333 E.04696
G1 X79.167 Y62.655 E.04678
G1 X79.033 Y63.477 E.0293
G1 X78.79 Y64.62 E.04112
G1 X78.621 Y65.26 E.02331
G1 X78.214 Y66.533 E.04703
G1 X77.979 Y67.153 E.02334
G1 X77.653 Y67.92 E.0293
G1 X77.145 Y68.971 E.04111
G1 X76.828 Y69.552 E.02331
G1 X76.128 Y70.691 E.04703
G1 X75.753 Y71.236 E.02329
G1 X74.94 Y72.297 E.04703
G1 X74.511 Y72.801 E.02329
G1 X73.593 Y73.772 E.04703
G1 X73.113 Y74.228 E.0233
G1 X72.102 Y75.098 E.04695
G1 X71.033 Y75.896 E.04696
G1 X70.482 Y76.265 E.02331
G1 X69.335 Y76.949 E.04702
G1 X68.748 Y77.259 E.02335
G1 X67.997 Y77.619 E.02931
G1 X66.921 Y78.07 E.04107
G1 X66.138 Y78.35 E.02925
G1 X65.021 Y78.687 E.04108
G1 X64.214 Y78.885 E.02925
G1 X63.366 Y79.048 E.03039
G1 X63.232 Y78.564 F21000
;TYPE:Inner wall
G1 F3000
G1 X62.986 Y78.611 E.00881
G1 X62.188 Y78.722 E.02835
G1 X61.05 Y78.82 E.04022
G1 X60.407 Y78.845 E.02263
G1 X59.597 Y78.845 E.02851
G1 X58.457 Y78.786 E.04016
G1 X57.656 Y78.703 E.02834
G1 X56.529 Y78.527 E.04017
G1 X55.741 Y78.362 E.02834
G1 X54.637 Y78.07 E.04017
G1 X53.865 Y77.823 E.02852
G1 X53.262 Y77.604 E.0226
G1 X52.207 Y77.163 E.04023
G1 X51.477 Y76.812 E.02852
G1 X50.909 Y76.512 E.02259
G1 X49.925 Y75.93 E.04024
G1 X49.254 Y75.486 E.02834
G1 X48.336 Y74.807 E.04017
G1 X47.714 Y74.296 E.02834
G1 X46.872 Y73.525 E.04017
G1 X46.306 Y72.953 E.02834
G1 X45.548 Y72.099 E.04017
G1 X45.043 Y71.472 E.02834
G1 X44.377 Y70.545 E.04017
G1 X43.941 Y69.87 E.02829
G1 X43.298 Y68.738 E.04581
G1 X42.734 Y67.562 E.0459
G1 X42.259 Y66.368 E.04521
G1 X41.861 Y65.125 E.04594
G1 X41.586 Y64.021 E.04004
G1 X41.43 Y63.233 E.02829
G1 X41.25 Y61.937 E.04603
G1 X41.195 Y61.303 E.02239
G1 X41.15 Y60 E.04589
