; HEADER_BLOCK_START
; generated by OrcaSlicer 1.7.0-beta on 2023-09-29 at 15:45:58
; total layer number: 75
; HEADER_BLOCK_END

; THUMBNAIL_BLOCK_START
; THUMBNAIL_BLOCK_END

; external perimeters extrusion width = 0.40mm
; perimeters extrusion width = 0.46mm
; infill extrusion width = 0.64mm
; solid infill extrusion width = 0.56mm
; top infill extrusion width = 0.40mm
; first layer extrusion width = 0.50mm

; external perimeters extrusion width = 0.40mm
; perimeters extrusion width = 0.46mm
; infill extrusion width = 0.64mm
; solid infill extrusion width = 0.56mm
; top infill extrusion width = 0.40mm
; first layer extrusion width = 0.50mm

; EXECUTABLE_BLOCK_START
EXCLUDE_OBJECT_DEFINE NAME=Sorbothane_Printer_Foot_V2_id_0_copy_0 CENTER=68.4957,80.8336 POLYGON=[[48.4957,80.8336],[48.5,80.4228],[48.5074,80.1508],[48.5255,79.7419],[48.5424,79.4687],[48.5743,79.0623],[48.6006,78.7883],[48.6462,78.3847],[48.682,78.1102],[48.7412,77.7099],[48.7865,77.4354],[48.859,77.0388],[48.9141,76.7645],[48.9997,76.3721],[49.0644,76.0983],[49.163,75.7105],[49.2374,75.4376],[49.3487,75.0549],[49.4328,74.7833],[49.5567,74.406],[49.6505,74.136],[49.7867,73.7646],[49.8902,73.4965],[50.0383,73.1314],[50.1515,72.8656],[50.3114,72.5071],[50.4342,72.2439],[50.6056,71.8925],[50.738,71.6323],[50.9206,71.2883],[51.0625,71.0314],[51.2559,70.6951],[51.4073,70.4419],[51.6113,70.1137],[51.7721,69.8645],[51.9863,69.5448],[52.1563,69.3],[52.3804,68.9889],[52.5596,68.7488],[52.7932,68.4468],[52.9815,68.2118],[53.2243,67.9191],[53.4215,67.6895],[53.6731,67.4064],[53.879,67.1825],[54.1391,66.9092],[54.3536,66.6914],[54.6218,66.4283],[54.8447,66.2169],[55.1205,65.964],[55.3517,65.7593],[55.6348,65.517],[55.874,65.3193],[56.1641,65.0878],[56.411,64.8975],[56.7076,64.6769],[56.9621,64.4942],[57.2648,64.2847],[57.5267,64.1099],[57.8351,63.9117],[58.1041,63.7452],[58.4177,63.5584],[58.6935,63.4004],[59.012,63.2251],[59.2944,63.0759],[59.6174,62.9122],[59.9061,62.7721],[60.233,62.6202],[60.5277,62.4893],[60.8582,62.3493],[61.1587,62.228],[61.4923,62.0998],[61.7981,61.9884],[62.1346,61.8721],[62.4454,61.7707],[62.7842,61.6665],[63.0998,61.5752],[63.4404,61.483],[63.7604,61.4022],[64.1025,61.322],[64.4266,61.2519],[64.7698,61.1837],[65.0975,61.1244],[65.4413,61.0682],[65.7724,61.0199],[66.1164,60.9756],[66.4505,60.9384],[66.7942,60.9061],[67.1309,60.8802],[67.474,60.8597],[67.8129,60.8452],[68.155,60.8365],[68.4957,60.8336],[68.8364,60.8365],[69.1786,60.8452],[69.5174,60.8597],[69.8606,60.8802],[70.1973,60.9061],[70.541,60.9384],[70.8751,60.9756],[71.2191,61.0199],[71.5502,61.0682],[71.8939,61.1244],[72.2217,61.1837],[72.5649,61.2519],[72.8889,61.322],[73.231,61.4022],[73.551,61.483],[73.8917,61.5752],[74.2073,61.6665],[74.546,61.7707],[74.8569,61.8721],[75.1933,61.9884],[75.4991,62.0998],[75.8328,62.228],[76.1332,62.3493],[76.4638,62.4893],[76.7585,62.6202],[77.0854,62.7721],[77.3741,62.9122],[77.697,63.0759],[77.9794,63.2251],[78.2979,63.4004],[78.5738,63.5584],[78.8874,63.7452],[79.1564,63.9117],[79.4648,64.1099],[79.7267,64.2847],[80.0293,64.4942],[80.2839,64.6769],[80.5805,64.8975],[80.8274,65.0878],[81.1175,65.3193],[81.3566,65.517],[81.6398,65.7593],[81.8709,65.964],[82.1468,66.2169],[82.3697,66.4283],[82.6379,66.6914],[82.8524,66.9092],[83.1125,67.1825],[83.3184,67.4064],[83.57,67.6895],[83.7672,67.9191],[84.01,68.2118],[84.1982,68.4468],[84.4318,68.7488],[84.6111,68.9889],[84.8351,69.3],[85.0052,69.5448],[85.2194,69.8645],[85.3802,70.1137],[85.5841,70.4419],[85.7355,70.6951],[85.9289,71.0314],[86.0709,71.2883],[86.2534,71.6323],[86.3859,71.8925],[86.5572,72.2439],[86.6801,72.5071],[86.84,72.8656],[86.9532,73.1314],[87.1013,73.4965],[87.2048,73.7646],[87.341,74.136],[87.4348,74.406],[87.5586,74.7833],[87.6427,75.0549],[87.7541,75.4376],[87.8285,75.7105],[87.9271,76.0983],[87.9918,76.3721],[88.0774,76.7645],[88.1324,77.0388],[88.2049,77.4354],[88.2503,77.7099],[88.3095,78.1102],[88.3452,78.3847],[88.3909,78.7883],[88.4171,79.0623],[88.4491,79.4687],[88.4659,79.7419],[88.4841,80.1508],[88.4915,80.4228],[88.4957,80.8336],[88.4939,81.1042],[88.4841,81.5164],[88.4731,81.7853],[88.4491,82.1984],[88.4291,82.4653],[88.3909,82.8789],[88.3619,83.1434],[88.3095,83.5569],[88.2717,83.8188],[88.2049,84.2318],[88.1585,84.4907],[88.0774,84.9027],[88.0225,85.1584],[87.9271,85.5689],[87.8639,85.8211],[87.7541,86.2295],[87.6827,86.4779],[87.5586,86.8839],[87.4793,87.1283],[87.341,87.5312],[87.2539,87.7713],[87.1013,88.1707],[87.0067,88.4063],[86.84,88.8016],[86.7379,89.0325],[86.5572,89.4232],[86.4481,89.6491],[86.2534,90.0349],[86.1373,90.2555],[85.9289,90.6358],[85.8061,90.851],[85.5841,91.2253],[85.4549,91.4349],[85.2194,91.8026],[85.0839,92.0065],[84.8351,92.3672],[84.6936,92.5651],[84.4318,92.9183],[84.2846,93.11],[84.01,93.4553],[83.8572,93.6407],[83.57,93.9776],[83.4121,94.1566],[83.1125,94.4846],[82.9496,94.657],[82.6379,94.9757],[82.4703,95.1413],[82.1468,95.4503],[81.9748,95.6091],[81.6398,95.9078],[81.4636,96.0597],[81.1175,96.3478],[80.9374,96.4926],[80.5805,96.7697],[80.3968,96.9073],[80.0293,97.173],[79.8423,97.3034],[79.4648,97.5572],[79.2747,97.6804],[78.8874,97.922],[78.6945,98.0378],[78.2979,98.2668],[78.1025,98.3752],[77.697,98.5913],[77.4994,98.6923],[77.0854,98.8951],[76.8858,98.9886],[76.4638,99.1778],[76.2625,99.2639],[75.8328,99.4391],[75.6302,99.5178],[75.3942,99.6062],[75.1933,99.6788],[75.1575,99.6915],[74.9204,99.7736],[74.6834,99.8523],[74.546,99.8965],[74.4468,99.9277],[74.211,99.9996],[73.9762,100.068],[73.8917,100.092],[73.7429,100.133],[73.4293,100.216],[73.231,100.265],[73.1105,100.294],[72.7888,100.367],[72.5649,100.415],[72.4652,100.436],[72.1397,100.499],[71.8939,100.543],[71.8127,100.557],[71.4846,100.609],[71.2191,100.647],[71.1553,100.656],[70.88,100.69],[70.6163,100.72],[70.541,100.729],[70.4936,100.734],[70.3521,100.747],[70.0875,100.77],[69.8606,100.787],[69.8289,100.789],[69.5574,100.805],[69.292,100.818],[69.1786,100.822],[69.1625,100.822],[69.0266,100.827],[68.7611,100.832],[68.4957,100.834],[68.1756,100.831],[67.8555,100.823],[67.8289,100.822],[67.8129,100.822],[67.5354,100.81],[67.2155,100.792],[67.1625,100.789],[67.1309,100.787],[66.8229,100.763],[66.4979,100.734],[66.4505,100.729],[66.0402,100.682],[65.8362,100.656],[65.7724,100.647],[65.5069,100.609],[65.1787,100.557],[65.0975,100.543],[64.8518,100.499],[64.5263,100.436],[64.4266,100.415],[64.2026,100.367],[63.881,100.294],[63.7604,100.265],[63.5621,100.216],[63.2486,100.133],[63.0998,100.092],[63.0152,100.068],[62.7805,99.9996],[62.5447,99.9277],[62.4454,99.8965],[62.3081,99.8523],[62.0711,99.7736],[61.834,99.6915],[61.7981,99.6788],[61.5973,99.6062],[61.3613,99.5178],[61.1587,99.4391],[60.729,99.2639],[60.5277,99.1778],[60.1056,98.9886],[59.9061,98.8951],[59.492,98.6923],[59.2944,98.5913],[58.8889,98.3752],[58.6935,98.2668],[58.2969,98.0378],[58.1041,97.922],[57.7168,97.6804],[57.5267,97.5572],[57.1492,97.3034],[56.9621,97.173],[56.5947,96.9073],[56.411,96.7697],[56.0541,96.4926],[55.874,96.3478],[55.5279,96.0597],[55.3517,95.9078],[55.0167,95.6091],[54.8447,95.4503],[54.5212,95.1413],[54.3536,94.9757],[54.0419,94.657],[53.879,94.4846],[53.5794,94.1566],[53.4215,93.9776],[53.1342,93.6407],[52.9815,93.4553],[52.7069,93.11],[52.5596,92.9183],[52.2978,92.5651],[52.1563,92.3672],[51.9076,92.0065],[51.7721,91.8026],[51.5366,91.4349],[51.4073,91.2253],[51.1853,90.851],[51.0625,90.6358],[50.8541,90.2555],[50.738,90.0349],[50.5434,89.6491],[50.4342,89.4232],[50.2535,89.0325],[50.1515,88.8016],[49.9848,88.4063],[49.8902,88.1707],[49.7376,87.7713],[49.6505,87.5312],[49.5121,87.1283],[49.4328,86.8839],[49.3087,86.4779],[49.2374,86.2295],[49.1276,85.8211],[49.0644,85.5689],[48.9689,85.1584],[48.9141,84.9027],[48.8329,84.4907],[48.7865,84.2318],[48.7198,83.8188],[48.682,83.5569],[48.6296,83.1434],[48.6006,82.8789],[48.5624,82.4653],[48.5424,82.1984],[48.5184,81.7853],[48.5074,81.5164],[48.4976,81.1042],[48.4957,80.8336]]
EXCLUDE_OBJECT_DEFINE NAME=Sorbothane_Printer_Foot_V2_id_1_copy_0 CENTER=51.5043,39.1664 POLYGON=[[31.5043,39.1664],[31.5085,38.7557],[31.5159,38.4836],[31.5341,38.0748],[31.5509,37.8016],[31.5829,37.3951],[31.6091,37.1211],[31.6548,36.7175],[31.6905,36.4431],[31.7497,36.0428],[31.7951,35.7682],[31.8676,35.3716],[31.9226,35.0973],[32.0082,34.7049],[32.0729,34.4311],[32.1715,34.0434],[32.2459,33.7705],[32.3573,33.3878],[32.4414,33.1161],[32.5652,32.7389],[32.659,32.4688],[32.7952,32.0975],[32.8987,31.8293],[33.0468,31.4642],[33.16,31.1984],[33.3199,30.84],[33.4428,30.5768],[33.6141,30.2253],[33.7466,29.9651],[33.9291,29.6211],[34.0711,29.3642],[34.2644,29.0279],[34.4159,28.7747],[34.6198,28.4466],[34.7806,28.1974],[34.9948,27.8776],[35.1649,27.6328],[35.3889,27.3218],[35.5682,27.0817],[35.8018,26.7797],[35.99,26.5447],[36.2328,26.252],[36.43,26.0223],[36.6816,25.7392],[36.8875,25.5154],[37.1476,25.2421],[37.3621,25.0243],[37.6303,24.7611],[37.8532,24.5497],[38.1291,24.2969],[38.3602,24.0922],[38.6434,23.8499],[38.8825,23.6522],[39.1726,23.4206],[39.4195,23.2303],[39.7161,23.0097],[39.9707,22.827],[40.2733,22.6175],[40.5352,22.4428],[40.8436,22.2445],[41.1126,22.078],[41.4262,21.8912],[41.7021,21.7332],[42.0206,21.5579],[42.303,21.4087],[42.6259,21.2451],[42.9146,21.1049],[43.2415,20.953],[43.5362,20.8222],[43.8668,20.6821],[44.1672,20.5609],[44.5009,20.4327],[44.8067,20.3212],[45.1431,20.205],[45.454,20.1035],[45.7927,19.9993],[46.1083,19.9081],[46.449,19.8159],[46.769,19.7351],[47.1111,19.6549],[47.4351,19.5847],[47.7783,19.5166],[48.1061,19.4572],[48.4498,19.401],[48.7809,19.3527],[49.1249,19.3085],[49.459,19.2713],[49.8027,19.2389],[50.1394,19.213],[50.4826,19.1925],[50.8214,19.1781],[51.1636,19.1693],[51.5043,19.1664],[51.845,19.1693],[52.1871,19.1781],[52.526,19.1925],[52.8691,19.213],[53.2058,19.2389],[53.5495,19.2713],[53.8836,19.3085],[54.2276,19.3527],[54.5587,19.401],[54.9025,19.4572],[55.2302,19.5166],[55.5734,19.5847],[55.8975,19.6549],[56.2396,19.7351],[56.5596,19.8159],[56.9002,19.9081],[57.2158,19.9993],[57.5546,20.1035],[57.8654,20.205],[58.2019,20.3212],[58.5077,20.4327],[58.8413,20.5609],[59.1418,20.6821],[59.4723,20.8222],[59.767,20.953],[60.0939,21.1049],[60.3826,21.2451],[60.7056,21.4087],[60.988,21.5579],[61.3065,21.7332],[61.5823,21.8912],[61.8959,22.078],[62.1649,22.2445],[62.4733,22.4428],[62.7352,22.6175],[63.0379,22.827],[63.2924,23.0097],[63.589,23.2303],[63.8359,23.4206],[64.126,23.6522],[64.3652,23.8499],[64.6483,24.0922],[64.8795,24.2969],[65.1553,24.5497],[65.3782,24.7611],[65.6464,25.0243],[65.8609,25.2421],[66.121,25.5154],[66.3269,25.7392],[66.5785,26.0223],[66.7757,26.252],[67.0185,26.5447],[67.2068,26.7797],[67.4404,27.0817],[67.6196,27.3218],[67.8437,27.6328],[68.0137,27.8776],[68.2279,28.1974],[68.3887,28.4466],[68.5927,28.7747],[68.7441,29.0279],[68.9375,29.3642],[69.0794,29.6211],[69.262,29.9651],[69.3944,30.2253],[69.5658,30.5768],[69.6886,30.84],[69.8485,31.1984],[69.9617,31.4642],[70.1098,31.8293],[70.2133,32.0975],[70.3495,32.4688],[70.4433,32.7389],[70.5672,33.1161],[70.6513,33.3878],[70.7626,33.7705],[70.837,34.0434],[70.9356,34.4311],[71.0003,34.7049],[71.0859,35.0973],[71.141,35.3716],[71.2135,35.7682],[71.2588,36.0428],[71.318,36.4431],[71.3538,36.7175],[71.3994,37.1211],[71.4257,37.3951],[71.4576,37.8016],[71.4744,38.0748],[71.4926,38.4836],[71.5,38.7557],[71.5043,39.1664],[71.5024,39.4371],[71.4926,39.8492],[71.4816,40.1182],[71.4576,40.5313],[71.4376,40.7981],[71.3994,41.2117],[71.3704,41.4762],[71.318,41.8898],[71.2802,42.1516],[71.2135,42.5646],[71.1671,42.8236],[71.0859,43.2355],[71.0311,43.4912],[70.9356,43.9017],[70.8724,44.1539],[70.7626,44.5624],[70.6913,44.8108],[70.5672,45.2167],[70.4879,45.4611],[70.3495,45.864],[70.2624,46.1041],[70.1098,46.5035],[70.0152,46.7391],[69.8485,47.1344],[69.7465,47.3653],[69.5658,47.7561],[69.4566,47.982],[69.262,48.3677],[69.1459,48.5884],[68.9375,48.9686],[68.8147,49.1839],[68.5927,49.5581],[68.4634,49.7677],[68.2279,50.1355],[68.0924,50.3393],[67.8437,50.7],[67.7022,50.8979],[67.4404,51.2511],[67.2931,51.4429],[67.0185,51.7882],[66.8658,51.9736],[66.5785,52.3105],[66.4206,52.4895],[66.121,52.8175],[65.9581,52.9898],[65.6464,53.3086],[65.4788,53.4742],[65.1553,53.7831],[64.9833,53.9419],[64.6483,54.2407],[64.4721,54.3925],[64.126,54.6806],[63.9459,54.8254],[63.589,55.1025],[63.4053,55.2402],[63.0379,55.5058],[62.8508,55.6363],[62.4733,55.8901],[62.2832,56.0132],[61.8959,56.2548],[61.7031,56.3706],[61.3065,56.5996],[61.1111,56.7081],[60.7056,56.9241],[60.5079,57.0251],[60.0939,57.2279],[59.8944,57.3215],[59.4723,57.5106],[59.271,57.5968],[58.8413,57.772],[58.6387,57.8506],[58.4027,57.939],[58.2019,58.0116],[58.166,58.0243],[57.9289,58.1064],[57.6919,58.1852],[57.5546,58.2293],[57.4553,58.2605],[57.2195,58.3324],[56.9848,58.4009],[56.9002,58.4248],[56.7514,58.4658],[56.4379,58.5484],[56.2396,58.5978],[56.119,58.6267],[55.7974,58.7002],[55.5734,58.7481],[55.4737,58.7685],[55.1482,58.8317],[54.9025,58.8756],[54.8213,58.8894],[54.4931,58.9418],[54.2276,58.9801],[54.1638,58.9888],[53.8885,59.0233],[53.6248,59.0533],[53.5495,59.0616],[53.5021,59.0664],[53.3606,59.0798],[53.096,59.1028],[52.8691,59.1198],[52.8374,59.1219],[52.5659,59.1381],[52.3006,59.1505],[52.1871,59.1548],[52.1711,59.1553],[52.0351,59.1594],[51.7697,59.1647],[51.5043,59.1664],[51.1842,59.1639],[50.864,59.1561],[50.8375,59.1553],[50.8214,59.1548],[50.5439,59.1433],[50.224,59.1253],[50.1711,59.1219],[50.1394,59.1198],[49.8314,59.0961],[49.5064,59.0664],[49.459,59.0616],[49.0487,59.0146],[48.8447,58.9888],[48.7809,58.9801],[48.5154,58.9418],[48.1873,58.8894],[48.1061,58.8756],[47.8603,58.8317],[47.5348,58.7685],[47.4351,58.7481],[47.2111,58.7002],[46.8895,58.6267],[46.769,58.5978],[46.5707,58.5484],[46.2571,58.4658],[46.1083,58.4248],[46.0238,58.4009],[45.789,58.3324],[45.5532,58.2605],[45.454,58.2293],[45.3166,58.1852],[45.0796,58.1064],[44.8425,58.0243],[44.8067,58.0116],[44.6058,57.939],[44.3698,57.8506],[44.1672,57.772],[43.7375,57.5968],[43.5362,57.5106],[43.1142,57.3215],[42.9146,57.2279],[42.5006,57.0251],[42.303,56.9241],[41.8974,56.7081],[41.7021,56.5996],[41.3055,56.3706],[41.1126,56.2548],[40.7253,56.0132],[40.5352,55.8901],[40.1577,55.6363],[39.9707,55.5058],[39.6032,55.2402],[39.4195,55.1025],[39.0626,54.8254],[38.8825,54.6806],[38.5364,54.3925],[38.3602,54.2407],[38.0252,53.9419],[37.8532,53.7831],[37.5297,53.4742],[37.3621,53.3086],[37.0504,52.9898],[36.8875,52.8175],[36.5879,52.4895],[36.43,52.3105],[36.1427,51.9736],[35.99,51.7882],[35.7154,51.4429],[35.5682,51.2511],[35.3064,50.8979],[35.1649,50.7],[34.9161,50.3393],[34.7806,50.1355],[34.5451,49.7677],[34.4159,49.5581],[34.1939,49.1839],[34.0711,48.9686],[33.8627,48.5884],[33.7466,48.3677],[33.5519,47.982],[33.4428,47.7561],[33.2621,47.3653],[33.16,47.1344],[32.9933,46.7391],[32.8987,46.5035],[32.7461,46.1041],[32.659,45.864],[32.5207,45.4611],[32.4414,45.2167],[32.3173,44.8108],[32.2459,44.5624],[32.1361,44.1539],[32.0729,43.9017],[31.9775,43.4912],[31.9226,43.2355],[31.8415,42.8236],[31.7951,42.5646],[31.7283,42.1516],[31.6905,41.8898],[31.6381,41.4762],[31.6091,41.2117],[31.5709,40.7981],[31.5509,40.5313],[31.5269,40.1182],[31.5159,39.8492],[31.5061,39.4371],[31.5043,39.1664]]
M73 P0 R26
;TYPE:Custom
START_PRINT T_BED=110 T_EXTRUDER=260
G90
G21
M83 ; use relative distances for extrusion
; Filament gcode

    PRESSURE_ADVANCE_SELECT FILAMENT=ABS
M106 S0
;LAYER_CHANGE
;Z:0.2
;HEIGHT:0.2
;BEFORE_LAYER_CHANGE
;0.2
G92 E0

;AFTER_LAYER_CHANGE
;0.2
;_SET_FAN_SPEED_CHANGING_LAYER
SET_VELOCITY_LIMIT ACCEL=1000 ACCEL_TO_DECEL=500
SET_VELOCITY_LIMIT SQUARE_CORNER_VELOCITY=9
G1 E-.5 F3000
G1 Z.2 F21000
G1 X34.014 Y24.832
G1 Z.2
G1 E.5 F1800
;TYPE:Skirt
;WIDTH:0.5
G1 F3000
G1 X35.586 Y23.104 E.08219
G1 X37.4 Y21.49 E.08547
G1 X39.449 Y20.035 E.08845
G1 X42.002 Y18.646 E.10226
G1 X44.366 Y17.71 E.08948
G1 X47.113 Y16.983 E.10002
G1 X49.513 Y16.641 E.0853
G1 X51.941 Y16.557 E.08552
G1 X54.369 Y16.735 E.08569
G1 X55.84 Y16.972 E.05243
G1 X57.412 Y17.338 E.05679
G1 X58.814 Y17.767 E.05162
G1 X60.269 Y18.321 E.05479
