; HEADER_BLOCK_START
; generated by OrcaSlicer 1.6.3 on 2023-06-08 at 15:56:27
; total layer number: 101
; HEADER_BLOCK_END

; THUMBNAIL_BLOCK_START
; THUMBNAIL_BLOCK_END

; external perimeters extrusion width = 0.40mm
; perimeters extrusion width = 0.45mm
; infill extrusion width = 0.45mm
; solid infill extrusion width = 0.40mm
; top infill extrusion width = 0.40mm
; first layer extrusion width = 0.50mm

; external perimeters extrusion width = 0.40mm
; perimeters extrusion width = 0.45mm
; infill extrusion width = 0.45mm
; solid infill extrusion width = 0.40mm
; top infill extrusion width = 0.40mm
; first layer extrusion width = 0.50mm

; external perimeters extrusion width = 0.40mm
; perimeters extrusion width = 0.45mm
; infill extrusion width = 0.45mm
; solid infill extrusion width = 0.40mm
; top infill extrusion width = 0.40mm
; first layer extrusion width = 0.50mm

; external perimeters extrusion width = 0.40mm
; perimeters extrusion width = 0.45mm
; infill extrusion width = 0.45mm
; solid infill extrusion width = 0.40mm
; top infill extrusion width = 0.40mm
; first layer extrusion width = 0.50mm

; external perimeters extrusion width = 0.40mm
; perimeters extrusion width = 0.45mm
; infill extrusion width = 0.45mm
; solid infill extrusion width = 0.40mm
; top infill extrusion width = 0.40mm
; first layer extrusion width = 0.50mm

; EXECUTABLE_BLOCK_START
EXCLUDE_OBJECT_DEFINE NAME=Strain_Relief_LGX_Umbilical(1).stl_id_0_copy_0 CENTER=71.6683,65.8131 POLYGON=[[46.1983,72.7835],[46.2201,71.7301],[46.2854,70.6786],[46.3942,69.6306],[46.5462,68.5881],[46.7412,67.5527],[46.9788,66.5263],[47.2587,65.5106],[47.5804,64.5073],[47.9433,63.5182],[48.3468,62.5449],[48.7902,61.5892],[49.2727,60.6526],[49.7936,59.7367],[50.3518,58.8432],[62.6683,40.1435],[63.0283,39.7835],[80.3083,39.7835],[80.6683,40.1435],[96.7372,71.1443],[96.7647,71.1983],[96.8057,71.2832],[96.8286,71.3334],[96.868,71.425],[96.8867,71.471],[96.9242,71.5693],[96.939,71.6109],[96.974,71.716],[96.9854,71.7529],[97.0173,71.8647],[97.0257,71.8967],[97.0541,72.0151],[97.06,72.0421],[97.0843,72.167],[97.0881,72.1888],[97.1079,72.3201],[97.11,72.3365],[97.1248,72.4741],[97.1257,72.4851],[97.1349,72.6286],[97.1351,72.6342],[97.1383,72.7835],[97.1165,73.8368],[97.0512,74.8884],[96.9424,75.9364],[96.7904,76.9789],[96.5954,78.0143],[96.3577,79.0407],[96.0778,80.0564],[95.7561,81.0597],[95.3933,82.0488],[94.9898,83.0221],[94.5464,83.9778],[94.0638,84.9144],[93.543,85.8302],[92.9847,86.7237],[92.3899,87.5934],[91.7597,88.4377],[91.0951,89.2552],[90.3973,90.0446],[89.6674,90.8044],[89.5555,90.9114],[89.439,91.0135],[89.3181,91.1103],[89.1931,91.2018],[89.0643,91.2878],[88.9318,91.3681],[88.796,91.4425],[88.657,91.5109],[88.5152,91.5732],[88.3709,91.6293],[88.2242,91.679],[88.0754,91.7222],[87.925,91.7589],[87.773,91.7891],[87.6199,91.8125],[87.466,91.8293],[87.3114,91.8393],[87.1566,91.8426],[87.0017,91.8392],[86.8472,91.8289],[86.6932,91.812],[86.5401,91.7883],[86.3882,91.758],[86.2378,91.7211],[52.4884,82.7331],[52.4259,82.715],[52.3643,82.6943],[52.3037,82.6709],[52.2441,82.6448],[52.1858,82.6163],[52.1287,82.5852],[52.073,82.5517],[52.0188,82.5158],[51.9662,82.4776],[51.9153,82.4372],[51.8663,82.3946],[51.8191,82.3499],[51.7739,82.3032],[51.7307,82.2545],[51.6897,82.2041],[51.651,82.1519],[51.6145,82.0981],[46.7937,74.7515],[46.7542,74.6909],[46.735,74.6603],[46.7137,74.6258],[46.6739,74.5585],[46.6573,74.5295],[46.6391,74.4968],[46.5994,74.4227],[46.5854,74.3955],[46.5699,74.3649],[46.5309,74.2838],[46.5192,74.2585],[46.5064,74.2301],[46.4685,74.142],[46.459,74.1188],[46.4486,74.0928],[46.4124,73.9977],[46.4048,73.9767],[46.3965,73.9532],[46.3626,73.851],[46.3568,73.8324],[46.3504,73.8115],[46.3192,73.7023],[46.315,73.6862],[46.3102,73.6681],[46.2824,73.5519],[46.2794,73.5383],[46.2762,73.523],[46.2522,73.3999],[46.2503,73.389],[46.2482,73.3767],[46.2286,73.2469],[46.2276,73.2386],[46.2264,73.2293],[46.2118,73.0929],[46.2113,73.0874],[46.2108,73.0811],[46.2017,72.9383],[46.2015,72.9356],[46.1983,72.7835]]
EXCLUDE_OBJECT_DEFINE NAME=Strain_Relief_LGX_Umbilical_Spacer(1).stl_id_1_copy_0 CENTER=42.9031,45.5188 POLYGON=[[39.3531,45.5188],[39.3564,45.3639],[39.3666,45.2094],[39.3834,45.0554],[39.407,44.9023],[39.4372,44.7504],[39.474,44.6],[39.5174,44.4513],[39.5672,44.3046],[39.6233,44.1603],[39.6857,44.0185],[39.7542,43.8796],[39.8287,43.7438],[39.909,43.6114],[39.9951,43.4826],[40.0867,43.3577],[40.1836,43.2369],[40.2857,43.1204],[40.3928,43.0086],[40.5047,42.9015],[40.6212,42.7993],[40.742,42.7024],[40.8669,42.6108],[40.9957,42.5248],[41.1281,42.4444],[41.2639,42.3699],[41.4028,42.3014],[41.5445,42.239],[41.6889,42.1829],[41.8356,42.1331],[41.9843,42.0898],[42.1347,42.0529],[42.2866,42.0227],[42.4397,41.9992],[42.5937,41.9823],[42.7482,41.9722],[42.9031,41.9688],[43.0579,41.9722],[43.2125,41.9823],[43.3664,41.9992],[43.5195,42.0227],[43.6714,42.0529],[43.8219,42.0898],[43.9706,42.1331],[44.1172,42.1829],[44.2616,42.239],[44.4034,42.3014],[44.5423,42.3699],[44.6781,42.4444],[44.8105,42.5248],[44.9393,42.6108],[45.0642,42.7024],[45.185,42.7993],[45.3014,42.9015],[45.4133,43.0086],[45.5204,43.1204],[45.6225,43.2369],[45.7195,43.3577],[45.8111,43.4826],[45.8971,43.6114],[45.9775,43.7438],[46.052,43.8796],[46.1205,44.0185],[46.1828,44.1603],[46.239,44.3046],[46.2888,44.4513],[46.3321,44.6],[46.3689,44.7504],[46.3991,44.9023],[46.4227,45.0554],[46.4396,45.2094],[46.4497,45.3639],[46.4531,45.5188],[46.4497,45.6736],[46.4396,45.8282],[46.4227,45.9822],[46.3991,46.1352],[46.3689,46.2872],[46.3321,46.4376],[46.2888,46.5863],[46.239,46.733],[46.1828,46.8773],[46.1205,47.0191],[46.052,47.158],[45.9775,47.2938],[45.8971,47.4262],[45.8111,47.555],[45.7195,47.6799],[45.6225,47.8007],[45.5204,47.9171],[45.4133,48.029],[45.3014,48.1361],[45.185,48.2382],[45.0642,48.3352],[44.9393,48.4268],[44.8105,48.5128],[44.6781,48.5932],[44.5423,48.6677],[44.4034,48.7362],[44.2616,48.7986],[44.1172,48.8547],[43.9706,48.9045],[43.8219,48.9478],[43.6714,48.9846],[43.5195,49.0149],[43.3664,49.0384],[43.2125,49.0553],[43.0579,49.0654],[42.9031,49.0688],[42.7482,49.0654],[42.5937,49.0553],[42.4397,49.0384],[42.2866,49.0149],[42.1347,48.9846],[41.9843,48.9478],[41.8356,48.9045],[41.6889,48.8547],[41.5445,48.7986],[41.4028,48.7362],[41.2639,48.6677],[41.1281,48.5932],[40.9957,48.5128],[40.8669,48.4268],[40.742,48.3352],[40.6212,48.2382],[40.5047,48.1361],[40.3928,48.029],[40.2857,47.9171],[40.1836,47.8007],[40.0867,47.6799],[39.9951,47.555],[39.909,47.4262],[39.8287,47.2938],[39.7542,47.158],[39.6857,47.0191],[39.6233,46.8773],[39.5672,46.733],[39.5174,46.5863],[39.474,46.4376],[39.4372,46.2872],[39.407,46.1352],[39.3834,45.9822],[39.3666,45.8282],[39.3564,45.6736],[39.3531,45.5188]]
EXCLUDE_OBJECT_DEFINE NAME=Strain_Relief_LGX_Umbilical_Spacer(1).stl_id_2_copy_0 CENTER=34.6396,60.4877 POLYGON=[[31.0896,60.4877],[31.093,60.3329],[31.1031,60.1783],[31.1199,60.0244],[31.1435,59.8713],[31.1737,59.7194],[31.2105,59.5689],[31.2539,59.4202],[31.3037,59.2736],[31.3598,59.1292],[31.4222,58.9874],[31.4907,58.8485],[31.5652,58.7127],[31.6455,58.5803],[31.7316,58.4515],[31.8232,58.3266],[31.9201,58.2058],[32.0222,58.0894],[32.1293,57.9775],[32.2412,57.8704],[32.3577,57.7683],[32.4785,57.6713],[32.6034,57.5797],[32.7322,57.4937],[32.8646,57.4133],[33.0004,57.3388],[33.1393,57.2703],[33.281,57.208],[33.4254,57.1518],[33.5721,57.102],[33.7208,57.0587],[33.8712,57.0219],[34.0231,56.9917],[34.1762,56.9681],[34.3302,56.9512],[34.4847,56.9411],[34.6396,56.9377],[34.7944,56.9411],[34.949,56.9512],[35.1029,56.9681],[35.256,56.9917],[35.4079,57.0219],[35.5584,57.0587],[35.7071,57.102],[35.8537,57.1518],[35.9981,57.208],[36.1399,57.2703],[36.2788,57.3388],[36.4146,57.4133],[36.547,57.4937],[36.6758,57.5797],[36.8007,57.6713],[36.9215,57.7683],[37.0379,57.8704],[37.1498,57.9775],[37.2569,58.0894],[37.359,58.2058],[37.456,58.3266],[37.5476,58.4515],[37.6336,58.5803],[37.714,58.7127],[37.7885,58.8485],[37.857,58.9874],[37.9193,59.1292],[37.9755,59.2736],[38.0253,59.4202],[38.0686,59.5689],[38.1054,59.7194],[38.1356,59.8713],[38.1592,60.0244],[38.1761,60.1783],[38.1862,60.3329],[38.1896,60.4877],[38.1862,60.6426],[38.1761,60.7971],[38.1592,60.9511],[38.1356,61.1042],[38.1054,61.2561],[38.0686,61.4065],[38.0253,61.5552],[37.9755,61.7019],[37.9193,61.8462],[37.857,61.988],[37.7885,62.1269],[37.714,62.2627],[37.6336,62.3951],[37.5476,62.5239],[37.456,62.6488],[37.359,62.7696],[37.2569,62.8861],[37.1498,62.998],[37.0379,63.1051],[36.9215,63.2072],[36.8007,63.3041],[36.6758,63.3957],[36.547,63.4818],[36.4146,63.5621],[36.2788,63.6366],[36.1399,63.7051],[35.9981,63.7675],[35.8537,63.8236],[35.7071,63.8734],[35.5584,63.9168],[35.4079,63.9536],[35.256,63.9838],[35.1029,64.0074],[34.949,64.0242],[34.7944,64.0343],[34.6396,64.0377],[34.4847,64.0343],[34.3302,64.0242],[34.1762,64.0074],[34.0231,63.9838],[33.8712,63.9536],[33.7208,63.9168],[33.5721,63.8734],[33.4254,63.8236],[33.281,63.7675],[33.1393,63.7051],[33.0004,63.6366],[32.8646,63.5621],[32.7322,63.4818],[32.6034,63.3957],[32.4785,63.3041],[32.3577,63.2072],[32.2412,63.1051],[32.1293,62.998],[32.0222,62.8861],[31.9201,62.7696],[31.8232,62.6488],[31.7316,62.5239],[31.6455,62.3951],[31.5652,62.2627],[31.4907,62.1269],[31.4222,61.988],[31.3598,61.8462],[31.3037,61.7019],[31.2539,61.5552],[31.2105,61.4065],[31.1737,61.2561],[31.1435,61.1042],[31.1199,60.9511],[31.1031,60.7971],[31.093,60.6426],[31.0896,60.4877]]
EXCLUDE_OBJECT_DEFINE NAME=Strain_Relief_Spacer_x2.stl_id_3_copy_0 CENTER=26.1117,46.013 POLYGON=[[22.8617,46.013],[22.8662,45.8429],[22.8795,45.6733],[22.9017,45.5046],[22.9327,45.3373],[22.9725,45.1719],[23.0208,45.0087],[23.0776,44.8483],[23.1427,44.6911],[23.2159,44.5376],[23.2971,44.388],[23.386,44.2429],[23.4824,44.1027],[23.586,43.9677],[23.6965,43.8383],[23.8136,43.7149],[23.937,43.5978],[24.0664,43.4873],[24.2014,43.3837],[24.3416,43.2873],[24.4867,43.1984],[24.6362,43.1173],[24.7898,43.044],[24.947,42.9789],[25.1074,42.9221],[25.2706,42.8738],[25.436,42.834],[25.6033,42.803],[25.772,42.7808],[25.9416,42.7675],[26.1117,42.763],[26.2818,42.7675],[26.4514,42.7808],[26.6201,42.803],[26.7874,42.834],[26.9529,42.8738],[27.116,42.9221],[27.2764,42.9789],[27.4336,43.044],[27.5872,43.1173],[27.7367,43.1984],[27.8818,43.2873],[28.022,43.3837],[28.157,43.4873],[28.2864,43.5978],[28.4098,43.7149],[28.5269,43.8383],[28.6374,43.9677],[28.741,44.1027],[28.8374,44.2429],[28.9263,44.388],[29.0075,44.5376],[29.0807,44.6911],[29.1459,44.8483],[29.2026,45.0087],[29.251,45.1719],[29.2907,45.3373],[29.3217,45.5046],[29.3439,45.6733],[29.3573,45.8429],[29.3617,46.013],[29.3573,46.1831],[29.3439,46.3527],[29.3217,46.5214],[29.2907,46.6887],[29.251,46.8542],[29.2026,47.0173],[29.1459,47.1777],[29.0807,47.3349],[29.0075,47.4885],[28.9263,47.638],[28.8374,47.7831],[28.741,47.9233],[28.6374,48.0583],[28.5269,48.1877],[28.4098,48.3111],[28.2864,48.4282],[28.157,48.5387],[28.022,48.6423],[27.8818,48.7387],[27.7367,48.8276],[27.5872,48.9088],[27.4336,48.982],[27.2764,49.0472],[27.116,49.104],[26.9529,49.1523],[26.7874,49.192],[26.6201,49.223],[26.4514,49.2452],[26.2818,49.2586],[26.1117,49.263],[25.9416,49.2586],[25.772,49.2452],[25.6033,49.223],[25.436,49.192],[25.2706,49.1523],[25.1074,49.104],[24.947,49.0472],[24.7898,48.982],[24.6362,48.9088],[24.4867,48.8276],[24.3416,48.7387],[24.2014,48.6423],[24.0664,48.5387],[23.937,48.4282],[23.8136,48.3111],[23.6965,48.1877],[23.586,48.0583],[23.4824,47.9233],[23.386,47.7831],[23.2971,47.638],[23.2159,47.4885],[23.1427,47.3349],[23.0776,47.1777],[23.0208,47.0173],[22.9725,46.8542],[22.9327,46.6887],[22.9017,46.5214],[22.8795,46.3527],[22.8662,46.1831],[22.8617,46.013]]
EXCLUDE_OBJECT_DEFINE NAME=Strain_Relief_Spacer_x2.stl_id_4_copy_0 CENTER=33.7864,31.4073 POLYGON=[[30.5364,31.4073],[30.5409,31.2372],[30.5542,31.0676],[30.5764,30.8989],[30.6074,30.7316],[30.6472,30.5662],[30.6955,30.403],[30.7523,30.2426],[30.8174,30.0854],[30.8906,29.9319],[30.9718,29.7823],[31.0607,29.6373],[31.1571,29.497],[31.2607,29.362],[31.3712,29.2327],[31.4883,29.1092],[31.6117,28.9921],[31.7411,28.8816],[31.8761,28.778],[32.0163,28.6817],[32.1614,28.5928],[32.3109,28.5116],[32.4645,28.4383],[32.6217,28.3732],[32.7821,28.3164],[32.9453,28.2681],[33.1107,28.2284],[33.278,28.1974],[33.4467,28.1751],[33.6163,28.1618],[33.7864,28.1573],[33.9565,28.1618],[34.1261,28.1751],[34.2948,28.1974],[34.4621,28.2284],[34.6276,28.2681],[34.7907,28.3164],[34.9511,28.3732],[35.1083,28.4383],[35.2619,28.5116],[35.4114,28.5928],[35.5565,28.6817],[35.6967,28.778],[35.8317,28.8816],[35.9611,28.9921],[36.0845,29.1092],[36.2016,29.2327],[36.3121,29.362],[36.4157,29.497],[36.5121,29.6373],[36.601,29.7823],[36.6822,29.9319],[36.7554,30.0854],[36.8205,30.2426],[36.8773,30.403],[36.9257,30.5662],[36.9654,30.7316],[36.9964,30.8989],[37.0186,31.0676],[37.032,31.2372],[37.0364,31.4073],[37.032,31.5774],[37.0186,31.7471],[36.9964,31.9157],[36.9654,32.0831],[36.9257,32.2485],[36.8773,32.4116],[36.8205,32.572],[36.7554,32.7292],[36.6822,32.8828],[36.601,33.0323],[36.5121,33.1774],[36.4157,33.3176],[36.3121,33.4526],[36.2016,33.582],[36.0845,33.7054],[35.9611,33.8226],[35.8317,33.9331],[35.6967,34.0366],[35.5565,34.133],[35.4114,34.2219],[35.2619,34.3031],[35.1083,34.3764],[34.9511,34.4415],[34.7907,34.4983],[34.6276,34.5466],[34.4621,34.5863],[34.2948,34.6173],[34.1261,34.6395],[33.9565,34.6529],[33.7864,34.6573],[33.6163,34.6529],[33.4467,34.6395],[33.278,34.6173],[33.1107,34.5863],[32.9453,34.5466],[32.7821,34.4983],[32.6217,34.4415],[32.4645,34.3764],[32.3109,34.3031],[32.1614,34.2219],[32.0163,34.133],[31.8761,34.0366],[31.7411,33.9331],[31.6117,33.8226],[31.4883,33.7054],[31.3712,33.582],[31.2607,33.4526],[31.1571,33.3176],[31.0607,33.1774],[30.9718,33.0323],[30.8906,32.8828],[30.8174,32.7292],[30.7523,32.572],[30.6955,32.4116],[30.6472,32.2485],[30.6074,32.0831],[30.5764,31.9157],[30.5542,31.7471],[30.5409,31.5774],[30.5364,31.4073]]
M73 P0 R21
;TYPE:Custom
START_PRINT T_BED=110 T_EXTRUDER=260
G90
G21
M83 ; use relative distances for extrusion
; Filament gcode

    PRESSURE_ADVANCE_SELECT FILAMENT=ABS
M106 S0
;LAYER_CHANGE
;Z:0.2
;HEIGHT:0.2
;BEFORE_LAYER_CHANGE
;0.2
G92 E0

;AFTER_LAYER_CHANGE
;0.2
SET_VELOCITY_LIMIT ACCEL_TO_DECEL=500
M204 S1000
G1 E-.5 F3000
G1 Z.2 F21000
G1 X29.911 Y27.007
G1 E.5 F1800
;TYPE:Skirt
;WIDTH:0.5
G1 F3000
G1 X31.101 Y26.195 E.05073
G1 X32.533 Y25.68 E.05355
G1 X33.916 Y25.545 E.04891
G1 X35.266 Y25.733 E.04796
G1 X81.079 Y37.257 E1.66258
G1 X82.401 Y37.995 E.05327
G1 X82.958 Y38.747 E.03293
G1 X99.022 Y69.875 E1.23279
G1 X99.426 Y70.805 E.0357
G1 X99.675 Y71.811 E.03647
G1 X99.749 Y72.585 E.02737
G1 X99.725 Y74.005 E.04997
G1 X99.378 Y77.35 E.11835
G1 X98.67 Y80.491 E.11333
G1 X97.806 Y83.056 E.09524
G1 X96.391 Y86.106 E.11835
G1 X95.139 Y88.205 E.08599
G1 X93.128 Y90.899 E.11835
G1 X91.195 Y92.95 E.09916
G1 X90.058 Y93.732 E.04858
G1 X88.812 Y94.231 E.04723
G1 X87.487 Y94.448 E.04723
G1 X86.022 Y94.351 E.05168
G1 X51.321 Y85.091 E1.264
G1 X50.84 Y84.858 E.0188
G1 X50.103 Y84.322 E.03208
G1 X29.729 Y64.691 E.99572
G1 X29.011 Y63.666 E.04405
G1 X20.872 Y48.645 E.60125
G1 X20.536 Y47.828 E.03109
G1 X20.35 Y47.1 E.02644
G1 X20.253 Y46.254 E.02998
G1 X20.275 Y45.452 E.02825
G1 X20.488 Y44.352 E.03944
G1 X20.872 Y43.381 E.03675
G1 X28.955 Y28.084 E.60889
G1 X29.871 Y27.052 E.04855
G1 X30.208 Y27.354 F21000
G1 F3000
G1 X31.316 Y26.598 E.04721
G1 X32.624 Y26.127 E.04894
G1 X33.91 Y26.002 E.04545
G1 X35.154 Y26.176 E.04422
G1 X80.968 Y37.701 E1.66258
G1 X82.552 Y38.957 E.07115
G1 X98.627 Y70.107 E1.23367
G1 X98.992 Y70.947 E.03224
G1 X99.223 Y71.878 E.03376
G1 X99.292 Y72.595 E.02534
G1 X99.269 Y73.977 E.04863
G1 X98.909 Y77.384 E.12059
G1 X98.159 Y80.624 E.11702
G1 X97.384 Y82.881 E.084
G1 X95.984 Y85.897 E.11702
G1 X94.762 Y87.947 E.08399
G1 X92.773 Y90.611 E.11702
G1 X90.894 Y92.606 E.09645
G1 X89.838 Y93.331 E.04508
G1 X88.581 Y93.819 E.04748
G1 X87.351 Y93.996 E.04373
G1 X86.011 Y93.882 E.04733
G1 X51.883 Y84.803 E1.24285
G1 X51.196 Y84.531 E.02602
