; generated by SuperSlicer 2.5.59 on 2023-02-02 at 04:41:04 UTC


;
;

;
;
; 

; external perimeters extrusion width = 0.40mm
; perimeters extrusion width = 0.46mm
; infill extrusion width = 0.64mm
; solid infill extrusion width = 0.56mm
; top infill extrusion width = 0.40mm
; first layer extrusion width = 0.50mm

; object:{"name":"Super8_Reel_Adapter","id":"Super8_Reel_Adapter.stl id:0 copy 0","object_center":[60.000000,60.000000,0.000000],"boundingbox_center":[60.000000,60.000000,6.250000],"boundingbox_size":[19.999559,19.949871,12.500000]}
; plater:{"center":[60.000000,60.000000,0.000000],"boundingbox_center":[60.000000,60.000000,6.250000],"boundingbox_size":[19.999559,19.949871,12.500000]}

M73 P0 R11
;TYPE:Custom
; custom gcode: start_gcode
START_PRINT T_BED=60 T_EXTRUDER=200
; custom gcode end: start_gcode
M107
G21 ; set units to millimeters
G90 ; use absolute coordinates
M82 ; use absolute distances for extrusion
G92 E0
; custom gcode: start_filament_gcode
; Filament gcode

    PRESSURE_ADVANCE_SELECT FILAMENT=PLA
; custom gcode end: start_filament_gcode
;_TOOLCHANGE 0
M104 S200 ; set temperature
M109 S200 ; set temperature and wait for it to be reached
M190 S60 ; set bed temperature and wait for it to be reached
;LAYER_CHANGE
;Z:0.2
;HEIGHT:0.2
G1 Z0.2 F12000
M73 P0 R11
G1 E-0.8 F3000
M204 S2000
G1 X50.738 Y50.071 F12000
G1 E0 F1800
;TYPE:Skirt
;WIDTH:0.52
G1 X49.709 Y51.114 E0.05809
G1 X48.975 Y52.041 E0.10501
M73 P0 R11
G1 X47.76 Y54.067 E0.19874
G1 X47.202 Y55.379 E0.25529
G1 X46.764 Y56.846 E0.31601
G1 X46.413 Y59.182 E0.40974
G1 X46.403 Y60.687 E0.46944
G1 X46.512 Y61.865 E0.51635
G1 X47.033 Y64.17 E0.61009
G1 X47.41 Y65.207 E0.65385
G1 X48.072 Y66.586 E0.71456
G1 X48.687 Y67.596 E0.76147
G1 X49.592 Y68.799 E0.82118
G1 X50.393 Y69.669 E0.86809
G1 X51.535 Y70.688 E0.9288
G1 X52.427 Y71.337 E0.97256
G1 X53.65 Y72.069 E1.02911
G1 X55.043 Y72.703 E1.08983
G1 X56.162 Y73.086 E1.13674
G1 X58.368 Y73.537 E1.22607
G1 X61.632 Y73.537 E1.35554
G1 X63.838 Y73.086 E1.44487
G1 X64.957 Y72.703 E1.49178
G1 X66.797 Y71.82 E1.57275
G1 X68.734 Y70.467 E1.66649
G1 X69.607 Y69.669 E1.7134
G1 X70.613 Y68.55 E1.7731
G1 X71.928 Y66.586 E1.86683
G1 X72.882 Y64.425 E1.96057
G1 X73.216 Y63.29 E2.00748
G1 X73.555 Y61.277 E2.08845
G1 X73.614 Y59.853 E2.145
G1 X73.507 Y58.326 E2.20572
G1 X73.009 Y56.016 E2.29945
G1 X72.612 Y54.902 E2.34637
G1 X72.009 Y53.611 E2.40292
G1 X71.212 Y52.304 E2.46363
G1 X70.291 Y51.114 E2.52333
G1 X69.479 Y50.254 E2.57024
G1 X68.322 Y49.25 E2.631
G1 X66.92 Y48.302 E2.69815
G1 X65.876 Y47.746 E2.74506
G1 X64.561 Y47.197 E2.80162
G1 X63.092 Y46.768 E2.86233
G1 X60.752 Y46.433 E2.95607
G1 X59.248 Y46.433 E3.01577
G1 X58.071 Y46.55 E3.06268
G1 X56.908 Y46.768 E3.10959
G1 X55.439 Y47.197 E3.1703
G1 X54.124 Y47.746 E3.22686
G1 X53.08 Y48.302 E3.27377
G1 X51.807 Y49.151 E3.33448
G1 X50.954 Y49.853 E3.37829
G1 X50.738 Y50.071 E3.39049
G1 X51.07 Y50.392 F12000
G1 F1800
G1 X50.06 Y51.437 E3.44814
G1 X49.352 Y52.332 E3.49341
G1 X48.182 Y54.29 E3.58386
G1 X47.653 Y55.535 E3.63754
G1 X47.224 Y56.972 E3.69702
G1 X46.888 Y59.227 E3.78747
G1 X46.868 Y60.368 E3.83274
G1 X46.982 Y61.785 E3.88915
G1 X47.483 Y64.01 E3.9796
G1 X47.848 Y65.018 E4.02213
G1 X48.498 Y66.369 E4.08162
G1 X49.092 Y67.344 E4.12688
G1 X49.947 Y68.48 E4.1833
G1 X50.718 Y69.321 E4.22857
G1 X51.837 Y70.319 E4.28805
G1 X52.705 Y70.949 E4.33058
G1 X53.866 Y71.643 E4.38425
G1 X55.231 Y72.265 E4.44373
G1 X56.311 Y72.633 E4.489
G1 X58.436 Y73.065 E4.57505
G1 X61.564 Y73.065 E4.6991
G1 X63.689 Y72.633 E4.78515
G1 X64.769 Y72.265 E4.83042
G1 X66.572 Y71.399 E4.90974
G1 X68.44 Y70.091 E5.00019
G1 X69.282 Y69.321 E5.04546
G1 X70.232 Y68.263 E5.10188
G1 X71.502 Y66.369 E5.19233
G1 X72.426 Y64.285 E5.28278
G1 X72.749 Y63.19 E5.32805
G1 X73.082 Y61.218 E5.40738
G1 X73.137 Y59.866 E5.46105
G1 X73.032 Y58.371 E5.52054
G1 X72.549 Y56.142 E5.61099
G1 X72.165 Y55.068 E5.65626
G1 X71.592 Y53.842 E5.70993
G1 X70.81 Y52.562 E5.76941
G1 X69.94 Y51.437 E5.82583
G1 X69.157 Y50.607 E5.8711
G1 X68.025 Y49.623 E5.93062
G1 X66.664 Y48.705 E5.99572
G1 X65.657 Y48.169 E6.04099
G1 X64.408 Y47.649 E6.09467
G1 X62.969 Y47.229 E6.15414
G1 X60.711 Y46.908 E6.2446
G1 X59.289 Y46.908 E6.30101
G1 X58.153 Y47.019 E6.34628
G1 X57.031 Y47.229 E6.39155
G1 X55.592 Y47.649 E6.45103
G1 X54.343 Y48.169 E6.50471
G1 X53.336 Y48.705 E6.54998
G1 X52.088 Y49.537 E6.60946
G1 X51.102 Y50.359 E6.66039
G1 X51.07 Y50.392 E6.66222
G92 E0
G1 E-0.8 F3000
; printing object Super8_Reel_Adapter.stl id:0 copy 0
; acceleration to travel
M204 S4000
G1 X58.533 Y62.442 F12000
; decel to extrusion
M204 S2000
G1 X62.264 Y68.466
; end travel
G1 E0 F1800
;TYPE:Internal perimeter
;WIDTH:0.5
G1 X62.264 Y64.83 E0.1382
G1 X62.786 Y64.552 E0.16068
G1 X63.18 Y64.284 E0.17877
G1 X63.548 Y63.983 E0.19686
G1 X64.015 Y63.509 E0.22216
G1 X64.31 Y63.136 E0.24024
G1 X64.564 Y62.749 E0.25781
G1 X64.783 Y62.343 E0.27538
G1 X64.972 Y61.906 E0.29347
G1 X65.168 Y61.27 E0.31876
G1 X65.258 Y60.802 E0.33685
G1 X65.306 Y60.342 E0.35442
G1 X65.314 Y59.867 E0.37251
G1 X65.252 Y59.204 E0.39781
G1 X65.154 Y58.724 E0.41642
G1 X64.947 Y58.077 E0.44224
G1 X64.652 Y57.45 E0.46859
G1 X64.277 Y56.867 E0.49493
G1 X63.839 Y56.347 E0.52075
G1 X63.484 Y56.01 E0.53937
G1 X62.944 Y55.598 E0.56519
G1 X62.343 Y55.252 E0.59153
G1 X61.702 Y54.988 E0.61788
G1 X61.032 Y54.809 E0.64423
G1 X60.345 Y54.719 E0.67057
G1 X59.652 Y54.72 E0.69692
G1 X58.964 Y54.81 E0.72326
G1 X58.295 Y54.989 E0.74961
G1 X57.654 Y55.254 E0.77596
G1 X57.065 Y55.593 E0.80178
G1 X56.67 Y55.882 E0.82039
G1 X56.168 Y56.34 E0.84621
G1 X55.721 Y56.869 E0.87256
G1 X55.347 Y57.453 E0.8989
G1 X55.057 Y58.068 E0.92473
G1 X54.898 Y58.531 E0.94334
G1 X54.749 Y59.194 E0.96916
G1 X54.685 Y59.884 E0.99551
G1 X54.711 Y60.563 E1.02133
G1 X54.781 Y61.034 E1.03942
G1 X54.892 Y61.497 E1.05751
G1 X55.116 Y62.123 E1.0828
G1 X55.324 Y62.552 E1.10089
G1 X55.568 Y62.96 E1.11898
G1 X55.978 Y63.502 E1.14481
G1 X56.454 Y63.986 E1.17063
G1 X56.823 Y64.287 E1.18872
M73 P1 R11
G1 X57.217 Y64.554 E1.20681
G1 X57.736 Y64.83 E1.22914
G1 X57.736 Y68.466 E1.36735
G1 X56.916 Y68.197 E1.40015
G1 X56.206 Y67.893 E1.42951
G1 X55.892 Y67.734 E1.44289
G1 X55.227 Y67.34 E1.47225
G1 X54.599 Y66.89 E1.50161
G1 X54.327 Y66.667 E1.51499
G1 X53.763 Y66.14 E1.54435
G1 X53.255 Y65.575 E1.57319
G1 X52.799 Y64.969 E1.60203
G1 X52.397 Y64.325 E1.63087
G1 X52.046 Y63.637 E1.66023
G1 X51.907 Y63.314 E1.67361
G1 X51.649 Y62.586 E1.70297
G1 X51.458 Y61.851 E1.73181
G1 X51.332 Y61.103 E1.76065
G1 X51.271 Y60.347 E1.78948
G1 X51.276 Y59.588 E1.81832
G1 X51.347 Y58.832 E1.84716
G1 X51.483 Y58.086 E1.876
G1 X51.687 Y57.341 E1.90536
G1 X51.802 Y57.008 E1.91874
G1 X52.102 Y56.296 E1.9481
G1 X52.455 Y55.624 E1.97694
G1 X52.865 Y54.986 E2.00578
G1 X53.33 Y54.386 E2.03462
G1 X53.854 Y53.818 E2.06398
G1 X54.109 Y53.576 E2.07736
G1 X54.712 Y53.072 E2.10724
G1 X54.997 Y52.865 E2.12062
G1 X55.649 Y52.451 E2.14998
G1 X56.323 Y52.102 E2.17882
G1 X57.037 Y51.808 E2.20818
G1 X57.371 Y51.695 E2.22156
G1 X58.117 Y51.496 E2.25092
G1 X58.865 Y51.365 E2.27976
G1 X59.621 Y51.299 E2.3086
G1 X60.379 Y51.299 E2.33744
G1 X60.757 Y51.332 E2.35186
G1 X61.135 Y51.365 E2.36628
G1 X61.883 Y51.496 E2.39512
G1 X62.629 Y51.695 E2.42448
G1 X62.963 Y51.808 E2.43786
G1 X63.677 Y52.102 E2.46722
G1 X64.351 Y52.451 E2.49606
G1 X65.003 Y52.865 E2.52542
G1 X65.299 Y53.08 E2.53932
G1 X65.585 Y53.308 E2.55322
G1 X66.156 Y53.828 E2.58258
G1 X66.67 Y54.386 E2.61142
G1 X67.135 Y54.986 E2.64026
G1 X67.552 Y55.636 E2.66962
G1 X67.723 Y55.944 E2.683
G1 X68.053 Y56.642 E2.71236
G1 X68.316 Y57.354 E2.7412
G1 X68.517 Y58.086 E2.77004
M73 P1 R11
G1 X68.653 Y58.832 E2.79888
G1 X68.725 Y59.601 E2.82824
G1 X68.735 Y59.953 E2.84162
G1 X68.707 Y60.725 E2.87098
G1 X68.613 Y61.478 E2.89982
G1 X68.454 Y62.22 E2.92866
G1 X68.232 Y62.946 E2.9575
G1 X67.947 Y63.649 E2.98634
G1 X67.603 Y64.325 E3.01518
G1 X67.201 Y64.969 E3.04401
G1 X66.745 Y65.575 E3.07285
G1 X66.237 Y66.14 E3.10169
G1 X65.683 Y66.658 E3.13053
G1 X65.086 Y67.126 E3.15937
G1 X64.451 Y67.541 E3.18821
G1 X63.782 Y67.899 E3.21704
G1 X63.084 Y68.197 E3.24588
G1 X62.264 Y68.466 E3.27868
G1 X61.807 Y69.034 F12000
G1 F1800
G1 X61.807 Y64.526 E3.45003
G1 X62.002 Y64.452 E3.45795
G1 X62.55 Y64.161 E3.48152
G1 X62.906 Y63.918 E3.49791
G1 X63.24 Y63.645 E3.5143
G1 X63.672 Y63.206 E3.53771
G1 X63.939 Y62.868 E3.55409
G1 X64.171 Y62.515 E3.57015
G1 X64.372 Y62.143 E3.5862
G1 X64.543 Y61.747 E3.60259
G1 X64.724 Y61.159 E3.626
G1 X64.806 Y60.735 E3.64238
G1 X64.849 Y60.315 E3.65844
G1 X64.856 Y59.884 E3.67483
G1 X64.799 Y59.271 E3.69823
G1 X64.711 Y58.84 E3.71496
G1 X64.521 Y58.245 E3.7387
G1 X64.251 Y57.672 E3.76277
G1 X63.908 Y57.139 E3.78685
G1 X63.505 Y56.661 E3.81059
G1 X63.187 Y56.358 E3.82731
G1 X62.69 Y55.979 E3.85105
G1 X62.141 Y55.663 E3.87513
G1 X61.555 Y55.422 E3.89921
G1 X60.943 Y55.259 E3.92328
G1 X60.315 Y55.177 E3.94736
G1 X59.682 Y55.177 E3.97144
G1 X59.053 Y55.259 E3.99551
G1 X58.442 Y55.423 E4.01959
G1 X57.856 Y55.665 E4.04366
G1 X57.315 Y55.976 E4.06741
G1 X56.959 Y56.236 E4.08413
G1 X56.498 Y56.657 E4.10787
G1 X56.09 Y57.141 E4.13194
G1 X55.748 Y57.675 E4.15602
G1 X55.482 Y58.24 E4.17976
G1 X55.339 Y58.656 E4.19649
G1 X55.201 Y59.265 E4.22023
G1 X55.143 Y59.896 E4.2443
G1 X55.167 Y60.52 E4.26805
G1 X55.23 Y60.947 E4.28443
G1 X55.331 Y61.366 E4.30082
G1 X55.538 Y61.946 E4.32423
G1 X55.726 Y62.334 E4.34062
G1 X55.947 Y62.704 E4.357
G1 X56.324 Y63.202 E4.38075
G1 X56.763 Y63.647 E4.40449
G1 X57.097 Y63.92 E4.42088
G1 X57.453 Y64.162 E4.43726
G1 X58.001 Y64.453 E4.46083
G1 X58.193 Y64.526 E4.46863
G1 X58.193 Y69.034 E4.63997
G1 X57.513 Y68.874 E4.66651
G1 X56.754 Y68.625 E4.69686
G1 X56.012 Y68.308 E4.72754
G1 X55.672 Y68.135 E4.74206
G1 X54.977 Y67.723 E4.77274
G1 X54.321 Y67.253 E4.80342
G1 X54.025 Y67.011 E4.81793
G1 X53.436 Y66.46 E4.84862
G1 X52.902 Y65.866 E4.87897
G1 X52.422 Y65.228 E4.90932
G1 X51.999 Y64.551 E4.93966
G1 X51.632 Y63.831 E4.97035
G1 X51.482 Y63.48 E4.98486
G1 X51.212 Y62.72 E5.01554
G1 X51.011 Y61.947 E5.04589
G1 X50.878 Y61.159 E5.07624
G1 X50.814 Y60.363 E5.10659
G1 X50.819 Y59.565 E5.13694
G1 X50.894 Y58.77 E5.16729
G1 X51.037 Y57.984 E5.19764
G1 X51.251 Y57.206 E5.22832
G1 X51.375 Y56.845 E5.24283
G1 X51.688 Y56.1 E5.27351
G1 X52.06 Y55.394 E5.30386
G1 X52.492 Y54.722 E5.33421
G1 X52.98 Y54.091 E5.36456
G1 X53.528 Y53.497 E5.39524
G1 X53.804 Y53.234 E5.40976
G1 X54.431 Y52.711 E5.44077
G1 X54.74 Y52.486 E5.45528
G1 X55.422 Y52.054 E5.48597
G1 X56.131 Y51.687 E5.51632
G1 X56.877 Y51.379 E5.547
G1 X57.239 Y51.257 E5.56151
G1 X58.019 Y51.049 E5.59219
G1 X58.805 Y50.911 E5.62254
G1 X59.601 Y50.842 E5.65289
G1 X60.399 Y50.842 E5.68324
G1 X60.797 Y50.876 E5.69842
G1 X61.195 Y50.911 E5.71359
G1 X61.981 Y51.049 E5.74394
G1 X62.761 Y51.257 E5.77462
G1 X63.123 Y51.379 E5.78914
G1 X63.869 Y51.687 E5.81982
G1 X64.578 Y52.054 E5.85017
G1 X65.26 Y52.486 E5.88085
G1 X65.576 Y52.717 E5.8957
G1 X65.881 Y52.96 E5.91054
G1 X66.478 Y53.504 E5.94122
G1 X67.02 Y54.091 E5.97157
G1 X67.508 Y54.722 E6.00192
G1 X67.945 Y55.401 E6.0326
G1 X68.13 Y55.735 E6.04712
G1 X68.475 Y56.465 E6.0778
G1 X68.752 Y57.214 E6.10815
G1 X68.963 Y57.984 E6.1385
G1 X69.106 Y58.77 E6.16885
G1 X69.181 Y59.574 E6.19953
G1 X69.192 Y59.955 E6.21404
G1 X69.163 Y60.762 E6.24473
G1 X69.064 Y61.554 E6.27507
G1 X68.897 Y62.335 E6.30542
G1 X68.663 Y63.099 E6.33577
G1 X68.364 Y63.839 E6.36612
G1 X68.001 Y64.551 E6.39647
G1 X67.578 Y65.228 E6.42682
G1 X67.098 Y65.866 E6.45717
G1 X66.564 Y66.46 E6.48752
G1 X65.981 Y67.005 E6.51787
G1 X65.353 Y67.498 E6.54822
G1 X64.684 Y67.934 E6.57856
G1 X63.98 Y68.311 E6.60891
G1 X63.246 Y68.625 E6.63926
G1 X62.487 Y68.874 E6.66961
G1 X61.807 Y69.034 E6.69615
G1 X61.35 Y69.571 F12000
;TYPE:External perimeter
G1 F1800
G1 X61.35 Y64.21 E6.89991
G1 X61.813 Y64.035 E6.91872
G1 X62.313 Y63.769 E6.94024
G1 X62.632 Y63.551 E6.95492
G1 X62.932 Y63.307 E6.96961
G1 X63.329 Y62.903 E6.99113
G1 X63.568 Y62.6 E7.00581
G1 X63.778 Y62.28 E7.02036
G1 X63.96 Y61.944 E7.0349
G1 X64.113 Y61.589 E7.04959
G1 X64.28 Y61.048 E7.0711
G1 X64.353 Y60.668 E7.08579
G1 X64.392 Y60.288 E7.10033
G1 X64.399 Y59.901 E7.11502
G1 X64.346 Y59.338 E7.13653
G1 X64.268 Y58.955 E7.15137
G1 X64.095 Y58.413 E7.17303
G1 X63.85 Y57.894 E7.19483
G1 X63.54 Y57.411 E7.21664
G1 X63.172 Y56.975 E7.2383
G1 X62.89 Y56.706 E7.25313
G1 X62.437 Y56.36 E7.27479
G1 X61.939 Y56.075 E7.2966
G1 X61.409 Y55.856 E7.31841
G1 X60.854 Y55.708 E7.34021
G1 X60.285 Y55.634 E7.36202
G1 X59.712 Y55.634 E7.38383
G1 X59.143 Y55.709 E7.40563
G1 X58.588 Y55.857 E7.42744
G1 X58.058 Y56.076 E7.44925
G1 X57.564 Y56.36 E7.47091
G1 X57.249 Y56.59 E7.48574
G1 X56.828 Y56.975 E7.5074
G1 X56.458 Y57.413 E7.52921
G1 X56.148 Y57.896 E7.55101
G1 X55.906 Y58.412 E7.57267
G1 X55.779 Y58.781 E7.58751
G1 X55.653 Y59.337 E7.60917
G1 X55.601 Y59.908 E7.63097
G1 X55.623 Y60.478 E7.65264
G1 X55.68 Y60.86 E7.66732
G1 X55.769 Y61.236 E7.68201
G1 X55.96 Y61.769 E7.70353
G1 X56.129 Y62.117 E7.71821
G1 X56.327 Y62.448 E7.7329
G1 X56.671 Y62.903 E7.75456
G1 X57.071 Y63.309 E7.77622
G1 X57.37 Y63.553 E7.79091
G1 X57.69 Y63.77 E7.80559
G1 X58.19 Y64.036 E7.82711
G1 X58.65 Y64.21 E7.84581
G1 X58.65 Y69.571 E8.04956
G1 X58.205 Y69.506 E8.06664
G1 X57.389 Y69.315 E8.0985
G1 X56.593 Y69.053 E8.13036
G1 X55.819 Y68.722 E8.16236
G1 X55.452 Y68.536 E8.178
G1 X54.727 Y68.107 E8.21001
G1 X54.042 Y67.616 E8.24201
G1 X53.724 Y67.355 E8.25766
G1 X53.109 Y66.78 E8.28966
G1 X52.549 Y66.157 E8.32152
G1 X52.045 Y65.487 E8.35338
G1 X51.601 Y64.776 E8.38524
G1 X51.218 Y64.025 E8.41725
G1 X51.056 Y63.647 E8.43289
G1 X50.774 Y62.854 E8.46489
G1 X50.564 Y62.042 E8.49675
G1 X50.424 Y61.216 E8.52861
G1 X50.357 Y60.38 E8.56047
G1 X50.362 Y59.542 E8.59233
G1 X50.441 Y58.707 E8.62419
G1 X50.591 Y57.883 E8.65605
G1 X50.814 Y57.071 E8.68806
G1 X50.948 Y56.681 E8.7037
G1 X51.274 Y55.905 E8.73571
G1 X51.665 Y55.163 E8.76757
G1 X52.118 Y54.458 E8.79942
G1 X52.631 Y53.795 E8.83128
G1 X53.202 Y53.176 E8.86329
G1 X53.5 Y52.893 E8.87893
G1 X54.15 Y52.351 E8.91108
M73 P2 R11
G1 X54.482 Y52.108 E8.92673
G1 X55.194 Y51.658 E8.95873
G1 X55.938 Y51.272 E8.99059
G1 X56.717 Y50.951 E9.0226
G1 X57.106 Y50.819 E9.03824
G1 X57.92 Y50.602 E9.07024
G1 X58.746 Y50.457 E9.1021
G1 X59.581 Y50.385 E9.13396
G1 X60.419 Y50.385 E9.16582
G1 X60.837 Y50.421 E9.18175
G1 X61.254 Y50.457 E9.19768
G1 X62.08 Y50.602 E9.22954
G1 X62.894 Y50.819 E9.26155
G1 X63.283 Y50.951 E9.27719
G1 X64.062 Y51.272 E9.3092
G1 X64.806 Y51.658 E9.34106
G1 X65.518 Y52.108 E9.37306
G1 X65.853 Y52.353 E9.38885
G1 X66.178 Y52.612 E9.40464
G1 X66.801 Y53.179 E9.43664
G1 X67.369 Y53.795 E9.4685
G1 X67.882 Y54.458 E9.50036
G1 X68.337 Y55.167 E9.53237
G1 X68.537 Y55.527 E9.54801
G1 X68.897 Y56.288 E9.58002
G1 X69.187 Y57.074 E9.61188
G1 X69.409 Y57.883 E9.64374
G1 X69.559 Y58.707 E9.6756
G1 X69.638 Y59.546 E9.7076
G1 X69.65 Y59.957 E9.72324
G1 X69.619 Y60.799 E9.75525
G1 X69.515 Y61.631 E9.78711
G1 X69.34 Y62.45 E9.81897
G1 X69.094 Y63.252 E9.85083
G1 X68.78 Y64.029 E9.88269
G1 X68.399 Y64.776 E9.91455
G1 X67.955 Y65.487 E9.94641
G1 X67.451 Y66.157 E9.97827
G1 X66.891 Y66.78 E10.01013
G1 X66.279 Y67.353 E10.04199
G1 X65.619 Y67.87 E10.07384
G1 X64.917 Y68.328 E10.1057
G1 X64.178 Y68.723 E10.13756
G1 X63.407 Y69.053 E10.16942
G1 X62.611 Y69.315 E10.20128
G1 X61.795 Y69.506 E10.23314
G1 X61.35 Y69.571 E10.25022
;WIPE_START
M204 S4000
G1 X61.533 Y69.215 F12000
;WIPE_END
G92 E0
G1 E-0.8 F3000
; acceleration to travel
G1 X65.269 Y60.042 F12000
; decel to extrusion
M204 S2000
G1 X67.171 Y55.372
; end travel
G1 E0 F1800
;TYPE:Solid infill
;WIDTH:0.510597
G1 F2400
G1 X64.645 Y52.846 E0.13865
; acceleration to travel
M204 S4000
G1 X63.689 Y52.321 F12000
; decel to extrusion
M204 S2000
G1 X63.211 Y52.058
; end travel
G1 F2400
G1 X67.963 Y56.81 E0.39947
; acceleration to travel
M204 S4000
G1 X68.167 Y57.445 F12000
; decel to extrusion
M204 S2000
G1 X68.269 Y57.762
; end travel
G1 F2400
G1 X62.251 Y51.745 E0.72975
G1 X61.428 Y51.568 F12000
G1 F2400
G1 X68.447 Y58.587 E1.11502
G1 X68.55 Y59.337 F12000
G1 F2400
