; generated by PrusaSlicer 2.6.0-alpha4+win64 on 2023-02-23 at 19:26:03 UTC


;
;
; 

; external perimeters extrusion width = 0.23mm
; perimeters extrusion width = 0.23mm
; infill extrusion width = 0.32mm
; solid infill extrusion width = 0.28mm
; top infill extrusion width = 0.23mm
; support material extrusion width = 0.26mm
; first layer extrusion width = 0.25mm

M73 P0 R85
M73 Q0 S86
M107
M190 S60 ; set bed temperature and wait for it to be reached
M104 S200 ; set temperature
;TYPE:Custom
START_PRINT T_BED=60 T_EXTRUDER=200
M109 S200 ; set temperature and wait for it to be reached
G21 ; set units to millimeters
G90 ; use absolute coordinates
M82 ; use absolute distances for extrusion
G92 E0
; Filament gcode

    PRESSURE_ADVANCE_SELECT FILAMENT=PLA
M107
;LAYER_CHANGE
;Z:0.2
;HEIGHT:0.2
G1 Z.2 F18000
G1 E-.5 F3000
G92 E0
G1 X43.304 Y29.509 F18000
G1 E.5 F1800
M204 S1000
;TYPE:Skirt/Brim
;WIDTH:0.25
G1 X44.66 Y27.534 E.54125
G1 X45.442 Y26.606 E.56215
G1 X46.274 Y25.791 E.5822
G1 X47.214 Y25.028 E.60305
G1 X48.182 Y24.385 E.62306
G1 X49.247 Y23.814 E.64387
G1 X50.316 Y23.365 E.66383
G1 X51.467 Y23.004 E.6846
G1 X52.599 Y22.764 E.70452
G1 X53.795 Y22.625 E.72525
G1 X54.95 Y22.6 E.74514
G1 X56.15 Y22.687 E.76586
G1 X58.181 Y23.1 E.80155
G1 X64.752 Y25.252 E.92061
G1 X78.061 Y30.935 E1.16979
G1 X79.205 Y31.614 E1.1927
G1 X80.134 Y32.304 E1.21263
G1 X81.112 Y33.202 E1.23549
G1 X81.878 Y34.067 E1.25538
G1 X82.649 Y35.146 E1.27821
G1 X83.22 Y36.149 E1.29808
G1 X83.752 Y37.361 E1.32087
G1 X84.104 Y38.459 E1.34072
G1 X84.376 Y39.754 E1.3635
G1 X84.523 Y41.854 E1.39975
G1 X83.106 Y72.834 E1.93374
M73 Q0 S85
G1 X82.934 Y74.446 E1.96165
G1 X82.6 Y75.875 E1.98692
G1 X82.203 Y76.98 E2.00714
G1 X81.551 Y78.296 E2.03243
G1 X80.926 Y79.263 E2.05226
G1 X80.069 Y80.322 E2.07572
G1 X79.046 Y81.309 E2.1002
G1 X77.942 Y82.138 E2.12397
G1 X75.955 Y83.211 E2.16285
G1 X71.287 Y84.992 E2.24888
G1 X69 Y85.414 E2.28892
G1 X49 Y85.414 E2.63329
G1 X47.695 Y85.28 E2.65588
G1 X44.085 Y84.53 E2.71937
G1 X42.372 Y84.026 E2.75012
G1 X41.085 Y83.462 E2.77432
G1 X40.086 Y82.885 E2.79418
G1 X38.952 Y82.054 E2.81839
G1 X38.102 Y81.274 E2.83825
G1 X37.177 Y80.215 E2.86246
G1 X36.517 Y79.268 E2.88234
G1 X35.844 Y78.032 E2.90657
G1 X35.106 Y75.982 E2.94409
G1 X34.851 Y74.668 E2.96714
G1 X34.747 Y73.422 E2.98867
G1 X34.603 Y45.361 E3.47185
G1 X34.752 Y43.983 E3.49572
G1 X35.001 Y42.851 E3.51568
G1 X35.443 Y41.538 E3.53953
G1 X36.451 Y39.565 E3.57768
G1 X43.27 Y29.559 E3.78618
M204 S5000
G1 X43.442 Y29.675 F18000
M204 S1000
G1 F1800
G1 X44.83 Y27.652 E3.82842
G1 X45.587 Y26.754 E3.84864
G1 X46.419 Y25.938 E3.86871
G1 X47.329 Y25.201 E3.88887
G1 X48.296 Y24.558 E3.90887
G1 X49.327 Y24.005 E3.92901
G1 X50.396 Y23.556 E3.94897
G1 X51.51 Y23.207 E3.96907
G1 X52.642 Y22.966 E3.989
G1 X53.799 Y22.832 E4.00906
G1 X54.955 Y22.807 E4.02897
G1 X56.116 Y22.892 E4.04901
G1 X58.152 Y23.303 E4.08477
G1 X64.676 Y25.444 E4.203
G1 X77.974 Y31.123 E4.45198
G1 X79.082 Y31.78 E4.47416
G1 X80.011 Y32.47 E4.49409
G1 X80.957 Y33.339 E4.51621
G1 X81.723 Y34.205 E4.53612
G1 X82.469 Y35.248 E4.5582
G1 X83.04 Y36.251 E4.57807
G1 X83.555 Y37.425 E4.60014
G1 X83.907 Y38.522 E4.61998
G1 X84.17 Y39.775 E4.64203
G1 X84.316 Y41.845 E4.67776
G1 X82.899 Y72.825 E5.21175
G1 X82.729 Y74.422 E5.2394
G1 X82.405 Y75.805 E5.26386
G1 X82.008 Y76.91 E5.28408
G1 X81.378 Y78.184 E5.30855
G1 X80.752 Y79.15 E5.32837
G1 X79.922 Y80.175 E5.35108
G1 X78.904 Y81.158 E5.37545
G1 X77.837 Y81.96 E5.39843
G1 X75.881 Y83.017 E5.43671
G1 X71.214 Y84.799 E5.52273
G1 X69 Y85.207 E5.56149
G1 X49 Y85.207 E5.90586
G1 X47.737 Y85.077 E5.92772
G1 X44.127 Y84.327 E5.99121
G1 X42.434 Y83.828 E6.0216
G1 X41.188 Y83.282 E6.04502
G1 X40.189 Y82.706 E6.06488
G1 X39.092 Y81.902 E6.0883
G1 X38.242 Y81.122 E6.10816
G1 X37.347 Y80.097 E6.13159
G1 X36.687 Y79.15 E6.15147
G1 X36.036 Y77.954 E6.17492
G1 X35.308 Y75.937 E6.21184
G1 X35.057 Y74.645 E6.2345
G1 X34.954 Y73.421 E6.25565
G1 X34.81 Y45.361 E6.73881
G1 X34.955 Y44.028 E6.7619
G1 X35.204 Y42.896 E6.78186
G1 X35.631 Y41.625 E6.80495
G1 X36.622 Y39.682 E6.84251
G1 X43.408 Y29.725 E7.04999
M204 S5000
; printing object Support_Test_3mm.STL id:0 copy 0
G1 E6.54999 F3000
G92 E0
G1 X47.251 Y40.686 F18000
G1 E.5 F1800
M204 S1000
;TYPE:Support material
G1 X47.779 Y40.772 E.50921
G1 X48.703 Y41.139 E.52633
G1 X48.702 Y77.811 E1.15778
G1 X47.685 Y78.19 E1.17647
G1 X46.54 Y78.346 E1.19637
G1 X45.39 Y78.25 E1.21624
G1 X44.289 Y77.905 E1.23611
G1 X43.29 Y77.329 E1.25597
G1 X42.44 Y76.549 E1.27583
G1 X41.78 Y75.602 E1.29571
G1 X41.369 Y74.598 E1.31439
G1 X41.224 Y73.942 E1.32596
G1 X41.161 Y73.388 E1.33556
G1 X41.161 Y72.784 E1.34596
G1 X41.223 Y72.232 E1.35552
G1 X41.353 Y71.641 E1.36594
G1 X41.591 Y70.999 E1.37773
G1 X41.54 Y70.852 E1.38041
G1 X41.407 Y70.294 E1.39029
G1 X41.339 Y69.699 E1.4006
G1 X41.339 Y69.127 E1.41045
G1 X41.406 Y68.531 E1.42078
G1 X41.539 Y67.974 E1.43064
G1 X41.759 Y67.344 E1.44213
G1 X42.25 Y66.477 E1.45929
G1 X41.748 Y65.588 E1.47687
G1 X41.531 Y64.969 E1.48816
G1 X41.396 Y64.406 E1.49813
G1 X41.329 Y63.814 E1.50839
G1 X41.328 Y63.24 E1.51827
G1 X41.395 Y62.645 E1.52858
G1 X41.516 Y62.136 E1.53759
G1 X41.405 Y61.672 E1.5458
G1 X41.337 Y61.076 E1.55613
G1 X41.337 Y60.505 E1.56596
G1 X41.404 Y59.907 E1.57632
G1 X41.536 Y59.353 E1.58613
G1 X41.758 Y58.719 E1.5977
G1 X42.255 Y57.842 E1.61506
G1 X41.76 Y56.968 E1.63236
G1 X41.541 Y56.343 E1.64376
G1 X41.407 Y55.784 E1.65366
G1 X41.34 Y55.189 E1.66397
G1 X41.34 Y54.618 E1.6738
G1 X41.407 Y54.021 E1.68414
G1 X41.539 Y53.465 E1.69398
G1 X41.76 Y52.833 E1.70551
G1 X42.167 Y52.116 E1.71971
G1 X41.746 Y51.282 E1.7358
G1 X41.476 Y50.148 E1.75587
G1 X41.476 Y48.981 E1.77596
G1 X41.613 Y48.402 E1.7862
G1 X41.266 Y47.651 E1.80044
G1 X41.017 Y46.519 E1.8204
G1 X41.017 Y45.361 E1.84034
G1 X41.266 Y44.229 E1.8603
G1 X41.752 Y43.177 E1.88025
G1 X42.453 Y42.254 E1.90021
G1 X43.336 Y41.504 E1.92016
G1 X44.359 Y40.96 E1.94011
G1 X45.476 Y40.649 E1.96007
G1 X46.633 Y40.585 E1.98002
G1 X47.22 Y40.681 E1.99026
M204 S5000
G1 X48.416 Y77.818 F18000
M204 S1000
G1 F1800
G1 X48.416 Y41.226 E2.62033
G1 X48.186 Y41.134 E2.6246
G1 X48.186 Y77.804 E3.25601
G1 X47.956 Y77.89 E3.26024
G1 X47.956 Y41.043 E3.8947
G1 X47.726 Y40.952 E3.89896
G1 X47.726 Y77.976 E4.53647
G1 X47.639 Y78.008 E4.53807
G1 X47.496 Y78.027 E4.54055
G1 X47.496 Y40.914 E5.17959
G1 X47.266 Y40.877 E5.1836
G1 X47.266 Y78.059 E5.82383
G1 X47.035 Y78.09 E5.82784
G1 X47.035 Y40.839 E6.46926
G1 X46.805 Y40.802 E6.47327
G1 X46.805 Y78.122 E7.11587
G1 X46.575 Y78.153 E7.11987
G1 X46.575 Y40.775 E7.76347
G1 X46.345 Y40.788 E7.76744
G1 X46.345 Y78.143 E8.41065
G1 X46.115 Y78.124 E8.41462
G1 X46.115 Y40.8 E9.05729
G1 X45.885 Y40.813 E9.06126
G1 X45.885 Y78.104 E9.70336
G1 X45.655 Y78.085 E9.70733
G1 X45.655 Y40.826 E10.34888
M73 P0 R84
G1 X45.425 Y40.857 E10.35288
G1 X45.425 Y78.065 E10.99355
G1 X45.195 Y77.993 E10.9977
G1 X45.195 Y40.921 E11.63603
G1 X44.965 Y40.985 E11.64014
G1 X44.965 Y77.921 E12.27613
G1 X44.735 Y77.849 E12.28028
G1 X44.735 Y41.049 E12.91393
G1 X44.504 Y41.113 E12.91806
G1 X44.504 Y77.777 E13.54937
G1 X44.364 Y77.733 E13.5519
G1 X44.274 Y77.682 E13.55368
G1 X44.274 Y41.216 E14.18158
G1 X44.044 Y41.338 E14.18606
G1 X44.044 Y77.549 E14.80957
G1 X43.814 Y77.416 E14.81414
G1 X43.814 Y41.46 E15.43326
G1 X43.584 Y41.583 E15.43775
G1 X43.584 Y77.284 E16.05248
G1 X43.354 Y77.135 E16.0572
G1 X43.354 Y41.733 E16.66678
G1 X43.124 Y41.928 E16.67197
G1 X43.124 Y76.924 E17.27456
G1 X42.894 Y76.713 E17.27993
G1 X42.894 Y42.124 E17.87551
G1 X42.664 Y42.32 E17.88071
G1 X42.664 Y76.501 E18.46926
G1 X42.581 Y76.425 E18.4712
G1 X42.434 Y76.214 E18.47563
G1 X42.434 Y42.588 E19.05463
G1 X42.204 Y42.891 E19.06118
G1 X42.204 Y51.775 E19.21415
G1 X41.973 Y51.319 E19.22295
G1 X41.973 Y43.194 E19.36285
G1 X41.913 Y43.274 E19.36457
G1 X41.743 Y43.64 E19.37152
G1 X41.743 Y50.868 E19.49598
M204 S5000
G1 E18.99598 F3000
G92 E0
G1 X42.204 Y76.047 F18000
M73 P1 R84
M73 Q1 S85
G1 E.5 F1800
M204 S1000
G1 X42.204 Y66.937 E.65686
G1 X41.973 Y67.344 E.66492
G1 X41.973 Y75.553 E.80627
G1 X41.743 Y75.02 E.81627
G1 X41.743 Y67.671 E.94281
M204 S5000
G1 X42.204 Y66.205 F18000
M204 S1000
G1 F1800
G1 X42.204 Y58.31 E1.07875
G1 X41.973 Y58.716 E1.08679
G1 X41.973 Y65.608 E1.20546
G1 X41.918 Y65.51 E1.2074
G1 X41.743 Y65.012 E1.21649
G1 X41.743 Y59.042 E1.31929
M204 S5000
G1 X42.204 Y57.563 F18000
M204 S1000
G1 F1800
G1 X42.204 Y52.428 E1.40771
G1 X41.973 Y52.835 E1.41577
G1 X41.973 Y56.967 E1.48692
G1 X41.93 Y56.891 E1.48842
G1 X41.743 Y56.358 E1.49815
G1 X41.743 Y53.163 E1.55316
M204 S5000
G1 E1.05316 F3000
G92 E0
G1 X41.513 Y74.704 F18000
G1 E.5 F1800
M204 S1000
G1 X41.513 Y71.465 E.55577
M204 S5000
G1 E.05577 F3000
G92 E0
G1 X41.513 Y47.964 F18000
G1 E.5 F1800
M204 S1000
G1 X41.513 Y44.138 E.56588
G1 X41.443 Y44.289 E.56875
G1 X41.283 Y45.017 E.58158
G1 X41.283 Y47.296 E.62082
M204 S5000
G1 E.12082 F3000
G92 E0
G1 X56.227 Y29.204 F18000
G1 E.5 F1800
M204 S1000
G1 X57.309 Y29.604 E.51986
G1 X58.298 Y30.199 E.53973
G1 X59.149 Y30.96 E.55939
G1 X59.399 Y31.281 E.5664
G1 X60.09 Y31.089 E.57875
G1 X61.243 Y31.026 E.59863
G1 X62.383 Y31.212 E.61852
G1 X63.456 Y31.639 E.6384
G1 X64.413 Y32.286 E.65829
G1 X65.208 Y33.124 E.67818
G1 X65.806 Y34.114 E.6981
G1 X66.176 Y35.209 E.718
G1 X66.302 Y36.359 E.73792
G1 X66.178 Y37.509 E.75784
G1 X65.81 Y38.606 E.77776
G1 X65.752 Y38.703 E.77971
G1 X49.639 Y38.703 E1.05716
G1 X49.252 Y38.134 E1.06901
G1 X48.795 Y37.089 E1.08865
G1 X48.556 Y36.053 E1.10696
G1 X48.504 Y35.499 E1.11654
G1 X48.5 Y34.867 E1.12742
G1 X48.548 Y34.336 E1.1366
G1 X48.661 Y33.734 E1.14715
G1 X48.811 Y33.203 E1.15665
G1 X49.029 Y32.65 E1.16689
G1 X49.306 Y32.091 E1.17763
G1 X49.933 Y31.185 E1.1966
G1 X50.765 Y30.37 E1.21665
G1 X51.732 Y29.727 E1.23665
G1 X52.801 Y29.278 E1.25661
G1 X53.932 Y29.038 E1.27652
G1 X55.088 Y29.013 E1.29643
G1 X56.196 Y29.199 E1.31578
M204 S5000
G1 X65.903 Y38.037 F18000
M204 S1000
G1 F1800
G1 X65.903 Y34.982 E1.36838
G1 X65.673 Y34.302 E1.38074
G1 X65.673 Y38.429 E1.4518
G1 X65.643 Y38.516 E1.45338
G1 X65.442 Y38.516 E1.45684
G1 X65.442 Y33.873 E1.53679
G1 X65.212 Y33.491 E1.54447
G1 X65.212 Y38.516 E1.63099
G1 X64.982 Y38.516 E1.63495
G1 X64.982 Y33.157 E1.72723
G1 X64.752 Y32.914 E1.73299
G1 X64.752 Y38.516 E1.82945
G1 X64.522 Y38.516 E1.83341
G1 X64.522 Y32.672 E1.93404
G1 X64.292 Y32.43 E1.93979
G1 X64.292 Y38.516 E2.04458
G1 X64.062 Y38.516 E2.04854
G1 X64.062 Y32.274 E2.15602
G1 X63.832 Y32.118 E2.16081
G1 X63.832 Y38.516 E2.27098
G1 X63.602 Y38.516 E2.27494
G1 X63.602 Y31.962 E2.38779
G1 X63.372 Y31.807 E2.39257
G1 X63.372 Y38.516 E2.50809
G1 X63.142 Y38.516 E2.51205
G1 X63.142 Y31.714 E2.62917
G1 X62.911 Y31.623 E2.63345
G1 X62.911 Y38.516 E2.75214
G1 X62.681 Y38.516 E2.7561
G1 X62.681 Y31.532 E2.87636
G1 X62.451 Y31.44 E2.88063
G1 X62.451 Y38.516 E3.00247
G1 X62.221 Y38.516 E3.00643
G1 X62.221 Y31.375 E3.12939
G1 X61.991 Y31.337 E3.1334
G1 X61.991 Y38.516 E3.25701
G1 X61.761 Y38.516 E3.26097
G1 X61.761 Y31.3 E3.38522
G1 X61.531 Y31.262 E3.38923
G1 X61.531 Y38.516 E3.51413
G1 X61.301 Y38.516 E3.51809
G1 X61.301 Y31.224 E3.64365
G1 X61.071 Y31.222 E3.64761
G1 X61.071 Y38.516 E3.7732
G1 X60.841 Y38.516 E3.77716
G1 X60.841 Y31.235 E3.90253
M73 Q1 S84
G1 X60.611 Y31.247 E3.9065
G1 X60.611 Y38.516 E4.03166
G1 X60.381 Y38.516 E4.03562
G1 X60.381 Y31.26 E4.16056
G1 X60.15 Y31.273 E4.16454
G1 X60.15 Y38.516 E4.28926
G1 X59.92 Y38.516 E4.29322
G1 X59.92 Y31.33 E4.41695
G1 X59.69 Y31.394 E4.42106
G1 X59.69 Y38.516 E4.54369
G1 X59.46 Y38.516 E4.54765
G1 X59.46 Y31.458 E4.66918
G1 X59.329 Y31.494 E4.67152
G1 X59.23 Y31.367 E4.67429
G1 X59.23 Y38.516 E4.79739
G1 X59 Y38.516 E4.80135
G1 X59 Y31.077 E4.92944
G1 X58.77 Y30.871 E4.93476
G1 X58.77 Y38.516 E5.0664
G1 X58.54 Y38.516 E5.07036
G1 X58.54 Y30.666 E5.20553
G1 X58.31 Y30.46 E5.21085
G1 X58.31 Y38.516 E5.34956
G1 X58.08 Y38.516 E5.35352
G1 X58.08 Y30.285 E5.49525
G1 X57.85 Y30.147 E5.49987
G1 X57.85 Y38.516 E5.64397
G1 X57.619 Y38.516 E5.64795
G1 X57.619 Y30.009 E5.79443
G1 X57.389 Y29.87 E5.79906
G1 X57.389 Y38.516 E5.94793
G1 X57.159 Y38.516 E5.95189
G1 X57.159 Y29.748 E6.10286
G1 X56.929 Y29.663 E6.10708
G1 X56.929 Y38.516 E6.25952
G1 X56.699 Y38.516 E6.26348
G1 X56.699 Y29.577 E6.4174
G1 X56.469 Y29.492 E6.42162
G1 X56.469 Y38.516 E6.577
G1 X56.239 Y38.516 E6.58096
G1 X56.239 Y29.407 E6.73781
G1 X56.178 Y29.385 E6.73893
G1 X56.009 Y29.357 E6.74188
G1 X56.009 Y38.516 E6.89959
G1 X55.779 Y38.516 E6.90355
G1 X55.779 Y29.318 E7.06193
G1 X55.549 Y29.279 E7.06595
G1 X55.549 Y38.516 E7.225
G1 X55.319 Y38.516 E7.22896
G1 X55.319 Y29.241 E7.38866
G1 X55.089 Y29.202 E7.39268
G1 X55.089 Y38.516 E7.55306
G1 X54.858 Y38.516 E7.55704
G1 X54.858 Y29.204 E7.71738
G1 X54.628 Y29.209 E7.72134
G1 X54.628 Y38.516 E7.88159
G1 X54.398 Y38.516 E7.88555
G1 X54.398 Y29.214 E8.04572
G1 X54.168 Y29.219 E8.04968
G1 X54.168 Y38.516 E8.20976
G1 X53.938 Y38.516 E8.21372
G1 X53.938 Y29.227 E8.37366
G1 X53.708 Y29.276 E8.37771
G1 X53.708 Y38.516 E8.53681
G1 X53.478 Y38.516 E8.54077
G1 X53.478 Y29.325 E8.69903
G1 X53.248 Y29.374 E8.70308
G1 X53.248 Y38.516 E8.86049
G1 X53.018 Y38.516 E8.86445
G1 X53.018 Y29.423 E9.02102
G1 X52.788 Y29.486 E9.02513
G1 X52.788 Y38.516 E9.18062
G1 X52.558 Y38.516 E9.18458
G1 X52.558 Y29.583 E9.3384
G1 X52.327 Y29.679 E9.34271
G1 X52.327 Y38.516 E9.49487
G1 X52.097 Y38.516 E9.49883
G1 X52.097 Y29.776 E9.64932
G1 X51.867 Y29.873 E9.65362
G1 X51.867 Y38.516 E9.80244
G1 X51.637 Y38.516 E9.8064
G1 X51.637 Y30.014 E9.95279
G1 X51.407 Y30.167 E9.95755
G1 X51.407 Y38.516 E10.10131
G1 X51.177 Y38.516 E10.10527
G1 X51.177 Y30.32 E10.24639
G1 X50.947 Y30.473 E10.25115
G1 X50.947 Y38.516 E10.38964
G1 X50.717 Y38.516 E10.3936
G1 X50.717 Y30.678 E10.52856
G1 X50.487 Y30.904 E10.53411
G1 X50.487 Y38.516 E10.66518
G1 X50.257 Y38.516 E10.66914
G1 X50.257 Y31.129 E10.79633
G1 X50.027 Y31.378 E10.80217
G1 X50.027 Y38.516 E10.92508
G1 X49.796 Y38.516 E10.92906
G1 X49.796 Y31.71 E11.04625
G1 X49.566 Y32.043 E11.05322
G1 X49.566 Y38.265 E11.16036
G1 X49.416 Y38.044 E11.16496
G1 X49.336 Y37.863 E11.16837
G1 X49.336 Y32.45 E11.26158
G1 X49.106 Y32.962 E11.27124
G1 X49.106 Y37.336 E11.34655
G1 X48.972 Y37.03 E11.3523
G1 X48.876 Y36.611 E11.3597
G1 X48.876 Y33.315 E11.41645
M204 S5000
G1 E10.91645 F3000
G92 E0
G1 X73.193 Y36.02 F18000
G1 E.5 F1800
M204 S1000
G1 X74.326 Y36.277 E.52
G1 X75.379 Y36.762 E.53996
G1 X76.308 Y37.452 E.55989
G1 X77.074 Y38.318 E.5798
G1 X77.644 Y39.32 E.59965
G1 X77.996 Y40.418 E.6195
G1 X78.115 Y41.561 E.63929
G1 X77.997 Y42.712 E.65921
G1 X77.647 Y43.806 E.67899
G1 X77.078 Y44.809 E.69885
G1 X76.314 Y45.674 E.71872
G1 X75.426 Y46.336 E.73779
G1 X75.808 Y46.886 E.74932
G1 X76.228 Y47.99 E.76966
G1 X76.371 Y49.163 E.79001
G1 X76.228 Y50.335 E.81034
G1 X75.807 Y51.439 E.83068
G1 X75.134 Y52.409 E.85101
G1 X74.748 Y52.749 E.85987
G1 X75.387 Y53.603 E.87824
G1 X75.831 Y54.699 E.8986
G1 X75.984 Y55.883 E.91916
G1 X75.832 Y57.056 E.93953
G1 X75.393 Y58.14 E.95967
G1 X74.656 Y59.122 E.98081
G1 X74.366 Y59.352 E.98718
G1 X74.687 Y59.608 E.99425
G1 X75.398 Y60.559 E1.0147
G1 X75.842 Y61.655 E1.03506
G1 X75.994 Y62.839 E1.05561
G1 X75.842 Y64.012 E1.07598
G1 X75.524 Y64.796 E1.09055
G1 X76.01 Y65.531 E1.10572
G1 X76.41 Y66.627 E1.12581
G1 X76.545 Y67.785 E1.14588
G1 X76.409 Y68.944 E1.16597
G1 X76.013 Y70.026 E1.18581
G1 X76.165 Y70.262 E1.19064
G1 X76.566 Y71.384 E1.21116
G1 X76.698 Y72.541 E1.23121
G1 X76.563 Y73.707 E1.25142
G1 X76.166 Y74.812 E1.27164
G1 X75.541 Y75.779 E1.29147
G1 X74.662 Y76.626 E1.31249
G1 X73.668 Y77.218 E1.33241
G1 X72.543 Y77.574 E1.35273
G1 X71.366 Y77.664 E1.37306
G1 X70.199 Y77.482 E1.3934
G1 X69.297 Y77.116 E1.41016
G1 X69.298 Y38.877 E2.06859
G1 X69.123 Y38.703 E2.07284
G1 X67.61 Y38.703 E2.09889
G1 X68.861 Y37.357 E2.13053
G1 X69.815 Y36.687 E2.1506
G1 X70.887 Y36.229 E2.17067
G1 X72.03 Y36.004 E2.19073
G1 X73.162 Y36.02 E2.21022
M204 S5000
G1 X77.867 Y42.81 F18000
M204 S1000
G1 F1800
G1 X77.867 Y40.977 E2.24178
G1 X77.813 Y40.456 E2.2508
G1 X77.637 Y39.908 E2.26071
