; generated by SuperSlicer 2.5.59 on 2023-02-23 at 21:40:43 UTC


;
;

;
;
; 

; external perimeters extrusion width = 0.40mm
; perimeters extrusion width = 0.46mm
; infill extrusion width = 0.64mm
; solid infill extrusion width = 0.56mm
; top infill extrusion width = 0.40mm
; support material extrusion width = 0.46mm
; first layer extrusion width = 0.50mm

; object:{"name":"support_test_piece","id":"support_test_piece.stl id:0 copy 0","object_center":[60.000000,60.000000,0.000000],"boundingbox_center":[60.000000,60.000000,6.000000],"boundingbox_size":[35.000000,29.998001,12.000000]}
; plater:{"center":[60.000000,60.000000,0.000000],"boundingbox_center":[60.000000,60.000000,6.000000],"boundingbox_size":[35.000000,29.998001,12.000000]}

M73 P0 R18
;TYPE:Custom
; custom gcode: start_gcode
START_PRINT T_BED=60 T_EXTRUDER=200
; custom gcode end: start_gcode
M107
G21 ; set units to millimeters
G90 ; use absolute coordinates
M82 ; use absolute distances for extrusion
G92 E0
; custom gcode: start_filament_gcode
; Filament gcode

    PRESSURE_ADVANCE_SELECT FILAMENT=PLA
; custom gcode end: start_filament_gcode
;_TOOLCHANGE 0
M104 S200 ; set temperature
M109 S200 ; set temperature and wait for it to be reached
M190 S60 ; set bed temperature and wait for it to be reached
;LAYER_CHANGE
;Z:0.2
;HEIGHT:0.2
G1 Z0.2 F12000
M73 P0 R18
G1 E-0.8 F3000
M204 S2000
G1 X37.477 Y36.72 F12000
G1 E0 F1800
;TYPE:Skirt
;WIDTH:0.52
G1 X36.377 Y38.032 E0.06793
G1 X35.983 Y39.698 E0.13586
G1 X35.983 Y62.719 E1.04908
M73 P0 R18
G1 X36.172 Y63.889 E1.0961
G1 X37.071 Y65.346 E1.16403
G1 X54.653 Y82.929 E2.15042
G1 X55.614 Y83.623 E2.19744
G1 X57.281 Y84.017 E2.26537
G1 X80.302 Y84.017 E3.17859
G1 X82.523 Y83.28 E3.27142
G1 X83.623 Y81.968 E3.33935
G1 X84.017 Y80.302 E3.40728
G1 X84.017 Y48.49 E4.66924
G1 X83.908 Y47.595 E4.70498
G1 X83.124 Y46.073 E4.77291
G1 X80.222 Y42.684 E4.94989
G1 X78.683 Y41.614 E5.02425
G1 X64.002 Y36.211 E5.64481
G1 X62.719 Y35.983 E5.69652
G1 X39.698 Y35.983 E6.60974
G1 X37.477 Y36.72 E6.70257
G1 X37.855 Y37.07 F12000
G1 F1800
G1 X36.854 Y38.151 E6.76102
G1 X36.46 Y39.698 E6.82438
G1 X36.46 Y62.719 E7.7376
G1 X36.592 Y63.636 E7.77435
G1 X37.408 Y65.009 E7.83771
G1 X54.991 Y82.592 E8.8241
G1 X55.733 Y83.146 E8.86086
G1 X57.281 Y83.54 E8.92422
G1 X80.302 Y83.54 E9.83744
G1 X82.061 Y83.021 E9.91019
G1 X83.146 Y81.849 E9.97355
G1 X83.54 Y80.302 E10.03691
G1 X83.54 Y48.49 E11.29887
G1 X82.762 Y46.383 E11.38796
G1 X79.86 Y42.995 E11.56493
G1 X78.518 Y42.062 E11.62974
G1 X63.838 Y36.659 E12.25031
G1 X62.719 Y36.46 E12.29538
G1 X39.698 Y36.46 E13.2086
M73 P1 R17
G1 X37.939 Y36.979 E13.28135
G1 X37.855 Y37.07 E13.28626
G92 E0
G1 E-0.8 F3000
; printing object support_test_piece.stl id:0 copy 0
; acceleration to travel
M204 S4000
G1 X54.737 Y54.843 F12000
; decel to extrusion
M204 S2000
G1 X63.179 Y63.73
; end travel
G1 E0 F1800
;TYPE:Support material
;WIDTH:0.5
G1 X63.468 Y63.73 E0.01099
G1 X63.71 Y63.73 E0.02018
G1 X63.952 Y63.73 E0.02938
G1 X64.435 Y63.73 E0.04777
G1 X64.919 Y63.73 E0.06616
G1 X65.403 Y63.73 E0.08455
G1 X65.887 Y63.73 E0.10294
G1 X66.371 Y63.73 E0.12133
G1 X66.855 Y63.73 E0.13972
G1 X67.339 Y63.73 E0.15811
G1 X67.823 Y63.73 E0.1765
G1 X68.306 Y63.73 E0.19489
G1 X68.79 Y63.73 E0.21328
G1 X69.274 Y63.73 E0.23167
G1 X69.758 Y63.73 E0.25006
G1 X70.242 Y63.73 E0.26845
G1 X70.726 Y63.73 E0.28684
G1 X71.21 Y63.73 E0.30523
G1 X71.693 Y63.731 E0.32362
G1 X72.177 Y63.731 E0.34201
G1 X72.661 Y63.731 E0.3604
G1 X73.145 Y63.731 E0.37879
G1 X73.629 Y63.731 E0.39718
G1 X74.113 Y63.731 E0.41557
G1 X74.597 Y63.731 E0.43396
G1 X75.081 Y63.731 E0.45235
G1 X75.564 Y63.731 E0.47074
G1 X75.906 Y63.731 E0.48372
G1 X75.906 Y66.072 E0.57271
G1 X80.302 Y66.072 E0.73977
G1 X80.302 Y80.302 E1.28058
G1 X57.281 Y80.302 E2.15552
G1 X57.281 Y75.678 E2.33126
G1 X62.722 Y75.678 E2.53808
G1 X63.179 Y75.221 E2.56259
G1 X63.179 Y63.73 E2.99935
; acceleration to travel
M204 S4000
G1 X74.264 Y74.702 F12000
; decel to extrusion
M204 S2000
G1 X79.807 Y80.187
; end travel
G1 F1800
G1 X79.807 Y66.383 E3.524
G1 X79.299 Y66.383 E3.54331
G1 X79.299 Y79.991 E4.06049
G1 X78.791 Y79.991 E4.0798
G1 X78.791 Y66.383 E4.59698
G1 X78.283 Y66.383 E4.61629
G1 X78.283 Y79.991 E5.13347
G1 X77.775 Y79.991 E5.15278
G1 X77.775 Y66.383 E5.66996
G1 X77.267 Y66.383 E5.68927
G1 X77.267 Y79.991 E6.20645
G1 X76.76 Y79.991 E6.22576
G1 X76.76 Y66.383 E6.74295
G1 X76.252 Y66.383 E6.76225
G1 X76.252 Y79.991 E7.27944
G1 X75.744 Y79.991 E7.29874
G1 X75.744 Y66.383 E7.81593
G1 X75.595 Y66.383 E7.82158
G1 X75.595 Y64.042 E7.91056
G1 X75.564 Y64.042 E7.91173
G1 X75.236 Y64.042 E7.92421
G1 X75.236 Y79.991 E8.53038
G1 X74.728 Y79.991 E8.54968
G1 X74.728 Y64.042 E9.15586
G1 X74.597 Y64.042 E9.16085
G1 X74.22 Y64.042 E9.17516
G1 X74.22 Y79.991 E9.78133
G1 X73.712 Y79.991 E9.80063
G1 X73.712 Y64.041 E10.40681
M73 P2 R17
G1 X73.629 Y64.041 E10.40998
G1 X73.205 Y64.041 E10.42611
G1 X73.205 Y79.991 E11.03229
G1 X72.697 Y79.991 E11.05159
G1 X72.697 Y64.041 E11.65777
G1 X72.661 Y64.041 E11.65912
G1 X72.189 Y64.041 E11.67707
G1 X72.189 Y79.991 E12.28325
G1 X71.681 Y79.991 E12.30255
G1 X71.681 Y64.041 E12.90873
G1 X71.21 Y64.041 E12.92665
G1 X71.173 Y64.041 E12.92804
G1 X71.173 Y79.991 E13.53422
G1 X70.665 Y79.991 E13.55352
G1 X70.665 Y64.041 E14.15971
G1 X70.242 Y64.041 E14.17579
G1 X70.157 Y64.041 E14.17901
G1 X70.157 Y79.991 E14.78519
G1 X69.649 Y79.991 E14.8045
G1 X69.649 Y64.041 E15.41068
G1 X69.274 Y64.041 E15.42495
G1 X69.142 Y64.041 E15.42998
G1 X69.142 Y79.991 E16.03617
G1 X68.634 Y79.991 E16.05548
G1 X68.634 Y64.041 E16.66167
G1 X68.306 Y64.041 E16.67411
G1 X68.126 Y64.041 E16.68097
G1 X68.126 Y79.991 E17.28716
G1 X67.618 Y79.991 E17.30646
G1 X67.618 Y64.041 E17.91265
G1 X67.339 Y64.041 E17.92327
G1 X67.11 Y64.041 E17.93196
G1 X67.11 Y79.991 E18.53815
G1 X66.602 Y79.991 E18.55745
G1 X66.602 Y64.041 E19.16365
G1 X66.371 Y64.041 E19.17244
G1 X66.094 Y64.041 E19.18295
G1 X66.094 Y79.991 E19.78915
G1 X65.587 Y79.991 E19.80845
G1 X65.587 Y64.041 E20.41465
G1 X65.403 Y64.041 E20.42162
G1 X65.079 Y64.041 E20.43395
G1 X65.079 Y79.991 E21.04015
G1 X64.571 Y79.991 E21.05945
G1 X64.571 Y64.041 E21.66566
M73 P3 R17
G1 X64.435 Y64.041 E21.6708
G1 X64.063 Y64.041 E21.68496
G1 X64.063 Y79.991 E22.29116
G1 X63.555 Y79.991 E22.31046
G1 X63.555 Y64.041 E22.91667
G1 X63.489 Y64.041 E22.91916
G1 X63.489 Y75.35 E23.349
G1 X63.047 Y75.792 E23.37276
G1 X63.047 Y79.991 E23.53233
G1 X62.539 Y79.991 E23.55163
G1 X62.539 Y75.988 E23.70375
G1 X62.031 Y75.988 E23.72305
G1 X62.031 Y79.991 E23.87517
G1 X61.524 Y79.991 E23.89447
G1 X61.524 Y75.988 E24.04659
G1 X61.016 Y75.988 E24.06589
G1 X61.016 Y79.991 E24.21801
G1 X60.508 Y79.991 E24.23732
G1 X60.508 Y75.988 E24.38943
G1 X60 Y75.988 E24.40874
G1 X60 Y79.991 E24.56085
G1 X59.492 Y79.991 E24.58016
G1 X59.492 Y75.988 E24.73227
G1 X58.984 Y75.988 E24.75158
G1 X58.984 Y79.991 E24.9037
G1 X58.476 Y79.991 E24.923
G1 X58.476 Y75.988 E25.07512
G1 X57.969 Y75.988 E25.09442
G1 X57.969 Y80.187 E25.25401
G92 E0
G1 E-0.8 F3000
; acceleration to travel
M204 S4000
G1 X57.202 Y66.277 F12000
; decel to extrusion
M204 S2000
G1 X56.819 Y59.322
; end travel
G1 E0 F1800
G1 X42.278 Y59.322 E0.55269
G1 X41.821 Y59.779 E0.5772
G1 X41.821 Y62.231 E0.6704
G1 X42.278 Y62.687 E0.69491
G1 X42.31 Y62.719 E0.69665
G1 X39.698 Y62.719 E0.7959
G1 X39.698 Y39.698 E1.67084
G1 X62.719 Y39.698 E2.54577
G1 X62.719 Y44.322 E2.72152
G1 X57.276 Y44.322 E2.92841
G1 X56.819 Y44.779 E2.95292
G1 X56.819 Y59.322 E3.50569
G92 E0
G1 E-0.8 F3000
; acceleration to travel
M204 S4000
G1 X60.294 Y49.246 F12000
; decel to extrusion
M204 S2000
G1 X62.031 Y44.208
; end travel
G1 E0 F1800
G1 X62.031 Y40.009 E0.15959
G1 X61.524 Y40.009 E0.17889
G1 X61.524 Y44.012 E0.33101
G1 X61.016 Y44.012 E0.35031
G1 X61.016 Y40.009 E0.50243
G1 X60.508 Y40.009 E0.52174
G1 X60.508 Y44.012 E0.67385
G1 X60 Y44.012 E0.69316
G1 X60 Y40.009 E0.84528
G1 X59.492 Y40.009 E0.86458
G1 X59.492 Y44.012 E1.0167
G1 X58.984 Y44.012 E1.036
G1 X58.984 Y40.009 E1.18812
G1 X58.476 Y40.009 E1.20742
G1 X58.476 Y44.012 E1.35954
G1 X57.969 Y44.012 E1.37884
G1 X57.969 Y40.009 E1.53096
G1 X57.461 Y40.009 E1.55027
G1 X57.461 Y44.012 E1.70239
G1 X57.147 Y44.012 E1.71432
G1 X56.953 Y44.206 E1.72474
G1 X56.953 Y40.009 E1.88423
G1 X56.445 Y40.009 E1.90353
G1 X56.445 Y59.012 E2.62575
G1 X55.937 Y59.012 E2.64505
G1 X55.937 Y40.009 E3.36727
G1 X55.429 Y40.009 E3.38657
G1 X55.429 Y59.012 E4.10878
M73 P4 R17
G1 X54.921 Y59.012 E4.12808
G1 X54.921 Y40.009 E4.8503
G1 X54.413 Y40.009 E4.8696
G1 X54.413 Y59.012 E5.59182
G1 X53.906 Y59.012 E5.61112
G1 X53.906 Y40.009 E6.33333
G1 X53.398 Y40.009 E6.35263
G1 X53.398 Y59.012 E7.07485
G1 X52.89 Y59.012 E7.09415
G1 X52.89 Y40.009 E7.81637
G1 X52.382 Y40.009 E7.83567
G1 X52.382 Y59.012 E8.55788
G1 X51.874 Y59.012 E8.57718
G1 X51.874 Y40.009 E9.2994
G1 X51.366 Y40.009 E9.3187
G1 X51.366 Y59.012 E10.04092
G1 X50.858 Y59.012 E10.06022
G1 X50.858 Y40.009 E10.78243
G1 X50.351 Y40.009 E10.80173
G1 X50.351 Y59.012 E11.52395
G1 X49.843 Y59.012 E11.54325
G1 X49.843 Y40.009 E12.26547
G1 X49.335 Y40.009 E12.28477
G1 X49.335 Y59.012 E13.00698
G1 X48.827 Y59.012 E13.02628
G1 X48.827 Y40.009 E13.7485
G1 X48.319 Y40.009 E13.7678
G1 X48.319 Y59.012 E14.49002
G1 X47.811 Y59.012 E14.50932
G1 X47.811 Y40.009 E15.23153
M73 P5 R17
G1 X47.303 Y40.009 E15.25083
G1 X47.303 Y59.012 E15.97305
G1 X46.795 Y59.012 E15.99235
G1 X46.795 Y40.009 E16.71457
M73 P5 R17
G1 X46.288 Y40.009 E16.73387
G1 X46.288 Y59.012 E17.45608
G1 X45.78 Y59.012 E17.47538
G1 X45.78 Y40.009 E18.1976
G1 X45.272 Y40.009 E18.2169
G1 X45.272 Y59.012 E18.93912
G1 X44.764 Y59.012 E18.95842
G1 X44.764 Y40.009 E19.68063
G1 X44.256 Y40.009 E19.69993
G1 X44.256 Y59.012 E20.42215
G1 X43.748 Y59.012 E20.44145
G1 X43.748 Y40.009 E21.16367
G1 X43.24 Y40.009 E21.18297
G1 X43.24 Y59.012 E21.90518
G1 X42.733 Y59.012 E21.92448
G1 X42.733 Y40.009 E22.6467
G1 X42.225 Y40.009 E22.666
G1 X42.225 Y59.012 E23.38822
G1 X42.149 Y59.012 E23.3911
G1 X41.717 Y59.444 E23.41432
G1 X41.717 Y40.009 E24.15295
G1 X41.209 Y40.009 E24.17225
G1 X41.209 Y62.408 E25.02356
G1 X40.701 Y62.408 E25.04286
G1 X40.701 Y40.009 E25.89417
G1 X40.193 Y40.009 E25.91348
G1 X40.193 Y62.605 E26.77226
G92 E0
M73 P6 R17
G1 E-0.8 F3000
; acceleration to travel
M204 S4000
G1 X65.517 Y62.605 F12000
; decel to extrusion
M204 S2000
G1 X78.179 Y62.605
; end travel
G1 E0 F1800
G1 X78.179 Y48.49 E0.53647
G1 X80.302 Y48.49 E0.61716
G1 X80.302 Y62.719 E1.15798
G1 X78.179 Y62.719 E1.23867
G1 X78.179 Y62.605 E1.24301
; acceleration to travel
M204 S4000
G1 X79.264 Y62.605 F12000
; decel to extrusion
M204 S2000
G1 X79.807 Y62.605
; end travel
G1 F1800
G1 X79.807 Y48.8 E1.76767
G1 X79.299 Y48.8 E1.78697
G1 X79.299 Y62.408 E2.30416
G1 X78.791 Y62.408 E2.32346
G1 X78.791 Y48.604 E2.84812
G92 E0
G1 E-0.8 F3000
; acceleration to travel
M204 S4000
G1 X74.368 Y50.957 F12000
; decel to extrusion
M204 S2000
G1 X72.156 Y52.134
; end travel
G1 E0 F1800
G1 X72.258 Y52.341 E0.00878
G1 X72.307 Y52.441 E0.01299
G1 X72.455 Y52.743 E0.02581
G1 X72.553 Y53.034 E0.03746
G1 X72.65 Y53.322 E0.04903
G1 X72.719 Y53.692 E0.06333
G1 X72.775 Y53.991 E0.0749
G1 X72.789 Y54.066 E0.07779
G1 X72.805 Y54.331 E0.08786
G1 X72.821 Y54.605 E0.0983
G1 X72.813 Y54.792 E0.1054
G1 X72.783 Y55.101 E0.1172
G1 X72.756 Y55.389 E0.12819
G1 X72.704 Y55.628 E0.1375
G1 X72.652 Y55.871 E0.14694
G1 X72.562 Y56.145 E0.15789
G1 X72.472 Y56.419 E0.16887
G1 X72.31 Y56.778 E0.18384
G1 X72.161 Y57.059 E0.19592
G1 X71.925 Y57.428 E0.21258
G1 X71.712 Y57.711 E0.22604
G1 X71.544 Y57.896 E0.23553
G1 X71.443 Y58.007 E0.24125
G1 X71.379 Y58.077 E0.24486
G1 X71.182 Y58.255 E0.25494
G1 X70.984 Y58.432 E0.26502
G1 X70.809 Y58.56 E0.27329
G1 X70.625 Y58.694 E0.28191
G1 X70.367 Y58.856 E0.29349
G1 X70.22 Y58.928 E0.29972
G1 X70.07 Y59.003 E0.3061
G1 X69.781 Y59.145 E0.31832
G1 X69.477 Y59.249 E0.33055
G1 X69.253 Y59.325 E0.33954
G1 X69.172 Y59.352 E0.34277
G1 X68.857 Y59.414 E0.35497
G1 X68.541 Y59.477 E0.36724
G1 X68.218 Y59.499 E0.37954
G1 X67.898 Y59.521 E0.39172
G1 X67.579 Y59.499 E0.40386
G1 X67.257 Y59.477 E0.41613
G1 X66.941 Y59.414 E0.4284
G1 X66.73 Y59.373 E0.43657
G1 X66.626 Y59.352 E0.44059
G1 X66.471 Y59.3 E0.4468
G1 X66.321 Y59.249 E0.45281
G1 X66.016 Y59.145 E0.46507
G1 X65.727 Y59.002 E0.47733
G1 X65.429 Y58.856 E0.48992
G1 X65.173 Y58.695 E0.50142
G1 X64.989 Y58.56 E0.51009
G1 X64.814 Y58.432 E0.51835
G1 X64.616 Y58.255 E0.52843
G1 X64.419 Y58.077 E0.53851
G1 X64.254 Y57.896 E0.54784
G1 X64.086 Y57.711 E0.55733
G1 X63.873 Y57.428 E0.5708
G1 X63.638 Y57.061 E0.58737
G1 X63.448 Y56.697 E0.60294
G1 X63.329 Y56.423 E0.61433
G1 X63.236 Y56.143 E0.62553
G1 X63.146 Y55.87 E0.63645
G1 X63.094 Y55.628 E0.64585
G1 X63.043 Y55.394 E0.65496
G1 X63.012 Y54.992 E0.67028
G1 X63.008 Y54.945 E0.67206
G1 X62.98 Y54.591 E0.68558
G1 X62.985 Y54.503 E0.68891
G1 X62.995 Y54.329 E0.69555
G1 X63.009 Y54.062 E0.70572
G1 X63.068 Y53.731 E0.71849
G1 X63.125 Y53.407 E0.73099
G1 X63.235 Y53.075 E0.74429
G1 X63.344 Y52.741 E0.75763
G1 X63.491 Y52.441 E0.77035
G1 X63.642 Y52.134 E0.78335
G1 X63.771 Y51.933 E0.7924
G1 X63.906 Y51.724 E0.80186
G1 X64.122 Y51.445 E0.81528
G1 X64.417 Y51.124 E0.83184
G1 X64.634 Y50.931 E0.84289
G1 X64.85 Y50.737 E0.85392
G1 X65.097 Y50.556 E0.86556
G1 X65.431 Y50.343 E0.88061
G1 X65.727 Y50.198 E0.89313
G1 X66.016 Y50.055 E0.9054
G1 X66.321 Y49.951 E0.91765
G1 X66.626 Y49.848 E0.92987
G1 X66.941 Y49.786 E0.94207
G1 X67.257 Y49.723 E0.95434
G1 X67.579 Y49.701 E0.9666
G1 X67.898 Y49.679 E0.97874
G1 X68.218 Y49.701 E0.99092
G1 X68.541 Y49.723 E1.00323
G1 X68.857 Y49.786 E1.01549
G1 X69.172 Y49.848 E1.02769
G1 X69.477 Y49.951 E1.03991
G1 X69.793 Y50.059 E1.0526
G1 X69.972 Y50.14 E1.06007
G1 X70.36 Y50.34 E1.07668
G1 X70.702 Y50.556 E1.09204
G1 X70.948 Y50.737 E1.10364
G1 X71.164 Y50.931 E1.11468
G1 X71.381 Y51.124 E1.12573
G1 X71.676 Y51.445 E1.14228
G1 X71.892 Y51.724 E1.15571
G1 X72.027 Y51.933 E1.16517
G1 X72.103 Y52.051 E1.17047
G1 X72.156 Y52.134 E1.17422
; acceleration to travel
M204 S4000
G1 X72.178 Y55.22 F12000
; decel to extrusion
M204 S2000
G1 X72.189 Y56.763
; end travel
G1 F1800
G1 X72.189 Y52.926 E1.32004
G1 X72.167 Y52.862 E1.32263
G1 X72.028 Y52.577 E1.33466
G1 X71.979 Y52.478 E1.33888
G1 X71.885 Y52.287 E1.34696
G1 X71.842 Y52.219 E1.35002
G1 X71.766 Y52.102 E1.35532
G1 X71.681 Y51.97 E1.36128
G1 X71.681 Y57.234 E1.56131
G1 X71.67 Y57.251 E1.56208
G1 X71.472 Y57.512 E1.57455
G1 X71.314 Y57.687 E1.58351
G1 X71.212 Y57.798 E1.58923
G1 X71.173 Y57.842 E1.59146
G1 X71.173 Y51.358 E1.83788
G1 X71.162 Y51.346 E1.83849
G1 X70.957 Y51.162 E1.84897
G1 X70.752 Y50.979 E1.85942
G1 X70.665 Y50.915 E1.86351
G1 X70.665 Y58.28 E2.14343
G1 X70.625 Y58.309 E2.14531
G1 X70.451 Y58.437 E2.15351
G1 X70.216 Y58.584 E2.16407
G1 X70.157 Y58.613 E2.16653
G1 X70.157 Y50.585 E2.47162
G1 X69.837 Y50.42 E2.48534
G1 X69.678 Y50.348 E2.49194
G1 X69.649 Y50.339 E2.4931
G1 X69.649 Y58.861 E2.81703
G1 X69.376 Y58.954 E2.82798
G1 X69.153 Y59.03 E2.83697
G1 X69.142 Y59.034 E2.83741
G1 X69.142 Y50.166 E3.17447
G1 X69.092 Y50.149 E3.17647
G1 X68.797 Y50.091 E3.18789
G1 X68.634 Y50.058 E3.19421
G1 X68.634 Y59.142 E3.53944
G1 X68.5 Y59.168 E3.54463
G1 X68.197 Y59.189 E3.55618
G1 X68.126 Y59.194 E3.55888
G1 X68.126 Y50.006 E3.90806
G1 X67.898 Y49.991 E3.91674
G1 X67.618 Y50.01 E3.92741
G1 X67.618 Y59.19 E4.27632
G1 X67.601 Y59.189 E4.27698
G1 X67.298 Y59.168 E4.2885
G1 X67.11 Y59.131 E4.29579
G1 X67.11 Y50.069 E4.64021
G1 X67.001 Y50.091 E4.64444
G1 X66.706 Y50.149 E4.65585
G1 X66.602 Y50.184 E4.66003
G1 X66.602 Y59.016 E4.99568
G1 X66.571 Y59.005 E4.99692
G1 X66.422 Y58.954 E5.00294
G1 X66.135 Y58.857 E5.01442
G1 X66.094 Y58.837 E5.01616
G1 X66.094 Y50.363 E5.33821
G1 X65.864 Y50.477 E5.34797
G1 X65.587 Y50.613 E5.35973
G1 X65.587 Y58.587 E5.66277
G1 X65.348 Y58.437 E5.67347
G1 X65.173 Y58.309 E5.68172
G1 X65.079 Y58.241 E5.68615
G1 X65.079 Y50.955 E5.96306
G1 X65.046 Y50.979 E5.9646
G1 X64.841 Y51.162 E5.97505
G1 X64.636 Y51.346 E5.98552
G1 X64.571 Y51.417 E5.98918
G1 X64.571 Y57.782 E6.2311
