; generated by SuperSlicer 2.5.59 on 2023-03-05 at 19:13:27 UTC


;
;

;
;
; 

; external perimeters extrusion width = 0.40mm
; perimeters extrusion width = 0.46mm
; infill extrusion width = 0.64mm
; solid infill extrusion width = 0.56mm
; top infill extrusion width = 0.40mm
; first layer extrusion width = 0.50mm

; object:{"name":"swivel_hook","id":"swivel_hook.stl id:0 copy 0","object_center":[60.000000,60.000000,0.000000],"boundingbox_center":[60.000000,60.000000,7.500000],"boundingbox_size":[55.500000,31.500000,15.000000]}
; plater:{"center":[60.000000,60.000000,0.000000],"boundingbox_center":[60.000000,60.000000,7.500000],"boundingbox_size":[55.500000,31.500000,15.000000]}

M73 P0 R22
;TYPE:Custom
; custom gcode: start_gcode
START_PRINT T_BED=70 T_EXTRUDER=235
; custom gcode end: start_gcode
M107
G21 ; set units to millimeters
G90 ; use absolute coordinates
M82 ; use absolute distances for extrusion
G92 E0
; custom gcode: start_filament_gcode
; Filament gcode
PRESSURE_ADVANCE_SELECT FILAMENT=PETG
; custom gcode end: start_filament_gcode
;_TOOLCHANGE 0
M104 S235 ; set temperature
M109 S235 ; set temperature and wait for it to be reached
M190 S70 ; set bed temperature and wait for it to be reached
;LAYER_CHANGE
;Z:0.2
;HEIGHT:0.2
G1 Z0.2 F12000
M73 P0 R22
G1 E-1 F3000
M204 S2000
G1 X34.678 Y55.976 F12000
G1 E0 F1800
;TYPE:Skirt
;WIDTH:0.52
G1 X32.914 Y57.684 E0.09737
G1 X32.519 Y59.35 E0.1653
G1 X32.519 Y65.15 E0.39539
G1 X33.33 Y67.467 E0.49276
G1 X34.678 Y68.524 E0.56069
G1 X57.423 Y79.024 E1.55449
G1 X58.98 Y79.366 E1.61774
G1 X67.4 Y79.366 E1.95174
G1 X69.406 Y78.777 E2.03469
G1 X85.772 Y68.277 E2.80602
G1 X87.086 Y66.816 E2.88398
G1 X87.481 Y65.15 E2.95191
G1 X87.481 Y59.35 E3.18199
G1 X86.961 Y57.455 E3.25995
G1 X85.772 Y56.223 E3.32789
G1 X69.406 Y45.723 E4.09922
G1 X67.4 Y45.134 E4.18216
G1 X58.98 Y45.134 E4.51617
G1 X57.423 Y45.476 E4.57942
G1 X34.678 Y55.976 E5.57322
M73 P0 R21
G1 X34.877 Y56.41 F12000
G1 F1800
G1 X33.39 Y57.802 E5.65404
G1 X32.996 Y59.35 E5.7174
G1 X32.996 Y65.15 E5.94748
G1 X33.637 Y67.084 E6.02831
G1 X34.877 Y68.09 E6.09167
G1 X57.623 Y78.59 E7.08547
G1 X58.98 Y78.889 E7.1406
G1 X67.4 Y78.889 E7.4746
G1 X69.149 Y78.376 E7.5469
G1 X85.514 Y67.876 E8.31823
G1 X86.61 Y66.698 E8.38205
G1 X87.004 Y65.15 E8.44541
G1 X87.004 Y59.35 E8.67549
G1 X86.604 Y57.792 E8.73931
G1 X85.514 Y56.624 E8.80267
G1 X69.149 Y46.124 E9.574
G1 X67.4 Y45.611 E9.64629
G1 X58.98 Y45.611 E9.9803
G1 X57.623 Y45.91 E10.03543
G1 X34.877 Y56.41 E11.02923
G92 E0
G1 E-1 F3000
; printing object swivel_hook.stl id:0 copy 0
; acceleration to travel
M204 S4000
G1 X54.469 Y52.918 F12000
; decel to extrusion
M204 S2000
G1 X64.264 Y51.171
; end travel
G1 E0 F1800
;TYPE:Internal perimeter
;WIDTH:0.489208
G1 X63.807 Y51.4 E0.019
;WIDTH:0.5
G1 X63.807 Y73.557 E0.86111
G1 X60.244 Y73.557 E0.99653
G1 X59.603 Y73.06 E1.02734
G1 X59.895 Y72.708 E1.04472
;TYPE:External perimeter
G1 X60.4 Y73.1 E1.06904
G1 X63.35 Y73.1 E1.18114
G1 X63.35 Y51.4 E2.00588
G1 X60.4 Y51.4 E2.11798
G1 X59.714 Y51.932 E2.15098
G1 X59.083 Y52.488 E2.18295
G1 X58.488 Y53.083 E2.21493
G1 X57.932 Y53.714 E2.2469
G1 X57.417 Y54.379 E2.27887
G1 X56.944 Y55.075 E2.31084
G1 X56.516 Y55.799 E2.34281
G1 X56.134 Y56.548 E2.37478
G1 X55.799 Y57.321 E2.40676
G1 X55.515 Y58.112 E2.43873
G1 X55.28 Y58.92 E2.4707
G1 X55.096 Y59.741 E2.50267
G1 X54.965 Y60.572 E2.53465
G1 X54.886 Y61.409 E2.56662
G1 X54.859 Y62.25 E2.59859
G1 X54.886 Y63.091 E2.63056
G1 X54.965 Y63.928 E2.66253
G1 X55.096 Y64.759 E2.69451
G1 X55.28 Y65.58 E2.72648
G1 X55.515 Y66.388 E2.75845
G1 X55.799 Y67.179 E2.79042
G1 X56.134 Y67.952 E2.8224
G1 X56.516 Y68.701 E2.85437
G1 X56.944 Y69.425 E2.88634
G1 X57.417 Y70.121 E2.91831
G1 X57.932 Y70.786 E2.95028
G1 X58.488 Y71.417 E2.98226
G1 X59.083 Y72.012 E3.01423
G1 X59.543 Y72.417 E3.03751
;TYPE:Internal perimeter
G1 X59.251 Y72.769 E3.05489
G1 X58.77 Y72.345 E3.07927
G1 X58.155 Y71.73 E3.11234
G1 X57.58 Y71.077 E3.1454
G1 X57.047 Y70.39 E3.17846
G1 X56.558 Y69.67 E3.21153
G1 X56.115 Y68.921 E3.24459
G1 X55.72 Y68.146 E3.27765
G1 X55.374 Y67.348 E3.31072
G1 X55.08 Y66.529 E3.34378
G1 X54.837 Y65.694 E3.37685
G1 X54.647 Y64.845 E3.40991
G1 X54.511 Y63.986 E3.44298
G1 X54.429 Y63.12 E3.47604
G1 X54.402 Y62.25 E3.5091
G1 X54.429 Y61.38 E3.54217
G1 X54.511 Y60.514 E3.57523
G1 X54.647 Y59.655 E3.6083
G1 X54.837 Y58.806 E3.64136
G1 X55.08 Y57.971 E3.67442
G1 X55.374 Y57.152 E3.70749
G1 X55.72 Y56.354 E3.74055
G1 X56.115 Y55.579 E3.77362
G1 X56.558 Y54.83 E3.80668
G1 X57.047 Y54.11 E3.83975
G1 X57.58 Y53.423 E3.87281
G1 X58.155 Y52.77 E3.90587
G1 X58.77 Y52.155 E3.93894
G1 X59.423 Y51.58 E3.972
G1 X60.244 Y50.943 E4.01149
G1 X63.807 Y50.943 E4.14692
;WIDTH:0.489208
G1 X64.264 Y50.714 E4.16592
;WIDTH:0.5
G1 X64.721 Y50.7 E4.1833
G1 X64.721 Y74.029 E5.06995
G1 X65.779 Y74.029 E5.11014
G1 X65.779 Y50.7 E5.99679
;WIDTH:0.386753
G1 X66.236 Y50.243 E6.01579
;WIDTH:0.5
G1 X66.236 Y74.486 E6.93719
G1 X59.352 Y74.486 E7.1988
G1 X58.6 Y73.912 E7.23476
G1 X57.888 Y73.284 E7.27084
G1 X57.216 Y72.612 E7.30698
G1 X56.587 Y71.898 E7.34312
G1 X56.004 Y71.147 E7.37926
G1 X55.47 Y70.361 E7.4154
G1 X54.986 Y69.542 E7.45154
G1 X54.554 Y68.695 E7.48768
G1 X54.176 Y67.822 E7.52382
G1 X53.854 Y66.927 E7.55996
G1 X53.589 Y66.014 E7.5961
G1 X53.382 Y65.086 E7.63224
G1 X53.233 Y64.147 E7.66838
G1 X53.143 Y63.2 E7.70452
G1 X53.113 Y62.25 E7.74066
G1 X53.143 Y61.3 E7.7768
G1 X53.233 Y60.353 E7.81294
G1 X53.382 Y59.414 E7.84908
G1 X53.589 Y58.486 E7.88522
G1 X53.854 Y57.573 E7.92136
G1 X54.176 Y56.678 E7.9575
G1 X54.554 Y55.805 E7.99364
G1 X54.986 Y54.958 E8.02978
G1 X55.47 Y54.139 E8.06592
G1 X56.004 Y53.353 E8.10206
G1 X56.587 Y52.602 E8.1382
G1 X57.216 Y51.888 E8.17434
G1 X57.888 Y51.216 E8.21048
G1 X58.429 Y50.739 E8.23787
G1 X58.139 Y50.386 E8.25525
G1 X57.575 Y50.883 E8.2838
M73 P1 R21
G1 X56.883 Y51.575 E8.32103
G1 X56.235 Y52.31 E8.35827
G1 X55.634 Y53.084 E8.3955
G1 X55.084 Y53.894 E8.43273
G1 X54.585 Y54.738 E8.46996
G1 X54.14 Y55.61 E8.50719
G1 X53.751 Y56.51 E8.54443
G1 X53.419 Y57.431 E8.58166
G1 X53.146 Y58.372 E8.61889
G1 X52.932 Y59.328 E8.65612
G1 X52.779 Y60.296 E8.69335
G1 X52.687 Y61.271 E8.73059
G1 X52.656 Y62.25 E8.76782
G1 X52.687 Y63.229 E8.80505
G1 X52.779 Y64.204 E8.84228
G1 X52.932 Y65.172 E8.87951
G1 X53.146 Y66.128 E8.91675
G1 X53.419 Y67.069 E8.95398
G1 X53.751 Y67.99 E8.99121
G1 X54.14 Y68.89 E9.02844
G1 X54.585 Y69.762 E9.06567
G1 X55.084 Y70.606 E9.10291
G1 X55.634 Y71.416 E9.14014
G1 X56.235 Y72.19 E9.17737
G1 X56.883 Y72.925 E9.2146
G1 X57.575 Y73.617 E9.25184
G1 X58.31 Y74.265 E9.28907
G1 X59.012 Y74.81 E9.32284
G1 X58.868 Y75.272 E9.34122
;TYPE:External perimeter
G1 X58.815 Y75.236 E9.34365
G1 X58.019 Y74.618 E9.38197
G1 X57.262 Y73.951 E9.42029
G1 X56.549 Y73.238 E9.45862
G1 X55.882 Y72.481 E9.49694
G1 X55.264 Y71.685 E9.53526
G1 X54.698 Y70.851 E9.57359
G1 X54.184 Y69.983 E9.61191
G1 X53.726 Y69.084 E9.65024
G1 X53.326 Y68.159 E9.68856
G1 X52.984 Y67.21 E9.72689
G1 X52.703 Y66.242 E9.76521
G1 X52.483 Y65.258 E9.80353
G1 X52.325 Y64.262 E9.84186
G1 X52.231 Y63.258 E9.88018
G1 X52.199 Y62.25 E9.9185
G1 X52.231 Y61.242 E9.95683
G1 X52.325 Y60.238 E9.99515
G1 X52.483 Y59.242 E10.03348
G1 X52.703 Y58.258 E10.0718
G1 X52.984 Y57.29 E10.11012
G1 X53.326 Y56.341 E10.14845
G1 X53.726 Y55.416 E10.18677
G1 X54.184 Y54.517 E10.2251
G1 X54.698 Y53.649 E10.26342
G1 X55.264 Y52.815 E10.30174
G1 X55.882 Y52.019 E10.34007
G1 X56.549 Y51.262 E10.37839
G1 X57.262 Y50.549 E10.41672
G1 X58.019 Y49.882 E10.45504
G1 X58.815 Y49.264 E10.49336
G1 X59.057 Y49.1 E10.50448
G1 X67.15 Y49.1 E10.81205
G1 X67.15 Y75.4 E11.81162
G1 X59.286 Y75.4 E12.11051
;TYPE:Internal perimeter
G1 X59.426 Y74.943 E12.12869
G1 X66.693 Y74.943 E12.40486
G1 X66.693 Y49.557 E13.36968
G1 X59.198 Y49.557 E13.65455
G1 X59.084 Y49.634 E13.65977
G1 X58.491 Y50.095 E13.68831
G1 X58.782 Y50.45 E13.70576
G1 X59.352 Y50.014 E13.73304
G1 X66.007 Y50.014 E13.98597
;WIDTH:0.386753
G1 X65.55 Y50.471 E14.00497
;WIDTH:0.5
G1 X64.95 Y50.471 E14.02779
G1 X64.7 Y50.475 E14.03729
;TYPE:Unknown
G1 X64.286 Y50.482
;TYPE:Internal perimeter
G1 X64.036 Y50.486 E14.04679
G1 X60.087 Y50.486 E14.19685
G1 X59.131 Y51.228 E14.24284
G1 X58.457 Y51.822 E14.27699
G1 X57.822 Y52.457 E14.31115
G1 X57.227 Y53.131 E14.3453
G1 X56.677 Y53.841 E14.37946
G1 X56.171 Y54.585 E14.41362
G1 X55.714 Y55.358 E14.44777
G1 X55.306 Y56.159 E14.48193
G1 X54.949 Y56.984 E14.51608
G1 X54.645 Y57.829 E14.55024
G1 X54.394 Y58.692 E14.58439
G1 X54.198 Y59.569 E14.61855
G1 X54.057 Y60.457 E14.65271
G1 X53.973 Y61.352 E14.68686
G1 X53.945 Y62.25 E14.72102
G1 X53.973 Y63.148 E14.75518
G1 X54.057 Y64.043 E14.78933
G1 X54.198 Y64.931 E14.82349
G1 X54.394 Y65.808 E14.85764
G1 X54.645 Y66.671 E14.8918
G1 X54.949 Y67.516 E14.92595
G1 X55.306 Y68.341 E14.96011
G1 X55.714 Y69.142 E14.99427
G1 X56.171 Y69.915 E15.02842
G1 X56.677 Y70.659 E15.06258
G1 X57.227 Y71.369 E15.09673
G1 X57.822 Y72.043 E15.13089
G1 X58.457 Y72.678 E15.16505
G1 X59.131 Y73.272 E15.1992
G1 X60.087 Y74.014 E15.24519
G1 X64.264 Y74.014 E15.40393
G1 X64.264 Y51.171 E16.2721
; acceleration to travel
M204 S4000
G1 X64.921 Y50.845 F12000
; decel to extrusion
M204 S2000
G1 X65.25 Y50.682
; end travel
;TYPE:Gap fill
;WIDTH:0.679369
G1 F1800
G1 X65.25 Y73.818 E17.4965
G92 E0
G1 E-1 F3000
; acceleration to travel
M204 S4000
G1 X61.692 Y74.123 F12000
; decel to extrusion
M204 S2000
G1 X59.914 Y74.275
; end travel
G1 E0 F1800
;WIDTH:0.225039
G1 X59.827 Y74.234 E0.00146
;WIDTH:0.2735
G1 X59.659 Y74.154 E0.00502
;WIDTH:0.403026
G1 X59.492 Y74.074 E0.01058
;WIDTH:0.446201
G1 X59.182 Y73.835 E0.02369
G1 X58.872 Y73.597 E0.03681
G1 X58.862 Y73.588 E0.03724
G1 X58.52 Y73.287 E0.05253
G1 X58.178 Y72.985 E0.06782
G1 X58.168 Y72.977 E0.06825
G1 X57.523 Y72.332 E0.09883
G1 X57.515 Y72.322 E0.09927
G1 X56.912 Y71.638 E0.12984
G1 X56.903 Y71.628 E0.13028
G1 X56.344 Y70.908 E0.16085
G1 X56.337 Y70.898 E0.16128
G1 X56.081 Y70.52 E0.17657
G1 X55.824 Y70.143 E0.19187
G1 X55.817 Y70.132 E0.1923
G1 X55.585 Y69.74 E0.20759
G1 X55.353 Y69.347 E0.22288
G1 X55.347 Y69.336 E0.22331
G1 X55.14 Y68.93 E0.2386
G1 X54.933 Y68.524 E0.25388
G1 X54.928 Y68.512 E0.25432
G1 X54.746 Y68.094 E0.26961
G1 X54.565 Y67.675 E0.2849
G1 X54.561 Y67.663 E0.28533
G1 X54.406 Y67.234 E0.30062
G1 X54.252 Y66.805 E0.31591
G1 X54.248 Y66.793 E0.31634
G1 X54.121 Y66.355 E0.33163
G1 X53.993 Y65.917 E0.34692
G1 X53.99 Y65.905 E0.34735
G1 X53.891 Y65.46 E0.36264
G1 X53.791 Y65.015 E0.37793
G1 X53.789 Y65.002 E0.37836
G1 X53.717 Y64.552 E0.39365
G1 X53.646 Y64.101 E0.40894
G1 X53.644 Y64.089 E0.40937
G1 X53.602 Y63.635 E0.42466
G1 X53.559 Y63.181 E0.43995
G1 X53.558 Y63.168 E0.44038
G1 X53.544 Y62.712 E0.45567
G1 X53.529 Y62.256 E0.47096
G1 X53.529 Y62.244 E0.4714
G1 X53.544 Y61.788 E0.48668
G1 X53.558 Y61.332 E0.50197
G1 X53.559 Y61.319 E0.50241
G1 X53.602 Y60.865 E0.5177
G1 X53.644 Y60.411 E0.53299
G1 X53.646 Y60.399 E0.53342
G1 X53.717 Y59.948 E0.54871
G1 X53.789 Y59.498 E0.564
G1 X53.791 Y59.485 E0.56443
G1 X53.891 Y59.04 E0.57972
G1 X53.99 Y58.595 E0.59501
G1 X53.993 Y58.583 E0.59544
G1 X54.121 Y58.145 E0.61073
G1 X54.248 Y57.707 E0.62602
G1 X54.252 Y57.695 E0.62645
G1 X54.406 Y57.266 E0.64174
G1 X54.561 Y56.837 E0.65703
G1 X54.565 Y56.825 E0.65746
G1 X54.928 Y55.988 E0.68804
G1 X54.933 Y55.976 E0.68847
G1 X55.347 Y55.164 E0.71905
G1 X55.353 Y55.153 E0.71948
G1 X55.585 Y54.76 E0.73477
G1 X55.817 Y54.368 E0.75006
G1 X55.824 Y54.357 E0.75049
G1 X56.081 Y53.98 E0.76578
G1 X56.337 Y53.602 E0.78108
G1 X56.344 Y53.592 E0.78151
G1 X56.624 Y53.232 E0.7968
G1 X56.903 Y52.872 E0.81208
G1 X56.912 Y52.862 E0.81251
G1 X57.515 Y52.178 E0.84309
G1 X57.523 Y52.168 E0.84352
G1 X58.168 Y51.523 E0.87411
G1 X58.178 Y51.515 E0.87454
G1 X58.52 Y51.213 E0.88983
G1 X58.862 Y50.912 E0.90512
G1 X58.872 Y50.903 E0.90555
G1 X59.492 Y50.426 E0.93178
;WIDTH:0.403026
G1 X59.659 Y50.346 E0.93734
;WIDTH:0.2735
G1 X59.827 Y50.266 E0.9409
;WIDTH:0.225039
G1 X59.914 Y50.225 E0.94236
G92 E0
G1 E-1 F3000
; acceleration to travel
M204 S4000
G1 X59.914 Y55.527 F12000
; decel to extrusion
M204 S2000
G1 X59.914 Y58.177
; end travel
G1 E0 F1800
;TYPE:External perimeter
;WIDTH:0.5
G1 X61.9 Y58.177 E0.0755
G1 X61.9 Y66.323 E0.38506
;TYPE:Internal perimeter
;WIDTH:0.386753
G1 X61.443 Y65.865 E0.40407
;WIDTH:0.5
G1 X61.443 Y58.635 E0.67889
G1 X57.471 Y58.635 E0.82985
G1 X57.242 Y59.424 E0.86107
G1 X57.086 Y60.12 E0.88821
G1 X56.974 Y60.826 E0.91535
G1 X56.907 Y61.536 E0.94248
G1 X56.885 Y62.25 E0.96962
G1 X56.907 Y62.964 E0.99676
G1 X56.974 Y63.674 E1.02389
G1 X57.086 Y64.38 E1.05103
G1 X57.242 Y65.076 E1.07816
G1 X57.471 Y65.865 E1.10939
G1 X60.529 Y65.865 E1.22561
G1 X60.529 Y65.408 E1.24298
G1 X57.814 Y65.408 E1.34615
G1 X57.685 Y64.963 E1.36379
G1 X57.535 Y64.294 E1.38984
G1 X57.428 Y63.617 E1.41588
G1 X57.363 Y62.935 E1.44192
G1 X57.342 Y62.25 E1.46797
G1 X57.363 Y61.565 E1.49401
G1 X57.428 Y60.883 E1.52006
G1 X57.535 Y60.206 E1.5461
G1 X57.685 Y59.537 E1.57215
G1 X57.814 Y59.092 E1.58978
G1 X60.757 Y59.092 E1.70164
;WIDTH:0.386753
G1 X60.3 Y59.549 E1.72065
;WIDTH:0.5
G1 X58.15 Y59.549 E1.80235
G1 X57.984 Y60.292 E1.83129
G1 X57.882 Y60.94 E1.85624
G1 X57.82 Y61.594 E1.88119
G1 X57.799 Y62.25 E1.90614
G1 X57.82 Y62.906 E1.93109
G1 X57.882 Y63.56 E1.95605
G1 X57.984 Y64.208 E1.981
G1 X58.15 Y64.951 E2.00994
G1 X60.529 Y64.951 E2.10033
G1 X60.529 Y59.777 E2.29697
;WIDTH:0.386753
G1 X60.986 Y59.32 E2.31598
;WIDTH:0.5
G1 X60.986 Y65.408 E2.54737
G1 X60.986 Y65.865 E2.56474
;WIDTH:0.386753
G1 X61.443 Y66.323 E2.58374
;TYPE:External perimeter
;WIDTH:0.5
G1 X57.157 Y66.323 E2.74664
G1 X57.006 Y65.903 E2.76357
G1 X56.799 Y65.19 E2.7918
G1 X56.637 Y64.465 E2.82002
G1 X56.521 Y63.732 E2.84825
G1 X56.451 Y62.992 E2.87648
G1 X56.427 Y62.25 E2.90471
G1 X56.451 Y61.508 E2.93294
G1 X56.521 Y60.768 E2.96116
G1 X56.637 Y60.035 E2.98939
G1 X56.799 Y59.31 E3.01762
G1 X57.006 Y58.597 E3.04585
G1 X57.157 Y58.177 E3.06278
G1 X59.914 Y58.177 E3.16755
;WIPE_START
M204 S4000
G1 X60.114 Y58.524 F12000
;WIPE_END
; acceleration to travel
G1 X59.686 Y59.294
; decel to extrusion
M204 S2000
G1 X59.468 Y59.686
; end travel
;TYPE:Solid infill
;WIDTH:0.515361
G1 F2400
G1 X60.392 Y60.61 E3.21874
G1 X60.392 Y61.256 F12000
G1 F2400
G1 X58.821 Y59.686 E3.30574
G1 X58.249 Y59.76 F12000
G1 F2400
G1 X60.392 Y61.903 E3.42443
G1 X60.392 Y62.549 F12000
G1 F2400
G1 X58.145 Y60.302 E3.54891
M73 P2 R21
G1 X58.04 Y60.844 F12000
G1 F2400
G1 X60.392 Y63.195 E3.6792
G1 X60.392 Y63.842 F12000
G1 F2400
G1 X57.988 Y61.438 E3.81238
G1 X57.949 Y62.046 F12000
G1 F2400
G1 X60.392 Y64.488 E3.94768
G1 X60.071 Y64.814 F12000
G1 F2400
G1 X57.965 Y62.708 E4.06435
G1 X58.009 Y63.398 F12000
G1 F2400
G1 X59.425 Y64.814 E4.14279
G1 X58.778 Y64.814 F12000
G1 F2400
G1 X58.14 Y64.176 E4.17814
G92 E0
G1 E-1 F3000
; acceleration to travel
M204 S4000
G1 X50.008 Y64.662 F12000
; decel to extrusion
M204 S2000
G1 X46.015 Y64.9
; end travel
G1 E0 F1800
;TYPE:Internal perimeter
;WIDTH:0.386754
G1 X45.558 Y64.443 E0.019
;WIDTH:0.5
G1 X45.558 Y60.057 E0.18569
G1 X36.942 Y60.057 E0.51316
G1 X36.942 Y64.443 E0.67985
G1 X44.644 Y64.443 E0.97258
G1 X44.644 Y63.986 E0.98995
G1 X37.399 Y63.986 E1.26531
G1 X37.399 Y60.743 E1.38857
;WIDTH:0.386753
G1 X37.856 Y61.2 E1.40757
;WIDTH:0.5
G1 X37.856 Y63.529 E1.49609
G1 X44.644 Y63.529 E1.75407
G1 X44.644 Y60.971 E1.85127
G1 X38.085 Y60.971 E2.10057
;WIDTH:0.386753
G1 X37.628 Y60.514 E2.11957
;WIDTH:0.5
G1 X45.101 Y60.514 E2.40361
G1 X45.101 Y63.986 E2.53556
G1 X45.101 Y64.443 E2.55293
;WIDTH:0.386754
G1 X45.558 Y64.9 E2.57193
;TYPE:External perimeter
;WIDTH:0.5
G1 X36.485 Y64.9 E2.91677
M73 P3 R21
G1 X36.485 Y59.6 E3.11821
G1 X46.015 Y59.6 E3.48042
G1 X46.015 Y64.9 E3.68185
G92 E0
G1 E-1 F3000
; acceleration to travel
M204 S4000
G1 X45.016 Y63 F12000
; decel to extrusion
M204 S2000
G1 X44.507 Y62.032
; end travel
G1 E0 F1800
;TYPE:Solid infill
;WIDTH:0.516176
G1 F2400
G1 X43.583 Y61.108 E0.05127
G1 X42.936 Y61.108 F12000
G1 F2400
G1 X44.507 Y62.679 E0.13841
G1 X44.507 Y63.325 F12000
G1 F2400
