; generated by SuperSlicer 2.5.59 on 2023-07-31 at 02:45:18 UTC


;
;

;
;
; 

; external perimeters extrusion width = 0.40mm
; perimeters extrusion width = 0.46mm
; infill extrusion width = 0.64mm
; solid infill extrusion width = 0.56mm
; top infill extrusion width = 0.40mm
; support material extrusion width = 0.46mm
; first layer extrusion width = 0.50mm

; object:{"name":"tension arm","id":"tension arm.stl id:0 copy 0","object_center":[60.000000,60.000000,0.000000],"boundingbox_center":[60.000000,60.000000,6.779791],"boundingbox_size":[20.850000,38.512156,13.559583]}
EXCLUDE_OBJECT_DEFINE NAME=tension_arm_stl_id_0_copy_0 CENTER=60.000000,60.000000 POLYGON=[[49.575000,41.398728],[64.025000,40.743920],[67.025000,40.743920],[67.425000,41.143920],[70.425000,44.878336],[70.425000,78.756072],[69.925000,79.256072],[49.575000,79.256072],[49.575000,41.398728]]
; plater:{"center":[60.000000,60.000000,0.000000],"boundingbox_center":[60.000000,60.000000,6.779791],"boundingbox_size":[20.850000,38.512156,13.559583]}

M73 P0 R11
;TYPE:Custom
; custom gcode: start_gcode
START_PRINT T_BED=110 T_EXTRUDER=260
; custom gcode end: start_gcode
M107
G21 ; set units to millimeters
G90 ; use absolute coordinates
M82 ; use absolute distances for extrusion
G92 E0
; custom gcode: start_filament_gcode
; filament start gcode

    PRESSURE_ADVANCE_SELECT FILAMENT=ABS
; custom gcode end: start_filament_gcode
;_TOOLCHANGE 0
M104 S260 ; set temperature
M109 S260 ; set temperature and wait for it to be reached
M190 S110 ; set bed temperature and wait for it to be reached
;LAYER_CHANGE
;Z:0.2
;HEIGHT:0.2
G1 Z0.2 F12000
M73 P0 R11
G1 E-0.5 F2400
M204 S2000
G1 X44.314 Y37.143 F12000
G1 E0 F1800
;TYPE:Skirt
;WIDTH:0.52
G1 X43.68 Y37.899 E0.03625
G1 X43.286 Y39.566 E0.09916
G1 X43.298 Y47.398 E0.38688
G1 X45.92 Y79.14 E1.55683
G1 X46.644 Y81.055 E1.63204
G1 X47.956 Y82.155 E1.69495
G1 X49.623 Y82.549 E1.75785
G1 X69.907 Y82.549 E2.50298
G1 X70.869 Y82.423 E2.5386
G1 X72.376 Y81.61 E2.60151
G1 X73.359 Y80.208 E2.66441
G1 X73.667 Y78.967 E2.71137
G1 X77.41 Y46.519 E3.91125
G1 X77.352 Y45.315 E3.95553
G1 X76.617 Y43.768 E4.01843
G1 X71.241 Y37.066 E4.33402
G1 X70.009 Y36.07 E4.39221
G1 X68.343 Y35.676 E4.45512
G1 X61.479 Y35.676 E4.70725
M73 P1 R11
G1 X46.957 Y35.85 E5.24076
G1 X44.78 Y36.587 E5.32516
G1 X44.314 Y37.143 E5.35182
G1 X44.665 Y37.469 F12000
G1 F1800
G1 X44.156 Y38.018 E5.37933
G1 X43.763 Y39.566 E5.43799
G1 X43.774 Y47.359 E5.72428
G1 X46.395 Y79.1 E6.89423
G1 X46.903 Y80.593 E6.95214
G1 X48.075 Y81.679 E7.01081
G1 X49.623 Y82.072 E7.06948
G1 X69.907 Y82.072 E7.81461
G1 X71.977 Y81.324 E7.89547
G1 X72.916 Y80.032 E7.95414
G1 X73.193 Y78.913 E7.99649
G1 X76.936 Y46.464 E9.19636
G1 X76.906 Y45.52 E9.23105
G1 X76.245 Y44.066 E9.28971
G1 X70.869 Y37.365 E9.6053
G1 X69.891 Y36.547 E9.65215
G1 X68.343 Y36.153 E9.71082
G1 X61.485 Y36.153 E9.96275
G1 X46.962 Y36.327 E10.49626
G1 X45.242 Y36.846 E10.56226
G1 X44.665 Y37.469 E10.59342
G92 E0
G1 E-0.5 F2400
; printing object tension arm.stl id:0 copy 0
EXCLUDE_OBJECT_START NAME=tension_arm_stl_id_0_copy_0
G1 X47.001 Y39.566 F12000
G1 E0 F1800
;TYPE:Support material
;WIDTH:0.5
G1 X55.813 Y39.566 E0.31012
G1 X55.813 Y47.092 E0.57502
G1 X54.27 Y47.092 E0.62932
M73 P2 R11
G1 X54.27 Y45.991 E0.66808
G1 X53.77 Y45.491 E0.69295
G1 X53.77 Y44.092 E0.74219
G1 X49.044 Y44.092 E0.90853
G1 X49.044 Y45.491 E0.95776
G1 X48.544 Y45.991 E0.98264
G1 X48.544 Y47.092 E1.02139
G1 X47.001 Y47.092 E1.07569
G1 X47.001 Y39.566 E1.34059
G92 E0
G1 E-0.5 F2400
G1 X55.429 Y46.978 F12000
G1 E0 F1800
G1 X55.429 Y39.876 E0.24994
G1 X54.921 Y39.876 E0.26781
G1 X54.921 Y46.782 E0.51084
G1 X54.581 Y46.782 E0.52282
G1 X54.581 Y45.863 E0.55517
G1 X54.413 Y45.695 E0.5635
G1 X54.413 Y39.876 E0.76828
G1 X53.906 Y39.876 E0.78616
G1 X53.906 Y43.782 E0.9236
G1 X53.398 Y43.782 E0.94147
G1 X53.398 Y39.876 E1.07891
G1 X52.89 Y39.876 E1.09678
G1 X52.89 Y43.782 E1.23422
G1 X52.382 Y43.782 E1.2521
G1 X52.382 Y39.876 E1.38954
G1 X51.874 Y39.876 E1.40741
G1 X51.874 Y43.782 E1.54485
G1 X51.366 Y43.782 E1.56273
G1 X51.366 Y39.876 E1.70017
G1 X50.858 Y39.876 E1.71804
G1 X50.858 Y43.782 E1.85548
G1 X50.351 Y43.782 E1.87336
G1 X50.351 Y39.876 E2.0108
G1 X49.843 Y39.876 E2.02867
G1 X49.843 Y43.782 E2.16611
G1 X49.335 Y43.782 E2.18399
G1 X49.335 Y39.876 E2.32143
G1 X48.827 Y39.876 E2.3393
G1 X48.827 Y43.782 E2.47674
G1 X48.733 Y43.782 E2.48004
G1 X48.733 Y45.363 E2.53569
G1 X48.319 Y45.777 E2.55629
G1 X48.319 Y39.876 E2.76395
G1 X47.811 Y39.876 E2.78182
G1 X47.811 Y46.978 E3.03176
G92 E0
G1 E-0.5 F2400
G1 X61.524 Y46.276 F12000
G1 E0 F1800
G1 X61.524 Y39.391 E0.24229
G1 X68.343 Y39.391 E0.48229
G1 X69.197 Y40.564 E0.53334
G1 X69.654 Y41.21 E0.56121
G1 X69.739 Y42.378 E0.60243
G1 X73.719 Y46.093 E0.79401
G1 X71.047 Y46.09 E0.88805
G1 X71.047 Y45.231 E0.91829
G1 X71.011 Y45.037 E0.92524
G1 X70.794 Y44.47 E0.94662
G1 X70.242 Y44.089 E0.97019
G1 X68.353 Y44.088 E1.03668
G1 X67.919 Y43.473 E1.06315
G1 X67.633 Y43.207 E1.07688
G1 X67.322 Y43.046 E1.08923
G1 X63.566 Y43.046 E1.2214
G1 X63.566 Y43.96 E1.25357
G1 X63.067 Y44.46 E1.27845
G1 X63.067 Y46.276 E1.34236
G1 X61.524 Y46.276 E1.39666
G92 E0
G1 E-0.5 F2400
G1 X72.697 Y45.978 F12000
G1 E0 F1800
G1 X72.697 Y45.564 E0.01456
G1 X72.189 Y45.09 E0.03901
G1 X72.189 Y45.781 E0.06331
G1 X71.681 Y45.78 E0.08119
G1 X71.681 Y44.616 E0.12216
G1 X71.173 Y44.142 E0.14661
G1 X71.173 Y44.591 E0.16242
G1 X71.05 Y44.268 E0.17459
G1 X70.665 Y44.004 E0.19101
G1 X70.665 Y43.668 E0.20283
M73 P3 R10
G1 X70.157 Y43.194 E0.22728
G1 X70.157 Y43.779 E0.24786
G1 X69.649 Y43.778 E0.26573
G1 X69.649 Y42.72 E0.30298
G1 X69.438 Y42.523 E0.31315
G1 X69.351 Y41.319 E0.35561
G1 X69.142 Y41.024 E0.36836
G1 X69.142 Y43.778 E0.46528
G1 X68.634 Y43.777 E0.48316
G1 X68.634 Y40.318 E0.60489
G1 X68.185 Y39.702 E0.63171
G1 X68.126 Y39.702 E0.63379
G1 X68.126 Y43.242 E0.75836
G1 X67.814 Y42.951 E0.77336
G1 X67.618 Y42.849 E0.78114
G1 X67.618 Y39.702 E0.89189
G1 X67.11 Y39.702 E0.90977
G1 X67.11 Y42.735 E1.01651
G1 X66.602 Y42.735 E1.03438
G1 X66.602 Y39.702 E1.14112
G1 X66.094 Y39.702 E1.159
G1 X66.094 Y42.735 E1.26574
G1 X65.587 Y42.735 E1.28361
G1 X65.587 Y39.702 E1.39035
G1 X65.079 Y39.702 E1.40823
G1 X65.079 Y42.735 E1.51497
G1 X64.571 Y42.735 E1.53284
G1 X64.571 Y39.702 E1.63958
G1 X64.063 Y39.702 E1.65746
G1 X64.063 Y42.735 E1.7642
G1 X63.555 Y42.735 E1.78207
G1 X63.555 Y39.702 E1.88881
G1 X63.047 Y39.702 E1.90669
G1 X63.047 Y44.04 E2.05935
G1 X62.756 Y44.331 E2.07385
G1 X62.756 Y45.965 E2.13135
G1 X62.539 Y45.965 E2.13897
G1 X62.539 Y39.702 E2.35939
G1 X62.031 Y39.702 E2.37726
G1 X62.031 Y46.162 E2.60459
G92 E0
G1 E-0.5 F2400
G1 X66.008 Y45.614 F12000
G1 E0 F1800
;TYPE:Internal perimeter
G1 X64.852 Y45.614 E0.04066
G1 X64.852 Y52.439 E0.28088
G1 X52.484 Y52.439 E0.71615
G1 X52.484 Y47.145 E0.90248
G1 X50.33 Y47.145 E0.97831
G1 X50.33 Y78.127 E2.06868
G1 X69.26 Y78.127 E2.73489
G1 X69.261 Y45.874 E3.86998
M73 P4 R10
G1 X66.729 Y45.872 E3.95908
G1 X66.93 Y45.722 E3.96788
;TYPE:Unknown
G1 X67.139 Y45.565
;TYPE:Internal perimeter
G1 X67.34 Y45.415 E3.97668
;TYPE:External perimeter
G1 X69.718 Y45.418 E4.06039
G1 X69.717 Y78.584 E5.22764
G1 X49.873 Y78.584 E5.92602
G1 X49.873 Y46.688 E7.04856
G1 X52.941 Y46.688 E7.15656
G1 X52.941 Y51.982 E7.34289
G1 X64.395 Y51.982 E7.74599
G1 X64.395 Y45.157 E7.98621
G1 X66.806 Y45.157 E8.07107
G1 X66.883 Y45.415 E8.08053
;TYPE:Internal perimeter
G1 X66.465 Y45.614 E8.09682
;WIDTH:0.438127
G1 X66.123 Y46.071 E8.11442
;WIDTH:0.5
G1 X66.134 Y46.109 E8.11582
G1 X66.04 Y46.341 E8.12462
;TYPE:Unknown
G1 X65.861 Y46.782
;TYPE:Internal perimeter
G1 X65.766 Y47.013 E8.13342
G1 X65.766 Y53.354 E8.35655
G1 X51.244 Y53.354 E8.86766
G1 X51.244 Y77.213 E9.70735
G1 X59.761 Y77.213 E10.00711
G1 X59.762 Y76.963 E10.01591
;TYPE:Unknown
G1 X59.762 Y75.9
;TYPE:Internal perimeter
M73 P5 R10
G1 X59.763 Y75.65 E10.02471
G1 X59.341 Y75.606 E10.03962
G1 X58.678 Y75.39 E10.06417
G1 X58.073 Y75.041 E10.08873
G1 X57.555 Y74.575 E10.11328
G1 X57.145 Y74.01 E10.13784
G1 X56.88 Y73.414 E10.16079
G1 X56.766 Y72.99 E10.17625
G1 X56.707 Y72.432 E10.19601
G1 X56.707 Y70.042 E10.2801
G1 X56.766 Y69.484 E10.29986
G1 X56.88 Y69.06 E10.31532
G1 X57.126 Y68.505 E10.33667
G1 X57.366 Y68.137 E10.35213
G1 X57.772 Y67.686 E10.37348
G1 X58.113 Y67.41 E10.38894
G1 X58.678 Y67.084 E10.41189
G1 X59.298 Y66.882 E10.43485
G1 X59.732 Y66.813 E10.4503
G1 X60.384 Y66.813 E10.47325
G1 X61.066 Y66.958 E10.49781
G1 X61.704 Y67.242 E10.52236
G1 X62.268 Y67.652 E10.54692
G1 X62.735 Y68.171 E10.57147
G1 X63.084 Y68.775 E10.59603
G1 X63.299 Y69.439 E10.62058
G1 X63.339 Y69.815 E10.6339
G1 X62.882 Y69.839 E10.65001
G1 X62.85 Y69.534 E10.6608
G1 X62.664 Y68.962 E10.68197
G1 X62.363 Y68.441 E10.70314
G1 X61.961 Y67.994 E10.72431
G1 X61.474 Y67.64 E10.74549
G1 X60.924 Y67.396 E10.76666
G1 X60.336 Y67.27 E10.78783
G1 X59.768 Y67.27 E10.80783
G1 X59.405 Y67.328 E10.82075
G1 X58.865 Y67.504 E10.84075
G1 X58.372 Y67.788 E10.86075
G1 X58.087 Y68.019 E10.87367
G1 X57.729 Y68.416 E10.8925
G1 X57.529 Y68.724 E10.90542
G1 X57.312 Y69.213 E10.92424
G1 X57.217 Y69.567 E10.93716
G1 X57.188 Y69.839 E10.94677
G1 X57.645 Y69.863 E10.96288
G1 X57.668 Y69.651 E10.97038
G1 X57.744 Y69.366 E10.98077
G1 X57.932 Y68.943 E10.99707
G1 X58.093 Y68.695 E11.00746
G1 X58.403 Y68.351 E11.02375
G1 X58.632 Y68.166 E11.03414
G1 X59.052 Y67.923 E11.05118
G1 X59.512 Y67.774 E11.06822
G1 X59.804 Y67.728 E11.07861
G1 X60.288 Y67.728 E11.09565
G1 X60.782 Y67.833 E11.11344
G1 X61.244 Y68.038 E11.13123
G1 X61.653 Y68.335 E11.14903
G1 X61.991 Y68.711 E11.16682
G1 X62.244 Y69.149 E11.18461
G1 X62.4 Y69.63 E11.2024
G1 X62.449 Y70.09 E11.2187
G1 X62.449 Y72.384 E11.29941
G1 X62.4 Y72.844 E11.31571
G1 X62.244 Y73.325 E11.3335
G1 X62.002 Y73.744 E11.35054
G1 X61.816 Y73.974 E11.36093
G1 X61.472 Y74.284 E11.37722
G1 X61.225 Y74.444 E11.38761
G1 X60.782 Y74.641 E11.40466
G1 X60.242 Y74.745 E11.42402
G1 X60.254 Y74.286 E11.44018
;TYPE:External perimeter
G1 X60.64 Y74.204 E11.45408
G1 X61.006 Y74.041 E11.46817
G1 X61.193 Y73.92 E11.47602
G1 X61.484 Y73.658 E11.48978
G1 X61.624 Y73.485 E11.49764
G1 X61.824 Y73.138 E11.51173
G1 X61.951 Y72.749 E11.52614
G1 X61.992 Y72.36 E11.5399
G1 X61.992 Y70.114 E11.61893
G1 X61.951 Y69.725 E11.63269
G1 X61.824 Y69.336 E11.6471
G1 X61.62 Y68.981 E11.66151
G1 X61.346 Y68.677 E11.67592
G1 X61.014 Y68.436 E11.69033
G1 X60.64 Y68.27 E11.70474
G1 X60.24 Y68.185 E11.71915
G1 X59.84 Y68.185 E11.73324
G1 X59.619 Y68.22 E11.7411
G1 X59.238 Y68.343 E11.75518
G1 X58.892 Y68.543 E11.76927
G1 X58.718 Y68.684 E11.77712
G1 X58.457 Y68.974 E11.79088
G1 X58.335 Y69.162 E11.79874
G1 X58.176 Y69.519 E11.8125
G1 X58.118 Y69.734 E11.82036
G1 X58.078 Y70.114 E11.83379
G1 X58.078 Y72.36 E11.91283
G1 X58.118 Y72.739 E11.92626
G1 X58.176 Y72.955 E11.93412
G1 X58.339 Y73.321 E11.9482
G1 X58.58 Y73.652 E11.96261
G1 X58.884 Y73.926 E11.97702
G1 X59.238 Y74.131 E11.99143
G1 X59.628 Y74.257 E12.00584
G1 X59.799 Y74.275 E12.01189
;TYPE:Internal perimeter
G1 X59.787 Y74.733 E12.02802
G1 X59.532 Y74.707 E12.03702
G1 X59.052 Y74.551 E12.05481
G1 X58.614 Y74.298 E12.0726
G1 X58.238 Y73.96 E12.0904
G1 X57.941 Y73.551 E12.10819
G1 X57.744 Y73.108 E12.12523
G1 X57.668 Y72.823 E12.13562
G1 X57.621 Y72.384 E12.15116
G1 X57.621 Y70.319 E12.22384
G1 X57.164 Y70.295 E12.23995
G1 X57.164 Y72.408 E12.31431
G1 X57.217 Y72.907 E12.33196
G1 X57.312 Y73.261 E12.34489
G1 X57.543 Y73.78 E12.36488
G1 X57.896 Y74.267 E12.38606
G1 X58.344 Y74.67 E12.40723
G1 X58.865 Y74.97 E12.4284
G1 X59.437 Y75.156 E12.44958
G1 X60.002 Y75.216 E12.46957
G1 X60.369 Y75.197 E12.4825
G1 X60.924 Y75.078 E12.5025
G1 X61.443 Y74.847 E12.52249
G1 X61.751 Y74.647 E12.53541
G1 X62.149 Y74.289 E12.55424
G1 X62.38 Y74.004 E12.56716
G1 X62.664 Y73.512 E12.58716
G1 X62.85 Y72.94 E12.60833
G1 X62.906 Y72.408 E12.62716
G1 X62.906 Y70.295 E12.70152
G1 X63.363 Y70.271 E12.71763
G1 X63.363 Y72.432 E12.79368
G1 X63.299 Y73.035 E12.81504
G1 X63.084 Y73.699 E12.8396
G1 X62.758 Y74.264 E12.86255
G1 X62.481 Y74.605 E12.87801
G1 X62.03 Y75.011 E12.89936
G1 X61.662 Y75.25 E12.91481
G1 X61.066 Y75.515 E12.93777
G1 X60.428 Y75.651 E12.96073
G1 X60.218 Y75.662 E12.96814
G1 X60.218 Y75.912 E12.97693
;TYPE:Unknown
G1 X60.218 Y76.963
;TYPE:Internal perimeter
G1 X60.218 Y77.213 E12.98573
G1 X68.345 Y77.213 E13.27175
G1 X68.347 Y46.787 E14.34253
G1 X65.995 Y46.785 E14.4253
;WIDTH:0.397374
G1 X66.428 Y46.328 E14.4429
;WIDTH:0.5
G1 X68.804 Y46.331 E14.52653
G1 X68.802 Y77.67 E15.62946
G1 X50.787 Y77.67 E16.2635
G1 X50.787 Y47.602 E17.3217
M73 P6 R10
G1 X52.027 Y47.602 E17.36535
G1 X52.027 Y52.896 E17.55168
G1 X65.309 Y52.896 E18.01913
G1 X65.309 Y46.071 E18.25935
G1 X65.666 Y46.071 E18.2719
;WIDTH:0.438127
G1 X66.008 Y45.614 E18.2895
G1 X67.285 Y46.923 F12000
;TYPE:Solid infill
;WIDTH:0.503243
G1 F2400
G1 X68.21 Y47.848 E18.33583
G1 X68.21 Y48.495 F12000
G1 F2400
G1 X66.638 Y46.923 E18.41457
G1 X65.991 Y46.922 F12000
G1 F2400
G1 X68.21 Y49.141 E18.52572
G1 X68.21 Y49.787 F12000
G1 F2400
G1 X65.904 Y47.481 E18.64124
G1 X65.904 Y48.128 F12000
G1 F2400
G1 X68.21 Y50.434 E18.75676
G1 X68.21 Y51.08 F12000
G1 F2400
G1 X65.904 Y48.774 E18.87228
G1 X65.904 Y49.421 F12000
G1 F2400
G1 X68.209 Y51.727 E18.98779
G1 X68.209 Y52.373 F12000
G1 F2400
G1 X65.904 Y50.067 E19.1033
G1 X65.904 Y50.713 F12000
G1 F2400
G1 X68.209 Y53.019 E19.21881
G1 X68.209 Y53.666 F12000
G1 F2400
G1 X65.904 Y51.36 E19.33432
G1 X65.904 Y52.006 F12000
G1 F2400
G1 X68.209 Y54.312 E19.44983
G1 X68.209 Y54.958 F12000
G1 F2400
G1 X65.904 Y52.653 E19.56534
G1 X65.904 Y53.299 F12000
G1 F2400
G1 X68.209 Y55.605 E19.68084
G1 X68.209 Y56.251 F12000
G1 F2400
G1 X65.449 Y53.491 E19.81913
G1 X64.802 Y53.491 F12000
G1 F2400
G1 X68.209 Y56.898 E19.9898
G1 X68.209 Y57.544 F12000
G1 F2400
G1 X64.156 Y53.491 E20.19285
G1 X63.509 Y53.491 F12000
G1 F2400
G1 X68.209 Y58.19 E20.42828
G1 X68.209 Y58.837 F12000
G1 F2400
G1 X62.863 Y53.491 E20.69609
G1 X62.217 Y53.491 F12000
G1 F2400
G1 X68.209 Y59.483 E20.99628
G1 X68.209 Y60.129 F12000
G1 F2400
G1 X61.57 Y53.491 E21.32885
G1 X60.924 Y53.491 F12000
G1 F2400
G1 X68.209 Y60.776 E21.6938
G1 X68.209 Y61.422 F12000
G1 F2400
G1 X60.277 Y53.491 E22.09113
G1 X59.631 Y53.491 F12000
G1 F2400
G1 X68.209 Y62.069 E22.52084
G1 X68.209 Y62.715 F12000
G1 F2400
G1 X58.985 Y53.491 E22.98293
M73 P7 R10
G1 X58.338 Y53.491 F12000
G1 F2400
G1 X68.209 Y63.361 E23.4774
G1 X68.209 Y64.008 F12000
G1 F2400
G1 X57.692 Y53.491 E24.00424
G1 X57.045 Y53.491 F12000
G1 F2400
G1 X68.209 Y64.654 E24.56347
G1 X68.209 Y65.3 F12000
G1 F2400
G1 X56.399 Y53.491 E25.15508
G1 X55.753 Y53.491 F12000
G1 F2400
G1 X68.209 Y65.947 E25.77907
G1 X68.209 Y66.593 F12000
G1 F2400
G1 X55.106 Y53.491 E26.43544
G1 X54.46 Y53.491 F12000
G1 F2400
G1 X68.209 Y67.24 E27.12418
G1 X68.209 Y67.886 F12000
G1 F2400
G1 X53.813 Y53.491 E27.84531
G1 X53.167 Y53.491 F12000
G1 F2400
G1 X68.209 Y68.532 E28.59882
G1 X68.209 Y69.179 F12000
G1 F2400
G1 X52.521 Y53.491 E29.38471
G1 X51.874 Y53.491 F12000
G1 F2400
G1 X68.209 Y69.825 E30.20297
G1 X68.209 Y70.471 F12000
G1 F2400
G1 X51.381 Y53.644 E31.04595
M73 P8 R10
G1 X51.381 Y54.29 F12000
G1 F2400
G1 X68.209 Y71.118 E31.88892
G1 X68.209 Y71.764 F12000
G1 F2400
G1 X51.381 Y54.937 E32.73189
G1 X51.381 Y55.583 F12000
G1 F2400
G1 X68.209 Y72.411 E33.57485
G1 X68.208 Y73.057 F12000
G1 F2400
G1 X51.381 Y56.229 E34.41782
G1 X51.381 Y56.876 F12000
G1 F2400
G1 X61.512 Y67.007 E34.92532
G1 X60.572 Y66.713 F12000
G1 F2400
G1 X51.381 Y57.522 E35.38573
G1 X51.381 Y58.169 F12000
G1 F2400
G1 X59.889 Y66.676 E35.81192
G1 X59.339 Y66.773 F12000
G1 F2400
G1 X51.381 Y58.815 E36.21055
G1 X51.381 Y59.462 F12000
G1 F2400
G1 X58.824 Y66.905 E36.5834
G1 X58.374 Y67.101 F12000
G1 F2400
G1 X51.381 Y60.108 E36.93371
G1 X51.381 Y60.754 F12000
G1 F2400
G1 X57.973 Y67.346 E37.26394
G1 X57.628 Y67.647 F12000
G1 F2400
G1 X51.381 Y61.401 E37.57686
G1 X51.381 Y62.047 F12000
G1 F2400
G1 X57.343 Y68.009 E37.87551
G1 X57.058 Y68.371 F12000
G1 F2400
G1 X51.381 Y62.694 E38.1599
G1 X51.381 Y63.34 F12000
G1 F2400
G1 X56.863 Y68.822 E38.43454
