; HEADER_BLOCK_START
; generated by OrcaSlicer 1.7.0-beta on 2023-10-03 at 13:24:39
; total layer number: 75
; HEADER_BLOCK_END

; THUMBNAIL_BLOCK_START
; THUMBNAIL_BLOCK_END

; external perimeters extrusion width = 0.40mm
; perimeters extrusion width = 0.46mm
; infill extrusion width = 0.64mm
; solid infill extrusion width = 0.56mm
; top infill extrusion width = 0.40mm
; first layer extrusion width = 0.50mm

; EXECUTABLE_BLOCK_START
EXCLUDE_OBJECT_DEFINE NAME=test1x.stl_id_0_copy_0 CENTER=60,60 POLYGON=[[36.875,36.875],[83.125,36.875],[83.125,83.125],[36.875,83.125],[36.875,36.875]]
M73 P0 R17
;TYPE:Custom
START_PRINT T_BED=110 T_EXTRUDER=260
G90
G21
M83 ; use relative distances for extrusion
; Filament gcode

    PRESSURE_ADVANCE_SELECT FILAMENT=ABS
M106 S0
;LAYER_CHANGE
;Z:0.2
;HEIGHT:0.2
;BEFORE_LAYER_CHANGE
;0.2
G92 E0

;AFTER_LAYER_CHANGE
;0.2
;_SET_FAN_SPEED_CHANGING_LAYER
SET_VELOCITY_LIMIT ACCEL=1000 ACCEL_TO_DECEL=500
SET_VELOCITY_LIMIT SQUARE_CORNER_VELOCITY=9
G1 E-.5 F3000
G1 Z.2 F21000
G1 X34.788 Y34.982
G1 Z.2
G1 E.5 F1800
;TYPE:Skirt
;WIDTH:0.5
G1 F3000
G1 X35.427 Y34.346 E.03176
G1 X36.875 Y33.961 E.05272
G1 X83.125 Y33.961 E1.62772
G1 X84.587 Y34.354 E.05327
G1 X85.654 Y35.427 E.05327
G1 X86.039 Y36.875 E.05272
G1 X86.039 Y83.125 E1.62772
G1 X85.646 Y84.587 E.05327
G1 X84.573 Y85.654 E.05327
G1 X83.125 Y86.039 E.05272
G1 X36.875 Y86.039 E1.62772
G1 X35.413 Y85.646 E.05327
G1 X34.346 Y84.573 E.05327
G1 X33.961 Y83.125 E.05272
G1 X33.961 Y36.875 E1.62772
G1 X34.354 Y35.413 E.05327
G1 X34.759 Y35.01 E.02011
G1 X35.045 Y35.341 F21000
G1 F3000
G1 X35.86 Y34.637 E.03792
G1 X36.875 Y34.418 E.03653
G1 X83.125 Y34.418 E1.62772
G1 X84.456 Y34.81 E.04884
G1 X85.363 Y35.86 E.04884
G1 X85.582 Y36.875 E.03653
G1 X85.582 Y83.125 E1.62772
G1 X85.19 Y84.456 E.04884
G1 X84.14 Y85.363 E.04884
G1 X83.125 Y85.582 E.03653
G1 X36.875 Y85.582 E1.62772
G1 X35.544 Y85.19 E.04884
G1 X34.637 Y84.14 E.04884
G1 X34.418 Y83.125 E.03653
G1 X34.418 Y36.875 E1.62772
G1 X34.81 Y35.544 E.04884
G1 X35.014 Y35.367 E.00951
; printing object test1x.stl id:0 copy 0
G1 E-.5
EXCLUDE_OBJECT_START NAME=test1x.stl_id_0_copy_0
G1 Z.4 F21000
G1 X82.775 Y82.775 Z.4
G1 Z.2
G1 E.5 F1800
;TYPE:Outer wall
G1 F3000
G1 X37.225 Y82.775 E1.60308
G1 X37.225 Y37.225 E1.60308
M73 P1 R17
G1 X82.775 Y37.225 E1.60308
G1 X82.775 Y82.735 E1.60167
G1 X82.275 Y82.275 F21000
;TYPE:Inner wall
G1 F3000
G1 X37.725 Y82.275 E1.56789
G1 X37.725 Y37.725 E1.56789
G1 X82.275 Y37.725 E1.56789
G1 X82.275 Y82.235 E1.56648
G1 X81.818 Y81.818 F21000
G1 F3000
G1 X38.182 Y81.818 E1.53571
G1 X38.182 Y38.182 E1.53571
G1 X81.818 Y38.182 E1.53571
G1 X81.818 Y81.778 E1.53431
G1 E-.5
G1 Z.4 F21000
G1 X80.755 Y38.319 Z.4
G1 Z.2
G1 E.5 F1800
;TYPE:Bottom surface
;WIDTH:0.501033
G1 F6300
G1 X81.475 Y39.04 E.03594
G1 X81.475 Y39.688 E.02285
G1 X80.312 Y38.525 E.058
M73 P2 R17
G1 X79.665 Y38.525 E.02285
G1 X81.475 Y40.335 E.09032
G1 X81.475 Y40.983 E.02285
G1 X79.017 Y38.525 E.12264
G1 X78.369 Y38.525 E.02285
G1 X81.475 Y41.631 E.15495
G1 X81.475 Y42.279 E.02285
G1 X77.721 Y38.525 E.18727
G1 X77.073 Y38.525 E.02285
G1 X81.475 Y42.927 E.21959
G1 X81.475 Y43.575 E.02285
G1 X76.425 Y38.525 E.25191
G1 X75.777 Y38.525 E.02285
G1 X81.475 Y44.223 E.28423
G1 X81.475 Y44.87 E.02285
G1 X75.13 Y38.525 E.31655
G1 X74.482 Y38.525 E.02285
G1 X81.475 Y45.518 E.34886
G1 X81.475 Y46.166 E.02285
G1 X73.834 Y38.525 E.38118
G1 X73.186 Y38.525 E.02285
G1 X81.475 Y46.814 E.4135
G1 X81.475 Y47.462 E.02285
G1 X72.538 Y38.525 E.44582
G1 X71.89 Y38.525 E.02285
G1 X81.475 Y48.11 E.47814
G1 X81.475 Y48.758 E.02285
G1 X71.242 Y38.525 E.51046
G1 X70.594 Y38.525 E.02285
G1 X81.475 Y49.406 E.54277
G1 X81.475 Y50.053 E.02285
G1 X69.947 Y38.525 E.57509
G1 X69.299 Y38.525 E.02285
G1 X81.475 Y50.701 E.60741
G1 X81.475 Y51.349 E.02285
G1 X68.651 Y38.525 E.63973
G1 X68.003 Y38.525 E.02285
G1 X81.475 Y51.997 E.67205
G1 X81.475 Y52.645 E.02285
G1 X67.355 Y38.525 E.70437
G1 X66.707 Y38.525 E.02285
G1 X81.475 Y53.293 E.73669
G1 X81.475 Y53.941 E.02285
G1 X66.059 Y38.525 E.769
G1 X65.411 Y38.525 E.02285
G1 X81.475 Y54.589 E.80132
G1 X81.475 Y55.236 E.02285
G1 X64.764 Y38.525 E.83364
G1 X64.116 Y38.525 E.02285
G1 X81.475 Y55.884 E.86596
G1 X81.475 Y56.532 E.02285
G1 X63.468 Y38.525 E.89828
G1 X62.82 Y38.525 E.02285
G1 X81.475 Y57.18 E.9306
G1 X81.475 Y57.828 E.02285
G1 X62.172 Y38.525 E.96291
G1 X61.524 Y38.525 E.02285
G1 X81.475 Y58.476 E.99523
G1 X81.475 Y59.124 E.02285
G1 X60.876 Y38.525 E1.02755
G1 X60.229 Y38.525 E.02285
G1 X81.475 Y59.771 E1.05987
G1 X81.475 Y60.419 E.02285
G1 X59.581 Y38.525 E1.09219
G1 X58.933 Y38.525 E.02285
G1 X81.475 Y61.067 E1.12451
G1 X81.475 Y61.715 E.02285
G1 X58.285 Y38.525 E1.15683
G1 X57.637 Y38.525 E.02285
G1 X81.475 Y62.363 E1.18914
G1 X81.475 Y63.011 E.02285
G1 X56.989 Y38.525 E1.22146
M73 P3 R17
G1 X56.341 Y38.525 E.02285
G1 X81.475 Y63.659 E1.25378
G1 X81.475 Y64.307 E.02285
G1 X55.693 Y38.525 E1.2861
G1 X55.046 Y38.525 E.02285
G1 X81.475 Y64.954 E1.31842
G1 X81.475 Y65.602 E.02285
G1 X54.398 Y38.525 E1.35074
G1 X53.75 Y38.525 E.02285
G1 X81.475 Y66.25 E1.38305
G1 X81.475 Y66.898 E.02285
G1 X53.102 Y38.525 E1.41537
G1 X52.454 Y38.525 E.02285
G1 X81.475 Y67.546 E1.44769
G1 X81.475 Y68.194 E.02285
G1 X51.806 Y38.525 E1.48001
G1 X51.158 Y38.525 E.02285
G1 X81.475 Y68.842 E1.51233
G1 X81.475 Y69.49 E.02285
G1 X50.51 Y38.525 E1.54465
G1 X49.863 Y38.525 E.02285
G1 X81.475 Y70.137 E1.57696
G1 X81.475 Y70.785 E.02285
G1 X49.215 Y38.525 E1.60928
G1 X48.567 Y38.525 E.02285
G1 X81.475 Y71.433 E1.6416
G1 X81.475 Y72.081 E.02285
G1 X47.919 Y38.525 E1.67392
G1 X47.271 Y38.525 E.02285
G1 X81.475 Y72.729 E1.70624
G1 X81.475 Y73.377 E.02285
G1 X46.623 Y38.525 E1.73856
G1 X45.975 Y38.525 E.02285
G1 X81.475 Y74.025 E1.77088
G1 X81.475 Y74.673 E.02285
G1 X45.328 Y38.525 E1.80319
G1 X44.68 Y38.525 E.02285
G1 X81.475 Y75.32 E1.83551
G1 X81.475 Y75.968 E.02285
G1 X44.032 Y38.525 E1.86783
M73 P4 R17
G1 X43.384 Y38.525 E.02285
G1 X81.475 Y76.616 E1.90015
G1 X81.475 Y77.264 E.02285
G1 X42.736 Y38.525 E1.93247
G1 X42.088 Y38.525 E.02285
G1 X81.475 Y77.912 E1.96479
G1 X81.475 Y78.56 E.02285
G1 X41.44 Y38.525 E1.9971
G1 X40.792 Y38.525 E.02285
G1 X81.475 Y79.208 E2.02942
G1 X81.475 Y79.855 E.02285
G1 X40.145 Y38.525 E2.06174
G1 X39.497 Y38.525 E.02285
G1 X81.475 Y80.503 E2.09406
G1 X81.475 Y81.151 E.02285
G1 X38.849 Y38.525 E2.12638
G1 X38.525 Y38.525 E.01143
G1 X38.525 Y38.849 E.01143
G1 X81.151 Y81.475 E2.12638
G1 X80.503 Y81.475 E.02285
G1 X38.525 Y39.497 E2.09406
G1 X38.525 Y40.145 E.02285
G1 X79.855 Y81.475 E2.06174
G1 X79.208 Y81.475 E.02285
G1 X38.525 Y40.792 E2.02942
G1 X38.525 Y41.44 E.02285
G1 X78.56 Y81.475 E1.9971
G1 X77.912 Y81.475 E.02285
G1 X38.525 Y42.088 E1.96479
G1 X38.525 Y42.736 E.02285
G1 X77.264 Y81.475 E1.93247
G1 X76.616 Y81.475 E.02285
M73 P4 R16
G1 X38.525 Y43.384 E1.90015
M73 P5 R16
G1 X38.525 Y44.032 E.02285
G1 X75.968 Y81.475 E1.86783
G1 X75.32 Y81.475 E.02285
G1 X38.525 Y44.68 E1.83551
G1 X38.525 Y45.328 E.02285
G1 X74.672 Y81.475 E1.80319
G1 X74.025 Y81.475 E.02285
G1 X38.525 Y45.975 E1.77087
G1 X38.525 Y46.623 E.02285
G1 X73.377 Y81.475 E1.73856
G1 X72.729 Y81.475 E.02285
G1 X38.525 Y47.271 E1.70624
G1 X38.525 Y47.919 E.02285
G1 X72.081 Y81.475 E1.67392
G1 X71.433 Y81.475 E.02285
G1 X38.525 Y48.567 E1.6416
G1 X38.525 Y49.215 E.02285
G1 X70.785 Y81.475 E1.60928
G1 X70.137 Y81.475 E.02285
G1 X38.525 Y49.863 E1.57696
G1 X38.525 Y50.51 E.02285
G1 X69.49 Y81.475 E1.54465
G1 X68.842 Y81.475 E.02285
G1 X38.525 Y51.158 E1.51233
G1 X38.525 Y51.806 E.02285
G1 X68.194 Y81.475 E1.48001
G1 X67.546 Y81.475 E.02285
G1 X38.525 Y52.454 E1.44769
G1 X38.525 Y53.102 E.02285
G1 X66.898 Y81.475 E1.41537
G1 X66.25 Y81.475 E.02285
G1 X38.525 Y53.75 E1.38305
G1 X38.525 Y54.398 E.02285
G1 X65.602 Y81.475 E1.35073
G1 X64.954 Y81.475 E.02285
G1 X38.525 Y55.046 E1.31842
G1 X38.525 Y55.693 E.02285
G1 X64.307 Y81.475 E1.2861
G1 X63.659 Y81.475 E.02285
G1 X38.525 Y56.341 E1.25378
M73 P6 R16
G1 X38.525 Y56.989 E.02285
G1 X63.011 Y81.475 E1.22146
G1 X62.363 Y81.475 E.02285
G1 X38.525 Y57.637 E1.18914
G1 X38.525 Y58.285 E.02285
G1 X61.715 Y81.475 E1.15682
G1 X61.067 Y81.475 E.02285
G1 X38.525 Y58.933 E1.12451
G1 X38.525 Y59.581 E.02285
G1 X60.419 Y81.475 E1.09219
G1 X59.771 Y81.475 E.02285
G1 X38.525 Y60.229 E1.05987
G1 X38.525 Y60.876 E.02285
G1 X59.124 Y81.475 E1.02755
G1 X58.476 Y81.475 E.02285
G1 X38.525 Y61.524 E.99523
G1 X38.525 Y62.172 E.02285
G1 X57.828 Y81.475 E.96291
G1 X57.18 Y81.475 E.02285
G1 X38.525 Y62.82 E.9306
G1 X38.525 Y63.468 E.02285
G1 X56.532 Y81.475 E.89828
G1 X55.884 Y81.475 E.02285
G1 X38.525 Y64.116 E.86596
G1 X38.525 Y64.764 E.02285
G1 X55.236 Y81.475 E.83364
G1 X54.589 Y81.475 E.02285
G1 X38.525 Y65.411 E.80132
G1 X38.525 Y66.059 E.02285
G1 X53.941 Y81.475 E.769
G1 X53.293 Y81.475 E.02285
G1 X38.525 Y66.707 E.73668
G1 X38.525 Y67.355 E.02285
G1 X52.645 Y81.475 E.70437
G1 X51.997 Y81.475 E.02285
G1 X38.525 Y68.003 E.67205
G1 X38.525 Y68.651 E.02285
G1 X51.349 Y81.475 E.63973
G1 X50.701 Y81.475 E.02285
G1 X38.525 Y69.299 E.60741
G1 X38.525 Y69.947 E.02285
G1 X50.053 Y81.475 E.57509
G1 X49.406 Y81.475 E.02285
G1 X38.525 Y70.594 E.54277
G1 X38.525 Y71.242 E.02285
G1 X48.758 Y81.475 E.51046
G1 X48.11 Y81.475 E.02285
G1 X38.525 Y71.89 E.47814
G1 X38.525 Y72.538 E.02285
G1 X47.462 Y81.475 E.44582
G1 X46.814 Y81.475 E.02285
G1 X38.525 Y73.186 E.4135
G1 X38.525 Y73.834 E.02285
G1 X46.166 Y81.475 E.38118
G1 X45.518 Y81.475 E.02285
G1 X38.525 Y74.482 E.34886
G1 X38.525 Y75.13 E.02285
G1 X44.87 Y81.475 E.31655
G1 X44.223 Y81.475 E.02285
G1 X38.525 Y75.777 E.28423
G1 X38.525 Y76.425 E.02285
G1 X43.575 Y81.475 E.25191
G1 X42.927 Y81.475 E.02285
G1 X38.525 Y77.073 E.21959
G1 X38.525 Y77.721 E.02285
G1 X42.279 Y81.475 E.18727
M73 P7 R16
G1 X41.631 Y81.475 E.02285
G1 X38.525 Y78.369 E.15495
G1 X38.525 Y79.017 E.02285
G1 X40.983 Y81.475 E.12263
G1 X40.335 Y81.475 E.02285
G1 X38.525 Y79.665 E.09032
G1 X38.525 Y80.312 E.02285
G1 X39.688 Y81.475 E.058
G1 X39.04 Y81.475 E.02285
G1 X38.319 Y80.755 E.03594
; stop printing object test1x.stl id:0 copy 0
;LAYER_CHANGE
;Z:0.4
;HEIGHT:0.2
;BEFORE_LAYER_CHANGE
;0.4
G92 E0

EXCLUDE_OBJECT_END NAME=test1x.stl_id_0_copy_0
;AFTER_LAYER_CHANGE
;0.4
;_SET_FAN_SPEED_CHANGING_LAYER
SET_VELOCITY_LIMIT ACCEL=6000 ACCEL_TO_DECEL=3000
M140 S110 ; set bed temperature
; printing object test1x.stl id:0 copy 0
SET_VELOCITY_LIMIT ACCEL=4000 ACCEL_TO_DECEL=2000
SET_VELOCITY_LIMIT SQUARE_CORNER_VELOCITY=12
G1 E-.5 F3000
EXCLUDE_OBJECT_START NAME=test1x.stl_id_0_copy_0
G1 Z.4 F21000
G1 X82.925 Y82.925 Z.4
G1 E.5 F1800
SET_VELOCITY_LIMIT SQUARE_CORNER_VELOCITY=7
;TYPE:Outer wall
;WIDTH:0.4
G1 F6000
G1 X37.075 Y82.925 E1.26061
G1 X37.075 Y37.075 E1.26061
G1 X82.925 Y37.075 E1.26061
G1 X82.925 Y82.885 E1.25951
SET_VELOCITY_LIMIT SQUARE_CORNER_VELOCITY=12
G1 X82.495 Y82.495 F21000
SET_VELOCITY_LIMIT ACCEL=6000 ACCEL_TO_DECEL=3000
SET_VELOCITY_LIMIT SQUARE_CORNER_VELOCITY=7
;TYPE:Inner wall
;WIDTH:0.46
G1 F8631.445
G1 X37.505 Y82.495 E1.44481
G1 X37.505 Y37.505 E1.44481
G1 X82.495 Y37.505 E1.44481
G1 X82.495 Y82.455 E1.44352
SET_VELOCITY_LIMIT ACCEL=4000 ACCEL_TO_DECEL=2000
SET_VELOCITY_LIMIT SQUARE_CORNER_VELOCITY=12
G1 X82.078 Y82.078 F21000
SET_VELOCITY_LIMIT ACCEL=6000 ACCEL_TO_DECEL=3000
SET_VELOCITY_LIMIT SQUARE_CORNER_VELOCITY=7
G1 F8631.445
G1 X37.922 Y82.078 E1.41802
G1 X37.922 Y37.922 E1.41802
G1 X82.078 Y37.922 E1.41802
G1 X82.078 Y82.038 E1.41674
SET_VELOCITY_LIMIT ACCEL=4000 ACCEL_TO_DECEL=2000
SET_VELOCITY_LIMIT SQUARE_CORNER_VELOCITY=12
G1 X81.96 Y80.913 F21000
SET_VELOCITY_LIMIT ACCEL=6000 ACCEL_TO_DECEL=3000
;TYPE:Internal solid infill
;WIDTH:0.561138
G1 F6000
G1 X81.145 Y81.728 E.04599
G1 X80.412 Y81.728 E.02924
G1 X81.728 Y80.412 E.07421
G1 X81.728 Y79.68 E.02924
G1 X79.68 Y81.728 E.11557
G1 X78.947 Y81.728 E.02924
G1 X81.728 Y78.947 E.15692
G1 X81.728 Y78.214 E.02924
G1 X78.214 Y81.728 E.19828
G1 X77.481 Y81.728 E.02924
G1 X81.728 Y77.481 E.23963
G1 X81.728 Y76.748 E.02924
G1 X76.748 Y81.728 E.28099
G1 X76.015 Y81.728 E.02924
G1 X81.728 Y76.015 E.32234
G1 X81.728 Y75.282 E.02924
G1 X75.282 Y81.728 E.3637
G1 X74.549 Y81.728 E.02924
G1 X81.728 Y74.549 E.40506
G1 X81.728 Y73.817 E.02924
G1 X73.817 Y81.728 E.44641
G1 X73.084 Y81.728 E.02924
G1 X81.728 Y73.084 E.48777
G1 X81.728 Y72.351 E.02924
G1 X72.351 Y81.728 E.52912
G1 X71.618 Y81.728 E.02924
G1 X81.728 Y71.618 E.57048
G1 X81.728 Y70.885 E.02924
G1 X70.885 Y81.728 E.61183
G1 X70.152 Y81.728 E.02924
G1 X81.728 Y70.152 E.65319
G1 X81.728 Y69.419 E.02924
G1 X69.419 Y81.728 E.69454
G1 X68.687 Y81.728 E.02924
G1 X81.728 Y68.687 E.7359
G1 X81.728 Y67.954 E.02924
G1 X67.954 Y81.728 E.77725
G1 X67.221 Y81.728 E.02924
G1 X81.728 Y67.221 E.81861
G1 X81.728 Y66.488 E.02924
G1 X66.488 Y81.728 E.85996
G1 X65.755 Y81.728 E.02924
G1 X81.728 Y65.755 E.90132
G1 X81.728 Y65.022 E.02924
G1 X65.022 Y81.728 E.94267
G1 X64.289 Y81.728 E.02924
G1 X81.728 Y64.289 E.98403
G1 X81.728 Y63.556 E.02924
G1 X63.556 Y81.728 E1.02538
G1 X62.824 Y81.728 E.02924
G1 X81.728 Y62.824 E1.06674
G1 X81.728 Y62.091 E.02924
G1 X62.091 Y81.728 E1.10809
G1 X61.358 Y81.728 E.02924
G1 X81.728 Y61.358 E1.14945
G1 X81.728 Y60.625 E.02924
G1 X60.625 Y81.728 E1.1908
M73 P8 R16
G1 X59.892 Y81.728 E.02924
G1 X81.728 Y59.892 E1.23216
G1 X81.728 Y59.159 E.02924
G1 X59.159 Y81.728 E1.27351
G1 X58.426 Y81.728 E.02924
G1 X81.728 Y58.426 E1.31487
G1 X81.728 Y57.693 E.02924
G1 X57.693 Y81.728 E1.35622
G1 X56.961 Y81.728 E.02924
G1 X81.728 Y56.961 E1.39758
G1 X81.728 Y56.228 E.02924
G1 X56.228 Y81.728 E1.43893
G1 X55.495 Y81.728 E.02924
G1 X81.728 Y55.495 E1.48029
G1 X81.728 Y54.762 E.02924
G1 X54.762 Y81.728 E1.52165
G1 X54.029 Y81.728 E.02924
G1 X81.728 Y54.029 E1.563
G1 X81.728 Y53.296 E.02924
G1 X53.296 Y81.728 E1.60436
G1 X52.563 Y81.728 E.02924
G1 X81.728 Y52.563 E1.64571
G1 X81.728 Y51.83 E.02924
G1 X51.83 Y81.728 E1.68707
G1 X51.098 Y81.728 E.02924
G1 X81.728 Y51.098 E1.72842
G1 X81.728 Y50.365 E.02924
G1 X50.365 Y81.728 E1.76978
G1 X49.632 Y81.728 E.02924
G1 X81.728 Y49.632 E1.81113
G1 X81.728 Y48.899 E.02924
G1 X48.899 Y81.728 E1.85249
G1 X48.166 Y81.728 E.02924
G1 X81.728 Y48.166 E1.89384
G1 X81.728 Y47.433 E.02924
G1 X47.433 Y81.728 E1.9352
G1 X46.7 Y81.728 E.02924
G1 X81.728 Y46.7 E1.97655
G1 X81.728 Y45.968 E.02924
G1 X45.968 Y81.728 E2.01791
G1 X45.235 Y81.728 E.02924
G1 X81.728 Y45.235 E2.05926
G1 X81.728 Y44.502 E.02924
G1 X44.502 Y81.728 E2.10062
G1 X43.769 Y81.728 E.02924
G1 X81.728 Y43.769 E2.14197
G1 X81.728 Y43.036 E.02924
G1 X43.036 Y81.728 E2.18333
M73 P9 R16
G1 X42.303 Y81.728 E.02924
G1 X81.728 Y42.303 E2.22468
G1 X81.728 Y41.57 E.02924
G1 X41.57 Y81.728 E2.26604
G1 X40.837 Y81.728 E.02924
G1 X81.728 Y40.837 E2.30739
G1 X81.728 Y40.105 E.02924
G1 X40.105 Y81.728 E2.34875
G1 X39.372 Y81.728 E.02924
G1 X81.728 Y39.372 E2.3901
G1 X81.728 Y38.639 E.02924
G1 X38.639 Y81.728 E2.43146
G1 X38.272 Y81.728 E.01462
G1 X38.272 Y81.361 E.01462
G1 X81.361 Y38.272 E2.43146
G1 X80.628 Y38.272 E.02924
G1 X38.272 Y80.628 E2.3901
G1 X38.272 Y79.895 E.02924
G1 X79.895 Y38.272 E2.34875
G1 X79.163 Y38.272 E.02924
G1 X38.272 Y79.163 E2.30739
G1 X38.272 Y78.43 E.02924
G1 X78.43 Y38.272 E2.26604
G1 X77.697 Y38.272 E.02924
G1 X38.272 Y77.697 E2.22468
G1 X38.272 Y76.964 E.02924
G1 X76.964 Y38.272 E2.18333
G1 X76.231 Y38.272 E.02924
G1 X38.272 Y76.231 E2.14197
G1 X38.272 Y75.498 E.02924
G1 X75.498 Y38.272 E2.10062
G1 X74.765 Y38.272 E.02924
G1 X38.272 Y74.765 E2.05926
G1 X38.272 Y74.032 E.02924
G1 X74.032 Y38.272 E2.01791
G1 X73.3 Y38.272 E.02924
G1 X38.272 Y73.3 E1.97655
M73 P10 R16
G1 X38.272 Y72.567 E.02924
G1 X72.567 Y38.272 E1.93519
G1 X71.834 Y38.272 E.02924
G1 X38.272 Y71.834 E1.89384
G1 X38.272 Y71.101 E.02924
G1 X71.101 Y38.272 E1.85248
G1 X70.368 Y38.272 E.02924
G1 X38.272 Y70.368 E1.81113
G1 X38.272 Y69.635 E.02924
G1 X69.635 Y38.272 E1.76977
G1 X68.902 Y38.272 E.02924
G1 X38.272 Y68.902 E1.72842
G1 X38.272 Y68.169 E.02924
G1 X68.169 Y38.272 E1.68706
G1 X67.437 Y38.272 E.02924
G1 X38.272 Y67.437 E1.64571
G1 X38.272 Y66.704 E.02924
G1 X66.704 Y38.272 E1.60435
