; HEADER_BLOCK_START
; generated by OrcaSlicer 1.7.0-beta on 2023-09-25 at 18:49:45
; total layer number: 155
; HEADER_BLOCK_END

; THUMBNAIL_BLOCK_START
; THUMBNAIL_BLOCK_END

; external perimeters extrusion width = 0.40mm
; perimeters extrusion width = 0.46mm
; infill extrusion width = 0.64mm
; solid infill extrusion width = 0.56mm
; top infill extrusion width = 0.40mm
; first layer extrusion width = 0.50mm

; EXECUTABLE_BLOCK_START
EXCLUDE_OBJECT_DEFINE NAME=testa.stl_id_0_copy_0 CENTER=60,60 POLYGON=[[22,22],[98,22],[98,98],[22,98],[22,22]]
M73 P0 R58
;TYPE:Custom
START_PRINT T_BED=110 T_EXTRUDER=260
G90
G21
M83 ; use relative distances for extrusion
; Filament gcode

    PRESSURE_ADVANCE_SELECT FILAMENT=ABS
M106 S0
;LAYER_CHANGE
;Z:0.2
;HEIGHT:0.2
;BEFORE_LAYER_CHANGE
;0.2
G92 E0

;AFTER_LAYER_CHANGE
;0.2
;_SET_FAN_SPEED_CHANGING_LAYER
SET_VELOCITY_LIMIT ACCEL=1000 ACCEL_TO_DECEL=500
SET_VELOCITY_LIMIT SQUARE_CORNER_VELOCITY=9
G1 E-.5 F3000
G1 Z.2 F21000
G1 X19.954 Y20.066
G1 Z.2
G1 E.5 F1800
;TYPE:Skirt
;WIDTH:0.5
G1 F3000
G1 X20.552 Y19.471 E.02969
G1 X22 Y19.086 E.05272
G1 X98 Y19.086 E2.67473
G1 X99.462 Y19.479 E.05327
G1 X100.529 Y20.552 E.05327
G1 X100.914 Y22 E.05272
G1 X100.914 Y98 E2.67473
G1 X100.521 Y99.462 E.05327
G1 X99.448 Y100.529 E.05327
G1 X98 Y100.914 E.05272
G1 X22 Y100.914 E2.67473
G1 X20.538 Y100.521 E.05327
G1 X19.471 Y99.448 E.05327
G1 X19.086 Y98 E.05272
G1 X19.086 Y22 E2.67473
G1 X19.479 Y20.538 E.05327
G1 X19.926 Y20.094 E.02217
G1 X20.214 Y20.428 F21000
G1 F3000
G1 X20.985 Y19.762 E.03586
G1 X22 Y19.543 E.03653
G1 X98 Y19.543 E2.67473
G1 X99.331 Y19.935 E.04884
G1 X100.238 Y20.985 E.04884
G1 X100.457 Y22 E.03653
G1 X100.457 Y98 E2.67473
G1 X100.065 Y99.331 E.04884
G1 X99.015 Y100.238 E.04884
G1 X98 Y100.457 E.03653
G1 X22 Y100.457 E2.67473
G1 X20.669 Y100.065 E.04884
G1 X19.762 Y99.015 E.04884
G1 X19.543 Y98 E.03653
G1 X19.543 Y22 E2.67473
G1 X19.935 Y20.669 E.04884
G1 X20.184 Y20.454 E.01157
; printing object testa.stl id:0 copy 0
G1 E-.5
EXCLUDE_OBJECT_START NAME=testa.stl_id_0_copy_0
G1 Z.4 F21000
G1 X36.65 Y37.35 Z.4
G1 Z.2
G1 E.5 F1800
;TYPE:Outer wall
G1 F3000
G1 X83.35 Y37.35 E1.64355
G1 X83.35 Y22.35 E.52791
G1 X97.65 Y22.35 E.50327
G1 X97.65 Y97.65 E2.6501
M73 P0 R57
G1 X22.35 Y97.65 E2.6501
G1 X22.35 Y22.35 E2.6501
G1 X36.65 Y22.35 E.50327
G1 X36.65 Y37.31 E.5265
G1 X36.15 Y37.35 F21000
;TYPE:Inner wall
G1 F3000
G1 X36.15 Y37.85 E.0176
G1 X83.85 Y37.85 E1.67875
G1 X83.85 Y22.85 E.52791
G1 X97.15 Y22.85 E.46808
G1 X97.15 Y97.15 E2.6149
G1 X22.85 Y97.15 E2.6149
G1 X22.85 Y22.85 E2.6149
G1 X36.15 Y22.85 E.46808
G1 X36.15 Y37.31 E.5089
G1 X35.693 Y37.35 F21000
G1 F3000
G1 X35.693 Y38.307 E.03368
G1 X84.307 Y38.307 E1.71092
G1 X84.307 Y23.307 E.52791
G1 X96.693 Y23.307 E.43591
G1 X96.693 Y96.693 E2.58273
G1 X23.307 Y96.693 E2.58273
G1 X23.307 Y23.307 E2.58273
G1 X35.693 Y23.307 E.43591
G1 X35.693 Y37.31 E.49282
G1 X35.236 Y37.35 F21000
G1 F3000
G1 X35.236 Y38.764 E.04977
G1 X84.764 Y38.764 E1.74309
M73 P1 R57
G1 X84.764 Y23.764 E.52791
G1 X96.236 Y23.764 E.40373
G1 X96.236 Y96.236 E2.55056
G1 X23.764 Y96.236 E2.55056
G1 X23.764 Y23.764 E2.55056
G1 X35.236 Y23.764 E.40373
G1 X35.236 Y37.31 E.47673
G1 X34.779 Y37.35 F21000
G1 F3000
G1 X34.779 Y39.221 E.06586
G1 X85.221 Y39.221 E1.77527
G1 X85.221 Y24.221 E.52791
G1 X95.779 Y24.221 E.37156
G1 X95.779 Y95.779 E2.51839
G1 X24.221 Y95.779 E2.51839
G1 X24.221 Y24.221 E2.51839
G1 X34.779 Y24.221 E.37156
G1 X34.779 Y37.31 E.46064
G1 E-.5
G1 Z.4 F21000
G1 X32.491 Y28.763 Z.4
G1 X32.228 Y28.068
G1 X31.806 Y27.457
G1 X31.25 Y26.965
G1 X31.2 Y26.938
G1 X31.044 Y27.236
G1 Z.2
G1 E.5 F1800
;TYPE:Outer wall
G1 F3000
G1 X31.058 Y27.243 E.00055
G1 X31.553 Y27.681 E.02327
G1 X31.928 Y28.225 E.02327
G1 X32.163 Y28.844 E.02327
G1 X32.243 Y29.5 E.02327
G1 X32.163 Y30.156 E.02327
G1 X31.928 Y30.775 E.02327
G1 X31.553 Y31.319 E.02327
G1 X31.058 Y31.757 E.02327
G1 X30.473 Y32.064 E.02327
G1 X29.831 Y32.223 E.02327
G1 X29.169 Y32.223 E.02327
G1 X28.527 Y32.064 E.02327
G1 X27.942 Y31.757 E.02327
G1 X27.447 Y31.319 E.02327
G1 X27.072 Y30.775 E.02327
G1 X26.837 Y30.156 E.02327
G1 X26.757 Y29.5 E.02327
G1 X26.837 Y28.844 E.02327
G1 X27.072 Y28.225 E.02327
G1 X27.447 Y27.681 E.02327
G1 X27.942 Y27.243 E.02327
G1 X28.527 Y26.936 E.02327
G1 X29.169 Y26.777 E.02327
G1 X29.831 Y26.777 E.02327
G1 X30.473 Y26.936 E.02327
G1 X31.009 Y27.217 E.02131
G1 X31.301 Y26.806 F21000
;TYPE:Inner wall
G1 F3000
G1 X31.344 Y26.828 E.0017
G1 X31.93 Y27.347 E.02754
G1 X32.374 Y27.991 E.02754
G1 X32.652 Y28.723 E.02754
G1 X32.746 Y29.5 E.02754
G1 X32.652 Y30.277 E.02754
G1 X32.374 Y31.009 E.02754
G1 X31.93 Y31.653 E.02754
G1 X31.344 Y32.172 E.02754
G1 X30.651 Y32.535 E.02754
G1 X29.891 Y32.723 E.02754
G1 X29.109 Y32.723 E.02754
G1 X28.349 Y32.535 E.02754
G1 X27.656 Y32.172 E.02754
G1 X27.07 Y31.653 E.02754
G1 X26.626 Y31.009 E.02754
G1 X26.348 Y30.277 E.02754
G1 X26.254 Y29.5 E.02754
G1 X26.348 Y28.723 E.02754
G1 X26.626 Y27.991 E.02754
G1 X27.07 Y27.347 E.02754
G1 X27.656 Y26.828 E.02754
G1 X28.349 Y26.465 E.02754
G1 X29.109 Y26.277 E.02754
G1 X29.891 Y26.277 E.02754
G1 X30.651 Y26.465 E.02754
G1 X31.266 Y26.787 E.02443
G1 X31.676 Y26.512 F21000
G1 F3000
G1 X32.274 Y27.042 E.02813
G1 X32.782 Y27.777 E.03145
G1 X33.099 Y28.613 E.03145
G1 X33.207 Y29.5 E.03145
G1 X33.099 Y30.387 E.03145
G1 X32.782 Y31.223 E.03145
G1 X32.274 Y31.958 E.03145
G1 X31.606 Y32.551 E.03145
G1 X30.814 Y32.966 E.03145
G1 X29.947 Y33.18 E.03145
G1 X29.053 Y33.18 E.03145
G1 X28.186 Y32.966 E.03145
G1 X27.394 Y32.551 E.03145
G1 X26.726 Y31.958 E.03145
G1 X26.218 Y31.223 E.03145
G1 X25.901 Y30.387 E.03145
G1 X25.793 Y29.5 E.03145
G1 X25.901 Y28.613 E.03145
G1 X26.218 Y27.777 E.03145
G1 X26.726 Y27.042 E.03145
G1 X27.394 Y26.449 E.03145
G1 X28.186 Y26.034 E.03145
G1 X29.053 Y25.82 E.03145
G1 X29.947 Y25.82 E.03145
G1 X30.814 Y26.034 E.03145
G1 X31.606 Y26.449 E.03145
G1 X31.646 Y26.486 E.00191
G1 X31.743 Y26.005 F21000
G1 F3000
G1 X31.867 Y26.071 E.00494
G1 X32.619 Y26.737 E.03535
G1 X33.19 Y27.563 E.03535
G1 X33.546 Y28.503 E.03535
G1 X33.667 Y29.5 E.03535
G1 X33.546 Y30.497 E.03535
G1 X33.19 Y31.437 E.03535
G1 X32.619 Y32.263 E.03535
G1 X31.867 Y32.929 E.03535
G1 X30.978 Y33.396 E.03535
G1 X30.002 Y33.637 E.03535
G1 X28.998 Y33.637 E.03536
G1 X28.022 Y33.396 E.03535
G1 X27.133 Y32.929 E.03535
G1 X26.381 Y32.263 E.03535
G1 X25.81 Y31.437 E.03535
G1 X25.454 Y30.497 E.03535
G1 X25.333 Y29.5 E.03535
G1 X25.454 Y28.503 E.03535
G1 X25.81 Y27.563 E.03535
G1 X26.381 Y26.737 E.03535
G1 X27.133 Y26.071 E.03535
G1 X28.022 Y25.604 E.03536
G1 X28.998 Y25.363 E.03535
G1 X30.002 Y25.363 E.03535
G1 X30.978 Y25.604 E.03535
G1 X31.707 Y25.987 E.02901
G1 X31.964 Y25.605 F21000
G1 F3000
G1 X32.129 Y25.692 E.00656
G1 X32.964 Y26.431 E.03926
G1 X33.597 Y27.349 E.03926
G1 X33.993 Y28.393 E.03926
G1 X34.128 Y29.5 E.03926
G1 X33.993 Y30.607 E.03926
G1 X33.597 Y31.651 E.03926
G1 X32.964 Y32.569 E.03926
G1 X32.129 Y33.308 E.03926
G1 X31.141 Y33.827 E.03926
G1 X30.058 Y34.094 E.03926
G1 X28.942 Y34.094 E.03926
G1 X27.859 Y33.827 E.03926
G1 X26.871 Y33.308 E.03926
G1 X26.036 Y32.569 E.03926
G1 X25.403 Y31.651 E.03926
G1 X25.007 Y30.607 E.03926
G1 X24.872 Y29.5 E.03926
G1 X25.007 Y28.393 E.03926
G1 X25.403 Y27.349 E.03926
G1 X26.036 Y26.431 E.03926
G1 X26.871 Y25.692 E.03926
G1 X27.859 Y25.173 E.03926
G1 X28.942 Y24.906 E.03926
G1 X30.058 Y24.906 E.03926
G1 X31.141 Y25.173 E.03926
G1 X31.928 Y25.586 E.03129
G1 E-.5
G1 Z.4 F21000
G1 X36.314 Y37.686 Z.4
G1 X83.686 Y37.686
G1 X91.541 Y32.393
G1 X91.461 Y32.067
G1 Z.2
G1 E.5 F1800
;TYPE:Outer wall
G1 F3000
G1 X90.831 Y32.223 E.02285
G1 X90.169 Y32.223 E.02327
G1 X89.527 Y32.064 E.02327
G1 X88.942 Y31.757 E.02327
G1 X88.447 Y31.319 E.02327
G1 X88.072 Y30.775 E.02327
G1 X87.837 Y30.156 E.02327
G1 X87.763 Y29.543 E.02176
G1 X87.836 Y28.845 E.02467
G1 X88.072 Y28.225 E.02334
G1 X88.447 Y27.681 E.02327
G1 X88.942 Y27.243 E.02327
G1 X89.527 Y26.936 E.02327
G1 X90.169 Y26.777 E.02327
G1 X90.831 Y26.777 E.02327
G1 X91.473 Y26.936 E.02327
G1 X92.058 Y27.243 E.02327
G1 X92.553 Y27.681 E.02327
G1 X92.928 Y28.225 E.02327
G1 X93.163 Y28.844 E.02327
G1 X93.237 Y29.457 E.02176
G1 X93.164 Y30.155 E.02467
G1 X92.928 Y30.775 E.02334
G1 X92.553 Y31.319 E.02327
G1 X92.058 Y31.757 E.02327
G1 X91.497 Y32.051 E.02228
G1 X91.604 Y32.547 F21000
;TYPE:Inner wall
G1 F3000
G1 X90.891 Y32.723 E.02584
G1 X90.109 Y32.723 E.02754
G1 X89.349 Y32.535 E.02754
G1 X88.656 Y32.172 E.02754
G1 X88.07 Y31.653 E.02754
G1 X87.626 Y31.009 E.02754
G1 X87.348 Y30.277 E.02754
G1 X87.259 Y29.546 E.0259
G1 X87.346 Y28.729 E.02894
G1 X87.626 Y27.991 E.02775
G1 X88.07 Y27.347 E.02754
G1 X88.656 Y26.828 E.02754
G1 X89.349 Y26.465 E.02754
G1 X90.109 Y26.277 E.02754
G1 X90.891 Y26.277 E.02754
G1 X91.651 Y26.465 E.02754
G1 X92.344 Y26.828 E.02754
G1 X92.93 Y27.347 E.02754
G1 X93.374 Y27.991 E.02754
G1 X93.652 Y28.723 E.02754
G1 X93.741 Y29.454 E.0259
G1 X93.654 Y30.271 E.02894
G1 X93.374 Y31.009 E.02775
G1 X92.93 Y31.653 E.02754
G1 X92.344 Y32.172 E.02754
G1 X91.651 Y32.535 E.02754
G1 X91.643 Y32.537 E.00029
G1 X91.723 Y32.988 F21000
G1 F3000
G1 X90.947 Y33.18 E.02813
G1 X90.053 Y33.18 E.03145
G1 X89.186 Y32.966 E.03145
G1 X88.394 Y32.551 E.03145
G1 X87.726 Y31.958 E.03145
G1 X87.218 Y31.223 E.03145
G1 X86.901 Y30.387 E.03145
G1 X86.799 Y29.55 E.02968
G1 X86.898 Y28.622 E.03285
G1 X87.218 Y27.777 E.03178
G1 X87.726 Y27.042 E.03145
G1 X88.394 Y26.449 E.03145
G1 X89.186 Y26.034 E.03145
G1 X90.053 Y25.82 E.03145
G1 X90.947 Y25.82 E.03145
G1 X91.814 Y26.034 E.03145
G1 X92.606 Y26.449 E.03145
G1 X93.274 Y27.042 E.03145
G1 X93.782 Y27.777 E.03145
G1 X94.099 Y28.613 E.03145
G1 X94.201 Y29.45 E.02968
G1 X94.102 Y30.378 E.03285
G1 X93.782 Y31.223 E.03178
G1 X93.274 Y31.958 E.03145
G1 X92.606 Y32.551 E.03145
G1 X91.814 Y32.966 E.03145
G1 X91.762 Y32.979 E.00191
G1 X91.841 Y33.43 F21000
G1 F3000
G1 X91.002 Y33.637 E.03041
G1 X89.998 Y33.637 E.03536
G1 X89.022 Y33.396 E.03535
G1 X88.133 Y32.929 E.03535
G1 X87.381 Y32.263 E.03535
G1 X86.81 Y31.437 E.03535
G1 X86.454 Y30.497 E.03535
G1 X86.339 Y29.553 E.03346
G1 X86.449 Y28.515 E.03676
G1 X86.81 Y27.563 E.03581
G1 X87.381 Y26.737 E.03535
G1 X88.133 Y26.071 E.03535
G1 X89.022 Y25.604 E.03536
G1 X89.998 Y25.363 E.03535
G1 X91.002 Y25.363 E.03535
G1 X91.978 Y25.604 E.03535
G1 X92.867 Y26.071 E.03536
G1 X93.619 Y26.737 E.03535
G1 X94.19 Y27.563 E.03535
G1 X94.546 Y28.503 E.03536
G1 X94.661 Y29.447 E.03346
G1 X94.551 Y30.485 E.03676
G1 X94.19 Y31.437 E.03581
G1 X93.619 Y32.263 E.03535
G1 X92.867 Y32.929 E.03535
G1 X91.978 Y33.396 E.03535
G1 X91.88 Y33.42 E.00353
G1 X91.96 Y33.871 F21000
G1 F3000
G1 X91.058 Y34.094 E.0327
G1 X89.942 Y34.094 E.03926
G1 X88.859 Y33.827 E.03926
G1 X87.871 Y33.308 E.03926
G1 X87.036 Y32.569 E.03926
G1 X86.403 Y31.651 E.03926
G1 X86.007 Y30.607 E.03926
G1 X85.879 Y29.557 E.03724
G1 X86.001 Y28.408 E.04066
G1 X86.403 Y27.349 E.03984
G1 X87.036 Y26.431 E.03926
G1 X87.871 Y25.692 E.03926
G1 X88.859 Y25.173 E.03926
G1 X89.942 Y24.906 E.03926
G1 X91.058 Y24.906 E.03926
G1 X92.141 Y25.173 E.03926
G1 X93.129 Y25.692 E.03926
G1 X93.964 Y26.431 E.03926
G1 X94.597 Y27.349 E.03926
G1 X94.993 Y28.393 E.03926
G1 X95.121 Y29.443 E.03724
G1 X94.999 Y30.592 E.04066
G1 X94.597 Y31.651 E.03984
G1 X93.964 Y32.569 E.03926
G1 X93.129 Y33.308 E.03926
G1 X92.141 Y33.827 E.03926
G1 X91.999 Y33.862 E.00515
G1 E-.5
G1 Z.4 F21000
G1 X95.642 Y32.559 Z.4
G1 Z.2
G1 E.5 F1800
;TYPE:Bottom surface
;WIDTH:0.500959
G1 F6300
G1 X94.899 Y31.817 E.03703
G1 X94.635 Y32.2 E.01642
G1 X95.436 Y33.001 E.03997
G1 X95.436 Y33.649 E.02285
G1 X94.37 Y32.583 E.05316
G1 X94.222 Y32.798 E.00918
G1 X94.071 Y32.932 E.00713
G1 X95.436 Y34.297 E.06809
G1 X95.436 Y34.945 E.02285
G1 X93.727 Y33.236 E.08522
G1 X93.384 Y33.54 E.01618
G1 X95.436 Y35.592 E.10235
G1 X95.436 Y36.24 E.02285
G1 X92.973 Y33.777 E.12284
G1 X92.548 Y34 E.01692
G1 X95.436 Y36.888 E.14403
G1 X95.436 Y37.536 E.02285
G1 X92.092 Y34.192 E.16678
G1 X91.572 Y34.32 E.01888
G1 X95.436 Y38.184 E.1927
G1 X95.436 Y38.831 E.02285
G1 X91.041 Y34.437 E.21919
G1 X90.394 Y34.437 E.02285
G1 X95.436 Y39.479 E.2515
G1 X95.436 Y40.127 E.02285
G1 X89.695 Y34.386 E.28633
G1 X88.835 Y34.174 E.03122
G1 X95.436 Y40.775 E.32921
G1 X95.436 Y41.422 E.02285
G1 X85.776 Y31.762 E.48181
G1 X85.564 Y31.801 E.00759
G1 X85.564 Y32.198 E.01401
G1 X95.436 Y42.07 E.49237
G1 X95.436 Y42.718 E.02285
G1 X85.564 Y32.846 E.49237
G1 X85.564 Y33.494 E.02285
G1 X95.436 Y43.366 E.49237
G1 X95.436 Y44.013 E.02285
G1 X85.564 Y34.141 E.49237
G1 X85.564 Y34.789 E.02285
G1 X95.436 Y44.661 E.49237
G1 X95.436 Y45.309 E.02285
G1 X85.564 Y35.437 E.49237
G1 X85.564 Y36.085 E.02285
G1 X95.436 Y45.957 E.49237
G1 X95.436 Y46.604 E.02285
G1 X85.564 Y36.733 E.49237
G1 X85.564 Y37.38 E.02285
G1 X95.436 Y47.252 E.49237
G1 X95.436 Y47.9 E.02285
G1 X85.564 Y38.028 E.49237
G1 X85.564 Y38.676 E.02285
G1 X95.436 Y48.548 E.49237
G1 X95.436 Y49.196 E.02285
G1 X85.564 Y39.324 E.49237
G1 X85.564 Y39.564 E.00848
G1 X85.157 Y39.564 E.01436
G1 X95.436 Y49.843 E.51269
G1 X95.436 Y50.491 E.02285
G1 X84.509 Y39.564 E.545
G1 X83.861 Y39.564 E.02285
G1 X95.436 Y51.139 E.5773
G1 X95.436 Y51.787 E.02285
G1 X83.213 Y39.564 E.60961
G1 X82.566 Y39.564 E.02285
G1 X95.436 Y52.434 E.64192
G1 X95.436 Y53.082 E.02285
G1 X81.918 Y39.564 E.67423
G1 X81.27 Y39.564 E.02285
G1 X95.436 Y53.73 E.70654
G1 X95.436 Y54.378 E.02285
G1 X80.622 Y39.564 E.73884
G1 X79.975 Y39.564 E.02285
G1 X95.436 Y55.025 E.77115
G1 X95.436 Y55.673 E.02285
G1 X79.327 Y39.564 E.80346
G1 X78.679 Y39.564 E.02285
G1 X95.436 Y56.321 E.83577
G1 X95.436 Y56.969 E.02285
G1 X78.031 Y39.564 E.86808
G1 X77.384 Y39.564 E.02285
G1 X95.436 Y57.616 E.90038
G1 X95.436 Y58.264 E.02285
G1 X76.736 Y39.564 E.93269
G1 X76.088 Y39.564 E.02285
G1 X95.436 Y58.912 E.965
G1 X95.436 Y59.56 E.02285
G1 X75.44 Y39.564 E.99731
G1 X74.792 Y39.564 E.02285
G1 X95.436 Y60.208 E1.02962
G1 X95.436 Y60.855 E.02285
G1 X74.145 Y39.564 E1.06192
G1 X73.497 Y39.564 E.02285
G1 X95.436 Y61.503 E1.09423
G1 X95.436 Y62.151 E.02285
G1 X72.849 Y39.564 E1.12654
G1 X72.201 Y39.564 E.02285
G1 X95.436 Y62.799 E1.15885
G1 X95.436 Y63.446 E.02285
G1 X71.554 Y39.564 E1.19116
G1 X70.906 Y39.564 E.02285
G1 X95.436 Y64.094 E1.22346
G1 X95.436 Y64.742 E.02285
G1 X70.258 Y39.564 E1.25577
G1 X69.61 Y39.564 E.02285
G1 X95.436 Y65.39 E1.28808
G1 X95.436 Y66.037 E.02285
G1 X68.963 Y39.564 E1.32039
M73 P2 R57
G1 X68.315 Y39.564 E.02285
G1 X95.436 Y66.685 E1.3527
G1 X95.436 Y67.333 E.02285
G1 X67.667 Y39.564 E1.385
G1 X67.019 Y39.564 E.02285
G1 X95.436 Y67.981 E1.41731
G1 X95.436 Y68.628 E.02285
G1 X66.372 Y39.564 E1.44962
G1 X65.724 Y39.564 E.02285
G1 X95.436 Y69.276 E1.48193
G1 X95.436 Y69.924 E.02285
G1 X65.076 Y39.564 E1.51424
G1 X64.428 Y39.564 E.02285
G1 X95.436 Y70.572 E1.54654
G1 X95.436 Y71.22 E.02285
G1 X63.78 Y39.564 E1.57885
G1 X63.133 Y39.564 E.02285
G1 X95.436 Y71.867 E1.61116
G1 X95.436 Y72.515 E.02285
G1 X62.485 Y39.564 E1.64347
G1 X61.837 Y39.564 E.02285
G1 X95.436 Y73.163 E1.67578
G1 X95.436 Y73.811 E.02285
G1 X61.189 Y39.564 E1.70808
G1 X60.542 Y39.564 E.02285
G1 X95.436 Y74.458 E1.74039
M73 P2 R56
G1 X95.436 Y75.106 E.02285
G1 X59.894 Y39.564 E1.7727
G1 X59.246 Y39.564 E.02285
G1 X95.436 Y75.754 E1.80501
G1 X95.436 Y76.402 E.02285
G1 X58.598 Y39.564 E1.83732
G1 X57.951 Y39.564 E.02285
G1 X95.436 Y77.049 E1.86962
G1 X95.436 Y77.697 E.02285
G1 X57.303 Y39.564 E1.90193
G1 X56.655 Y39.564 E.02285
G1 X95.436 Y78.345 E1.93424
G1 X95.436 Y78.993 E.02285
G1 X56.007 Y39.564 E1.96655
G1 X55.36 Y39.564 E.02285
G1 X95.436 Y79.64 E1.99886
G1 X95.436 Y80.288 E.02285
G1 X54.712 Y39.564 E2.03116
G1 X54.064 Y39.564 E.02285
G1 X95.436 Y80.936 E2.06347
G1 X95.436 Y81.584 E.02285
G1 X53.416 Y39.564 E2.09578
G1 X52.768 Y39.564 E.02285
G1 X95.436 Y82.232 E2.12809
G1 X95.436 Y82.879 E.02285
G1 X52.121 Y39.564 E2.1604
G1 X51.473 Y39.564 E.02285
G1 X95.436 Y83.527 E2.1927
G1 X95.436 Y84.175 E.02285
G1 X50.825 Y39.564 E2.22501
G1 X50.177 Y39.564 E.02285
G1 X95.436 Y84.823 E2.25732
G1 X95.436 Y85.47 E.02285
G1 X49.53 Y39.564 E2.28963
