; HEADER_BLOCK_START
; generated by OrcaSlicer 1.7.0-beta on 2023-10-03 at 15:17:48
; total layer number: 75
; HEADER_BLOCK_END

; THUMBNAIL_BLOCK_START
; THUMBNAIL_BLOCK_END

; external perimeters extrusion width = 0.40mm
; perimeters extrusion width = 0.46mm
; infill extrusion width = 0.64mm
; solid infill extrusion width = 0.56mm
; top infill extrusion width = 0.40mm
; first layer extrusion width = 0.50mm

; EXECUTABLE_BLOCK_START
EXCLUDE_OBJECT_DEFINE NAME=test1234.stl_id_0_copy_0 CENTER=60,60 POLYGON=[[42.375,36.875],[77.625,36.875],[77.625,83.125],[42.375,83.125],[42.375,36.875]]
M73 P0 R15
;TYPE:Custom
START_PRINT T_BED=110 T_EXTRUDER=260
G90
G21
M83 ; use relative distances for extrusion
; Filament gcode

    PRESSURE_ADVANCE_SELECT FILAMENT=ABS
M106 S0
;LAYER_CHANGE
;Z:0.2
;HEIGHT:0.2
;BEFORE_LAYER_CHANGE
;0.2
G92 E0

;AFTER_LAYER_CHANGE
;0.2
;_SET_FAN_SPEED_CHANGING_LAYER
SET_VELOCITY_LIMIT ACCEL=1000 ACCEL_TO_DECEL=500
SET_VELOCITY_LIMIT SQUARE_CORNER_VELOCITY=9
G1 E-.5 F3000
G1 Z.2 F21000
G1 X39.854 Y35.413
G1 Z.2
G1 E.5 F1800
;TYPE:Skirt
;WIDTH:0.5
G1 F3000
G1 X40.927 Y34.346 E.05327
G1 X42.375 Y33.961 E.05272
G1 X77.625 Y33.961 E1.24058
G1 X79.087 Y34.354 E.05327
G1 X80.154 Y35.427 E.05327
G1 X80.539 Y36.875 E.05272
G1 X80.539 Y83.125 E1.62772
G1 X80.146 Y84.587 E.05327
G1 X79.073 Y85.654 E.05327
G1 X77.625 Y86.039 E.05272
G1 X42.375 Y86.039 E1.24058
G1 X40.913 Y85.646 E.05327
G1 X39.846 Y84.573 E.05327
G1 X39.461 Y83.125 E.05272
G1 X39.461 Y36.875 E1.62772
G1 X39.844 Y35.452 E.05187
G1 X40.298 Y35.585 F21000
G1 F3000
G1 X40.31 Y35.544 E.00153
G1 X41.36 Y34.637 E.04884
G1 X42.375 Y34.418 E.03653
G1 X77.625 Y34.418 E1.24058
G1 X78.956 Y34.81 E.04884
G1 X79.863 Y35.86 E.04884
G1 X80.082 Y36.875 E.03653
G1 X80.082 Y83.125 E1.62772
G1 X79.69 Y84.456 E.04884
G1 X78.64 Y85.363 E.04884
G1 X77.625 Y85.582 E.03653
G1 X42.375 Y85.582 E1.24058
G1 X41.044 Y85.19 E.04884
G1 X40.137 Y84.14 E.04884
G1 X39.918 Y83.125 E.03653
G1 X39.918 Y36.875 E1.62772
G1 X40.286 Y35.624 E.0459
; printing object test1234.stl id:0 copy 0
G1 E-.5
EXCLUDE_OBJECT_START NAME=test1234.stl_id_0_copy_0
G1 Z.4 F21000
G1 X77.275 Y82.775 Z.4
G1 Z.2
G1 E.5 F1800
;TYPE:Outer wall
G1 F3000
G1 X42.725 Y82.775 E1.21595
M73 P1 R15
G1 X42.725 Y37.225 E1.60308
G1 X77.275 Y37.225 E1.21595
G1 X77.275 Y82.735 E1.60167
G1 X76.775 Y82.275 F21000
;TYPE:Inner wall
G1 F3000
G1 X43.225 Y82.275 E1.18075
G1 X43.225 Y37.725 E1.56789
G1 X76.775 Y37.725 E1.18075
G1 X76.775 Y82.235 E1.56648
G1 X76.318 Y81.818 F21000
G1 F3000
G1 X43.682 Y81.818 E1.14858
G1 X43.682 Y38.182 E1.53571
G1 X76.318 Y38.182 E1.14858
G1 X76.318 Y81.778 E1.53431
G1 X75.861 Y81.361 F21000
G1 F3000
G1 X44.139 Y81.361 E1.11641
M73 P2 R15
G1 X44.139 Y38.639 E1.50354
G1 X75.861 Y38.639 E1.11641
G1 X75.861 Y81.321 E1.50213
G1 X75.404 Y80.904 F21000
G1 F3000
G1 X44.596 Y80.904 E1.08424
G1 X44.596 Y39.096 E1.47137
G1 X75.404 Y39.096 E1.08424
G1 X75.404 Y80.864 E1.46996
G1 E-.5
G1 Z.4 F21000
G1 X74.337 Y39.233 Z.4
G1 Z.2
G1 E.5 F1800
;TYPE:Bottom surface
;WIDTH:0.50259
G1 F6300
G1 X75.061 Y39.957 E.03623
G1 X75.061 Y40.607 E.02301
G1 X73.893 Y39.439 E.05847
G1 X73.243 Y39.439 E.02301
G1 X75.061 Y41.257 E.09101
G1 X75.061 Y41.907 E.02301
G1 X72.593 Y39.439 E.12355
G1 X71.943 Y39.439 E.02301
G1 X75.061 Y42.557 E.15609
G1 X75.061 Y43.207 E.02301
G1 X71.293 Y39.439 E.18863
G1 X70.642 Y39.439 E.02301
G1 X75.061 Y43.858 E.22116
G1 X75.061 Y44.508 E.02301
G1 X69.992 Y39.439 E.2537
G1 X69.342 Y39.439 E.02301
G1 X75.061 Y45.158 E.28624
G1 X75.061 Y45.808 E.02301
G1 X68.692 Y39.439 E.31878
G1 X68.042 Y39.439 E.02301
G1 X75.061 Y46.458 E.35132
G1 X75.061 Y47.108 E.02301
G1 X67.392 Y39.439 E.38386
G1 X66.742 Y39.439 E.02301
G1 X75.061 Y47.758 E.41639
G1 X75.061 Y48.408 E.02301
G1 X66.092 Y39.439 E.44893
G1 X65.442 Y39.439 E.02301
G1 X75.061 Y49.058 E.48147
M73 P3 R15
G1 X75.061 Y49.708 E.02301
G1 X64.792 Y39.439 E.51401
G1 X64.142 Y39.439 E.02301
G1 X75.061 Y50.358 E.54655
G1 X75.061 Y51.008 E.02301
G1 X63.492 Y39.439 E.57909
G1 X62.842 Y39.439 E.02301
G1 X75.061 Y51.658 E.61163
G1 X75.061 Y52.308 E.02301
G1 X62.192 Y39.439 E.64416
G1 X61.541 Y39.439 E.02301
G1 X75.061 Y52.959 E.6767
G1 X75.061 Y53.609 E.02301
G1 X60.891 Y39.439 E.70924
G1 X60.241 Y39.439 E.02301
G1 X75.061 Y54.259 E.74178
G1 X75.061 Y54.909 E.02301
G1 X59.591 Y39.439 E.77432
G1 X58.941 Y39.439 E.02301
G1 X75.061 Y55.559 E.80686
G1 X75.061 Y56.209 E.02301
G1 X58.291 Y39.439 E.83939
G1 X57.641 Y39.439 E.02301
G1 X75.061 Y56.859 E.87193
G1 X75.061 Y57.509 E.02301
G1 X56.991 Y39.439 E.90447
G1 X56.341 Y39.439 E.02301
G1 X75.061 Y58.159 E.93701
G1 X75.061 Y58.809 E.02301
G1 X55.691 Y39.439 E.96955
G1 X55.041 Y39.439 E.02301
G1 X75.061 Y59.459 E1.00209
G1 X75.061 Y60.109 E.02301
G1 X54.391 Y39.439 E1.03463
M73 P3 R14
G1 X53.741 Y39.439 E.02301
G1 X75.061 Y60.759 E1.06716
G1 X75.061 Y61.409 E.02301
G1 X53.091 Y39.439 E1.0997
G1 X52.44 Y39.439 E.02301
G1 X75.061 Y62.06 E1.13224
G1 X75.061 Y62.71 E.02301
G1 X51.79 Y39.439 E1.16478
G1 X51.14 Y39.439 E.02301
G1 X75.061 Y63.36 E1.19732
G1 X75.061 Y64.01 E.02301
G1 X50.49 Y39.439 E1.22986
G1 X49.84 Y39.439 E.02301
G1 X75.061 Y64.66 E1.2624
G1 X75.061 Y65.31 E.02301
G1 X49.19 Y39.439 E1.29493
G1 X48.54 Y39.439 E.02301
G1 X75.061 Y65.96 E1.32747
M73 P4 R14
G1 X75.061 Y66.61 E.02301
G1 X47.89 Y39.439 E1.36001
G1 X47.24 Y39.439 E.02301
G1 X75.061 Y67.26 E1.39255
G1 X75.061 Y67.91 E.02301
G1 X46.59 Y39.439 E1.42509
G1 X45.94 Y39.439 E.02301
G1 X75.061 Y68.56 E1.45763
G1 X75.061 Y69.21 E.02301
G1 X45.29 Y39.439 E1.49016
G1 X44.939 Y39.439 E.01241
G1 X44.939 Y39.738 E.0106
G1 X75.061 Y69.86 E1.50771
G1 X75.061 Y70.51 E.02301
G1 X44.939 Y40.389 E1.50771
G1 X44.939 Y41.039 E.02301
G1 X75.061 Y71.161 E1.50771
G1 X75.061 Y71.811 E.02301
G1 X44.939 Y41.689 E1.50771
G1 X44.939 Y42.339 E.02301
G1 X75.061 Y72.461 E1.50771
G1 X75.061 Y73.111 E.02301
G1 X44.939 Y42.989 E1.50771
G1 X44.939 Y43.639 E.02301
G1 X75.061 Y73.761 E1.50771
G1 X75.061 Y74.411 E.02301
G1 X44.939 Y44.289 E1.50771
G1 X44.939 Y44.939 E.02301
G1 X75.061 Y75.061 E1.50771
G1 X75.061 Y75.711 E.02301
G1 X44.939 Y45.589 E1.50771
G1 X44.939 Y46.239 E.02301
G1 X75.061 Y76.361 E1.50771
G1 X75.061 Y77.011 E.02301
G1 X44.939 Y46.889 E1.50771
G1 X44.939 Y47.539 E.02301
G1 X75.061 Y77.661 E1.50771
M73 P5 R14
G1 X75.061 Y78.311 E.02301
G1 X44.939 Y48.189 E1.50771
G1 X44.939 Y48.839 E.02301
G1 X75.061 Y78.961 E1.50771
G1 X75.061 Y79.611 E.02301
G1 X44.939 Y49.49 E1.50771
G1 X44.939 Y50.14 E.02301
G1 X75.061 Y80.262 E1.50771
G1 X75.061 Y80.561 E.0106
G1 X74.71 Y80.561 E.01241
G1 X44.939 Y50.79 E1.49016
G1 X44.939 Y51.44 E.02301
G1 X74.06 Y80.561 E1.45762
G1 X73.41 Y80.561 E.02301
G1 X44.939 Y52.09 E1.42509
G1 X44.939 Y52.74 E.02301
G1 X72.76 Y80.561 E1.39255
G1 X72.11 Y80.561 E.02301
G1 X44.939 Y53.39 E1.36001
G1 X44.939 Y54.04 E.02301
G1 X71.46 Y80.561 E1.32747
G1 X70.81 Y80.561 E.02301
G1 X44.939 Y54.69 E1.29493
G1 X44.939 Y55.34 E.02301
G1 X70.16 Y80.561 E1.26239
G1 X69.51 Y80.561 E.02301
G1 X44.939 Y55.99 E1.22985
G1 X44.939 Y56.64 E.02301
G1 X68.86 Y80.561 E1.19732
G1 X68.21 Y80.561 E.02301
G1 X44.939 Y57.29 E1.16478
G1 X44.939 Y57.94 E.02301
G1 X67.56 Y80.561 E1.13224
G1 X66.909 Y80.561 E.02301
G1 X44.939 Y58.591 E1.0997
G1 X44.939 Y59.241 E.02301
G1 X66.259 Y80.561 E1.06716
G1 X65.609 Y80.561 E.02301
G1 X44.939 Y59.891 E1.03462
M73 P6 R14
G1 X44.939 Y60.541 E.02301
G1 X64.959 Y80.561 E1.00208
G1 X64.309 Y80.561 E.02301
G1 X44.939 Y61.191 E.96955
G1 X44.939 Y61.841 E.02301
G1 X63.659 Y80.561 E.93701
G1 X63.009 Y80.561 E.02301
G1 X44.939 Y62.491 E.90447
G1 X44.939 Y63.141 E.02301
G1 X62.359 Y80.561 E.87193
G1 X61.709 Y80.561 E.02301
G1 X44.939 Y63.791 E.83939
G1 X44.939 Y64.441 E.02301
G1 X61.059 Y80.561 E.80685
G1 X60.409 Y80.561 E.02301
G1 X44.939 Y65.091 E.77432
G1 X44.939 Y65.741 E.02301
G1 X59.759 Y80.561 E.74178
G1 X59.109 Y80.561 E.02301
G1 X44.939 Y66.391 E.70924
G1 X44.939 Y67.041 E.02301
G1 X58.459 Y80.561 E.6767
G1 X57.808 Y80.561 E.02301
G1 X44.939 Y67.692 E.64416
G1 X44.939 Y68.342 E.02301
G1 X57.158 Y80.561 E.61162
G1 X56.508 Y80.561 E.02301
G1 X44.939 Y68.992 E.57908
G1 X44.939 Y69.642 E.02301
G1 X55.858 Y80.561 E.54655
G1 X55.208 Y80.561 E.02301
G1 X44.939 Y70.292 E.51401
G1 X44.939 Y70.942 E.02301
G1 X54.558 Y80.561 E.48147
G1 X53.908 Y80.561 E.02301
G1 X44.939 Y71.592 E.44893
G1 X44.939 Y72.242 E.02301
G1 X53.258 Y80.561 E.41639
G1 X52.608 Y80.561 E.02301
G1 X44.939 Y72.892 E.38385
G1 X44.939 Y73.542 E.02301
G1 X51.958 Y80.561 E.35132
G1 X51.308 Y80.561 E.02301
G1 X44.939 Y74.192 E.31878
G1 X44.939 Y74.842 E.02301
G1 X50.658 Y80.561 E.28624
G1 X50.008 Y80.561 E.02301
G1 X44.939 Y75.492 E.2537
G1 X44.939 Y76.142 E.02301
G1 X49.358 Y80.561 E.22116
G1 X48.707 Y80.561 E.02301
G1 X44.939 Y76.793 E.18862
G1 X44.939 Y77.443 E.02301
G1 X48.057 Y80.561 E.15608
G1 X47.407 Y80.561 E.02301
G1 X44.939 Y78.093 E.12355
G1 X44.939 Y78.743 E.02301
G1 X46.757 Y80.561 E.09101
G1 X46.107 Y80.561 E.02301
G1 X44.939 Y79.393 E.05847
G1 X44.939 Y80.043 E.02301
G1 X45.663 Y80.767 E.03623
; stop printing object test1234.stl id:0 copy 0
;LAYER_CHANGE
;Z:0.4
;HEIGHT:0.2
;BEFORE_LAYER_CHANGE
;0.4
G92 E0

EXCLUDE_OBJECT_END NAME=test1234.stl_id_0_copy_0
;AFTER_LAYER_CHANGE
;0.4
;_SET_FAN_SPEED_CHANGING_LAYER
SET_VELOCITY_LIMIT ACCEL=6000 ACCEL_TO_DECEL=3000
M140 S110 ; set bed temperature
; printing object test1234.stl id:0 copy 0
SET_VELOCITY_LIMIT ACCEL=4000 ACCEL_TO_DECEL=2000
SET_VELOCITY_LIMIT SQUARE_CORNER_VELOCITY=12
G1 E-.5 F3000
EXCLUDE_OBJECT_START NAME=test1234.stl_id_0_copy_0
G1 Z.4 F21000
G1 X77.425 Y82.925 Z.4
G1 E.5 F1800
SET_VELOCITY_LIMIT SQUARE_CORNER_VELOCITY=7
;TYPE:Outer wall
;WIDTH:0.4
G1 F6000
G1 X42.575 Y82.925 E.95817
G1 X42.575 Y37.075 E1.26061
G1 X77.425 Y37.075 E.95817
M73 P7 R14
G1 X77.425 Y82.885 E1.25951
SET_VELOCITY_LIMIT SQUARE_CORNER_VELOCITY=12
G1 X76.995 Y82.495 F21000
SET_VELOCITY_LIMIT ACCEL=6000 ACCEL_TO_DECEL=3000
SET_VELOCITY_LIMIT SQUARE_CORNER_VELOCITY=7
;TYPE:Inner wall
;WIDTH:0.46
G1 F8631.445
G1 X43.005 Y82.495 E1.09155
G1 X43.005 Y37.505 E1.44481
G1 X76.995 Y37.505 E1.09155
G1 X76.995 Y82.455 E1.44352
SET_VELOCITY_LIMIT ACCEL=4000 ACCEL_TO_DECEL=2000
SET_VELOCITY_LIMIT SQUARE_CORNER_VELOCITY=12
G1 X76.578 Y82.078 F21000
SET_VELOCITY_LIMIT ACCEL=6000 ACCEL_TO_DECEL=3000
SET_VELOCITY_LIMIT SQUARE_CORNER_VELOCITY=7
G1 F8631.445
G1 X43.422 Y82.078 E1.06477
G1 X43.422 Y37.922 E1.41802
G1 X76.578 Y37.922 E1.06477
G1 X76.578 Y82.038 E1.41674
SET_VELOCITY_LIMIT ACCEL=4000 ACCEL_TO_DECEL=2000
SET_VELOCITY_LIMIT SQUARE_CORNER_VELOCITY=12
G1 X76.161 Y81.661 F21000
SET_VELOCITY_LIMIT ACCEL=6000 ACCEL_TO_DECEL=3000
SET_VELOCITY_LIMIT SQUARE_CORNER_VELOCITY=7
G1 F8631.445
G1 X43.839 Y81.661 E1.03798
G1 X43.839 Y38.339 E1.39123
G1 X76.161 Y38.339 E1.03798
G1 X76.161 Y81.621 E1.38995
SET_VELOCITY_LIMIT ACCEL=4000 ACCEL_TO_DECEL=2000
SET_VELOCITY_LIMIT SQUARE_CORNER_VELOCITY=12
G1 X75.744 Y81.244 F21000
SET_VELOCITY_LIMIT ACCEL=6000 ACCEL_TO_DECEL=3000
SET_VELOCITY_LIMIT SQUARE_CORNER_VELOCITY=7
G1 F8631.445
G1 X44.256 Y81.244 E1.01119
G1 X44.256 Y38.756 E1.36444
G1 X75.744 Y38.756 E1.01119
G1 X75.744 Y81.204 E1.36316
SET_VELOCITY_LIMIT ACCEL=4000 ACCEL_TO_DECEL=2000
SET_VELOCITY_LIMIT SQUARE_CORNER_VELOCITY=12
G1 X75.626 Y80.074 F21000
SET_VELOCITY_LIMIT ACCEL=6000 ACCEL_TO_DECEL=3000
;TYPE:Internal solid infill
;WIDTH:0.563407
G1 F6000
G1 X74.806 Y80.893 E.04646
G1 X74.07 Y80.893 E.0295
G1 X75.393 Y79.57 E.07499
G1 X75.393 Y78.834 E.0295
G1 X73.334 Y80.893 E.11671
G1 X72.598 Y80.893 E.0295
G1 X75.393 Y78.098 E.15843
G1 X75.393 Y77.362 E.0295
G1 X71.862 Y80.893 E.20015
G1 X71.126 Y80.893 E.0295
G1 X75.393 Y76.626 E.24187
G1 X75.393 Y75.89 E.0295
G1 X70.39 Y80.893 E.28358
G1 X69.654 Y80.893 E.0295
G1 X75.393 Y75.154 E.3253
G1 X75.393 Y74.418 E.0295
G1 X68.918 Y80.893 E.36702
G1 X68.182 Y80.893 E.0295
G1 X75.393 Y73.682 E.40874
G1 X75.393 Y72.946 E.0295
G1 X67.446 Y80.893 E.45046
G1 X66.709 Y80.893 E.0295
G1 X75.393 Y72.209 E.49217
G1 X75.393 Y71.473 E.0295
G1 X65.973 Y80.893 E.53389
G1 X65.237 Y80.893 E.0295
G1 X75.393 Y70.737 E.57561
G1 X75.393 Y70.001 E.0295
G1 X64.501 Y80.893 E.61733
G1 X63.765 Y80.893 E.0295
G1 X75.393 Y69.265 E.65905
G1 X75.393 Y68.529 E.0295
G1 X63.029 Y80.893 E.70077
G1 X62.293 Y80.893 E.0295
G1 X75.393 Y67.793 E.74248
G1 X75.393 Y67.057 E.0295
G1 X61.557 Y80.893 E.7842
G1 X60.821 Y80.893 E.0295
G1 X75.393 Y66.321 E.82592
G1 X75.393 Y65.585 E.0295
G1 X60.085 Y80.893 E.86764
G1 X59.349 Y80.893 E.0295
G1 X75.393 Y64.849 E.90936
G1 X75.393 Y64.113 E.0295
G1 X58.613 Y80.893 E.95107
G1 X57.877 Y80.893 E.0295
G1 X75.393 Y63.377 E.99279
M73 P8 R14
G1 X75.393 Y62.64 E.0295
G1 X57.14 Y80.893 E1.03451
G1 X56.404 Y80.893 E.0295
G1 X75.393 Y61.904 E1.07623
G1 X75.393 Y61.168 E.0295
G1 X55.668 Y80.893 E1.11795
G1 X54.932 Y80.893 E.0295
G1 X75.393 Y60.432 E1.15966
G1 X75.393 Y59.696 E.0295
G1 X54.196 Y80.893 E1.20138
G1 X53.46 Y80.893 E.0295
G1 X75.393 Y58.96 E1.2431
G1 X75.393 Y58.224 E.0295
G1 X52.724 Y80.893 E1.28482
G1 X51.988 Y80.893 E.0295
G1 X75.393 Y57.488 E1.32654
G1 X75.393 Y56.752 E.0295
G1 X51.252 Y80.893 E1.36826
G1 X50.516 Y80.893 E.0295
G1 X75.393 Y56.016 E1.40997
G1 X75.393 Y55.28 E.0295
G1 X49.78 Y80.893 E1.45169
G1 X49.044 Y80.893 E.0295
G1 X75.393 Y54.544 E1.49341
G1 X75.393 Y53.807 E.0295
G1 X48.307 Y80.893 E1.53513
G1 X47.571 Y80.893 E.0295
G1 X75.393 Y53.071 E1.57685
G1 X75.393 Y52.335 E.0295
G1 X46.835 Y80.893 E1.61856
G1 X46.099 Y80.893 E.0295
G1 X75.393 Y51.599 E1.66028
G1 X75.393 Y50.863 E.0295
G1 X45.363 Y80.893 E1.702
G1 X44.627 Y80.893 E.0295
G1 X75.393 Y50.127 E1.74372
G1 X75.393 Y49.391 E.0295
G1 X44.607 Y80.178 E1.74488
G1 X44.607 Y79.442 E.0295
G1 X75.393 Y48.655 E1.74488
G1 X75.393 Y47.919 E.0295
G1 X44.607 Y78.706 E1.74488
G1 X44.607 Y77.97 E.0295
G1 X75.393 Y47.183 E1.74488
G1 X75.393 Y46.447 E.0295
G1 X44.607 Y77.234 E1.74488
G1 X44.607 Y76.498 E.0295
G1 X75.393 Y45.711 E1.74488
M73 P9 R14
G1 X75.393 Y44.975 E.0295
G1 X44.607 Y75.761 E1.74488
G1 X44.607 Y75.025 E.0295
G1 X75.393 Y44.238 E1.74488
G1 X75.393 Y43.502 E.0295
G1 X44.607 Y74.289 E1.74488
G1 X44.607 Y73.553 E.0295
G1 X75.393 Y42.766 E1.74488
G1 X75.393 Y42.03 E.0295
G1 X44.607 Y72.817 E1.74488
G1 X44.607 Y72.081 E.0295
G1 X75.393 Y41.294 E1.74488
G1 X75.393 Y40.558 E.0295
G1 X44.607 Y71.345 E1.74488
G1 X44.607 Y70.609 E.0295
G1 X75.393 Y39.822 E1.74488
G1 X75.393 Y39.107 E.02867
G1 X75.373 Y39.107 E.00083
G1 X44.607 Y69.873 E1.74371
G1 X44.607 Y69.137 E.0295
G1 X74.637 Y39.107 E1.70199
G1 X73.901 Y39.107 E.0295
G1 X44.607 Y68.401 E1.66028
G1 X44.607 Y67.665 E.0295
G1 X73.165 Y39.107 E1.61856
G1 X72.428 Y39.107 E.0295
G1 X44.607 Y66.928 E1.57684
G1 X44.607 Y66.192 E.0295
G1 X71.692 Y39.107 E1.53512
G1 X70.956 Y39.107 E.0295
G1 X44.607 Y65.456 E1.4934
G1 X44.607 Y64.72 E.0295
G1 X70.22 Y39.107 E1.45168
G1 X69.484 Y39.107 E.0295
G1 X44.607 Y63.984 E1.40997
G1 X44.607 Y63.248 E.0295
G1 X68.748 Y39.107 E1.36825
G1 X68.012 Y39.107 E.0295
G1 X44.607 Y62.512 E1.32653
G1 X44.607 Y61.776 E.0295
G1 X67.276 Y39.107 E1.28481
G1 X66.54 Y39.107 E.0295
G1 X44.607 Y61.04 E1.24309
G1 X44.607 Y60.304 E.0295
G1 X65.804 Y39.107 E1.20138
M73 P10 R14
G1 X65.068 Y39.107 E.0295
M73 P10 R13
G1 X44.607 Y59.568 E1.15966
G1 X44.607 Y58.832 E.0295
G1 X64.332 Y39.107 E1.11794
G1 X63.596 Y39.107 E.0295
G1 X44.607 Y58.096 E1.07622
G1 X44.607 Y57.359 E.0295
G1 X62.859 Y39.107 E1.0345
G1 X62.123 Y39.107 E.0295
G1 X44.607 Y56.623 E.99279
G1 X44.607 Y55.887 E.0295
G1 X61.387 Y39.107 E.95107
G1 X60.651 Y39.107 E.0295
G1 X44.607 Y55.151 E.90935
G1 X44.607 Y54.415 E.0295
G1 X59.915 Y39.107 E.86763
G1 X59.179 Y39.107 E.0295
G1 X44.607 Y53.679 E.82591
G1 X44.607 Y52.943 E.0295
G1 X58.443 Y39.107 E.78419
G1 X57.707 Y39.107 E.0295
G1 X44.607 Y52.207 E.74248
G1 X44.607 Y51.471 E.0295
G1 X56.971 Y39.107 E.70076
G1 X56.235 Y39.107 E.0295
G1 X44.607 Y50.735 E.65904
G1 X44.607 Y49.999 E.0295
G1 X55.499 Y39.107 E.61732
G1 X54.763 Y39.107 E.0295
G1 X44.607 Y49.263 E.5756
G1 X44.607 Y48.526 E.0295
G1 X54.026 Y39.107 E.53389
G1 X53.29 Y39.107 E.0295
