; HEADER_BLOCK_START
; generated by OrcaSlicer 1.7.0-beta on 2023-09-17 at 20:59:17
; total layer number: 50
; HEADER_BLOCK_END

; THUMBNAIL_BLOCK_START
; THUMBNAIL_BLOCK_END

; external perimeters extrusion width = 0.40mm
; perimeters extrusion width = 0.46mm
; infill extrusion width = 0.64mm
; solid infill extrusion width = 0.56mm
; top infill extrusion width = 0.40mm
; support material extrusion width = 0.46mm
; first layer extrusion width = 0.50mm

; EXECUTABLE_BLOCK_START
EXCLUDE_OBJECT_DEFINE NAME=test.stl_id_0_copy_0 CENTER=60,60 POLYGON=[[37.5,29],[82.5,29],[82.5,91],[37.5,91],[37.5,29]]
M73 P0 R15
;TYPE:Custom
START_PRINT T_BED=110 T_EXTRUDER=260
G90
G21
M83 ; use relative distances for extrusion
; Filament gcode

    PRESSURE_ADVANCE_SELECT FILAMENT=ABS
M106 S0
;LAYER_CHANGE
;Z:0.1
;HEIGHT:0.1
;BEFORE_LAYER_CHANGE
;0.1
G92 E0

;AFTER_LAYER_CHANGE
;0.1
;_SET_FAN_SPEED_CHANGING_LAYER
SET_VELOCITY_LIMIT ACCEL=500 ACCEL_TO_DECEL=250
G1 E-.5 F3000
G1 Z.2 F21000
G1 X34.945 Y92.489
G1 Z.2
G1 Z.1
G1 E.5 F1800
;TYPE:Skirt
;WIDTH:0.5
G1 F3000
G1 X34.543 Y91 E.02841
G1 X34.543 Y29 E1.14223
G1 X34.936 Y27.527 E.0281
G1 X36.011 Y26.445 E.0281
G1 X37.5 Y26.043 E.02841
G1 X82.5 Y26.043 E.82904
G1 X83.973 Y26.436 E.0281
G1 X85.055 Y27.511 E.0281
G1 X85.457 Y29 E.02841
G1 X85.457 Y91 E1.14223
G1 X85.064 Y92.473 E.0281
G1 X83.989 Y93.555 E.0281
G1 X82.5 Y93.957 E.02841
G1 X37.5 Y93.957 E.82904
G1 X36.027 Y93.564 E.0281
G1 X34.973 Y92.517 E.02736
G1 X35.368 Y92.173 F21000
G1 F3000
G1 X35.248 Y92.035 E.00339
G1 X35.021 Y91 E.01951
G1 X35.021 Y29 E1.14223
G1 X35.413 Y27.662 E.02568
G1 X36.465 Y26.748 E.02568
G1 X37.5 Y26.521 E.01951
G1 X82.5 Y26.521 E.82904
G1 X83.838 Y26.913 E.02568
G1 X84.752 Y27.965 E.02568
G1 X84.979 Y29 E.01951
G1 X84.979 Y91 E1.14223
M73 P1 R15
G1 X84.587 Y92.338 E.02568
G1 X83.535 Y93.252 E.02568
G1 X82.5 Y93.479 E.01951
G1 X37.5 Y93.479 E.82904
G1 X36.162 Y93.087 E.02568
G1 X35.395 Y92.204 E.02156
; printing object test.stl id:0 copy 0
G1 E-.5
EXCLUDE_OBJECT_START NAME=test.stl_id_0_copy_0
G1 Z.3 F21000
G1 X37.75 Y29.25 Z.3
G1 Z.1
G1 E.5 F1800
;TYPE:Outer wall
G1 F3000
G1 X82.25 Y29.25 E.81983
G1 X82.25 Y90.75 E1.13302
G1 X37.75 Y90.75 E.81983
G1 X37.75 Y29.29 E1.13228
G1 X38.229 Y29.729 F21000
;TYPE:Inner wall
G1 F3000
G1 X81.771 Y29.729 E.8022
G1 X81.771 Y90.271 E1.11539
G1 X38.229 Y90.271 E.8022
M73 P2 R15
G1 X38.229 Y29.769 E1.11465
G1 X38.707 Y30.207 F21000
G1 F3000
G1 X81.293 Y30.207 E.78456
G1 X81.293 Y89.793 E1.09776
G1 X38.707 Y89.793 E.78456
G1 X38.707 Y30.247 E1.09702
G1 E-.5
G1 Z.3 F21000
G1 X80.18 Y30.351 Z.3
G1 Z.1
G1 E.5 F1800
;TYPE:Bottom surface
;WIDTH:0.500846
G1 F6300
G1 X80.934 Y31.104 E.01967
G1 X80.934 Y31.782 E.01251
G1 X79.718 Y30.566 E.03175
G1 X79.04 Y30.566 E.01251
G1 X80.934 Y32.46 E.04944
G1 X80.934 Y33.138 E.01251
G1 X78.362 Y30.566 E.06714
G1 X77.684 Y30.566 E.01251
G1 X80.934 Y33.816 E.08483
G1 X80.934 Y34.494 E.01251
G1 X77.006 Y30.566 E.10253
G1 X76.328 Y30.566 E.01251
G1 X80.934 Y35.172 E.12022
G1 X80.934 Y35.85 E.01251
G1 X75.65 Y30.566 E.13792
G1 X74.972 Y30.566 E.01251
G1 X80.934 Y36.528 E.15561
G1 X80.934 Y37.206 E.01251
G1 X74.294 Y30.566 E.17331
G1 X73.616 Y30.566 E.01251
G1 X80.934 Y37.884 E.191
G1 X80.934 Y38.562 E.01251
G1 X72.938 Y30.566 E.2087
G1 X72.26 Y30.566 E.01251
G1 X80.934 Y39.24 E.22639
M73 P3 R15
G1 X80.934 Y39.918 E.01251
G1 X71.582 Y30.566 E.24409
G1 X70.904 Y30.566 E.01251
G1 X80.934 Y40.596 E.26178
G1 X80.934 Y41.274 E.01251
G1 X70.226 Y30.566 E.27948
G1 X69.548 Y30.566 E.01251
G1 X80.934 Y41.952 E.29717
G1 X80.934 Y42.63 E.01251
G1 X68.87 Y30.566 E.31487
G1 X68.192 Y30.566 E.01251
G1 X80.934 Y43.308 E.33256
G1 X80.934 Y43.986 E.01251
G1 X67.514 Y30.566 E.35026
G1 X66.836 Y30.566 E.01251
G1 X80.934 Y44.664 E.36795
G1 X80.934 Y45.341 E.01251
G1 X66.159 Y30.566 E.38564
G1 X65.481 Y30.566 E.01251
G1 X80.934 Y46.019 E.40334
G1 X80.934 Y46.697 E.01251
G1 X64.803 Y30.566 E.42103
G1 X64.125 Y30.566 E.01251
G1 X80.934 Y47.375 E.43873
G1 X80.934 Y48.053 E.01251
G1 X63.447 Y30.566 E.45642
G1 X62.769 Y30.566 E.01251
G1 X80.934 Y48.731 E.47412
G1 X80.934 Y49.409 E.01251
G1 X62.091 Y30.566 E.49181
G1 X61.413 Y30.566 E.01251
G1 X80.934 Y50.087 E.50951
G1 X80.934 Y50.765 E.01251
G1 X60.735 Y30.566 E.5272
G1 X60.057 Y30.566 E.01251
G1 X80.934 Y51.443 E.5449
G1 X80.934 Y52.121 E.01251
G1 X59.379 Y30.566 E.56259
G1 X58.701 Y30.566 E.01251
G1 X80.934 Y52.799 E.58029
G1 X80.934 Y53.477 E.01251
G1 X58.023 Y30.566 E.59798
G1 X57.345 Y30.566 E.01251
G1 X80.934 Y54.155 E.61568
G1 X80.934 Y54.833 E.01251
G1 X56.667 Y30.566 E.63337
M73 P4 R14
G1 X55.989 Y30.566 E.01251
G1 X80.934 Y55.511 E.65107
G1 X80.934 Y56.189 E.01251
G1 X55.311 Y30.566 E.66876
G1 X54.633 Y30.566 E.01251
G1 X80.934 Y56.867 E.68646
G1 X80.934 Y57.545 E.01251
G1 X53.955 Y30.566 E.70415
G1 X53.277 Y30.566 E.01251
G1 X80.934 Y58.223 E.72185
G1 X80.934 Y58.901 E.01251
G1 X52.599 Y30.566 E.73954
G1 X51.921 Y30.566 E.01251
G1 X80.934 Y59.579 E.75724
G1 X80.934 Y60.256 E.01251
G1 X51.244 Y30.566 E.77493
G1 X50.566 Y30.566 E.01251
G1 X80.934 Y60.934 E.79263
G1 X80.934 Y61.612 E.01251
G1 X49.888 Y30.566 E.81032
G1 X49.21 Y30.566 E.01251
G1 X80.934 Y62.29 E.82801
G1 X80.934 Y62.968 E.01251
G1 X48.532 Y30.566 E.84571
G1 X47.854 Y30.566 E.01251
G1 X80.934 Y63.646 E.8634
G1 X80.934 Y64.324 E.01251
G1 X47.176 Y30.566 E.8811
G1 X46.498 Y30.566 E.01251
G1 X80.934 Y65.002 E.89879
G1 X80.934 Y65.68 E.01251
G1 X45.82 Y30.566 E.91649
M73 P5 R14
G1 X45.142 Y30.566 E.01251
G1 X80.934 Y66.358 E.93418
G1 X80.934 Y67.036 E.01251
G1 X44.464 Y30.566 E.95188
G1 X43.786 Y30.566 E.01251
G1 X80.934 Y67.714 E.96957
G1 X80.934 Y68.392 E.01251
G1 X43.108 Y30.566 E.98727
G1 X42.43 Y30.566 E.01251
G1 X80.934 Y69.07 E1.00496
G1 X80.934 Y69.748 E.01251
G1 X41.752 Y30.566 E1.02266
G1 X41.074 Y30.566 E.01251
G1 X80.934 Y70.426 E1.04035
G1 X80.934 Y71.104 E.01251
G1 X40.396 Y30.566 E1.05805
G1 X39.718 Y30.566 E.01251
G1 X80.934 Y71.782 E1.07574
G1 X80.934 Y72.46 E.01251
G1 X39.066 Y30.592 E1.09277
G1 X39.066 Y31.27 E.01251
G1 X80.934 Y73.138 E1.09277
G1 X80.934 Y73.816 E.01251
G1 X39.066 Y31.947 E1.09277
G1 X39.066 Y32.625 E.01251
G1 X80.934 Y74.494 E1.09277
M73 P6 R14
G1 X80.934 Y75.171 E.01251
G1 X39.066 Y33.303 E1.09277
G1 X39.066 Y33.981 E.01251
G1 X80.934 Y75.849 E1.09277
G1 X80.934 Y76.527 E.01251
G1 X39.066 Y34.659 E1.09277
G1 X39.066 Y35.337 E.01251
G1 X80.934 Y77.205 E1.09277
G1 X80.934 Y77.883 E.01251
G1 X39.066 Y36.015 E1.09277
G1 X39.066 Y36.693 E.01251
G1 X80.934 Y78.561 E1.09277
G1 X80.934 Y79.239 E.01251
G1 X39.066 Y37.371 E1.09277
G1 X39.066 Y38.049 E.01251
G1 X80.934 Y79.917 E1.09277
G1 X80.934 Y80.595 E.01251
G1 X39.066 Y38.727 E1.09277
G1 X39.066 Y39.405 E.01251
G1 X80.934 Y81.273 E1.09277
G1 X80.934 Y81.951 E.01251
G1 X39.066 Y40.083 E1.09277
G1 X39.066 Y40.761 E.01251
G1 X80.934 Y82.629 E1.09277
M73 P7 R14
G1 X80.934 Y83.307 E.01251
G1 X39.066 Y41.439 E1.09277
G1 X39.066 Y42.117 E.01251
G1 X80.934 Y83.985 E1.09277
G1 X80.934 Y84.663 E.01251
G1 X39.066 Y42.795 E1.09277
G1 X39.066 Y43.473 E.01251
G1 X80.934 Y85.341 E1.09277
G1 X80.934 Y86.019 E.01251
G1 X39.066 Y44.151 E1.09277
G1 X39.066 Y44.829 E.01251
G1 X80.934 Y86.697 E1.09277
G1 X80.934 Y87.375 E.01251
G1 X39.066 Y45.507 E1.09277
G1 X39.066 Y46.185 E.01251
G1 X80.934 Y88.053 E1.09277
G1 X80.934 Y88.731 E.01251
G1 X39.066 Y46.862 E1.09277
G1 X39.066 Y47.54 E.01251
G1 X80.934 Y89.408 E1.09277
G1 X80.934 Y89.434 E.00047
G1 X80.282 Y89.434 E.01204
G1 X39.066 Y48.218 E1.07574
G1 X39.066 Y48.896 E.01251
G1 X79.604 Y89.434 E1.05805
G1 X78.926 Y89.434 E.01251
G1 X39.066 Y49.574 E1.04035
M73 P8 R14
G1 X39.066 Y50.252 E.01251
G1 X78.248 Y89.434 E1.02266
G1 X77.57 Y89.434 E.01251
G1 X39.066 Y50.93 E1.00496
G1 X39.066 Y51.608 E.01251
G1 X76.892 Y89.434 E.98727
G1 X76.214 Y89.434 E.01251
G1 X39.066 Y52.286 E.96957
G1 X39.066 Y52.964 E.01251
G1 X75.536 Y89.434 E.95188
G1 X74.858 Y89.434 E.01251
G1 X39.066 Y53.642 E.93418
G1 X39.066 Y54.32 E.01251
G1 X74.18 Y89.434 E.91649
G1 X73.502 Y89.434 E.01251
G1 X39.066 Y54.998 E.89879
G1 X39.066 Y55.676 E.01251
G1 X72.824 Y89.434 E.8811
G1 X72.146 Y89.434 E.01251
G1 X39.066 Y56.354 E.8634
G1 X39.066 Y57.032 E.01251
G1 X71.468 Y89.434 E.84571
G1 X70.79 Y89.434 E.01251
G1 X39.066 Y57.71 E.82801
G1 X39.066 Y58.388 E.01251
G1 X70.112 Y89.434 E.81032
G1 X69.434 Y89.434 E.01251
G1 X39.066 Y59.066 E.79262
M73 P9 R14
G1 X39.066 Y59.744 E.01251
G1 X68.756 Y89.434 E.77493
G1 X68.078 Y89.434 E.01251
G1 X39.066 Y60.422 E.75723
G1 X39.066 Y61.1 E.01251
G1 X67.4 Y89.434 E.73954
G1 X66.723 Y89.434 E.01251
G1 X39.066 Y61.777 E.72184
G1 X39.066 Y62.455 E.01251
G1 X66.045 Y89.434 E.70415
G1 X65.367 Y89.434 E.01251
G1 X39.066 Y63.133 E.68645
G1 X39.066 Y63.811 E.01251
G1 X64.689 Y89.434 E.66876
G1 X64.011 Y89.434 E.01251
G1 X39.066 Y64.489 E.65107
G1 X39.066 Y65.167 E.01251
G1 X63.333 Y89.434 E.63337
G1 X62.655 Y89.434 E.01251
G1 X39.066 Y65.845 E.61568
G1 X39.066 Y66.523 E.01251
G1 X61.977 Y89.434 E.59798
G1 X61.299 Y89.434 E.01251
G1 X39.066 Y67.201 E.58029
G1 X39.066 Y67.879 E.01251
G1 X60.621 Y89.434 E.56259
G1 X59.943 Y89.434 E.01251
G1 X39.066 Y68.557 E.5449
G1 X39.066 Y69.235 E.01251
G1 X59.265 Y89.434 E.5272
G1 X58.587 Y89.434 E.01251
G1 X39.066 Y69.913 E.50951
G1 X39.066 Y70.591 E.01251
G1 X57.909 Y89.434 E.49181
G1 X57.231 Y89.434 E.01251
M73 P10 R14
G1 X39.066 Y71.269 E.47412
G1 X39.066 Y71.947 E.01251
G1 X56.553 Y89.434 E.45642
G1 X55.875 Y89.434 E.01251
G1 X39.066 Y72.625 E.43873
G1 X39.066 Y73.303 E.01251
G1 X55.197 Y89.434 E.42103
G1 X54.519 Y89.434 E.01251
G1 X39.066 Y73.981 E.40334
G1 X39.066 Y74.659 E.01251
G1 X53.841 Y89.434 E.38564
G1 X53.163 Y89.434 E.01251
G1 X39.066 Y75.337 E.36795
G1 X39.066 Y76.015 E.01251
G1 X52.485 Y89.434 E.35025
G1 X51.808 Y89.434 E.01251
G1 X39.066 Y76.692 E.33256
G1 X39.066 Y77.37 E.01251
M73 P10 R13
G1 X51.13 Y89.434 E.31486
G1 X50.452 Y89.434 E.01251
G1 X39.066 Y78.048 E.29717
G1 X39.066 Y78.726 E.01251
G1 X49.774 Y89.434 E.27947
G1 X49.096 Y89.434 E.01251
G1 X39.066 Y79.404 E.26178
G1 X39.066 Y80.082 E.01251
G1 X48.418 Y89.434 E.24408
G1 X47.74 Y89.434 E.01251
G1 X39.066 Y80.76 E.22639
G1 X39.066 Y81.438 E.01251
G1 X47.062 Y89.434 E.2087
G1 X46.384 Y89.434 E.01251
G1 X39.066 Y82.116 E.191
G1 X39.066 Y82.794 E.01251
G1 X45.706 Y89.434 E.17331
G1 X45.028 Y89.434 E.01251
G1 X39.066 Y83.472 E.15561
G1 X39.066 Y84.15 E.01251
G1 X44.35 Y89.434 E.13792
G1 X43.672 Y89.434 E.01251
G1 X39.066 Y84.828 E.12022
G1 X39.066 Y85.506 E.01251
G1 X42.994 Y89.434 E.10253
G1 X42.316 Y89.434 E.01251
G1 X39.066 Y86.184 E.08483
G1 X39.066 Y86.862 E.01251
G1 X41.638 Y89.434 E.06714
G1 X40.96 Y89.434 E.01251
G1 X39.066 Y87.54 E.04944
G1 X39.066 Y88.218 E.01251
G1 X40.282 Y89.434 E.03175
G1 X39.604 Y89.434 E.01251
G1 X38.851 Y88.68 E.01967
; stop printing object test.stl id:0 copy 0
;LAYER_CHANGE
;Z:0.2
;HEIGHT:0.1
;BEFORE_LAYER_CHANGE
;0.2
G92 E0

EXCLUDE_OBJECT_END NAME=test.stl_id_0_copy_0
;AFTER_LAYER_CHANGE
;0.2
;_SET_FAN_SPEED_CHANGING_LAYER
SET_VELOCITY_LIMIT ACCEL=6000 ACCEL_TO_DECEL=3000
M140 S110 ; set bed temperature
; printing object test.stl id:0 copy 0
SET_VELOCITY_LIMIT ACCEL=7000 ACCEL_TO_DECEL=3500
G1 E-.5 F3000
EXCLUDE_OBJECT_START NAME=test.stl_id_0_copy_0
G1 Z.3 F21000
G1 X37.7 Y29.2 Z.3
G1 Z.2
G1 E.5 F1800
SET_VELOCITY_LIMIT ACCEL=3000 ACCEL_TO_DECEL=1500
;TYPE:Outer wall
;WIDTH:0.4
G1 F7200
G1 X82.3 Y29.2 E.64997
G1 X82.3 Y90.8 E.89771
G1 X37.7 Y90.8 E.64997
M73 P11 R13
G1 X37.7 Y29.24 E.89713
SET_VELOCITY_LIMIT ACCEL=7000 ACCEL_TO_DECEL=3500
G1 X38.109 Y29.609 F21000
SET_VELOCITY_LIMIT ACCEL=5000 ACCEL_TO_DECEL=2500
;TYPE:Inner wall
;WIDTH:0.46
G1 F12000
G1 X81.891 Y29.609 E.73919
G1 X81.891 Y90.391 E1.02621
G1 X38.109 Y90.391 E.73919
G1 X38.109 Y29.649 E1.02553
SET_VELOCITY_LIMIT ACCEL=7000 ACCEL_TO_DECEL=3500
G1 X38.547 Y30.047 F21000
SET_VELOCITY_LIMIT ACCEL=5000 ACCEL_TO_DECEL=2500
G1 F12000
G1 X81.453 Y30.047 E.72439
G1 X81.453 Y89.953 E1.0114
G1 X38.547 Y89.953 E.72439
G1 X38.547 Y30.087 E1.01073
SET_VELOCITY_LIMIT ACCEL=7000 ACCEL_TO_DECEL=3500
G1 X81.329 Y88.736 F21000
SET_VELOCITY_LIMIT ACCEL=6000 ACCEL_TO_DECEL=3000
;TYPE:Internal solid infill
;WIDTH:0.561938
G1 F12000
G1 X80.478 Y89.587 E.02502
G1 X79.714 Y89.587 E.0159
G1 X81.087 Y88.214 E.04039
G1 X81.087 Y87.45 E.0159
G1 X78.95 Y89.587 E.06288
G1 X78.185 Y89.587 E.0159
G1 X81.087 Y86.685 E.08537
G1 X81.087 Y85.921 E.0159
G1 X77.421 Y89.587 E.10786
G1 X76.657 Y89.587 E.0159
G1 X81.087 Y85.157 E.13035
G1 X81.087 Y84.392 E.0159
G1 X75.892 Y89.587 E.15285
G1 X75.128 Y89.587 E.0159
G1 X81.087 Y83.628 E.17534
G1 X81.087 Y82.864 E.0159
G1 X74.364 Y89.587 E.19783
G1 X73.599 Y89.587 E.0159
G1 X81.087 Y82.099 E.22032
G1 X81.087 Y81.335 E.0159
G1 X72.835 Y89.587 E.24281
G1 X72.071 Y89.587 E.0159
G1 X81.087 Y80.571 E.26531
G1 X81.087 Y79.806 E.0159
G1 X71.306 Y89.587 E.2878
G1 X70.542 Y89.587 E.0159
G1 X81.087 Y79.042 E.31029
G1 X81.087 Y78.278 E.0159
G1 X69.778 Y89.587 E.33278
G1 X69.013 Y89.587 E.0159
G1 X81.087 Y77.513 E.35528
G1 X81.087 Y76.749 E.0159
G1 X68.249 Y89.587 E.37777
G1 X67.484 Y89.587 E.0159
G1 X81.087 Y75.984 E.40026
G1 X81.087 Y75.22 E.0159
G1 X66.72 Y89.587 E.42275
G1 X65.956 Y89.587 E.0159
G1 X81.087 Y74.456 E.44524
G1 X81.087 Y73.691 E.0159
G1 X65.191 Y89.587 E.46774
G1 X64.427 Y89.587 E.0159
G1 X81.087 Y72.927 E.49023
G1 X81.087 Y72.163 E.0159
G1 X63.663 Y89.587 E.51272
G1 X62.898 Y89.587 E.0159
G1 X81.087 Y71.398 E.53521
G1 X81.087 Y70.634 E.0159
G1 X62.134 Y89.587 E.5577
G1 X61.37 Y89.587 E.0159
G1 X81.087 Y69.87 E.5802
G1 X81.087 Y69.105 E.0159
G1 X60.605 Y89.587 E.60269
G1 X59.841 Y89.587 E.0159
G1 X81.087 Y68.341 E.62518
G1 X81.087 Y67.577 E.0159
G1 X59.077 Y89.587 E.64767
G1 X58.312 Y89.587 E.0159
G1 X81.087 Y66.812 E.67017
G1 X81.087 Y66.048 E.0159
G1 X57.548 Y89.587 E.69266
G1 X56.784 Y89.587 E.0159
G1 X81.087 Y65.284 E.71515
G1 X81.087 Y64.519 E.0159
G1 X56.019 Y89.587 E.73764
G1 X55.255 Y89.587 E.0159
G1 X81.087 Y63.755 E.76013
G1 X81.087 Y62.991 E.0159
G1 X54.491 Y89.587 E.78263
G1 X53.726 Y89.587 E.0159
G1 X81.087 Y62.226 E.80512
G1 X81.087 Y61.462 E.0159
G1 X52.962 Y89.587 E.82761
G1 X52.197 Y89.587 E.0159
G1 X81.087 Y60.697 E.8501
G1 X81.087 Y59.933 E.0159
G1 X51.433 Y89.587 E.87259
M73 P12 R13
G1 X50.669 Y89.587 E.0159
G1 X81.087 Y59.169 E.89509
G1 X81.087 Y58.404 E.0159
G1 X49.904 Y89.587 E.91758
G1 X49.14 Y89.587 E.0159
G1 X81.087 Y57.64 E.94007
G1 X81.087 Y56.876 E.0159
G1 X48.376 Y89.587 E.96256
G1 X47.611 Y89.587 E.0159
G1 X81.087 Y56.111 E.98506
G1 X81.087 Y55.347 E.0159
G1 X46.847 Y89.587 E1.00755
G1 X46.083 Y89.587 E.0159
G1 X81.087 Y54.583 E1.03004
G1 X81.087 Y53.818 E.0159
G1 X45.318 Y89.587 E1.05253
G1 X44.554 Y89.587 E.0159
G1 X81.087 Y53.054 E1.07502
G1 X81.087 Y52.29 E.0159
G1 X43.79 Y89.587 E1.09752
G1 X43.025 Y89.587 E.0159
G1 X81.087 Y51.525 E1.12001
G1 X81.087 Y50.761 E.0159
G1 X42.261 Y89.587 E1.1425
G1 X41.497 Y89.587 E.0159
G1 X81.087 Y49.997 E1.16499
G1 X81.087 Y49.232 E.0159
G1 X40.732 Y89.587 E1.18749
G1 X39.968 Y89.587 E.0159
G1 X81.087 Y48.468 E1.20998
G1 X81.087 Y47.703 E.0159
G1 X39.203 Y89.587 E1.23247
G1 X38.913 Y89.587 E.00603
G1 X38.913 Y89.112 E.00987
G1 X81.087 Y46.939 E1.241
G1 X81.087 Y46.175 E.0159
G1 X38.913 Y88.348 E1.241
G1 X38.913 Y87.583 E.0159
G1 X81.087 Y45.41 E1.241
G1 X81.087 Y44.646 E.0159
G1 X38.913 Y86.819 E1.241
G1 X38.913 Y86.055 E.0159
G1 X81.087 Y43.882 E1.241
G1 X81.087 Y43.117 E.0159
G1 X38.913 Y85.29 E1.241
G1 X38.913 Y84.526 E.0159
G1 X81.087 Y42.353 E1.241
G1 X81.087 Y41.589 E.0159
G1 X38.913 Y83.762 E1.241
G1 X38.913 Y82.997 E.0159
G1 X81.087 Y40.824 E1.241
G1 X81.087 Y40.06 E.0159
G1 X38.913 Y82.233 E1.241
G1 X38.913 Y81.469 E.0159
G1 X81.087 Y39.296 E1.241
G1 X81.087 Y38.531 E.0159
G1 X38.913 Y80.704 E1.241
G1 X38.913 Y79.94 E.0159
G1 X81.087 Y37.767 E1.241
M73 P13 R13
G1 X81.087 Y37.003 E.0159
G1 X38.913 Y79.176 E1.241
G1 X38.913 Y78.411 E.0159
G1 X81.087 Y36.238 E1.241
G1 X81.087 Y35.474 E.0159
G1 X38.913 Y77.647 E1.241
G1 X38.913 Y76.883 E.0159
G1 X81.087 Y34.71 E1.241
G1 X81.087 Y33.945 E.0159
G1 X38.913 Y76.118 E1.241
