; HEADER_BLOCK_START
; generated by OrcaSlicer 1.7.0-beta on 2023-10-03 at 14:06:42
; total layer number: 75
; HEADER_BLOCK_END

; THUMBNAIL_BLOCK_START
; THUMBNAIL_BLOCK_END

; external perimeters extrusion width = 0.40mm
; perimeters extrusion width = 0.46mm
; infill extrusion width = 0.64mm
; solid infill extrusion width = 0.56mm
; top infill extrusion width = 0.40mm
; first layer extrusion width = 0.50mm

; EXECUTABLE_BLOCK_START
EXCLUDE_OBJECT_DEFINE NAME=testa1.stl_id_0_copy_0 CENTER=62.8686,62.3495 POLYGON=[[39.7436,39.2245],[85.9936,39.2245],[85.9936,85.4745],[39.7436,85.4745],[39.7436,39.2245]]
M73 P0 R17
;TYPE:Custom
START_PRINT T_BED=110 T_EXTRUDER=260
G90
G21
M83 ; use relative distances for extrusion
; Filament gcode

    PRESSURE_ADVANCE_SELECT FILAMENT=ABS
M106 S0
;LAYER_CHANGE
;Z:0.2
;HEIGHT:0.2
;BEFORE_LAYER_CHANGE
;0.2
G92 E0

;AFTER_LAYER_CHANGE
;0.2
;_SET_FAN_SPEED_CHANGING_LAYER
SET_VELOCITY_LIMIT ACCEL=1000 ACCEL_TO_DECEL=500
SET_VELOCITY_LIMIT SQUARE_CORNER_VELOCITY=9
G1 E-.5 F3000
G1 Z.2 F21000
G1 X37.389 Y37.598
G1 Z.2
G1 E.5 F1800
;TYPE:Skirt
;WIDTH:0.5
G1 F3000
G1 X38.296 Y36.695 E.04504
G1 X39.744 Y36.31 E.05272
G1 X85.994 Y36.31 E1.62772
G1 X87.455 Y36.704 E.05327
G1 X88.523 Y37.777 E.05327
G1 X88.908 Y39.225 E.05272
G1 X88.908 Y85.475 E1.62772
G1 X88.515 Y86.936 E.05327
G1 X87.441 Y88.004 E.05327
G1 X85.994 Y88.389 E.05272
G1 X39.744 Y88.389 E1.62772
G1 X38.282 Y87.996 E.05327
G1 X37.215 Y86.922 E.05327
G1 X36.829 Y85.475 E.05272
G1 X36.829 Y39.225 E1.62772
G1 X37.223 Y37.763 E.05327
G1 X37.36 Y37.626 E.00683
G1 X37.678 Y37.893 F21000
G1 F3000
G1 X38.729 Y36.987 E.04884
G1 X39.744 Y36.767 E.03653
G1 X85.994 Y36.767 E1.62772
G1 X87.325 Y37.159 E.04884
G1 X88.231 Y38.21 E.04884
G1 X88.451 Y39.225 E.03653
G1 X88.451 Y85.475 E1.62772
G1 X88.059 Y86.806 E.04884
G1 X87.008 Y87.712 E.04884
G1 X85.994 Y87.932 E.03653
G1 X39.744 Y87.932 E1.62772
G1 X38.412 Y87.54 E.04884
G1 X37.506 Y86.489 E.04884
G1 X37.287 Y85.475 E.03653
G1 X37.287 Y39.225 E1.62772
G1 X37.667 Y37.932 E.04743
; printing object testa1.stl id:0 copy 0
G1 E-.5
EXCLUDE_OBJECT_START NAME=testa1.stl_id_0_copy_0
G1 Z.4 F21000
G1 X85.644 Y85.125 Z.4
G1 Z.2
G1 E.5 F1800
;TYPE:Outer wall
G1 F3000
G1 X40.094 Y85.125 E1.60308
M73 P1 R17
G1 X40.094 Y39.575 E1.60308
G1 X85.644 Y39.575 E1.60308
G1 X85.644 Y85.085 E1.60167
G1 X85.144 Y84.625 F21000
;TYPE:Inner wall
G1 F3000
G1 X40.594 Y84.625 E1.56789
G1 X40.594 Y40.075 E1.56789
G1 X85.144 Y40.075 E1.56789
G1 X85.144 Y84.585 E1.56648
G1 X84.687 Y84.167 F21000
G1 F3000
G1 X41.051 Y84.167 E1.53571
G1 X41.051 Y40.532 E1.53571
G1 X84.687 Y40.532 E1.53571
G1 X84.687 Y84.127 E1.53431
G1 E-.5
G1 Z.4 F21000
G1 X83.623 Y40.669 Z.4
M73 P2 R17
G1 Z.2
G1 E.5 F1800
;TYPE:Bottom surface
;WIDTH:0.501033
G1 F6300
G1 X84.344 Y41.389 E.03594
G1 X84.344 Y42.037 E.02285
G1 X83.181 Y40.874 E.058
G1 X82.533 Y40.874 E.02285
G1 X84.344 Y42.685 E.09032
G1 X84.344 Y43.333 E.02285
G1 X81.885 Y40.874 E.12264
G1 X81.237 Y40.874 E.02285
G1 X84.344 Y43.981 E.15495
G1 X84.344 Y44.629 E.02285
G1 X80.59 Y40.874 E.18727
G1 X79.942 Y40.874 E.02285
G1 X84.344 Y45.276 E.21959
G1 X84.344 Y45.924 E.02285
G1 X79.294 Y40.874 E.25191
G1 X78.646 Y40.874 E.02285
G1 X84.344 Y46.572 E.28423
G1 X84.344 Y47.22 E.02285
G1 X77.998 Y40.874 E.31655
G1 X77.35 Y40.874 E.02285
G1 X84.344 Y47.868 E.34886
G1 X84.344 Y48.516 E.02285
G1 X76.702 Y40.874 E.38118
G1 X76.055 Y40.874 E.02285
G1 X84.344 Y49.164 E.4135
G1 X84.344 Y49.812 E.02285
G1 X75.407 Y40.874 E.44582
G1 X74.759 Y40.874 E.02285
G1 X84.344 Y50.459 E.47814
G1 X84.344 Y51.107 E.02285
G1 X74.111 Y40.874 E.51046
G1 X73.463 Y40.874 E.02285
G1 X84.344 Y51.755 E.54277
G1 X84.344 Y52.403 E.02285
G1 X72.815 Y40.874 E.57509
G1 X72.167 Y40.874 E.02285
G1 X84.344 Y53.051 E.60741
G1 X84.344 Y53.699 E.02285
G1 X71.519 Y40.874 E.63973
G1 X70.872 Y40.874 E.02285
G1 X84.344 Y54.347 E.67205
G1 X84.344 Y54.994 E.02285
G1 X70.224 Y40.874 E.70437
G1 X69.576 Y40.874 E.02285
G1 X84.344 Y55.642 E.73669
G1 X84.344 Y56.29 E.02285
G1 X68.928 Y40.874 E.769
G1 X68.28 Y40.874 E.02285
M73 P2 R16
G1 X84.344 Y56.938 E.80132
G1 X84.344 Y57.586 E.02285
G1 X67.632 Y40.874 E.83364
G1 X66.984 Y40.874 E.02285
G1 X84.344 Y58.234 E.86596
G1 X84.344 Y58.882 E.02285
G1 X66.336 Y40.874 E.89828
G1 X65.689 Y40.874 E.02285
G1 X84.344 Y59.53 E.9306
G1 X84.344 Y60.177 E.02285
G1 X65.041 Y40.874 E.96291
G1 X64.393 Y40.874 E.02285
G1 X84.344 Y60.825 E.99523
G1 X84.344 Y61.473 E.02285
G1 X63.745 Y40.874 E1.02755
G1 X63.097 Y40.874 E.02285
G1 X84.344 Y62.121 E1.05987
G1 X84.344 Y62.769 E.02285
G1 X62.449 Y40.874 E1.09219
G1 X61.801 Y40.874 E.02285
G1 X84.344 Y63.417 E1.12451
G1 X84.344 Y64.065 E.02285
G1 X61.154 Y40.874 E1.15683
G1 X60.506 Y40.874 E.02285
M73 P3 R16
G1 X84.344 Y64.713 E1.18914
G1 X84.344 Y65.36 E.02285
G1 X59.858 Y40.874 E1.22146
G1 X59.21 Y40.874 E.02285
G1 X84.344 Y66.008 E1.25378
G1 X84.344 Y66.656 E.02285
G1 X58.562 Y40.874 E1.2861
G1 X57.914 Y40.874 E.02285
G1 X84.344 Y67.304 E1.31842
G1 X84.344 Y67.952 E.02285
G1 X57.266 Y40.874 E1.35074
G1 X56.618 Y40.874 E.02285
G1 X84.344 Y68.6 E1.38305
G1 X84.344 Y69.248 E.02285
G1 X55.971 Y40.874 E1.41537
G1 X55.323 Y40.874 E.02285
G1 X84.344 Y69.895 E1.44769
G1 X84.344 Y70.543 E.02285
G1 X54.675 Y40.874 E1.48001
G1 X54.027 Y40.874 E.02285
G1 X84.344 Y71.191 E1.51233
G1 X84.344 Y71.839 E.02285
G1 X53.379 Y40.874 E1.54465
G1 X52.731 Y40.874 E.02285
G1 X84.344 Y72.487 E1.57696
G1 X84.344 Y73.135 E.02285
G1 X52.083 Y40.874 E1.60928
G1 X51.435 Y40.874 E.02285
G1 X84.344 Y73.783 E1.6416
G1 X84.344 Y74.431 E.02285
G1 X50.788 Y40.874 E1.67392
G1 X50.14 Y40.874 E.02285
G1 X84.344 Y75.078 E1.70624
G1 X84.344 Y75.726 E.02285
G1 X49.492 Y40.874 E1.73856
G1 X48.844 Y40.874 E.02285
G1 X84.344 Y76.374 E1.77088
G1 X84.344 Y77.022 E.02285
G1 X48.196 Y40.874 E1.80319
M73 P4 R16
G1 X47.548 Y40.874 E.02285
G1 X84.344 Y77.67 E1.83551
G1 X84.344 Y78.318 E.02285
G1 X46.9 Y40.874 E1.86783
G1 X46.253 Y40.874 E.02285
G1 X84.344 Y78.966 E1.90015
G1 X84.344 Y79.614 E.02285
G1 X45.605 Y40.874 E1.93247
G1 X44.957 Y40.874 E.02285
G1 X84.344 Y80.261 E1.96479
G1 X84.344 Y80.909 E.02285
G1 X44.309 Y40.874 E1.9971
G1 X43.661 Y40.874 E.02285
G1 X84.344 Y81.557 E2.02942
G1 X84.344 Y82.205 E.02285
G1 X43.013 Y40.874 E2.06174
G1 X42.365 Y40.874 E.02285
G1 X84.344 Y82.853 E2.09406
G1 X84.344 Y83.501 E.02285
G1 X41.717 Y40.874 E2.12638
G1 X41.394 Y40.874 E.01143
G1 X41.394 Y41.198 E.01143
G1 X84.02 Y83.825 E2.12638
G1 X83.372 Y83.825 E.02285
G1 X41.394 Y41.846 E2.09406
G1 X41.394 Y42.494 E.02285
G1 X82.724 Y83.825 E2.06174
G1 X82.076 Y83.825 E.02285
G1 X41.394 Y43.142 E2.02942
G1 X41.394 Y43.79 E.02285
G1 X81.428 Y83.825 E1.9971
G1 X80.78 Y83.825 E.02285
G1 X41.394 Y44.438 E1.96479
M73 P5 R16
G1 X41.394 Y45.086 E.02285
G1 X80.133 Y83.825 E1.93247
G1 X79.485 Y83.825 E.02285
G1 X41.394 Y45.733 E1.90015
G1 X41.394 Y46.381 E.02285
G1 X78.837 Y83.825 E1.86783
G1 X78.189 Y83.825 E.02285
G1 X41.394 Y47.029 E1.83551
G1 X41.394 Y47.677 E.02285
G1 X77.541 Y83.825 E1.80319
G1 X76.893 Y83.825 E.02285
G1 X41.394 Y48.325 E1.77087
G1 X41.394 Y48.973 E.02285
G1 X76.245 Y83.825 E1.73856
G1 X75.598 Y83.825 E.02285
G1 X41.394 Y49.621 E1.70624
G1 X41.394 Y50.269 E.02285
G1 X74.95 Y83.825 E1.67392
G1 X74.302 Y83.825 E.02285
G1 X41.394 Y50.916 E1.6416
G1 X41.394 Y51.564 E.02285
G1 X73.654 Y83.825 E1.60928
G1 X73.006 Y83.825 E.02285
G1 X41.394 Y52.212 E1.57696
G1 X41.394 Y52.86 E.02285
G1 X72.358 Y83.825 E1.54465
G1 X71.71 Y83.825 E.02285
G1 X41.394 Y53.508 E1.51233
G1 X41.394 Y54.156 E.02285
G1 X71.062 Y83.825 E1.48001
G1 X70.415 Y83.825 E.02285
G1 X41.394 Y54.804 E1.44769
G1 X41.394 Y55.451 E.02285
G1 X69.767 Y83.825 E1.41537
G1 X69.119 Y83.825 E.02285
G1 X41.394 Y56.099 E1.38305
M73 P6 R16
G1 X41.394 Y56.747 E.02285
G1 X68.471 Y83.825 E1.35073
G1 X67.823 Y83.825 E.02285
G1 X41.394 Y57.395 E1.31842
G1 X41.394 Y58.043 E.02285
G1 X67.175 Y83.825 E1.2861
G1 X66.527 Y83.825 E.02285
G1 X41.394 Y58.691 E1.25378
G1 X41.394 Y59.339 E.02285
G1 X65.879 Y83.825 E1.22146
G1 X65.232 Y83.825 E.02285
G1 X41.394 Y59.987 E1.18914
G1 X41.394 Y60.634 E.02285
G1 X64.584 Y83.825 E1.15682
G1 X63.936 Y83.825 E.02285
G1 X41.394 Y61.282 E1.12451
G1 X41.394 Y61.93 E.02285
G1 X63.288 Y83.825 E1.09219
G1 X62.64 Y83.825 E.02285
G1 X41.394 Y62.578 E1.05987
G1 X41.394 Y63.226 E.02285
G1 X61.992 Y83.825 E1.02755
G1 X61.344 Y83.825 E.02285
G1 X41.394 Y63.874 E.99523
G1 X41.394 Y64.522 E.02285
G1 X60.697 Y83.825 E.96291
G1 X60.049 Y83.825 E.02285
G1 X41.394 Y65.17 E.9306
G1 X41.394 Y65.817 E.02285
G1 X59.401 Y83.825 E.89828
G1 X58.753 Y83.825 E.02285
G1 X41.394 Y66.465 E.86596
G1 X41.394 Y67.113 E.02285
G1 X58.105 Y83.825 E.83364
G1 X57.457 Y83.825 E.02285
G1 X41.394 Y67.761 E.80132
G1 X41.394 Y68.409 E.02285
G1 X56.809 Y83.825 E.769
G1 X56.161 Y83.825 E.02285
G1 X41.394 Y69.057 E.73668
G1 X41.394 Y69.705 E.02285
G1 X55.514 Y83.825 E.70437
G1 X54.866 Y83.825 E.02285
G1 X41.394 Y70.352 E.67205
G1 X41.394 Y71 E.02285
G1 X54.218 Y83.825 E.63973
G1 X53.57 Y83.825 E.02285
G1 X41.394 Y71.648 E.60741
G1 X41.394 Y72.296 E.02285
G1 X52.922 Y83.825 E.57509
G1 X52.274 Y83.825 E.02285
G1 X41.394 Y72.944 E.54277
G1 X41.394 Y73.592 E.02285
G1 X51.626 Y83.825 E.51046
G1 X50.978 Y83.825 E.02285
G1 X41.394 Y74.24 E.47814
M73 P7 R16
G1 X41.394 Y74.888 E.02285
G1 X50.331 Y83.825 E.44582
G1 X49.683 Y83.825 E.02285
G1 X41.394 Y75.535 E.4135
G1 X41.394 Y76.183 E.02285
G1 X49.035 Y83.825 E.38118
G1 X48.387 Y83.825 E.02285
G1 X41.394 Y76.831 E.34886
G1 X41.394 Y77.479 E.02285
G1 X47.739 Y83.825 E.31655
G1 X47.091 Y83.825 E.02285
G1 X41.394 Y78.127 E.28423
G1 X41.394 Y78.775 E.02285
G1 X46.443 Y83.825 E.25191
G1 X45.796 Y83.825 E.02285
G1 X41.394 Y79.423 E.21959
G1 X41.394 Y80.071 E.02285
G1 X45.148 Y83.825 E.18727
G1 X44.5 Y83.825 E.02285
G1 X41.394 Y80.718 E.15495
G1 X41.394 Y81.366 E.02285
G1 X43.852 Y83.825 E.12263
G1 X43.204 Y83.825 E.02285
G1 X41.394 Y82.014 E.09032
G1 X41.394 Y82.662 E.02285
G1 X42.556 Y83.825 E.058
G1 X41.908 Y83.825 E.02285
G1 X41.188 Y83.104 E.03594
; stop printing object testa1.stl id:0 copy 0
;LAYER_CHANGE
;Z:0.4
;HEIGHT:0.2
;BEFORE_LAYER_CHANGE
;0.4
G92 E0

EXCLUDE_OBJECT_END NAME=testa1.stl_id_0_copy_0
;AFTER_LAYER_CHANGE
;0.4
;_SET_FAN_SPEED_CHANGING_LAYER
SET_VELOCITY_LIMIT ACCEL=6000 ACCEL_TO_DECEL=3000
M140 S110 ; set bed temperature
; printing object testa1.stl id:0 copy 0
SET_VELOCITY_LIMIT ACCEL=4000 ACCEL_TO_DECEL=2000
SET_VELOCITY_LIMIT SQUARE_CORNER_VELOCITY=12
G1 E-.5 F3000
EXCLUDE_OBJECT_START NAME=testa1.stl_id_0_copy_0
G1 Z.4 F21000
G1 X85.794 Y85.275 Z.4
G1 E.5 F1800
SET_VELOCITY_LIMIT SQUARE_CORNER_VELOCITY=7
;TYPE:Outer wall
;WIDTH:0.4
G1 F6000
G1 X39.944 Y85.275 E1.26061
G1 X39.944 Y39.425 E1.26061
G1 X85.794 Y39.425 E1.26061
G1 X85.794 Y85.235 E1.25951
SET_VELOCITY_LIMIT SQUARE_CORNER_VELOCITY=12
G1 X85.364 Y84.845 F21000
SET_VELOCITY_LIMIT ACCEL=6000 ACCEL_TO_DECEL=3000
SET_VELOCITY_LIMIT SQUARE_CORNER_VELOCITY=7
;TYPE:Inner wall
;WIDTH:0.46
G1 F8631.445
G1 X40.374 Y84.845 E1.44481
G1 X40.374 Y39.855 E1.44481
G1 X85.364 Y39.855 E1.44481
G1 X85.364 Y84.805 E1.44352
SET_VELOCITY_LIMIT ACCEL=4000 ACCEL_TO_DECEL=2000
SET_VELOCITY_LIMIT SQUARE_CORNER_VELOCITY=12
G1 X84.947 Y84.427 F21000
SET_VELOCITY_LIMIT ACCEL=6000 ACCEL_TO_DECEL=3000
SET_VELOCITY_LIMIT SQUARE_CORNER_VELOCITY=7
G1 F8631.445
G1 X40.791 Y84.427 E1.41802
G1 X40.791 Y40.272 E1.41802
G1 X84.947 Y40.272 E1.41802
G1 X84.947 Y84.387 E1.41674
SET_VELOCITY_LIMIT ACCEL=4000 ACCEL_TO_DECEL=2000
SET_VELOCITY_LIMIT SQUARE_CORNER_VELOCITY=12
G1 X84.829 Y83.262 F21000
SET_VELOCITY_LIMIT ACCEL=6000 ACCEL_TO_DECEL=3000
;TYPE:Internal solid infill
;WIDTH:0.561138
G1 F6000
G1 X84.014 Y84.077 E.04599
G1 X83.281 Y84.077 E.02924
G1 X84.596 Y82.762 E.07421
G1 X84.596 Y82.029 E.02924
G1 X82.548 Y84.077 E.11557
G1 X81.815 Y84.077 E.02924
G1 X84.596 Y81.296 E.15692
G1 X84.596 Y80.563 E.02924
G1 X81.082 Y84.077 E.19828
G1 X80.35 Y84.077 E.02924
G1 X84.596 Y79.831 E.23963
G1 X84.596 Y79.098 E.02924
G1 X79.617 Y84.077 E.28099
G1 X78.884 Y84.077 E.02924
G1 X84.596 Y78.365 E.32234
G1 X84.596 Y77.632 E.02924
G1 X78.151 Y84.077 E.3637
G1 X77.418 Y84.077 E.02924
G1 X84.596 Y76.899 E.40506
G1 X84.596 Y76.166 E.02924
G1 X76.685 Y84.077 E.44641
G1 X75.952 Y84.077 E.02924
G1 X84.596 Y75.433 E.48777
G1 X84.596 Y74.7 E.02924
G1 X75.22 Y84.077 E.52912
G1 X74.487 Y84.077 E.02924
G1 X84.596 Y73.968 E.57048
G1 X84.596 Y73.235 E.02924
G1 X73.754 Y84.077 E.61183
G1 X73.021 Y84.077 E.02924
G1 X84.596 Y72.502 E.65319
G1 X84.596 Y71.769 E.02924
G1 X72.288 Y84.077 E.69454
G1 X71.555 Y84.077 E.02924
G1 X84.596 Y71.036 E.7359
G1 X84.596 Y70.303 E.02924
G1 X70.822 Y84.077 E.77725
G1 X70.089 Y84.077 E.02924
G1 X84.596 Y69.57 E.81861
G1 X84.596 Y68.837 E.02924
G1 X69.357 Y84.077 E.85996
G1 X68.624 Y84.077 E.02924
G1 X84.596 Y68.105 E.90132
M73 P8 R16
G1 X84.596 Y67.372 E.02924
G1 X67.891 Y84.077 E.94267
G1 X67.158 Y84.077 E.02924
G1 X84.596 Y66.639 E.98403
G1 X84.596 Y65.906 E.02924
G1 X66.425 Y84.077 E1.02538
G1 X65.692 Y84.077 E.02924
G1 X84.596 Y65.173 E1.06674
G1 X84.596 Y64.44 E.02924
G1 X64.959 Y84.077 E1.10809
G1 X64.226 Y84.077 E.02924
G1 X84.596 Y63.707 E1.14945
G1 X84.596 Y62.974 E.02924
G1 X63.494 Y84.077 E1.1908
G1 X62.761 Y84.077 E.02924
G1 X84.596 Y62.242 E1.23216
G1 X84.596 Y61.509 E.02924
G1 X62.028 Y84.077 E1.27351
M73 P8 R15
G1 X61.295 Y84.077 E.02924
G1 X84.596 Y60.776 E1.31487
G1 X84.596 Y60.043 E.02924
G1 X60.562 Y84.077 E1.35622
G1 X59.829 Y84.077 E.02924
G1 X84.596 Y59.31 E1.39758
G1 X84.596 Y58.577 E.02924
G1 X59.096 Y84.077 E1.43893
G1 X58.363 Y84.077 E.02924
G1 X84.596 Y57.844 E1.48029
G1 X84.596 Y57.112 E.02924
G1 X57.631 Y84.077 E1.52165
G1 X56.898 Y84.077 E.02924
G1 X84.596 Y56.379 E1.563
G1 X84.596 Y55.646 E.02924
G1 X56.165 Y84.077 E1.60436
G1 X55.432 Y84.077 E.02924
G1 X84.596 Y54.913 E1.64571
G1 X84.596 Y54.18 E.02924
G1 X54.699 Y84.077 E1.68707
G1 X53.966 Y84.077 E.02924
G1 X84.596 Y53.447 E1.72842
G1 X84.596 Y52.714 E.02924
G1 X53.233 Y84.077 E1.76978
G1 X52.5 Y84.077 E.02924
G1 X84.596 Y51.981 E1.81113
G1 X84.596 Y51.249 E.02924
G1 X51.768 Y84.077 E1.85249
G1 X51.035 Y84.077 E.02924
G1 X84.596 Y50.516 E1.89384
G1 X84.596 Y49.783 E.02924
G1 X50.302 Y84.077 E1.9352
G1 X49.569 Y84.077 E.02924
G1 X84.596 Y49.05 E1.97655
M73 P9 R15
G1 X84.596 Y48.317 E.02924
G1 X48.836 Y84.077 E2.01791
G1 X48.103 Y84.077 E.02924
G1 X84.596 Y47.584 E2.05926
G1 X84.596 Y46.851 E.02924
G1 X47.37 Y84.077 E2.10062
G1 X46.638 Y84.077 E.02924
G1 X84.596 Y46.118 E2.14197
G1 X84.596 Y45.386 E.02924
G1 X45.905 Y84.077 E2.18333
G1 X45.172 Y84.077 E.02924
G1 X84.596 Y44.653 E2.22468
G1 X84.596 Y43.92 E.02924
G1 X44.439 Y84.077 E2.26604
G1 X43.706 Y84.077 E.02924
G1 X84.596 Y43.187 E2.30739
G1 X84.596 Y42.454 E.02924
G1 X42.973 Y84.077 E2.34875
G1 X42.24 Y84.077 E.02924
G1 X84.596 Y41.721 E2.3901
G1 X84.596 Y40.988 E.02924
G1 X41.507 Y84.077 E2.43146
G1 X41.141 Y84.077 E.01462
G1 X41.141 Y83.711 E.01462
G1 X84.23 Y40.622 E2.43146
G1 X83.497 Y40.622 E.02924
G1 X41.141 Y82.978 E2.3901
G1 X41.141 Y82.245 E.02924
G1 X82.764 Y40.622 E2.34875
G1 X82.031 Y40.622 E.02924
G1 X41.141 Y81.512 E2.30739
G1 X41.141 Y80.779 E.02924
G1 X81.298 Y40.622 E2.26604
G1 X80.565 Y40.622 E.02924
G1 X41.141 Y80.046 E2.22468
G1 X41.141 Y79.313 E.02924
G1 X79.833 Y40.622 E2.18333
M73 P10 R15
G1 X79.1 Y40.622 E.02924
G1 X41.141 Y78.581 E2.14197
G1 X41.141 Y77.848 E.02924
G1 X78.367 Y40.622 E2.10062
G1 X77.634 Y40.622 E.02924
G1 X41.141 Y77.115 E2.05926
G1 X41.141 Y76.382 E.02924
G1 X76.901 Y40.622 E2.01791
G1 X76.168 Y40.622 E.02924
G1 X41.141 Y75.649 E1.97655
G1 X41.141 Y74.916 E.02924
G1 X75.435 Y40.622 E1.93519
G1 X74.702 Y40.622 E.02924
G1 X41.141 Y74.183 E1.89384
G1 X41.141 Y73.451 E.02924
G1 X73.97 Y40.622 E1.85248
G1 X73.237 Y40.622 E.02924
G1 X41.141 Y72.718 E1.81113
G1 X41.141 Y71.985 E.02924
G1 X72.504 Y40.622 E1.76977
G1 X71.771 Y40.622 E.02924
G1 X41.141 Y71.252 E1.72842
G1 X41.141 Y70.519 E.02924
G1 X71.038 Y40.622 E1.68706
G1 X70.305 Y40.622 E.02924
G1 X41.141 Y69.786 E1.64571
G1 X41.141 Y69.053 E.02924
