; HEADER_BLOCK_START
; generated by OrcaSlicer 1.6.2 on 2023-05-14 at 21:23:10
; total layer number: 210
; HEADER_BLOCK_END

; THUMBNAIL_BLOCK_START
; THUMBNAIL_BLOCK_END

; external perimeters extrusion width = 0.15mm
; perimeters extrusion width = 0.15mm
; infill extrusion width = 0.15mm
; solid infill extrusion width = 0.15mm
; top infill extrusion width = 0.15mm
; first layer extrusion width = 0.15mm

; external perimeters extrusion width = 0.15mm
; perimeters extrusion width = 0.15mm
; infill extrusion width = 0.15mm
; solid infill extrusion width = 0.15mm
; top infill extrusion width = 0.15mm
; first layer extrusion width = 0.15mm

; EXECUTABLE_BLOCK_START
EXCLUDE_OBJECT_DEFINE NAME=thermacell_filler_v1.2_v3(1).stl_id_0_copy_0 CENTER=57.1923,56.2378 POLYGON=[[53.1923,56.2378],[53.2047,55.924],[53.2416,55.6121],[53.3029,55.304],[53.3881,55.0017],[53.4968,54.7071],[53.6283,54.4218],[53.7818,54.1478],[53.9563,53.8867],[54.1507,53.64],[54.3639,53.4094],[54.5945,53.1962],[54.8412,53.0017],[55.1023,52.8272],[55.3764,52.6738],[55.6616,52.5423],[55.9563,52.4336],[56.2586,52.3483],[56.5666,52.287],[56.8785,52.2501],[57.1923,52.2378],[57.5062,52.2501],[57.8181,52.287],[58.1261,52.3483],[58.4284,52.4336],[58.7231,52.5423],[59.0083,52.6738],[59.2823,52.8272],[59.5435,53.0017],[59.7901,53.1962],[60.0208,53.4094],[60.234,53.64],[60.4284,53.8867],[60.6029,54.1478],[60.7564,54.4218],[60.8879,54.7071],[60.9966,55.0017],[61.0818,55.304],[61.1431,55.6121],[61.18,55.924],[61.1923,56.2378],[61.18,56.5516],[61.1431,56.8635],[61.0818,57.1716],[60.9966,57.4739],[60.8879,57.7685],[60.7564,58.0538],[60.6029,58.3278],[60.4284,58.5889],[60.234,58.8356],[60.0208,59.0662],[59.7901,59.2794],[59.5435,59.4739],[59.2823,59.6484],[59.0083,59.8018],[58.7231,59.9333],[58.4284,60.042],[58.1261,60.1273],[57.8181,60.1886],[57.5062,60.2255],[57.1923,60.2378],[56.8785,60.2255],[56.5666,60.1886],[56.2586,60.1273],[55.9563,60.042],[55.6616,59.9333],[55.3764,59.8018],[55.1023,59.6484],[54.8412,59.4739],[54.5945,59.2794],[54.3639,59.0662],[54.1507,58.8356],[53.9563,58.5889],[53.7818,58.3278],[53.6283,58.0538],[53.4968,57.7685],[53.3881,57.4739],[53.3029,57.1716],[53.2416,56.8635],[53.2047,56.5516],[53.1923,56.2378]]
EXCLUDE_OBJECT_DEFINE NAME=butane_converter_v3.2(1).stl_id_1_copy_0 CENTER=64.3077,65.265 POLYGON=[[61.8077,65.265],[61.819,65.0274],[61.8528,64.7919],[61.9089,64.5607],[61.9867,64.3359],[62.0856,64.1195],[62.2045,63.9134],[62.3425,63.7196],[62.4983,63.5398],[62.6705,63.3757],[62.8575,63.2286],[63.0577,63.1],[63.2691,62.991],[63.49,62.9025],[63.7183,62.8355],[63.9519,62.7905],[64.1887,62.7679],[64.4266,62.7679],[64.6634,62.7905],[64.8971,62.8355],[65.1253,62.9025],[65.3462,62.991],[65.5577,63.1],[65.7578,63.2286],[65.9448,63.3757],[66.117,63.5398],[66.2728,63.7196],[66.4108,63.9134],[66.5297,64.1195],[66.6286,64.3359],[66.7064,64.5607],[66.7625,64.7919],[66.7963,65.0274],[66.8077,65.265],[66.7963,65.5027],[66.7625,65.7382],[66.7064,65.9694],[66.6286,66.1942],[66.5297,66.4106],[66.4108,66.6166],[66.2728,66.8104],[66.117,66.9902],[65.9448,67.1544],[65.7578,67.3015],[65.5577,67.4301],[65.3462,67.5391],[65.1253,67.6275],[64.8971,67.6946],[64.6634,67.7396],[64.4266,67.7622],[64.1887,67.7622],[63.9519,67.7396],[63.7183,67.6946],[63.49,67.6275],[63.2691,67.5391],[63.0577,67.4301],[62.8575,67.3015],[62.6705,67.1544],[62.4983,66.9902],[62.3425,66.8104],[62.2045,66.6166],[62.0856,66.4106],[61.9867,66.1942],[61.9089,65.9694],[61.8528,65.7382],[61.819,65.5027],[61.8077,65.265]]
M73 P0 R29
M73 C5
;TYPE:Custom
START_PRINT T_BED=60 T_EXTRUDER=220
G90
G21
M83 ; use relative distances for extrusion
; filament start gcode

    PRESSURE_ADVANCE_SELECT FILAMENT=PLA
M106 S0
;LAYER_CHANGE
;Z:0.08
;HEIGHT:0.08
;BEFORE_LAYER_CHANGE
;0.08
G92 E0

;AFTER_LAYER_CHANGE
;0.08
M204 S500
G1 E-.8 F3000
G1 Z.2 F21000
G1 X53.057 Y51.532
G1 Z.08
G1 E.8 F1800
;TYPE:Skirt
;WIDTH:0.15
G1 F3000
G1 X53.995 Y50.85 E.00502
G1 X55.172 Y50.308 E.00561
G1 X56.3 Y50.037 E.00502
G1 X57.284 Y49.974 E.00427
G1 X58.26 Y50.065 E.00425
G1 X59.043 Y50.253 E.00349
G1 X60.389 Y50.85 E.00638
G1 X69.731 Y57.291 E.04913
G1 X70.989 Y58.311 E.00701
G1 X71.758 Y59.142 E.00491
G1 X72.306 Y59.878 E.00397
G1 X73.095 Y61.292 E.00701
G1 X73.688 Y63.027 E.00794
G1 X73.942 Y64.842 E.00794
G1 X73.848 Y66.673 E.00794
G1 X73.409 Y68.453 E.00794
G1 X72.641 Y70.118 E.00794
G1 X71.572 Y71.608 E.00794
G1 X70.24 Y72.868 E.00794
G1 X69.308 Y73.511 E.00491
G1 X68.501 Y73.949 E.00397
G1 X66.782 Y74.586 E.00794
G1 X64.973 Y74.886 E.00794
G1 X63.639 Y74.887 E.00578
G1 X62.765 Y74.784 E.00381
G1 X60.992 Y74.321 E.00794
G1 X59.952 Y73.869 E.00491
G1 X59.154 Y73.416 E.00397
G1 X57.705 Y72.294 E.00794
G1 X56.494 Y70.917 E.00794
G1 X55.565 Y69.336 E.00794
G1 X51.262 Y58.258 E.05146
G1 X50.955 Y56.818 E.00638
G1 X50.955 Y55.656 E.00503
G1 X51.208 Y54.387 E.0056
G1 X51.652 Y53.315 E.00502
G1 X52.177 Y52.484 E.00426
G1 X53.041 Y51.549 E.00551
G1 X53.139 Y51.639 F21000
G1 F3000
G1 X53.147 Y51.63 E.00005
G1 X54.06 Y50.966 E.00489
G1 X55.218 Y50.433 E.00552
G1 X56.316 Y50.169 E.00489
G1 X57.279 Y50.107 E.00418
G1 X58.234 Y50.195 E.00416
G1 X59.007 Y50.381 E.00344
G1 X60.324 Y50.966 E.00624
G1 X69.653 Y57.398 E.04906
G1 X70.9 Y58.41 E.00695
G1 X71.653 Y59.223 E.0048
G1 X72.194 Y59.948 E.00392
G1 X72.976 Y61.351 E.00695
G1 X73.56 Y63.062 E.00783
G1 X73.81 Y64.853 E.00783
G1 X73.806 Y65.758 E.00392
G1 X73.684 Y66.859 E.0048
G1 X73.213 Y68.605 E.00783
G1 X72.42 Y70.23 E.00783
G1 X71.334 Y71.675 E.00783
G1 X69.994 Y72.889 E.00783
G1 X68.448 Y73.827 E.00783
G1 X66.753 Y74.456 E.00783
G1 X64.969 Y74.753 E.00783
G1 X63.645 Y74.754 E.00573
G1 X62.782 Y74.653 E.00376
G1 X61.033 Y74.194 E.00783
G1 X59.402 Y73.413 E.00783
G1 X58.65 Y72.91 E.00392
G1 X57.799 Y72.2 E.0048
G1 X56.604 Y70.843 E.00783
G1 X55.688 Y69.284 E.00783
G1 X51.387 Y58.212 E.05143
G1 X51.087 Y56.802 E.00624
G1 X51.087 Y55.672 E.00489
G1 X51.335 Y54.423 E.00551
G1 X51.767 Y53.38 E.00489
G1 X52.281 Y52.566 E.00417
G1 X53.123 Y51.655 E.00537
; printing object thermacell_filler_v1.2_v3(1).stl id:0 copy 0
EXCLUDE_OBJECT_START NAME=thermacell_filler_v1.2_v3(1).stl_id_0_copy_0
G1 E-.8
G1 Z.28 F21000
G1 X55.503 Y57.469 Z.08
G1 E.8 F1800
;TYPE:Inner wall
G1 F3000
G1 X55.493 Y57.457 E.00007
G1 X55.361 Y57.247 E.00107
G1 X55.254 Y57.024 E.00107
G1 X55.175 Y56.789 E.00107
G1 X55.124 Y56.547 E.00107
G1 X55.102 Y56.3 E.00107
G1 X55.109 Y56.052 E.00107
G1 X55.146 Y55.807 E.00107
G1 X55.211 Y55.568 E.00107
G1 X55.304 Y55.338 E.00107
G1 X55.424 Y55.121 E.00107
G1 X55.568 Y54.92 E.00107
G1 X55.736 Y54.737 E.00107
G1 X55.923 Y54.576 E.00107
G1 X56.129 Y54.437 E.00107
G1 X56.349 Y54.324 E.00107
G1 X56.582 Y54.238 E.00107
G1 X56.822 Y54.179 E.00107
G1 X57.068 Y54.15 E.00107
G1 X57.316 Y54.15 E.00107
G1 X57.562 Y54.179 E.00107
G1 X57.803 Y54.238 E.00107
G1 X58.035 Y54.324 E.00107
G1 X58.256 Y54.437 E.00107
G1 X58.461 Y54.576 E.00107
G1 X58.649 Y54.737 E.00107
G1 X58.816 Y54.92 E.00107
G1 X58.961 Y55.121 E.00107
G1 X59.08 Y55.338 E.00107
G1 X59.173 Y55.568 E.00107
G1 X59.239 Y55.807 E.00107
G1 X59.275 Y56.052 E.00107
G1 X59.283 Y56.3 E.00107
G1 X59.261 Y56.547 E.00107
G1 X59.21 Y56.789 E.00107
G1 X59.13 Y57.024 E.00107
G1 X59.024 Y57.247 E.00107
G1 X58.891 Y57.457 E.00107
G1 X58.735 Y57.649 E.00107
G1 X58.558 Y57.822 E.00107
G1 X58.361 Y57.972 E.00107
G1 X58.147 Y58.098 E.00107
G1 X57.921 Y58.198 E.00107
G1 X57.684 Y58.271 E.00107
G1 X57.44 Y58.314 E.00107
G1 X57.192 Y58.329 E.00107
G1 X56.945 Y58.314 E.00107
G1 X56.701 Y58.271 E.00107
G1 X56.464 Y58.198 E.00107
G1 X56.237 Y58.098 E.00107
G1 X56.024 Y57.972 E.00107
G1 X55.827 Y57.822 E.00107
G1 X55.649 Y57.649 E.00107
G1 X55.517 Y57.486 E.00091
G1 X55.606 Y57.385 F21000
G1 F3000
G1 X55.601 Y57.379 E.00003
G1 X55.477 Y57.183 E.001
G1 X55.378 Y56.974 E.001
G1 X55.303 Y56.754 E.001
G1 X55.256 Y56.527 E.001
G1 X55.235 Y56.296 E.001
G1 X55.242 Y56.064 E.001
G1 X55.276 Y55.834 E.001
G1 X55.337 Y55.611 E.001
G1 X55.424 Y55.396 E.001
G1 X55.536 Y55.192 E.001
G1 X55.672 Y55.004 E.001
G1 X55.828 Y54.833 E.001
G1 X56.004 Y54.681 E.001
G1 X56.197 Y54.552 E.001
G1 X56.403 Y54.446 E.001
G1 X56.62 Y54.365 E.001
G1 X56.846 Y54.31 E.001
G1 X57.076 Y54.283 E.001
G1 X57.308 Y54.283 E.001
G1 X57.539 Y54.31 E.001
G1 X57.764 Y54.365 E.001
G1 X57.982 Y54.446 E.001
G1 X58.188 Y54.552 E.001
G1 X58.381 Y54.681 E.001
G1 X58.556 Y54.833 E.001
G1 X58.713 Y55.004 E.001
G1 X58.848 Y55.192 E.001
G1 X58.96 Y55.396 E.001
G1 X59.047 Y55.611 E.001
G1 X59.109 Y55.834 E.001
G1 X59.143 Y56.064 E.001
G1 X59.15 Y56.296 E.001
G1 X59.129 Y56.527 E.001
G1 X59.081 Y56.754 E.001
G1 X59.007 Y56.974 E.001
G1 X58.907 Y57.183 E.001
G1 X58.783 Y57.379 E.001
G1 X58.637 Y57.56 E.001
G1 X58.471 Y57.721 E.001
G1 X58.286 Y57.862 E.001
G1 X58.087 Y57.98 E.001
G1 X57.874 Y58.073 E.001
G1 X57.652 Y58.141 E.001
G1 X57.424 Y58.182 E.001
G1 X57.192 Y58.196 E.001
G1 X56.961 Y58.182 E.001
G1 X56.732 Y58.141 E.001
G1 X56.51 Y58.073 E.001
G1 X56.298 Y57.98 E.001
G1 X56.098 Y57.862 E.001
G1 X55.914 Y57.721 E.001
G1 X55.747 Y57.56 E.001
G1 X55.62 Y57.403 E.00087
G1 X55.637 Y57.188 F21000
;TYPE:Outer wall
G1 F3000
G1 X55.594 Y57.119 E.00035
G1 X55.501 Y56.924 E.00094
G1 X55.432 Y56.719 E.00094
G1 X55.387 Y56.507 E.00094
G1 X55.368 Y56.292 E.00094
G1 X55.374 Y56.076 E.00094
G1 X55.406 Y55.862 E.00094
G1 X55.463 Y55.653 E.00094
G1 X55.545 Y55.453 E.00094
G1 X55.649 Y55.263 E.00094
G1 X55.775 Y55.088 E.00094
G1 X55.921 Y54.928 E.00094
G1 X56.085 Y54.787 E.00094
G1 X56.264 Y54.666 E.00094
G1 X56.457 Y54.568 E.00094
G1 X56.659 Y54.492 E.00094
G1 X56.869 Y54.441 E.00094
G1 X57.084 Y54.416 E.00094
G1 X57.3 Y54.416 E.00094
G1 X57.515 Y54.441 E.00094
G1 X57.725 Y54.492 E.00094
G1 X57.928 Y54.568 E.00094
G1 X58.12 Y54.666 E.00094
G1 X58.3 Y54.787 E.00094
G1 X58.464 Y54.928 E.00094
G1 X58.61 Y55.088 E.00094
G1 X58.736 Y55.263 E.00094
G1 X58.84 Y55.453 E.00094
G1 X58.921 Y55.653 E.00094
G1 X58.978 Y55.862 E.00094
G1 X59.01 Y56.076 E.00094
G1 X59.017 Y56.292 E.00094
G1 X58.998 Y56.507 E.00094
G1 X58.953 Y56.719 E.00094
G1 X58.884 Y56.924 E.00094
G1 X58.791 Y57.119 E.00094
G1 X58.675 Y57.302 E.00094
G1 X58.539 Y57.47 E.00094
G1 X58.384 Y57.62 E.00094
G1 X58.212 Y57.752 E.00094
G1 X58.026 Y57.862 E.00094
G1 X57.828 Y57.949 E.00094
G1 X57.621 Y58.012 E.00094
G1 X57.408 Y58.05 E.00094
G1 X57.192 Y58.063 E.00094
G1 X56.976 Y58.05 E.00094
G1 X56.764 Y58.012 E.00094
G1 X56.557 Y57.949 E.00094
G1 X56.359 Y57.862 E.00094
G1 X56.173 Y57.752 E.00094
G1 X56.001 Y57.62 E.00094
G1 X55.846 Y57.47 E.00094
G1 X55.709 Y57.302 E.00094
G1 X55.649 Y57.207 E.00049
G1 X55.621 Y57.189
G1 E-.8
G1 Z.28 F21000
G1 X60.84 Y56.311 Z.08
G1 E.8 F1800
;TYPE:Inner wall
G1 F3000
G1 X60.84 Y56.527 E.00094
G1 X60.75 Y57.092 E.00248
G1 X60.672 Y57.369 E.00124
G1 X60.453 Y57.899 E.00249
G1 X60.153 Y58.389 E.00249
G1 X59.975 Y58.614 E.00124
G1 X59.569 Y59.02 E.00249
G1 X59.104 Y59.358 E.00249
G1 X58.854 Y59.498 E.00124
G1 X58.323 Y59.718 E.00249
G1 X57.765 Y59.852 E.00249
G1 X57.479 Y59.886 E.00124
G1 X56.903 Y59.885 E.0025
G1 X56.338 Y59.796 E.00248
G1 X56.062 Y59.718 E.00124
G1 X55.531 Y59.498 E.00249
G1 X55.042 Y59.198 E.00249
G1 X54.816 Y59.02 E.00124
G1 X54.41 Y58.614 E.00249
G1 X54.072 Y58.15 E.00249
G1 X53.932 Y57.899 E.00124
G1 X53.712 Y57.369 E.00249
G1 X53.578 Y56.81 E.00249
G1 X53.533 Y56.238 E.00249
G1 X53.545 Y55.951 E.00124
G1 X53.634 Y55.384 E.00249
G1 X53.812 Y54.838 E.00249
G1 X53.932 Y54.577 E.00124
G1 X54.232 Y54.087 E.00249
G1 X54.41 Y53.861 E.00124
G1 X54.816 Y53.455 E.00249
G1 X55.28 Y53.118 E.00249
G1 X55.531 Y52.978 E.00124
G1 X56.062 Y52.758 E.00249
G1 X56.62 Y52.624 E.00249
G1 X56.905 Y52.59 E.00124
G1 X57.479 Y52.59 E.00249
G1 X58.047 Y52.68 E.00249
G1 X58.593 Y52.857 E.00249
G1 X58.854 Y52.978 E.00124
G1 X59.343 Y53.278 E.00249
G1 X59.78 Y53.65 E.00249
G1 X59.975 Y53.861 E.00124
G1 X60.312 Y54.326 E.00249
G1 X60.453 Y54.577 E.00124
G1 X60.672 Y55.107 E.00249
G1 X60.806 Y55.665 E.00249
G1 X60.84 Y55.951 E.00124
G1 X60.84 Y56.288 E.00146
G1 X60.972 Y56.311 F21000
G1 F3000
G1 X60.972 Y56.538 E.00098
G1 X60.88 Y57.123 E.00257
G1 X60.799 Y57.41 E.00129
G1 X60.571 Y57.959 E.00258
G1 X60.26 Y58.467 E.00258
G1 X59.874 Y58.919 E.00258
G1 X59.655 Y59.121 E.00129
G1 X59.174 Y59.471 E.00258
G1 X58.914 Y59.617 E.00129
G1 X58.364 Y59.844 E.00258
G1 X57.786 Y59.983 E.00258
G1 X57.49 Y60.018 E.00129
G1 X56.892 Y60.018 E.00259
G1 X56.307 Y59.925 E.00257
G1 X56.021 Y59.844 E.00129
G1 X55.471 Y59.617 E.00258
G1 X54.963 Y59.306 E.00258
G1 X54.73 Y59.121 E.00129
G1 X54.309 Y58.701 E.00258
G1 X53.959 Y58.219 E.00258
G1 X53.814 Y57.959 E.00129
G1 X53.586 Y57.41 E.00258
G1 X53.447 Y56.831 E.00258
G1 X53.412 Y56.535 E.00129
G1 X53.412 Y55.94 E.00258
G1 X53.505 Y55.353 E.00258
G1 X53.689 Y54.787 E.00258
G1 X53.814 Y54.516 E.00129
G1 X54.125 Y54.009 E.00258
G1 X54.309 Y53.775 E.00129
G1 X54.73 Y53.354 E.00258
G1 X55.211 Y53.005 E.00258
G1 X55.471 Y52.859 E.00129
G1 X56.021 Y52.631 E.00258
G1 X56.599 Y52.492 E.00258
G1 X56.895 Y52.457 E.00129
G1 X57.49 Y52.457 E.00258
G1 X58.078 Y52.551 E.00258
G1 X58.643 Y52.734 E.00258
G1 X58.914 Y52.859 E.00129
G1 X59.421 Y53.17 E.00258
G1 X59.874 Y53.556 E.00258
G1 X60.076 Y53.775 E.00129
G1 X60.426 Y54.256 E.00258
G1 X60.571 Y54.516 E.00129
G1 X60.799 Y55.066 E.00258
G1 X60.938 Y55.645 E.00258
G1 X60.973 Y55.94 E.00129
G1 X60.972 Y56.288 E.00151
G1 X61.114 Y56.311 F21000
;TYPE:Outer wall
G1 F3000
G1 X61.105 Y56.548 E.00103
G1 X61.069 Y56.852 E.00132
G1 X61.009 Y57.154 E.00133
G1 X60.925 Y57.451 E.00133
G1 X60.819 Y57.74 E.00133
G1 X60.689 Y58.02 E.00133
G1 X60.539 Y58.289 E.00133
G1 X60.368 Y58.545 E.00133
G1 X60.177 Y58.787 E.00133
G1 X59.968 Y59.013 E.00133
G1 X59.741 Y59.222 E.00133
G1 X59.497 Y59.415 E.00135
G1 X59.243 Y59.584 E.00132
G1 X58.974 Y59.735 E.00133
G1 X58.694 Y59.864 E.00133
G1 X58.405 Y59.971 E.00133
G1 X58.109 Y60.054 E.00133
G1 X57.806 Y60.114 E.00133
G1 X57.5 Y60.151 E.00133
G1 X57.192 Y60.163 E.00133
G1 X56.882 Y60.15 E.00135
G1 X56.578 Y60.114 E.00132
G1 X56.276 Y60.054 E.00133
G1 X55.979 Y59.971 E.00133
G1 X55.69 Y59.864 E.00133
G1 X55.41 Y59.735 E.00133
G1 X55.142 Y59.584 E.00133
G1 X54.885 Y59.413 E.00133
G1 X54.643 Y59.222 E.00133
G1 X54.417 Y59.013 E.00133
G1 X54.208 Y58.787 E.00133
G1 X54.016 Y58.543 E.00135
G1 X53.846 Y58.289 E.00132
G1 X53.695 Y58.02 E.00133
G1 X53.566 Y57.74 E.00133
G1 X53.459 Y57.451 E.00133
G1 X53.376 Y57.154 E.00133
G1 X53.316 Y56.852 E.00133
G1 X53.279 Y56.546 E.00133
G1 X53.267 Y56.238 E.00133
G1 X53.279 Y55.93 E.00133
G1 X53.316 Y55.621 E.00135
G1 X53.376 Y55.322 E.00132
G1 X53.459 Y55.025 E.00133
G1 X53.566 Y54.736 E.00133
G1 X53.695 Y54.456 E.00133
G1 X53.846 Y54.187 E.00133
G1 X54.017 Y53.931 E.00133
G1 X54.208 Y53.689 E.00133
G1 X54.417 Y53.462 E.00133
G1 X54.643 Y53.253 E.00133
G1 X54.887 Y53.061 E.00135
G1 X55.142 Y52.891 E.00132
G1 X55.41 Y52.741 E.00133
G1 X55.69 Y52.612 E.00133
G1 X55.979 Y52.505 E.00133
G1 X56.276 Y52.421 E.00133
G1 X56.578 Y52.361 E.00133
G1 X56.884 Y52.325 E.00133
G1 X57.195 Y52.313 E.00135
G1 X57.5 Y52.325 E.00132
G1 X57.806 Y52.361 E.00133
G1 X58.109 Y52.421 E.00133
G1 X58.405 Y52.505 E.00133
G1 X58.694 Y52.612 E.00133
G1 X58.974 Y52.741 E.00133
G1 X59.243 Y52.891 E.00133
G1 X59.499 Y53.062 E.00133
G1 X59.741 Y53.253 E.00133
G1 X59.968 Y53.462 E.00133
G1 X60.177 Y53.689 E.00133
G1 X60.369 Y53.933 E.00135
G1 X60.539 Y54.187 E.00132
G1 X60.689 Y54.456 E.00133
G1 X60.819 Y54.736 E.00133
G1 X60.925 Y55.025 E.00133
G1 X61.009 Y55.322 E.00133
G1 X61.069 Y55.624 E.00133
G1 X61.105 Y55.93 E.00133
G1 X61.117 Y56.238 E.00133
G1 X61.115 Y56.288 E.00022
G1 X61.088 Y56.325
G1 E-.8
G1 Z.28 F21000
G1 X60.129 Y54.142 Z.08
G1 E.8 F1800
;TYPE:Bottom surface
;WIDTH:0.15125
G1 F6300
G1 X59.705 Y53.718 E.00262
G1 X59.284 Y53.358 E.00242
G1 X58.953 Y53.155 E.0017
G1 X60.293 Y54.495 E.00828
G1 X60.458 Y54.85 E.00171
G1 X58.56 Y52.952 E.01173
G1 X58.278 Y52.86 E.00129
G1 X60.584 Y55.165 E.01425
G1 X60.644 Y55.415 E.00112
G1 X58.003 Y52.774 E.01632
G1 X57.777 Y52.738 E.001
G1 X60.704 Y55.664 E.01809
G1 X60.732 Y55.882 E.00096
