; generated by SuperSlicer 2.5.59 on 2023-01-09 at 15:50:10 UTC


;
;

;
;
; 

; external perimeters extrusion width = 0.40mm
; perimeters extrusion width = 0.46mm
; infill extrusion width = 0.64mm
; solid infill extrusion width = 0.56mm
; top infill extrusion width = 0.40mm
; first layer extrusion width = 0.50mm

; external perimeters extrusion width = 0.40mm
; perimeters extrusion width = 0.46mm
; infill extrusion width = 0.64mm
; solid infill extrusion width = 0.56mm
; top infill extrusion width = 0.40mm
; first layer extrusion width = 0.50mm

; external perimeters extrusion width = 0.40mm
; perimeters extrusion width = 0.46mm
; infill extrusion width = 0.64mm
; solid infill extrusion width = 0.56mm
; top infill extrusion width = 0.40mm
; first layer extrusion width = 0.50mm

; object:{"name":"[a]_Thumb_Nut_x3","id":"[a]_Thumb_Nut_x3.stl id:0 copy 0","object_center":[49.171582,69.377685,0.000000],"boundingbox_center":[49.171582,69.377685,2.250000],"boundingbox_size":[15.656836,16.991074,4.500000]}
; object:{"name":"[a]_Thumb_Nut_x3","id":"[a]_Thumb_Nut_x3.stl id:1 copy 0","object_center":[70.828418,69.377685,0.000000],"boundingbox_center":[70.828418,69.377685,2.250000],"boundingbox_size":[15.656836,16.991074,4.500000]}
; object:{"name":"[a]_Thumb_Nut_x3","id":"[a]_Thumb_Nut_x3.stl id:2 copy 0","object_center":[60.000000,50.622315,0.000000],"boundingbox_center":[60.000000,50.622315,2.250000],"boundingbox_size":[15.656836,16.991074,4.500000]}
; plater:{"center":[60.000000,60.000000,0.000000],"boundingbox_center":[60.000000,60.000000,2.250000],"boundingbox_size":[37.313672,35.746444,4.500000]}

M73 P0 R9
;TYPE:Custom
; custom gcode: start_gcode
START_PRINT T_BED=110 T_EXTRUDER=240
; custom gcode end: start_gcode
M107
G21 ; set units to millimeters
G90 ; use absolute coordinates
M83 ; use relative distances for extrusion
; custom gcode: start_filament_gcode
; Filament gcode

    PRESSURE_ADVANCE_SELECT FILAMENT=ABS
; custom gcode end: start_filament_gcode
;_TOOLCHANGE 0
M109 S240 ; set temperature and wait for it to be reached
M190 S110 ; set bed temperature and wait for it to be reached
;LAYER_CHANGE
;Z:0.2
;HEIGHT:0.2
G1 Z0.2 F12000
G92 E0
M73 P0 R9
G1 E-0.5 F3000
M204 S2000
G1 X50.641 Y43.435 F12000
M73 P0 R9
G1 E0.5 F1800
;TYPE:Skirt
;WIDTH:0.52
G1 X49.902 Y44.489 E0.05006
G1 X38.811 Y63.699 E0.86233
G1 X38.226 Y64.995 E0.05527
G1 X38.028 Y66.283 E0.05066
G1 X38.046 Y72.835 E0.25472
G1 X38.268 Y73.889 E0.04187
G1 X38.811 Y75.056 E0.05006
G1 X39.813 Y76.565 E0.07041
G1 X40.615 Y77.284 E0.04187
G1 X46.28 Y80.576 E0.25472
G1 X47.494 Y81.048 E0.05066
G1 X48.909 Y81.189 E0.05527
G1 X71.091 Y81.189 E0.86233
G1 X72.506 Y81.048 E0.05527
G1 X73.72 Y80.576 E0.05066
G1 X79.492 Y77.208 E0.25979
G1 X80.187 Y76.565 E0.03681
G1 X80.799 Y75.715 E0.04072
G1 X81.302 Y74.844 E0.03911
G1 X81.774 Y73.761 E0.04594
G1 X81.972 Y72.472 E0.05066
G1 X81.972 Y66.283 E0.24063
G1 X81.941 Y65.79 E0.0192
G1 X81.732 Y64.867 E0.03681
G1 X81.189 Y63.699 E0.05006
G1 X70.098 Y44.489 E0.86233
G1 X69.269 Y43.334 E0.05527
G1 X68.252 Y42.519 E0.05066
G1 X62.569 Y39.259 E0.25472
G1 X61.677 Y38.952 E0.03666
G1 X60.503 Y38.819 E0.04594
G1 X58.455 Y38.924 E0.07973
G1 X57.431 Y39.259 E0.04187
G1 X51.748 Y42.519 E0.25472
G1 X51.337 Y42.792 E0.0192
G1 X50.641 Y43.435 E0.03681
G1 X50.997 Y43.753 F12000
G1 F1800
G1 X50.315 Y44.728 E0.04623
G1 X39.225 Y63.938 E0.86233
M73 P1 R9
G1 X38.679 Y65.143 E0.05144
G1 X38.505 Y66.283 E0.04481
G1 X38.521 Y72.788 E0.25291
G1 X38.721 Y73.74 E0.03781
G1 X39.225 Y74.818 E0.04623
G1 X40.168 Y76.247 E0.06658
G1 X40.892 Y76.896 E0.03781
G1 X46.519 Y80.162 E0.25291
G1 X47.592 Y80.581 E0.04481
G1 X48.909 Y80.712 E0.05145
G1 X71.091 Y80.712 E0.86233
M73 P1 R9
G1 X72.276 Y80.609 E0.04623
G1 X73.481 Y80.162 E0.04999
G1 X79.214 Y76.82 E0.25798
G1 X79.832 Y76.247 E0.03275
G1 X80.402 Y75.45 E0.03809
G1 X80.874 Y74.633 E0.03671
G1 X81.321 Y73.612 E0.04331
G1 X81.495 Y72.472 E0.04481
G1 X81.495 Y66.283 E0.24063
G1 X81.279 Y65.015 E0.04999
G1 X80.775 Y63.938 E0.04623
G1 X69.685 Y44.728 E0.86233
G1 X68.913 Y43.653 E0.05144
G1 X68.013 Y42.932 E0.04481
G1 X62.372 Y39.693 E0.25291
G1 X61.447 Y39.391 E0.03781
G1 X60.472 Y39.295 E0.03809
G1 X58.553 Y39.391 E0.07471
G1 X57.628 Y39.693 E0.03781
G1 X51.987 Y42.932 E0.25291
G1 X50.997 Y43.753 E0.04999
G1 E-0.5 F3000
; printing object [a]_Thumb_Nut_x3.stl id:0 copy 0
; acceleration to travel
M204 S4000
G1 X49.86 Y58.297 F12000
; decel to extrusion
M204 S2000
G1 X49.291 Y65.568
; end travel
G1 E0.5 F1800
;TYPE:Internal perimeter
;WIDTH:0.5
G1 X49.172 Y65.553 E0.00448
G1 X48.677 Y65.618 E0.0186
G1 X48.182 Y65.683 E0.0186
G1 X47.259 Y66.065 E0.03719
G1 X46.467 Y66.673 E0.03719
G1 X45.859 Y67.465 E0.03719
G1 X45.477 Y68.388 E0.03719
G1 X45.347 Y69.378 E0.03719
G1 X45.477 Y70.368 E0.03719
G1 X45.859 Y71.29 E0.03719
G1 X46.467 Y72.082 E0.03719
G1 X47.259 Y72.69 E0.03719
G1 X48.182 Y73.072 E0.03719
G1 X49.172 Y73.203 E0.03719
G1 X50.162 Y73.072 E0.03719
G1 X51.084 Y72.69 E0.03719
G1 X51.876 Y72.082 E0.03719
M73 P2 R8
G1 X52.484 Y71.29 E0.03719
G1 X52.866 Y70.368 E0.03719
G1 X52.997 Y69.378 E0.03719
G1 X52.866 Y68.388 E0.03719
G1 X52.484 Y67.465 E0.03719
G1 X51.876 Y66.673 E0.03719
G1 X51.084 Y66.065 E0.03719
G1 X50.162 Y65.683 E0.03719
G1 X49.291 Y65.568 E0.03271
G1 X49.231 Y66.021 F12000
G1 F1800
G1 X49.172 Y66.014 E0.00224
G1 X48.736 Y66.071 E0.01635
G1 X48.301 Y66.128 E0.01635
G1 X47.49 Y66.464 E0.03271
G1 X46.793 Y66.999 E0.03271
G1 X46.258 Y67.696 E0.03271
G1 X45.922 Y68.507 E0.03271
G1 X45.808 Y69.378 E0.03271
G1 X45.922 Y70.248 E0.03271
G1 X46.258 Y71.06 E0.03271
G1 X46.793 Y71.756 E0.03271
G1 X47.49 Y72.291 E0.03271
G1 X48.301 Y72.627 E0.03271
G1 X49.172 Y72.742 E0.03271
G1 X50.042 Y72.627 E0.03271
G1 X50.854 Y72.291 E0.03271
G1 X51.55 Y71.756 E0.03271
G1 X52.085 Y71.06 E0.03271
G1 X52.421 Y70.248 E0.03271
G1 X52.536 Y69.378 E0.03271
G1 X52.421 Y68.507 E0.03271
G1 X52.085 Y67.696 E0.03271
G1 X51.55 Y66.999 E0.03271
G1 X50.854 Y66.464 E0.03271
G1 X50.042 Y66.128 E0.03271
G1 X49.231 Y66.021 E0.03047
G1 X49.172 Y66.475 F12000
;TYPE:External perimeter
G1 F1800
G1 X48.796 Y66.524 E0.01411
G1 X48.42 Y66.574 E0.01411
G1 X47.72 Y66.864 E0.02823
G1 X47.119 Y67.325 E0.02823
G1 X46.657 Y67.926 E0.02823
G1 X46.367 Y68.626 E0.02823
G1 X46.269 Y69.378 E0.02823
G1 X46.367 Y70.129 E0.02823
G1 X46.657 Y70.829 E0.02823
G1 X47.119 Y71.43 E0.02823
G1 X47.72 Y71.892 E0.02823
G1 X48.42 Y72.182 E0.02823
G1 X49.172 Y72.281 E0.02823
G1 X49.923 Y72.182 E0.02823
G1 X50.623 Y71.892 E0.02823
G1 X51.224 Y71.43 E0.02823
G1 X51.686 Y70.829 E0.02823
G1 X51.976 Y70.129 E0.02823
G1 X52.075 Y69.378 E0.02823
G1 X51.976 Y68.626 E0.02823
G1 X51.686 Y67.926 E0.02823
G1 X51.224 Y67.325 E0.02823
G1 X50.623 Y66.864 E0.02823
G1 X49.923 Y66.574 E0.02823
G1 X49.172 Y66.475 E0.02823
;WIPE_START
M204 S4000
G1 X48.957 Y66.137 F12000
;WIPE_END
G1 E-0.5 F3000
; acceleration to travel
G1 X45.228 Y65.775 F12000
; decel to extrusion
M204 S2000
G1 X43.364 Y65.594
; end travel
G1 E0.5 F1800
;TYPE:Internal perimeter
G1 X44.228 Y65.623 E0.0322
G1 X45.446 Y65.39 E0.04621
G1 X46.583 Y64.893 E0.0462
G1 X47.581 Y64.158 E0.0462
G1 X48.392 Y63.219 E0.04621
G1 X48.798 Y62.456 E0.0322
G1 X48.947 Y62.446 E0.00554
G1 X49.396 Y62.446 E0.01674
G1 X49.545 Y62.456 E0.00554
G1 X49.951 Y63.219 E0.0322
G1 X50.762 Y64.158 E0.04621
G1 X51.761 Y64.893 E0.0462
G1 X52.897 Y65.39 E0.0462
G1 X54.116 Y65.623 E0.04621
G1 X54.98 Y65.594 E0.0322
G1 X55.062 Y65.717 E0.00554
G1 X55.287 Y66.106 E0.01674
G1 X55.353 Y66.24 E0.00554
G1 X54.895 Y66.973 E0.0322
G1 X54.488 Y68.145 E0.04621
G1 X54.35 Y69.378 E0.0462
G1 X54.488 Y70.61 E0.0462
G1 X54.895 Y71.782 E0.04621
G1 X55.353 Y72.516 E0.0322
G1 X55.287 Y72.649 E0.00554
G1 X55.062 Y73.038 E0.01674
G1 X54.98 Y73.162 E0.00554
G1 X54.116 Y73.132 E0.0322
G1 X52.897 Y73.365 E0.04621
G1 X51.761 Y73.862 E0.0462
G1 X50.762 Y74.598 E0.0462
G1 X49.951 Y75.537 E0.04621
G1 X49.545 Y76.3 E0.0322
G1 X49.396 Y76.309 E0.00554
G1 X48.947 Y76.309 E0.01674
G1 X48.798 Y76.3 E0.00554
G1 X48.392 Y75.537 E0.0322
G1 X47.581 Y74.598 E0.04621
G1 X46.583 Y73.862 E0.0462
G1 X45.446 Y73.365 E0.0462
G1 X44.228 Y73.132 E0.04621
G1 X43.364 Y73.162 E0.0322
G1 X43.281 Y73.038 E0.00554
G1 X43.056 Y72.649 E0.01674
G1 X42.99 Y72.516 E0.00554
G1 X43.448 Y71.782 E0.0322
G1 X43.856 Y70.61 E0.04621
G1 X43.994 Y69.378 E0.0462
G1 X43.856 Y68.145 E0.0462
G1 X43.448 Y66.973 E0.04621
G1 X42.99 Y66.24 E0.0322
G1 X43.056 Y66.106 E0.00554
G1 X43.281 Y65.717 E0.01674
G1 X43.364 Y65.594 E0.00554
G1 X43.125 Y65.128 F12000
G1 F1800
G1 X44.192 Y65.165 E0.03977
G1 X45.31 Y64.951 E0.04239
G1 X46.353 Y64.495 E0.04239
G1 X47.269 Y63.82 E0.04239
G1 X48.013 Y62.959 E0.04239
G1 X48.515 Y62.016 E0.03977
G1 X48.932 Y61.989 E0.01558
G1 X49.411 Y61.989 E0.01784
G1 X49.828 Y62.016 E0.01558
G1 X50.33 Y62.959 E0.03977
G1 X51.074 Y63.82 E0.04239
G1 X51.991 Y64.495 E0.04239
G1 X53.033 Y64.951 E0.04239
G1 X54.151 Y65.165 E0.04239
G1 X55.218 Y65.128 E0.03977
G1 X55.451 Y65.476 E0.01558
G1 X55.69 Y65.891 E0.01784
G1 X55.875 Y66.266 E0.01558
G1 X55.31 Y67.172 E0.03977
G1 X54.936 Y68.247 E0.04239
G1 X54.809 Y69.378 E0.04239
G1 X54.936 Y70.509 E0.04239
G1 X55.31 Y71.584 E0.04239
G1 X55.875 Y72.49 E0.03977
G1 X55.69 Y72.865 E0.01558
G1 X55.451 Y73.279 E0.01784
G1 X55.218 Y73.627 E0.01558
G1 X54.151 Y73.591 E0.03977
G1 X53.033 Y73.804 E0.04239
G1 X51.991 Y74.26 E0.04239
G1 X51.074 Y74.935 E0.04239
G1 X50.33 Y75.797 E0.04239
G1 X49.828 Y76.739 E0.03977
G1 X49.411 Y76.766 E0.01558
G1 X48.932 Y76.766 E0.01784
G1 X48.515 Y76.739 E0.01558
G1 X48.013 Y75.797 E0.03977
G1 X47.269 Y74.935 E0.04239
G1 X46.353 Y74.26 E0.04239
G1 X45.31 Y73.804 E0.04239
G1 X44.192 Y73.591 E0.04239
G1 X43.125 Y73.627 E0.03977
G1 X42.893 Y73.279 E0.01558
G1 X42.653 Y72.865 E0.01784
G1 X42.468 Y72.49 E0.01558
G1 X43.033 Y71.584 E0.03977
G1 X43.407 Y70.509 E0.04239
G1 X43.534 Y69.378 E0.04239
G1 X43.407 Y68.247 E0.04239
G1 X43.033 Y67.172 E0.04239
G1 X42.468 Y66.266 E0.03977
G1 X42.653 Y65.891 E0.01558
G1 X42.893 Y65.476 E0.01784
G1 X43.125 Y65.128 E0.01558
G1 X42.901 Y64.712 F12000
;TYPE:External perimeter
M73 P3 R8
G1 F1800
G1 X43.046 Y64.668 E0.00564
G1 X44.156 Y64.706 E0.04139
G1 X45.174 Y64.512 E0.03858
G1 X46.123 Y64.097 E0.03857
G1 X46.956 Y63.482 E0.03857
G1 X47.633 Y62.699 E0.03858
G1 X48.156 Y61.718 E0.04139
G1 X48.266 Y61.614 E0.00564
G1 X48.423 Y61.564 E0.00614
G1 X48.917 Y61.532 E0.01844
G1 X49.426 Y61.532 E0.01895
G1 X49.92 Y61.564 E0.01844
G1 X50.077 Y61.614 E0.00614
G1 X50.187 Y61.718 E0.00564
G1 X50.71 Y62.699 E0.04139
G1 X51.387 Y63.482 E0.03858
G1 X52.22 Y64.097 E0.03857
G1 X53.169 Y64.512 E0.03857
G1 X54.187 Y64.706 E0.03858
G1 X55.297 Y64.668 E0.04139
G1 X55.373 Y64.682 E0.00284
G1 X55.504 Y64.756 E0.00563
G1 X55.564 Y64.823 E0.00334
G1 X55.839 Y65.235 E0.01844
G1 X56.093 Y65.675 E0.01894
G1 X56.313 Y66.119 E0.01844
G1 X56.341 Y66.204 E0.00334
G1 X56.339 Y66.355 E0.00563
G1 X56.313 Y66.427 E0.00284
G1 X55.725 Y67.37 E0.04139
G1 X55.385 Y68.348 E0.03857
G1 X55.269 Y69.378 E0.03857
G1 X55.385 Y70.407 E0.03857
G1 X55.725 Y71.385 E0.03857
G1 X56.313 Y72.328 E0.04139
G1 X56.348 Y72.475 E0.00564
G1 X56.313 Y72.636 E0.00614
G1 X56.093 Y73.08 E0.01844
G1 X55.839 Y73.521 E0.01894
G1 X55.564 Y73.933 E0.01844
G1 X55.443 Y74.044 E0.00614
G1 X55.297 Y74.087 E0.00564
G1 X54.187 Y74.049 E0.04139
G1 X53.169 Y74.244 E0.03858
G1 X52.22 Y74.659 E0.03857
G1 X51.387 Y75.273 E0.03857
G1 X50.71 Y76.057 E0.03858
G1 X50.187 Y77.038 E0.04139
G1 X50.077 Y77.141 E0.00564
G1 X49.92 Y77.191 E0.00614
G1 X49.426 Y77.223 E0.01844
G1 X48.917 Y77.223 E0.01895
G1 X48.423 Y77.191 E0.01844
G1 X48.266 Y77.141 E0.00614
G1 X48.156 Y77.038 E0.00564
G1 X47.633 Y76.057 E0.04139
G1 X46.956 Y75.273 E0.03858
G1 X46.123 Y74.659 E0.03857
G1 X45.174 Y74.244 E0.03857
G1 X44.156 Y74.049 E0.03858
G1 X43.046 Y74.087 E0.04139
G1 X42.971 Y74.073 E0.00284
G1 X42.839 Y73.999 E0.00563
G1 X42.779 Y73.933 E0.00334
G1 X42.504 Y73.521 E0.01844
G1 X42.25 Y73.08 E0.01894
G1 X42.031 Y72.636 E0.01844
G1 X42.003 Y72.551 E0.00334
G1 X42.004 Y72.4 E0.00563
G1 X42.03 Y72.328 E0.00284
G1 X42.618 Y71.385 E0.04139
G1 X42.958 Y70.407 E0.03857
G1 X43.074 Y69.378 E0.03857
G1 X42.958 Y68.348 E0.03857
G1 X42.618 Y67.37 E0.03857
G1 X42.03 Y66.427 E0.04139
G1 X41.995 Y66.28 E0.00564
G1 X42.031 Y66.119 E0.00614
G1 X42.25 Y65.675 E0.01844
G1 X42.504 Y65.235 E0.01894
G1 X42.779 Y64.823 E0.01844
G1 X42.901 Y64.712 E0.00614
;WIPE_START
M204 S4000
G1 X43.23 Y64.939 F12000
;WIPE_END
G1 E-0.5 F3000
; acceleration to travel
G1 X50.348 Y65.467 F12000
; decel to extrusion
M204 S2000
G1 X53.972 Y65.735
; end travel
G1 E0.5 F1800
;TYPE:Solid infill
;WIDTH:0.512896
G1 F2400
G1 X54.916 Y66.68 E0.05104
G1 X54.702 Y67.112 F12000
G1 F2400
G1 X53.172 Y65.582 E0.08263
; acceleration to travel
M204 S4000
G1 X52.499 Y65.34 F12000
; decel to extrusion
M204 S2000
G1 X52.162 Y65.219
; end travel
G1 F2400
G1 X54.535 Y67.591 E0.1282
G1 X54.368 Y68.071 F12000
G1 F2400
G1 X48.89 Y62.593 E0.296
G1 X48.659 Y63.009 F12000
G1 F2400
G1 X54.294 Y68.643 E0.30444
G1 X54.229 Y69.224 F12000
G1 F2400
G1 X52.748 Y67.744 E0.08001
; acceleration to travel
M204 S4000
G1 X52.945 Y68.372 F12000
; decel to extrusion
M204 S2000
G1 X53.044 Y68.686
; end travel
G1 F2400
G1 X54.272 Y69.914 E0.06634
G1 X54.353 Y70.642 F12000
G1 F2400
G1 X53.13 Y69.418 E0.06612
G1 X53.054 Y69.989 F12000
G1 F2400
G1 X54.698 Y71.633 E0.0888
; acceleration to travel
M204 S4000
G1 X54.965 Y72.331 F12000
; decel to extrusion
M204 S2000
G1 X55.099 Y72.68
; end travel
G1 F2400
G1 X52.948 Y70.529 E0.11624
G1 X52.759 Y70.986 F12000
G1 F2400
G1 X54.79 Y73.018 E0.10979
G1 X54.121 Y72.995 F12000
G1 F2400
G1 X52.552 Y71.427 E0.08475
G1 X52.272 Y71.792 F12000
G1 F2400
G1 X53.575 Y73.096 E0.07043
G1 X53.033 Y73.2 F12000
G1 F2400
G1 X51.991 Y72.158 E0.05628
G1 X51.631 Y72.444 F12000
G1 F2400
G1 X52.553 Y73.366 E0.04983
G1 X52.103 Y73.563 F12000
G1 F2400
G1 X51.265 Y72.724 E0.04529
G1 X50.836 Y72.942 F12000
G1 F2400
G1 X51.66 Y73.766 E0.04453
G1 X51.288 Y74.04 F12000
G1 F2400
G1 X50.378 Y73.131 E0.04912
G1 X49.852 Y73.251 F12000
G1 F2400
G1 X50.915 Y74.314 E0.05744
G1 X50.568 Y74.613 F12000
G1 F2400
G1 X49.281 Y73.327 E0.06951
G1 X48.57 Y73.262 F12000
G1 F2400
G1 X50.268 Y74.96 E0.09175
G1 X49.968 Y75.307 F12000
G1 F2400
G1 X47.671 Y73.009 E0.12412
G1 E-0.5 F3000
; acceleration to travel
M204 S4000
G1 X49.761 Y68.204 F12000
; decel to extrusion
M204 S2000
G1 X50.806 Y65.801
; end travel
G1 E0.5 F1800
G1 F2400
G1 X48.411 Y63.407 E0.12939
G1 X48.111 Y63.753 F12000
G1 F2400
G1 X49.863 Y65.505 E0.09466
G1 X49.131 Y65.42 F12000
G1 F2400
G1 X47.812 Y64.1 E0.07129
G1 X47.473 Y64.408 F12000
G1 F2400
G1 X48.56 Y65.495 E0.05874
G1 X48.02 Y65.601 F12000
G1 F2400
G1 X47.101 Y64.682 E0.04968
G1 X46.729 Y64.956 F12000
G1 F2400
G1 X47.563 Y65.791 E0.04509
G1 X47.123 Y65.997 F12000
G1 F2400
G1 X46.295 Y65.169 E0.04474
G1 X45.845 Y65.365 F12000
G1 F2400
G1 X46.757 Y66.277 E0.04928
G1 X46.391 Y66.558 F12000
G1 F2400
G1 X45.376 Y65.543 E0.05484
G1 X44.834 Y65.647 F12000
G1 F2400
G1 X46.105 Y66.919 E0.06872
G1 X45.825 Y67.284 F12000
G1 F2400
G1 X44.291 Y65.751 E0.08287
G1 X43.634 Y65.74 F12000
G1 F2400
G1 X45.608 Y67.714 E0.10664
M73 P4 R8
G1 X45.418 Y68.171 F12000
G1 F2400
G1 X43.273 Y66.025 E0.11593
; acceleration to travel
M204 S4000
G1 X43.493 Y66.677 F12000
; decel to extrusion
M204 S2000
G1 X43.603 Y67.002
; end travel
G1 F2400
G1 X45.298 Y68.697 E0.09155
G1 X45.223 Y69.268 F12000
G1 F2400
G1 X43.948 Y67.993 E0.06887
G1 X44.062 Y68.753 F12000
G1 F2400
G1 X45.287 Y69.979 E0.06623
G1 X45.54 Y70.878 F12000
G1 F2400
G1 X44.122 Y69.46 E0.07659
G1 X44.057 Y70.042 F12000
G1 F2400
G1 X49.711 Y75.696 E0.30549
G1 X49.486 Y76.117 F12000
G1 F2400
G1 X43.992 Y70.623 E0.29687
G1 X43.828 Y71.106 F12000
G1 F2400
G1 X46.32 Y73.598 E0.13464
; acceleration to travel
M204 S4000
G1 X45.618 Y73.327 F12000
; decel to extrusion
M204 S2000
G1 X45.268 Y73.191
; end travel
G1 F2400
G1 X43.662 Y71.585 E0.08677
G1 X43.457 Y72.027 F12000
G1 F2400
G1 X44.468 Y73.039 E0.05465
G1 X43.793 Y73.01 F12000
G1 F2400
