; HEADER_BLOCK_START
; generated by OrcaSlicer 1.6.3 on 2023-06-08 at 16:41:40
; total layer number: 20
; HEADER_BLOCK_END

; THUMBNAIL_BLOCK_START
; THUMBNAIL_BLOCK_END

; external perimeters extrusion width = 0.40mm
; perimeters extrusion width = 0.45mm
; infill extrusion width = 0.45mm
; solid infill extrusion width = 0.40mm
; top infill extrusion width = 0.40mm
; first layer extrusion width = 0.50mm

; external perimeters extrusion width = 0.40mm
; perimeters extrusion width = 0.45mm
; infill extrusion width = 0.45mm
; solid infill extrusion width = 0.40mm
; top infill extrusion width = 0.40mm
; first layer extrusion width = 0.50mm

; EXECUTABLE_BLOCK_START
EXCLUDE_OBJECT_DEFINE NAME=ToolheadSpacer_with_StrainRelief.STL_id_0_copy_0 CENTER=60,76.5 POLYGON=[[35.0806,88.0625],[35.1123,87.5613],[35.227,87.0724],[35.4217,86.6095],[51.0436,55.4841],[51.0764,55.4306],[51.1172,55.3828],[51.3828,55.1172],[51.4306,55.0764],[51.4841,55.0436],[51.5421,55.0196],[51.6031,55.0049],[51.6657,55],[68.3343,55],[68.3969,55.0049],[68.4579,55.0196],[68.5159,55.0436],[68.5694,55.0764],[68.6172,55.1172],[68.8828,55.3828],[68.9236,55.4306],[68.9564,55.4841],[84.5783,86.6095],[84.773,87.0724],[84.8877,87.5613],[84.9194,88.0625],[84.8669,88.5619],[84.7319,89.0456],[84.5181,89.5],[80.4766,96.5],[80.224,96.8705],[79.9191,97.1992],[79.5685,97.4787],[79.1802,97.7029],[78.7628,97.8667],[78.3257,97.9665],[77.8785,98],[42.1215,98],[41.6743,97.9665],[41.2372,97.8667],[40.8198,97.7029],[40.4315,97.4787],[40.0809,97.1992],[39.776,96.8705],[39.5234,96.5],[35.4819,89.5],[35.2681,89.0456],[35.1331,88.5619],[35.0806,88.0625]]
EXCLUDE_OBJECT_DEFINE NAME=ToolheadSpacer.STL_id_1_copy_0 CENTER=60,36 POLYGON=[[35.0807,31.9375],[35.1331,31.4381],[35.2681,30.9544],[35.4819,30.5],[39.5234,23.5],[39.776,23.1295],[40.0809,22.8008],[40.4315,22.5213],[40.8198,22.2971],[41.2372,22.1333],[41.6743,22.0335],[42.1215,22],[77.8785,22],[78.3257,22.0335],[78.7628,22.1333],[79.1802,22.2971],[79.5685,22.5213],[79.9191,22.8008],[80.224,23.1295],[80.4766,23.5],[84.5181,30.5],[84.7319,30.9544],[84.8669,31.4381],[84.9193,31.9375],[84.8877,32.4387],[84.773,32.9276],[84.5783,33.3905],[84.3091,33.8145],[83.9729,34.1876],[83.7403,34.4058],[72.3175,45.1255],[70.8358,46.3731],[69.2285,47.4543],[67.5144,48.3564],[65.7133,49.0692],[63.846,49.5843],[61.9342,49.8958],[60,50],[58.0658,49.8958],[56.154,49.5843],[54.2867,49.0692],[52.4856,48.3564],[50.7715,47.4543],[49.1642,46.3731],[47.6825,45.1255],[36.2597,34.4058],[36.0271,34.1876],[35.6909,33.8145],[35.4217,33.3905],[35.227,32.9276],[35.1123,32.4387],[35.0807,31.9375]]
M73 P0 R15
;TYPE:Custom
START_PRINT T_BED=110 T_EXTRUDER=260
G90
G21
M83 ; use relative distances for extrusion
; Filament gcode

    PRESSURE_ADVANCE_SELECT FILAMENT=ABS
M106 S0
;LAYER_CHANGE
;Z:0.2
;HEIGHT:0.2
;BEFORE_LAYER_CHANGE
;0.2
G92 E0

;AFTER_LAYER_CHANGE
;0.2
SET_VELOCITY_LIMIT ACCEL_TO_DECEL=500
M204 S1000
G1 E-.5 F3000
G1 Z.2 F21000
G1 X37 Y22.043
G1 E.5 F1800
;TYPE:Skirt
;WIDTH:0.5
G1 F3000
G1 X37.64 Y21.147 E.03874
G1 X38.615 Y20.243 E.0468
G1 X39.363 Y19.773 E.03109
G1 X40.173 Y19.421 E.03109
G1 X41.026 Y19.192 E.03109
G1 X42.121 Y19.086 E.03874
G1 X78.096 Y19.094 E1.26609
G1 X79.398 Y19.289 E.04631
G1 X80.637 Y19.773 E.04684
G1 X81.385 Y20.243 E.03109
G1 X82.36 Y21.147 E.0468
G1 X83 Y22.043 E.03874
G1 X87.042 Y29.043 E.28447
G1 X87.539 Y30.171 E.04338
G1 X87.765 Y31.134 E.03481
G1 X87.834 Y31.938 E.02839
G1 X87.834 Y88.062 E1.97525
G1 X87.674 Y89.345 E.0455
G1 X87.155 Y90.741 E.05239
G1 X83 Y97.957 E.29305
G1 X82.36 Y98.853 E.03874
G1 X81.385 Y99.757 E.0468
G1 X80.637 Y100.227 E.03109
G1 X79.827 Y100.579 E.03109
G1 X78.974 Y100.808 E.03109
G1 X77.879 Y100.914 E.03874
G1 X42.121 Y100.914 E1.25843
G1 X41.026 Y100.808 E.03874
G1 X39.755 Y100.416 E.0468
G1 X38.974 Y100.002 E.03109
G1 X38.264 Y99.478 E.03109
G1 X37.64 Y98.853 E.03109
G1 X37.116 Y98.142 E.03109
G1 X32.845 Y90.741 E.30072
G1 X32.326 Y89.345 E.05239
G1 X32.182 Y88.367 E.03481
G1 X32.166 Y31.938 E1.98596
G1 X32.326 Y30.655 E.0455
G1 X32.845 Y29.259 E.05239
G1 X36.97 Y22.095 E.29094
G1 X37.366 Y22.323 F21000
G1 F3000
G1 X37.395 Y22.271 E.00209
G1 X37.975 Y21.458 E.03514
G1 X38.549 Y20.88 E.02868
G1 X39.203 Y20.393 E.02868
G1 X39.922 Y20.01 E.02869
G1 X41.128 Y19.638 E.0444
G1 X42.121 Y19.543 E.03514
G1 X78.062 Y19.55 E1.26489
G1 X79.298 Y19.735 E.04398
G1 X80.409 Y20.169 E.04197
G1 X81.451 Y20.88 E.0444
G1 X82.254 Y21.745 E.04156
G1 X86.646 Y29.271 E.30667
G1 X87.098 Y30.294 E.03935
G1 X87.311 Y31.182 E.03212
G1 X87.376 Y31.938 E.02671
G1 X87.376 Y88.062 E1.97525
G1 X87.234 Y89.222 E.04114
G1 X86.741 Y90.546 E.0497
G1 X82.605 Y97.729 E.29171
G1 X82.025 Y98.542 E.03514
G1 X81.1 Y99.4 E.0444
G1 X80.409 Y99.831 E.02869
G1 X79.66 Y100.154 E.02868
G1 X78.872 Y100.362 E.02869
G1 X77.879 Y100.457 E.03514
G1 X42.121 Y100.457 E1.25843
G1 X41.128 Y100.362 E.03514
G1 X39.922 Y99.99 E.0444
G1 X39.203 Y99.607 E.02869
G1 X38.549 Y99.12 E.02868
G1 X37.975 Y98.542 E.02868
G1 X37.395 Y97.729 E.03514
G1 X33.259 Y90.546 E.29171
M73 P1 R15
G1 X32.766 Y89.223 E.0497
G1 X32.637 Y88.319 E.03212
G1 X32.624 Y31.938 E1.98428
M73 P1 R14
G1 X32.766 Y30.777 E.04114
G1 X33.259 Y29.454 E.0497
G1 X37.336 Y22.375 E.2875
; printing object ToolheadSpacer_with_StrainRelief.STL id:0 copy 0
EXCLUDE_OBJECT_START NAME=ToolheadSpacer_with_StrainRelief.STL_id_0_copy_0
G1 E-.5
G1 Z.4 F21000
G1 X78.589 Y85.942
G1 Z.2
G1 E.5 F1800
;TYPE:Inner wall
;WIDTH:0.499999
G1 F3000
G1 X76.171 Y83.672 E.11671
G1 X75.876 Y83.441 E.01319
G1 X75.203 Y83.019 E.02797
G1 X74.655 Y82.815 E.02056
G1 X73.973 Y82.689 E.02441
G1 X74.484 Y82.145 E.02628
G1 X74.936 Y81.615 E.02451
G1 X75.234 Y81.159 E.01918
G1 X75.387 Y80.801 E.01369
G1 X79.655 Y84.807 E.206
G1 X79.548 Y84.882 E.00463
G1 X79.042 Y85.341 E.02403
G1 X78.625 Y85.894 E.02437
G1 X78.706 Y86.712 F21000
G1 F3000
G1 X78.456 Y86.444 E.0129
G1 X75.858 Y84.006 E.1254
G1 X75.628 Y83.825 E.01029
G1 X75.17 Y83.526 E.01926
G1 X74.774 Y83.335 E.01545
G1 X74.217 Y83.181 E.02034
G1 X73.503 Y83.139 E.02518
G1 X72.822 Y83.248 E.02426
G1 X74.151 Y81.832 E.06832
G1 X74.553 Y81.365 E.0217
G1 X74.851 Y80.909 E.01918
G1 X75.081 Y80.372 E.02057
G1 X75.174 Y79.975 E.01435
G1 X80.411 Y84.889 E.25273
G1 X79.81 Y85.257 E.02479
G1 X79.365 Y85.665 E.02123
G1 X78.999 Y86.144 E.02123
G1 X78.734 Y86.659 E.02039
G1 E-.5
G1 Z.4 F21000
G1 X79.977 Y91.438
G1 Z.2
G1 E.5 F1800
;WIDTH:0.571
G1 F3000
G1 X80.11 Y91.515 E.00626
G1 X80.624 Y91.731 E.02268
G1 X79.977 Y92.852 E.05267
G1 X79.977 Y91.498 E.05508
G1 E-.5
G1 Z.4 F21000
G1 X79.484 Y90.454
G1 Z.2
G1 E.5 F1800
;WIDTH:0.499999
G1 F3000
G1 X79.81 Y90.743 E.01533
G1 X80.318 Y91.068 E.02123
G1 X80.875 Y91.3 E.02123
G1 X81.375 Y91.415 E.01806
G1 X79.484 Y94.691 E.13311
G1 X79.484 Y90.514 E.14699
G1 E-.5
G1 Z.4 F21000
G1 X78.838 Y96.389
G1 Z.2
G1 E.5 F1800
G1 F3000
G1 X78.974 Y95.945 E.01634
G1 X79.027 Y95.368 E.02041
G1 X79.021 Y88.819 E.23048
G1 X79.135 Y89.128 E.01159
G1 X79.373 Y89.594 E.01843
G1 X79.689 Y90.012 E.01843
G1 X80.072 Y90.369 E.01843
G1 X80.511 Y90.654 E.01843
G1 X80.994 Y90.858 E.01843
G1 X81.504 Y90.976 E.01843
G1 X82.147 Y90.992 E.02265
G1 X79.485 Y95.603 E.18739
G1 X79.205 Y96.045 E.01842
G1 X78.882 Y96.348 E.01558
G1 E-.5
G1 Z.4 F21000
G1 X76.608 Y97.038
G1 X76.48 Y97.071
G1 X76.351 Y97.09
G1 X76.22 Y97.097
G1 X71 Y97.097
G1 X70.869 Y97.09
G1 X70.74 Y97.071
G1 X70.612 Y97.038
G1 X70.487 Y96.993
G1 X70.366 Y96.935
G1 X70.25 Y96.865
G1 X70.14 Y96.784
G1 X69.79 Y96.523
G1 X69.523 Y96.32
G1 X69.269 Y96.059
G1 X69.045 Y95.739
G1 X68.868 Y95.389
G1 X68.814 Y95.022
G1 X67.975 Y85.755
G1 Z.2
G1 E.5 F1800
;WIDTH:0.567111
G1 F3000
G1 X69.072 Y85.755 E.04426
G1 X68.41 Y86.46 E.03902
G1 X68.007 Y85.806 E.03101
G1 E-.5
G1 Z.4 F21000
G1 X68.205 Y87.521
G1 Z.2
G1 E.5 F1800
;WIDTH:0.499999
G1 F3000
G1 X68.126 Y87.089 E.01546
G1 X67.938 Y86.607 E.01821
G1 X67.668 Y86.14 E.01898
G1 X67.293 Y85.694 E.02052
G1 X66.739 Y85.264 E.02467
G1 X69.52 Y85.264 E.09786
G1 X69.795 Y85.242 E.00971
G1 X70.299 Y85.161 E.01797
G1 X68.618 Y86.956 E.08655
G1 X68.241 Y87.473 E.02252
G1 E-.5
G1 Z.4 F21000
G1 X73.603 Y80.84
G1 X73.82 Y80.563
G1 X74 Y80.227
G1 X74.119 Y79.865
G1 X74.07 Y79.481
G1 X73.966 Y79.129
G1 X73.823 Y78.811
G1 X73.65 Y78.526
G1 X73.451 Y78.271
G1 X73.24 Y78.052
G1 X68.159 Y73.237
G1 X65.289 Y70.563
G1 Z.2
G1 E.5 F1800
G1 F3000
G1 X63.275 Y70.079 E.0729
G1 X63.03 Y70.036 E.00874
G1 X61.179 Y69.82 E.06557
G1 X60 Y69.806 E.04151
G1 X58.821 Y69.82 E.04151
G1 X56.97 Y70.036 E.06557
G1 X56.725 Y70.079 E.00874
G1 X54.711 Y70.563 E.0729
G1 X54.721 Y57.222 E.46951
G1 X65.279 Y57.224 E.37158
G1 X65.289 Y70.503 E.46731
G1 X65.748 Y71.144 F21000
G1 F3000
G1 X65.624 Y71.162 E.00441
G1 X64.982 Y70.951 E.02378
G1 X62.977 Y70.49 E.07241
G1 X61.127 Y70.274 E.06557
G1 X60 Y70.263 E.03965
G1 X58.873 Y70.274 E.03965
G1 X57.023 Y70.49 E.06557
G1 X55.018 Y70.951 E.07241
G1 X54.376 Y71.162 E.02378
G1 X54.252 Y71.144 E.00441
G1 X54.264 Y56.923 E.5005
G1 X54.212 Y56.765 E.00587
G1 X65.788 Y56.767 E.4074
G1 X65.736 Y56.923 E.00577
G1 X65.748 Y71.084 E.49839
G1 X66.206 Y71.502 F21000
M73 P2 R14
G1 F3000
G1 X66.05 Y71.532 E.00559
G1 X65.679 Y71.664 E.01385
G1 X64.877 Y71.396 E.02975
G1 X62.924 Y70.944 E.07055
G1 X61.074 Y70.728 E.06557
G1 X60 Y70.72 E.03779
G1 X58.926 Y70.728 E.03779
G1 X57.076 Y70.944 E.06557
G1 X55.123 Y71.396 E.07055
G1 X54.321 Y71.664 E.02975
G1 X54.232 Y71.623 E.00345
G1 X53.794 Y71.502 E.01598
G1 X53.807 Y56.923 E.51311
G1 X53.603 Y56.308 E.02281
G1 X66.396 Y56.31 E.45026
G1 X66.193 Y56.923 E.0227
G1 X66.206 Y71.442 E.511
G1 X66.713 Y71.901 F21000
G1 F3000
G1 X66.137 Y71.981 E.02049
G1 X65.704 Y72.156 E.01641
G1 X64.772 Y71.841 E.03463
G1 X62.96 Y71.413 E.06555
G1 X60.932 Y71.177 E.07186
G1 X58.979 Y71.182 E.06871
G1 X57.128 Y71.398 E.06557
G1 X55.228 Y71.841 E.06869
G1 X54.296 Y72.156 E.03463
G1 X53.863 Y71.981 E.01641
G1 X53.287 Y71.901 E.02049
G1 X53.337 Y71.683 E.00786
G1 X53.35 Y56.922 E.5195
G1 X53.196 Y56.459 E.01718
G1 X52.887 Y56.324 E.01185
;WIDTH:0.460678
G1 X52.579 Y56.189 E.01083
;WIDTH:0.421421
G1 X51.811 Y56.189 E.02238
G1 X51.826 Y55.826 E.01059
G1 X52.579 Y55.811 E.02194
;WIDTH:0.460678
G1 X53.04 Y55.831 E.01484
;WIDTH:0.499999
G1 X53.501 Y55.85 E.01624
G1 X66.501 Y55.853 E.45753
G1 X66.961 Y55.833 E.01621
;WIDTH:0.459833
G1 X67.422 Y55.813 E.01479
;WIDTH:0.4196
G1 X68.172 Y55.838 E.02179
G1 X68.19 Y56.19 E.01022
G1 X68.002 Y56.19 E.00546
;WIDTH:0.426635
G1 X67.295 Y56.198 E.02089
;WIDTH:0.463317
G1 X67.049 Y56.328 E.009
;WIDTH:0.499999
G1 X66.804 Y56.459 E.00978
G1 X66.65 Y56.922 E.01718
G1 X66.663 Y71.677 E.51927
G1 X66.7 Y71.842 E.00597
G1 E-.5
G1 Z.4 F21000
G1 X60.967 Y71.341
G1 X59.033 Y71.341
G1 X57.112 Y71.565
G1 X55.237 Y72.008
G1 X52.714 Y72.785
G1 X52.4 Y72.885
G1 X52.106 Y73.037
G1 X51.842 Y73.235
G1 X46.76 Y78.052
G1 X46.549 Y78.271
G1 X46.35 Y78.526
G1 X46.177 Y78.811
G1 X46.034 Y79.129
G1 X45.93 Y79.483
G1 X45.884 Y79.875
G1 X46 Y80.227
G1 X46.18 Y80.563
G1 X46.397 Y80.84
G1 X48.909 Y83.516
G1 X49.153 Y83.737
G1 X52.021 Y85.751
G1 Z.2
G1 E.5 F1800
;WIDTH:0.560399
G1 F3000
G1 X51.743 Y86.138 E.01896
G1 X51.591 Y86.466 E.01442
G1 X50.92 Y85.751 E.03907
G1 X51.961 Y85.751 E.04145
G1 E-.5
G1 Z.4 F21000
G1 X53.258 Y85.264
G1 Z.2
G1 E.5 F1800
;WIDTH:0.499999
G1 F3000
G1 X53.142 Y85.331 E.00469
G1 X52.694 Y85.707 E.0206
G1 X52.167 Y86.378 E.03004
G1 X51.925 Y86.975 E.02267
G1 X51.779 Y87.489 E.01878
G1 X51.719 Y87.382 E.00432
G1 X51.382 Y86.956 E.01911
G1 X49.693 Y85.156 E.08687
G1 X50.089 Y85.238 E.01423
G1 X50.48 Y85.264 E.0138
G1 X53.198 Y85.264 E.09564
G1 E-.5
G1 Z.4 F21000
G1 X46.039 Y82.702
G1 Z.2
G1 E.5 F1800
G1 F3000
G1 X45.785 Y82.728 E.00896
G1 X45.049 Y82.913 E.02674
G1 X44.58 Y83.143 E.01836
G1 X43.829 Y83.672 E.03233
G1 X41.411 Y85.942 E.11671
G1 X41.198 Y85.628 E.01337
G1 X40.739 Y85.122 E.02403
G1 X40.345 Y84.807 E.01776
G1 X44.613 Y80.801 E.206
G1 X44.766 Y81.159 E.01369
G1 X45.295 Y81.91 E.03233
G1 X45.998 Y82.658 E.03611
G1 E-.5
G1 Z.4 F21000
G1 X47.176 Y83.246
G1 Z.2
G1 E.5 F1800
G1 F3000
G1 X46.605 Y83.136 E.02048
G1 X45.89 Y83.173 E.02518
G1 X45.199 Y83.345 E.02508
G1 X44.83 Y83.526 E.01444
G1 X44.142 Y84.006 E.02952
G1 X41.778 Y86.224 E.11409
G1 X41.297 Y86.73 E.02457
G1 X41.001 Y86.144 E.0231
G1 X40.63 Y85.66 E.02144
G1 X40.19 Y85.257 E.02102
G1 X39.589 Y84.889 E.02479
G1 X44.826 Y79.975 E.25273
G1 X44.919 Y80.372 E.01435
G1 X45.149 Y80.909 E.02056
G1 X45.629 Y81.597 E.02952
G1 X47.135 Y83.202 E.07747
G1 E-.5
G1 Z.4 F21000
G1 X45.176 Y84.557
G1 X44.9 Y84.774
G1 X42.264 Y87.247
G1 X42.043 Y87.491
G1 X41.878 Y87.807
G1 X40.023 Y91.437
G1 Z.2
G1 E.5 F1800
;WIDTH:0.571
G1 F3000
G1 X40.023 Y92.852 E.05754
G1 X39.376 Y91.731 E.05267
G1 X39.969 Y91.462 E.02647
G1 E-.5
G1 Z.4 F21000
G1 X40.516 Y90.454
G1 Z.2
G1 E.5 F1800
;WIDTH:0.499999
G1 F3000
G1 X40.516 Y94.691 E.1491
G1 X38.625 Y91.415 E.13311
G1 X38.825 Y91.38 E.00716
G1 X39.439 Y91.181 E.02272
G1 X39.944 Y90.916 E.02007
G1 X40.469 Y90.492 E.02375
G1 X40.386 Y89.913 F21000
G1 F3000
G1 X40.627 Y89.594 E.01407
G1 X40.865 Y89.128 E.01843
G1 X41.002 Y88.622 E.01842
G1 X40.973 Y89.152 E.01865
G1 X40.973 Y95.368 E.21878
G1 X41.004 Y95.665 E.01052
G1 X41.133 Y96.366 E.0251
G1 X40.96 Y96.225 E.00784
G1 X40.631 Y95.804 E.01883
G1 X37.853 Y90.992 E.19555
G1 X37.973 Y91.003 E.00425
G1 X38.496 Y90.976 E.01843
G1 X39.006 Y90.858 E.01843
G1 X39.489 Y90.654 E.01844
G1 X39.941 Y90.358 E.01902
G1 X40.311 Y90.012 E.01784
G1 X40.35 Y89.961 E.00225
G1 E-.5
G1 Z.4 F21000
G1 X42.043 Y87.491
G1 X42.264 Y87.247
G1 X44.9 Y84.774
G1 X45.176 Y84.557
G1 X45.512 Y84.377
G1 X45.874 Y84.258
G1 X46.241 Y84.205
G1 X73.737 Y84.204
G1 X74.124 Y84.257
G1 X74.488 Y84.377
G1 X74.824 Y84.557
G1 X75.1 Y84.774
G1 X78.922 Y88.107
G1 Z.2
G1 E.5 F1800
;WIDTH:0.49609
G1 F3000
G1 X78.869 Y87.9 E.00745
;WIDTH:0.499999
G1 X78.489 Y87.171 E.02894
G1 X78.143 Y86.777 E.01843
G1 X75.545 Y84.339 E.1254
G1 X75.378 Y84.207 E.0075
G1 X74.92 Y83.908 E.01924
G1 X74.651 Y83.776 E.01053
G1 X74.154 Y83.634 E.01819
G1 X73.558 Y83.593 E.02105
G1 X73.022 Y83.657 E.01898
G1 X72.615 Y83.781 E.01495
G1 X72.126 Y84.028 E.0193
;WIDTH:0.499082
G1 X71.771 Y84.306 E.01585
;WIDTH:0.497031
G1 X71.347 Y84.718 E.02065
;WIDTH:0.499999
G1 X68.951 Y87.268 E.12316
G1 X68.568 Y87.801 E.0231
G1 X68.418 Y88.099 E.01171
G1 X68.268 Y88.586 E.01795
;WIDTH:0.495546
G1 X68.211 Y89.184 E.02094
;WIDTH:0.464376
G1 X68.211 Y95.368 E.20066
;WIDTH:0.501878
G1 X68.237 Y95.753 E.01364
;WIDTH:0.539077
G1 X68.247 Y95.93 E.00677
;WIDTH:0.576275
G1 X68.256 Y96.107 E.00728
;WIDTH:0.613473
G1 X68.266 Y96.284 E.00778
G1 X68.395 Y96.638 E.01655
G1 X67.599 Y96.639 E.035
G1 X67.677 Y96.349 E.01321
;WIDTH:0.587586
G1 X67.756 Y96.058 E.01261
;WIDTH:0.561699
G1 X67.772 Y95.713 E.0138
;WIDTH:0.513038
G1 X67.789 Y95.368 E.01251
;WIDTH:0.464377
G1 X67.789 Y89.184 E.20067
;WIDTH:0.466398
G1 X67.79 Y89.077 E.0035
;WIDTH:0.495546
G1 X67.805 Y88.516 E.01957
;WIDTH:0.499999
G1 X67.787 Y87.778 E.02599
G1 X67.689 Y87.233 E.01948
G1 X67.543 Y86.836 E.01488
G1 X67.273 Y86.369 E.01898
G1 X66.999 Y86.044 E.01495
G1 X66.579 Y85.692 E.0193
G1 X66.21 Y85.478 E.01502
G1 X65.694 Y85.291 E.0193
;WIDTH:0.499082
G1 X65.003 Y85.211 E.02443
;WIDTH:0.46438
G1 X54.997 Y85.211 E.32474
;WIDTH:0.475329
M73 P3 R14
G1 X54.785 Y85.224 E.00707
;WIDTH:0.499999
G1 X54.246 Y85.307 E.01918
G1 X53.846 Y85.452 E.01499
G1 X53.371 Y85.727 E.0193
G1 X53.044 Y86.001 E.01502
G1 X52.564 Y86.604 E.02713
G1 X52.405 Y86.99 E.01469
G1 X52.245 Y87.465 E.01763
G1 X52.193 Y87.997 E.01881
;WIDTH:0.50825
G1 X52.211 Y89.184 E.04256
;WIDTH:0.464381
G1 X52.211 Y95.368 E.20067
;WIDTH:0.501884
G1 X52.237 Y95.753 E.01364
;WIDTH:0.539088
G1 X52.247 Y95.93 E.00677
;WIDTH:0.576291
G1 X52.256 Y96.107 E.00728
;WIDTH:0.613494
G1 X52.266 Y96.284 E.00778
G1 X52.396 Y96.639 E.01659
G1 X51.599 Y96.638 E.035
G1 X51.677 Y96.348 E.01319
;WIDTH:0.587598
G1 X51.756 Y96.058 E.01259
;WIDTH:0.561701
G1 X51.772 Y95.713 E.0138
;WIDTH:0.513041
G1 X51.789 Y95.368 E.01251
;WIDTH:0.464381
G1 X51.789 Y89.184 E.20067
;WIDTH:0.50825
G1 X51.726 Y88.533 E.02346
