; HEADER_BLOCK_START
; generated by OrcaSlicer 1.6.2 on 2023-05-22 at 19:35:27
; total layer number: 30
; HEADER_BLOCK_END

; THUMBNAIL_BLOCK_START
; THUMBNAIL_BLOCK_END

; external perimeters extrusion width = 0.40mm
; perimeters extrusion width = 0.45mm
; infill extrusion width = 0.45mm
; solid infill extrusion width = 0.40mm
; top infill extrusion width = 0.40mm
; first layer extrusion width = 0.50mm

; EXECUTABLE_BLOCK_START
EXCLUDE_OBJECT_DEFINE NAME=top_left_rear_fram_brace_for_tensioner.stl_id_0_copy_0 CENTER=60,60 POLYGON=[[28.811,55.2145],[28.8236,54.9906],[28.8612,54.7695],[28.9233,54.554],[29.0091,54.3467],[29.1176,54.1504],[29.2474,53.9675],[29.3968,53.8003],[48.2253,34.9719],[48.3925,34.8224],[48.5754,34.6926],[48.7717,34.5842],[48.9789,34.4983],[49.1944,34.4362],[49.4155,34.3987],[49.6395,34.3861],[86.3605,34.3861],[86.5845,34.3987],[86.8056,34.4362],[87.0211,34.4983],[87.2283,34.5842],[87.4246,34.6926],[87.6075,34.8224],[87.7747,34.9719],[90.6032,37.8003],[90.7526,37.9675],[90.8824,38.1504],[90.9909,38.3467],[91.0767,38.554],[91.1388,38.7695],[91.1764,38.9906],[91.189,39.2145],[91.189,53.6434],[91.1764,53.8674],[91.1388,54.0885],[91.0767,54.304],[90.9909,54.5112],[90.8824,54.7075],[90.7526,54.8904],[90.6032,55.0577],[70.8188,74.842],[60.6327,85.0281],[60.4655,85.1776],[60.2825,85.3074],[60.0863,85.4158],[59.879,85.5017],[59.6635,85.5638],[59.4424,85.6013],[59.2185,85.6139],[33.6395,85.6139],[33.4155,85.6013],[33.1944,85.5638],[32.9789,85.5017],[32.7717,85.4158],[32.5754,85.3074],[32.3925,85.1776],[32.2253,85.0281],[29.3968,82.1997],[29.2474,82.0325],[29.1176,81.8495],[29.0091,81.6533],[28.9233,81.446],[28.8612,81.2305],[28.8236,81.0094],[28.811,80.7855],[28.811,55.2145]]
M73 P0 R22
;TYPE:Custom
START_PRINT T_BED=105 T_EXTRUDER=260
G90
G21
M83 ; use relative distances for extrusion
; Filament gcode
M106 S0
;LAYER_CHANGE
;Z:0.2
;HEIGHT:0.2
;BEFORE_LAYER_CHANGE
;0.2
G92 E0

;AFTER_LAYER_CHANGE
;0.2
M204 S1000
G1 E-.8 F1800
G1 Z.2 F21000
G1 X39.521 Y39.571
G1 E.8 F1800
;TYPE:Skirt
;WIDTH:0.5
G1 F3000
G1 X46.451 Y32.649 E.3447
G1 X47.166 Y32.142 E.03086
G1 X47.864 Y31.806 E.02726
G1 X48.706 Y31.563 E.03086
G1 X49.476 Y31.477 E.02726
G1 X86.366 Y31.472 E1.2983
G1 X87.294 Y31.563 E.0328
G1 X88.136 Y31.806 E.03086
G1 X88.834 Y32.142 E.02727
G1 X89.549 Y32.649 E.03086
G1 X92.925 Y36.026 E.16804
G1 X93.433 Y36.741 E.03086
G1 X93.877 Y37.747 E.03871
G1 X94.049 Y38.502 E.02726
G1 X94.103 Y39.215 E.02513
G1 X94.103 Y53.643 E.50781
G1 X94.012 Y54.577 E.033
G1 X93.683 Y55.626 E.03872
G1 X93.259 Y56.394 E.03085
G1 X92.664 Y57.118 E.033
G1 X62.407 Y87.351 E1.50531
G1 X61.692 Y87.858 E.03086
G1 X60.994 Y88.194 E.02727
G1 X60.152 Y88.437 E.03086
G1 X59.382 Y88.523 E.02726
G1 X33.252 Y88.511 E.91961
G1 X31.864 Y88.194 E.05012
G1 X30.706 Y87.554 E.04655
G1 X27.074 Y83.974 E.17947
G1 X26.567 Y83.259 E.03086
G1 X26.231 Y82.561 E.02727
G1 X25.988 Y81.719 E.03085
G1 X25.897 Y80.785 E.033
G1 X25.897 Y55.215 E.89994
G1 X25.988 Y54.281 E.033
G1 X26.231 Y53.439 E.03085
G1 X26.741 Y52.464 E.03872
G1 X27.336 Y51.74 E.033
G1 X39.478 Y39.613 E.60394
G1 X39.801 Y39.936 F21000
G1 F3000
G1 X46.755 Y32.99 E.34592
G1 X47.387 Y32.542 E.02726
G1 X48.039 Y32.228 E.02546
G1 X48.783 Y32.014 E.02726
G1 X49.639 Y31.929 E.0303
G1 X86.366 Y31.929 E1.29255
G1 X87.217 Y32.014 E.0301
G1 X87.961 Y32.228 E.02726
G1 X88.613 Y32.542 E.02546
G1 X89.245 Y32.99 E.02726
G1 X92.585 Y36.33 E.16623
G1 X93.033 Y36.962 E.02726
G1 X93.438 Y37.874 E.03511
G1 X93.599 Y38.579 E.02546
G1 X93.646 Y39.215 E.02243
G1 X93.646 Y53.643 E.50781
G1 X93.561 Y54.5 E.03029
G1 X93.261 Y55.452 E.03511
G1 X92.886 Y56.129 E.02725
G1 X92.341 Y56.795 E.0303
G1 X62.103 Y87.01 E1.50441
G1 X61.471 Y87.458 E.02726
G1 X60.819 Y87.772 E.02546
G1 X60.075 Y87.986 E.02726
G1 X59.356 Y88.067 E.02546
G1 X33.278 Y88.055 E.9178
G1 X32.039 Y87.772 E.04473
G1 X30.971 Y87.181 E.04294
G1 X27.415 Y83.67 E.17588
G1 X26.967 Y83.038 E.02726
G1 X26.653 Y82.386 E.02546
G1 X26.439 Y81.642 E.02725
G1 X26.354 Y80.785 E.03029
G1 X26.354 Y55.215 E.89994
G1 X26.439 Y54.358 E.0303
G1 X26.653 Y53.614 E.02725
G1 X27.114 Y52.729 E.03512
G1 X27.659 Y52.063 E.03029
G1 X39.758 Y39.979 E.60182
; printing object top left rear fram brace for tensioner.stl id:0 copy 0
EXCLUDE_OBJECT_START NAME=top_left_rear_fram_brace_for_tensioner.stl_id_0_copy_0
G1 E-.8 F1800
G1 Z.4 F21000
G1 X49.628 Y36.159
G1 Z.2
G1 E.8 F1800
;TYPE:Inner wall
;WIDTH:0.499999
G1 F3000
G1 X86.156 Y36.151 E1.28555
G1 X86.409 Y36.166 E.00894
G1 X86.629 Y36.321 E.00946
G1 X89.259 Y38.951 E.1309
G1 X89.35 Y39.058 E.00493
G1 X89.425 Y39.311 E.0093
G1 X89.425 Y53.438 E.49718
G1 X89.403 Y53.626 E.00665
G1 X89.31 Y53.856 E.00875
G1 X59.531 Y83.635 E1.48215
G1 X59.383 Y83.753 E.00665
G1 X59.153 Y83.85 E.00876
G1 X33.845 Y83.85 E.8907
G1 X33.657 Y83.828 E.00665
G1 X33.427 Y83.735 E.00876
G1 X30.787 Y81.094 E.1314
G1 X30.713 Y81.007 E.00401
G1 X30.587 Y80.762 E.00971
G1 X30.576 Y56.18 E.86514
G1 X30.597 Y55.232 E.03335
G1 X30.69 Y55.002 E.00876
G1 X32.473 Y53.219 E.08873
G1 X49.103 Y36.589 E.82768
G1 X49.427 Y36.27 E.01602
G1 X49.576 Y36.188 E.00597
G1 X49.415 Y35.758 F21000
G1 F3000
G1 X49.573 Y35.703 E.00588
G1 X86.156 Y35.693 E1.2875
M73 P1 R22
G1 X86.562 Y35.735 E.01438
G1 X86.925 Y35.971 E.01522
G1 X89.629 Y38.674 E.13456
G1 X89.8 Y38.949 E.01139
G1 X89.882 Y39.286 E.01219
G1 X89.882 Y53.438 E.49808
G1 X89.826 Y53.867 E.01521
G1 X89.653 Y54.159 E.01197
G1 X59.854 Y83.959 E1.48315
G1 X59.511 Y84.222 E.01522
G1 X59.182 Y84.307 E.01197
G1 X33.845 Y84.307 E.8917
G1 X33.416 Y84.251 E.01521
G1 X33.124 Y84.078 E.01197
G1 X30.463 Y81.418 E.1324
G1 X30.203 Y81.078 E.01506
G1 X30.13 Y80.826 E.00922
G1 X30.118 Y55.42 E.89415
G1 X30.174 Y54.991 E.01521
G1 X30.347 Y54.699 E.01197
G1 X32.15 Y52.896 E.08973
G1 X48.779 Y36.266 E.82768
G1 X49.276 Y35.806 E.02382
G1 X49.358 Y35.777 E.00308
G1 X49.245 Y35.33 F21000
G1 F3000
G1 X49.518 Y35.247 E.01003
G1 X86.156 Y35.236 E1.28944
G1 X86.512 Y35.258 E.01256
G1 X86.836 Y35.347 E.01184
G1 X87.221 Y35.62 E.01661
G1 X89.905 Y38.305 E.1336
G1 X90.145 Y38.589 E.01308
G1 X90.308 Y38.981 E.01496
G1 X90.339 Y39.26 E.00986
G1 X90.339 Y53.438 E.49898
G1 X90.264 Y54.02 E.02064
G1 X89.985 Y54.473 E.01874
G1 X60.177 Y84.282 E1.48361
G1 X59.712 Y84.64 E.02064
G1 X59.195 Y84.764 E.01874
G1 X33.845 Y84.764 E.89215
G1 X33.263 Y84.689 E.02064
G1 X32.809 Y84.41 E.01874
G1 X30.14 Y81.741 E.13286
G1 X29.785 Y81.28 E.02049
G1 X29.673 Y80.891 E.01423
G1 X29.661 Y55.42 E.89642
G1 X29.736 Y54.838 E.02065
G1 X30.015 Y54.384 E.01874
G1 X31.827 Y52.573 E.09018
G1 X48.794 Y35.605 E.8445
G1 X49.146 Y35.361 E.01508
G1 X49.188 Y35.348 E.00153
G1 X49.095 Y34.83 F21000
;TYPE:Outer wall
;WIDTH:0.585841
G1 F3000
G1 X49.457 Y34.748 E.01552
G1 X86.156 Y34.736 E1.53414
G1 X86.568 Y34.761 E.01727
G1 X87.068 Y34.898 E.02168
G1 X87.545 Y35.237 E.02444
G1 X90.259 Y37.951 E.16045
G1 X90.58 Y38.332 E.02083
G1 X90.797 Y38.855 E.02368
G1 X90.839 Y39.232 E.01584
G1 X90.839 Y53.618 E.60141
G1 X90.743 Y54.187 E.02411
G1 X90.583 Y54.476 E.01379
G1 X90.349 Y54.817 E.01731
G1 X60.403 Y84.763 E1.77036
G1 X59.933 Y85.097 E.02412
G1 X59.616 Y85.188 E.01379
G1 X59.209 Y85.264 E.0173
G1 X33.664 Y85.264 E1.06783
G1 X33.096 Y85.168 E.02411
G1 X32.807 Y85.008 E.01379
G1 X32.466 Y84.774 E.0173
G1 X29.662 Y81.97 E.16576
G1 X29.328 Y81.5 E.02411
G1 X29.173 Y80.962 E.0234
G1 X29.161 Y55.239 E1.07528
G1 X29.257 Y54.671 E.02411
G1 X29.417 Y54.382 E.01379
G1 X29.651 Y54.041 E.0173
G1 X31.473 Y52.219 E.10771
G1 X48.103 Y35.589 E.98312
G1 X48.763 Y34.99 E.03728
G1 X49.041 Y34.856 E.01289
G1 X49.153 Y34.877
G1 E-.8 F1800
G1 Z.4 F21000
G1 X49.049 Y35.214
G1 X41.614 Y60.077
G1 X41.51 Y60.41
G1 X41.367 Y60.728
G1 X41.191 Y61.02
G1 X39.754 Y63.223
G1 Z.2
G1 E.8 F1800
;TYPE:Inner wall
;WIDTH:0.499999
G1 F3000
G1 X39.548 Y63.273 E.00747
G1 X39.008 Y63.339 E.01913
G1 X38.597 Y63.337 E.01447
G1 X37.856 Y63.234 E.02634
G1 X37.154 Y62.98 E.02625
G1 X36.794 Y62.791 E.0143
G1 X36.342 Y62.479 E.01933
G1 X36.038 Y62.21 E.0143
G1 X35.674 Y61.798 E.01933
G1 X35.443 Y61.464 E.0143
G1 X35.188 Y60.977 E.01934
G1 X35.044 Y60.598 E.0143
G1 X34.912 Y60.064 E.01933
G1 X34.863 Y59.661 E.0143
G1 X34.863 Y59.111 E.01933
G1 X34.912 Y58.708 E.0143
G1 X35.044 Y58.175 E.01933
G1 X35.187 Y57.796 E.01426
G1 X35.439 Y57.315 E.0191
G1 X35.668 Y56.982 E.01422
G1 X36.036 Y56.565 E.01957
G1 X36.342 Y56.293 E.01443
G1 X36.794 Y55.981 E.01933
G1 X37.154 Y55.792 E.0143
G1 X37.668 Y55.598 E.01934
G1 X38.061 Y55.5 E.01426
G1 X38.6 Y55.435 E.0191
G1 X39.004 Y55.434 E.01422
G1 X39.556 Y55.5 E.01957
G1 X39.954 Y55.598 E.01443
G1 X40.468 Y55.792 E.01933
G1 X40.828 Y55.981 E.0143
G1 X41.28 Y56.293 E.01933
G1 X41.584 Y56.563 E.0143
G1 X41.948 Y56.974 E.01933
G1 X42.178 Y57.307 E.01426
G1 X42.431 Y57.787 E.0191
G1 X42.575 Y58.165 E.01422
G1 X42.709 Y58.704 E.01957
G1 X42.759 Y59.111 E.01443
G1 X42.759 Y59.661 E.01933
G1 X42.71 Y60.064 E.0143
G1 X42.578 Y60.598 E.01933
G1 X42.4 Y61.042 E.01685
G1 X42.158 Y61.503 E.01834
G1 X41.937 Y61.809 E.01327
G1 X41.584 Y62.209 E.01879
G1 X41.28 Y62.479 E.0143
G1 X40.828 Y62.791 E.01933
G1 X40.468 Y62.98 E.01431
G1 X39.954 Y63.175 E.01932
G1 X39.813 Y63.209 E.00513
G1 X39.314 Y62.841 F21000
G1 F3000
G1 X38.955 Y62.885 E.01274
G1 X38.652 Y62.883 E.01065
G1 X37.967 Y62.79 E.02434
G1 X37.316 Y62.552 E.02438
G1 X37.054 Y62.415 E.01042
G1 X36.602 Y62.103 E.01933
G1 X36.38 Y61.906 E.01042
G1 X36.016 Y61.495 E.01933
G1 X35.593 Y60.765 E.02971
G1 X35.356 Y59.955 E.02971
G1 X35.32 Y59.661 E.01042
G1 X35.32 Y59.111 E.01933
G1 X35.488 Y58.284 E.0297
G1 X35.816 Y57.58 E.02733
G1 X36.011 Y57.285 E.01246
G1 X36.379 Y56.868 E.01957
G1 X36.602 Y56.669 E.01051
G1 X37.054 Y56.357 E.01933
G1 X37.83 Y56.025 E.02971
G1 X38.655 Y55.888 E.02944
G1 X38.95 Y55.888 E.01036
G1 X39.502 Y55.954 E.01957
G1 X39.792 Y56.025 E.01052
G1 X40.306 Y56.22 E.01933
G1 X40.568 Y56.357 E.01042
G1 X41.02 Y56.669 E.01933
G1 X41.242 Y56.866 E.01042
G1 X41.606 Y57.277 E.01933
G1 X41.774 Y57.52 E.01039
G1 X42.026 Y58 E.0191
G1 X42.131 Y58.275 E.01036
G1 X42.265 Y58.815 E.01957
G1 X42.302 Y59.111 E.01052
G1 X42.302 Y59.669 E.01964
G1 X42.199 Y60.226 E.0199
G1 X42.059 Y60.706 E.01761
G1 X41.778 Y61.245 E.02138
G1 X41.594 Y61.507 E.01126
G1 X41.242 Y61.906 E.01875
G1 X41.02 Y62.103 E.01042
G1 X40.568 Y62.415 E.01933
G1 X40.305 Y62.553 E.01043
G1 X39.792 Y62.747 E.01932
G1 X39.493 Y62.82 E.01084
G1 X39.374 Y62.834 E.00422
G1 X38.98 Y62.419 F21000
G1 F3000
G1 X38.904 Y62.431 E.00269
G1 X38.078 Y62.347 E.02922
G1 X37.479 Y62.125 E.0225
G1 X36.862 Y61.727 E.02584
G1 X36.358 Y61.192 E.02584
G1 X35.997 Y60.553 E.02585
G1 X35.8 Y59.845 E.02584
G1 X35.778 Y59.111 E.02584
G1 X35.931 Y58.394 E.02584
G1 X36.221 Y57.793 E.02348
G1 X36.354 Y57.587 E.00861
G1 X36.721 Y57.17 E.01957
G1 X37.314 Y56.734 E.02589
G1 X37.992 Y56.452 E.02585
G1 X38.711 Y56.342 E.02558
G1 X39.448 Y56.408 E.02604
G1 X40.144 Y56.647 E.0259
G1 X40.76 Y57.046 E.02584
G1 X41.264 Y57.58 E.02584
G1 X41.622 Y58.213 E.02559
G1 X41.822 Y58.925 E.02604
G1 X41.845 Y59.661 E.0259
G1 X41.691 Y60.379 E.02584
G1 X41.373 Y61.033 E.02559
G1 X40.901 Y61.602 E.02604
G1 X40.308 Y62.039 E.0259
G1 X39.63 Y62.32 E.02584
G1 X39.039 Y62.41 E.02105
G1 X38.277 Y61.87 F21000
;TYPE:Outer wall
;WIDTH:0.585841
G1 F3000
G1 X38.2 Y61.862 E.00323
G1 X37.656 Y61.658 E.02429
G1 X37.146 Y61.315 E.02568
G1 X36.733 Y60.861 E.02568
G1 X36.44 Y60.32 E.02569
G1 X36.285 Y59.726 E.02568
G1 X36.278 Y59.111 E.02568
G1 X36.417 Y58.513 E.02568
G1 X36.664 Y58.025 E.02289
G1 X37.096 Y57.501 E.02839
G1 X37.598 Y57.145 E.0257
G1 X38.169 Y56.92 E.02569
G1 X38.771 Y56.838 E.02539
G1 X39.388 Y56.904 E.02594
G1 X39.966 Y57.115 E.02571
G1 X40.476 Y57.457 E.02568
G1 X40.89 Y57.912 E.02568
G1 X41.179 Y58.446 E.02539
G1 X41.337 Y59.046 E.02594
G1 X41.345 Y59.661 E.0257
G1 X41.205 Y60.259 E.02568
G1 X40.93 Y60.801 E.02539
G1 X40.526 Y61.271 E.02594
G1 X40.024 Y61.627 E.0257
G1 X39.453 Y61.852 E.02568
G1 X38.844 Y61.934 E.02569
G1 X38.336 Y61.877 E.02135
G1 X38.268 Y61.883
G1 E-.8 F1800
G1 Z.4 F21000
M73 P2 R22
G1 X35.102 Y73.02
G1 Z.2
G1 E.8 F1800
;TYPE:Inner wall
;WIDTH:0.499999
G1 F3000
G1 X35.187 Y72.796 E.00843
G1 X35.439 Y72.315 E.0191
G1 X35.668 Y71.982 E.01422
G1 X36.036 Y71.565 E.01957
G1 X36.342 Y71.293 E.01443
G1 X36.794 Y70.981 E.01933
G1 X37.154 Y70.792 E.0143
G1 X37.668 Y70.598 E.01933
G1 X38.065 Y70.5 E.0144
G1 X38.603 Y70.434 E.01908
G1 X39.022 Y70.436 E.01474
G1 X39.56 Y70.5 E.01905
G1 X39.954 Y70.598 E.01431
G1 X40.468 Y70.792 E.01932
G1 X40.828 Y70.981 E.0143
G1 X41.28 Y71.293 E.01933
G1 X41.596 Y71.577 E.01497
G1 X41.951 Y71.977 E.01882
G1 X42.191 Y72.332 E.01506
G1 X42.431 Y72.787 E.01813
G1 X42.575 Y73.165 E.01422
G1 X42.711 Y73.712 E.01984
G1 X42.759 Y74.111 E.01416
G1 X42.759 Y74.661 E.01933
G1 X42.71 Y75.064 E.0143
G1 X42.578 Y75.598 E.01933
G1 X42.434 Y75.977 E.0143
G1 X42.179 Y76.464 E.01933
G1 X41.948 Y76.798 E.0143
G1 X41.584 Y77.209 E.01933
G1 X41.28 Y77.479 E.0143
G1 X40.828 Y77.791 E.01933
G1 X40.468 Y77.98 E.0143
G1 X39.954 Y78.175 E.01933
G1 X39.56 Y78.272 E.0143
G1 X39.014 Y78.338 E.01934
G1 X38.608 Y78.338 E.0143
G1 X38.063 Y78.272 E.01933
G1 X37.669 Y78.175 E.01426
G1 X37.162 Y77.983 E.0191
G1 X36.798 Y77.792 E.01447
G1 X36.345 Y77.481 E.01932
G1 X36.038 Y77.209 E.01443
G1 X35.674 Y76.798 E.01933
G1 X35.443 Y76.464 E.0143
G1 X35.188 Y75.977 E.01933
G1 X35.044 Y75.598 E.0143
G1 X34.912 Y75.064 E.01933
G1 X34.863 Y74.661 E.0143
G1 X34.863 Y74.111 E.01933
G1 X34.912 Y73.708 E.0143
G1 X35.044 Y73.175 E.01933
G1 X35.081 Y73.076 E.00371
G1 X35.558 Y73.135 F21000
G1 F3000
G1 X35.844 Y72.527 E.02366
G1 X36.379 Y71.868 E.02988
G1 X36.602 Y71.669 E.01052
G1 X37.054 Y71.357 E.01933
G1 X37.316 Y71.22 E.01042
G1 X37.83 Y71.025 E.01933
G1 X38.121 Y70.954 E.01053
G1 X38.658 Y70.888 E.01904
G1 X38.968 Y70.89 E.01092
G1 X39.504 Y70.954 E.01902
G1 X39.792 Y71.025 E.01043
G1 X40.306 Y71.22 E.01932
G1 X40.568 Y71.357 E.01042
G1 X41.02 Y71.669 E.01933
G1 X41.254 Y71.88 E.01109
G1 X41.608 Y72.28 E.01878
G1 X41.787 Y72.544 E.01124
G1 X42.026 Y73 E.01813
G1 X42.131 Y73.275 E.01036
G1 X42.267 Y73.82 E.01977
G1 X42.302 Y74.111 E.01032
G1 X42.302 Y74.661 E.01933
G1 X42.266 Y74.955 E.01042
G1 X42.134 Y75.488 E.01933
G1 X42.029 Y75.765 E.01042
G1 X41.774 Y76.251 E.01933
G1 X41.606 Y76.495 E.01042
G1 X41.242 Y76.906 E.01933
G1 X41.02 Y77.103 E.01042
G1 X40.568 Y77.415 E.01933
G1 X39.792 Y77.747 E.0297
G1 X39.505 Y77.818 E.01042
G1 X38.959 Y77.884 E.01934
G1 X38.663 Y77.884 E.01042
G1 X38.118 Y77.818 E.01933
G1 X37.323 Y77.556 E.02944
G1 X36.604 Y77.104 E.02988
G1 X36.38 Y76.906 E.01052
G1 X36.016 Y76.495 E.01933
G1 X35.593 Y75.765 E.02971
G1 X35.356 Y74.955 E.02971
G1 X35.32 Y74.661 E.01042
G1 X35.32 Y74.111 E.01933
G1 X35.488 Y73.284 E.02971
G1 X35.532 Y73.19 E.00367
G1 X35.968 Y73.317 F21000
G1 F3000
G1 X36.249 Y72.739 E.02261
G1 X36.721 Y72.17 E.02604
G1 X37.314 Y71.734 E.0259
G1 X37.992 Y71.452 E.02584
G1 X38.711 Y71.342 E.02558
G1 X39.448 Y71.408 E.02604
G1 X40.144 Y71.647 E.0259
G1 X40.76 Y72.046 E.02584
G1 X41.264 Y72.58 E.02584
G1 X41.6 Y73.172 E.02395
G1 X41.688 Y73.386 E.00814
G1 X41.823 Y73.929 E.01969
G1 X41.845 Y74.661 E.02578
G1 X41.691 Y75.379 E.02584
G1 X41.369 Y76.039 E.02584
G1 X40.9 Y76.603 E.02584
G1 X40.308 Y77.039 E.02584
G1 X39.63 Y77.32 E.02584
G1 X39.449 Y77.364 E.00655
G1 X38.904 Y77.431 E.01934
G1 X38.173 Y77.364 E.02584
G1 X37.485 Y77.128 E.02559
G1 X36.863 Y76.728 E.02604
G1 X36.358 Y76.192 E.0259
G1 X35.997 Y75.553 E.02584
G1 X35.8 Y74.845 E.02584
G1 X35.778 Y74.111 E.02584
G1 X35.931 Y73.393 E.02584
G1 X35.942 Y73.371 E.00087
G1 X36.392 Y73.621 F21000
;TYPE:Outer wall
;WIDTH:0.585841
G1 F3000
G1 X36.417 Y73.513 E.00463
G1 X36.692 Y72.971 E.02539
G1 X37.096 Y72.501 E.02594
G1 X37.598 Y72.145 E.0257
G1 X38.169 Y71.92 E.02568
G1 X38.771 Y71.838 E.02539
G1 X39.388 Y71.904 E.02594
G1 X39.966 Y72.115 E.02571
G1 X40.476 Y72.457 E.02568
G1 X40.89 Y72.912 E.02568
G1 X41.157 Y73.404 E.02345
G1 X41.337 Y74.046 E.02784
G1 X41.345 Y74.661 E.0257
G1 X41.205 Y75.259 E.02568
G1 X40.927 Y75.807 E.02568
