; HEADER_BLOCK_START
; generated by OrcaSlicer 1.6.4-beta2 on 2023-08-10 at 15:14:03
; total layer number: 30
; HEADER_BLOCK_END

; THUMBNAIL_BLOCK_START
; THUMBNAIL_BLOCK_END

; external perimeters extrusion width = 0.40mm
; perimeters extrusion width = 0.46mm
; infill extrusion width = 0.64mm
; solid infill extrusion width = 0.56mm
; top infill extrusion width = 0.40mm
; first layer extrusion width = 0.50mm

; EXECUTABLE_BLOCK_START
EXCLUDE_OBJECT_DEFINE NAME=top_right_rear_fram_brace_for_tensioner.stl_id_0_copy_0 CENTER=60,60 POLYGON=[[28.811,39.2145],[28.8236,38.9906],[28.8612,38.7695],[28.9233,38.554],[29.0091,38.3467],[29.1176,38.1505],[29.2474,37.9675],[29.3968,37.8003],[32.2253,34.9719],[32.3925,34.8224],[32.5754,34.6926],[32.7717,34.5842],[32.9789,34.4983],[33.1944,34.4362],[33.4155,34.3987],[33.6395,34.3861],[59.2185,34.3861],[59.4424,34.3987],[59.6635,34.4362],[59.879,34.4983],[60.0863,34.5842],[60.2825,34.6926],[60.4655,34.8224],[60.6327,34.9719],[70.8188,45.158],[90.6032,64.9423],[90.7526,65.1096],[90.8824,65.2925],[90.9909,65.4888],[91.0767,65.696],[91.1388,65.9115],[91.1764,66.1326],[91.189,66.3566],[91.189,80.7855],[91.1764,81.0094],[91.1388,81.2305],[91.0767,81.446],[90.9909,81.6533],[90.8824,81.8496],[90.7526,82.0325],[90.6032,82.1997],[87.7747,85.0281],[87.6075,85.1776],[87.4246,85.3074],[87.2283,85.4158],[87.0211,85.5017],[86.8056,85.5638],[86.5845,85.6013],[86.3605,85.6139],[49.6395,85.6139],[49.4155,85.6013],[49.1944,85.5638],[48.9789,85.5017],[48.7717,85.4158],[48.5754,85.3074],[48.3925,85.1776],[48.2253,85.0281],[29.3968,66.1997],[29.2474,66.0325],[29.1176,65.8496],[29.0091,65.6533],[28.9233,65.446],[28.8612,65.2305],[28.8236,65.0094],[28.811,64.7855],[28.811,39.2145]]
M73 P0 R22
;TYPE:Custom
START_PRINT T_BED=105 T_EXTRUDER=260
G90
G21
M83 ; use relative distances for extrusion
; Filament gcode
M106 S0
;LAYER_CHANGE
;Z:0.2
;HEIGHT:0.2
;BEFORE_LAYER_CHANGE
;0.2
G92 E0

;AFTER_LAYER_CHANGE
;0.2
SET_VELOCITY_LIMIT ACCEL=1000 ACCEL_TO_DECEL=500
SET_VELOCITY_LIMIT SQUARE_CORNER_VELOCITY=9
G1 E-.5 F3000
G1 Z.2 F21000
G1 X30.706 Y32.446
G1 E.5 F1800
;TYPE:Skirt
;WIDTH:0.5
G1 F3000
G1 X31.662 Y31.89 E.03908
G1 X32.927 Y31.526 E.04655
G1 X33.64 Y31.472 E.02524
G1 X59.224 Y31.472 E.90431
G1 X60.152 Y31.563 E.03294
G1 X61.201 Y31.892 E.03888
G1 X61.969 Y32.316 E.03099
G1 X62.693 Y32.911 E.03314
G1 X92.664 Y62.882 E1.49812
G1 X93.129 Y63.423 E.02524
G1 X93.541 Y64.079 E.02738
G1 X93.939 Y65.105 E.03888
G1 X94.103 Y66.357 E.04462
G1 X94.103 Y80.785 E.51
G1 X94.012 Y81.719 E.03314
G1 X93.677 Y82.781 E.03936
G1 X92.925 Y83.974 E.04986
G1 X89.717 Y87.201 E.16085
G1 X88.638 Y87.966 E.04675
G1 X87.612 Y88.364 E.03888
G1 X86.361 Y88.528 E.04462
G1 X49.639 Y88.528 E1.29794
G1 X48.922 Y88.473 E.02544
G1 X48.172 Y88.302 E.02718
G1 X47.166 Y87.858 E.03888
G1 X46.165 Y87.089 E.04462
G1 X27.336 Y68.26 E.94117
G1 X26.871 Y67.719 E.02524
G1 X26.459 Y67.063 E.02738
G1 X26.061 Y66.037 E.03888
G1 X25.897 Y64.785 E.04463
G1 X25.897 Y39.215 E.90383
G1 X25.988 Y38.281 E.03314
G1 X26.231 Y37.439 E.03099
G1 X26.574 Y36.729 E.02786
G1 X27.224 Y35.859 E.0384
G1 X30.678 Y32.474 E.17093
G1 X30.971 Y32.819 F21000
G1 F3000
G1 X31.837 Y32.312 E.03546
G1 X33.004 Y31.976 E.04293
G1 X59.224 Y31.929 E.92678
G1 X60.075 Y32.014 E.03023
G1 X61.027 Y32.314 E.03526
G1 X61.704 Y32.689 E.02737
G1 X62.37 Y33.234 E.03043
G1 X92.341 Y63.205 E1.49812
G1 X92.757 Y63.688 E.02253
G1 X93.141 Y64.3 E.02557
G1 X93.5 Y65.231 E.03526
G1 X93.646 Y66.357 E.04011
G1 X93.646 Y80.785 E.51
G1 X93.561 Y81.642 E.03042
G1 X93.256 Y82.605 E.0357
G1 X92.585 Y83.67 E.04449
G1 X89.412 Y86.86 E.15904
G1 X88.417 Y87.566 E.04313
G1 X87.486 Y87.925 E.03527
G1 X86.361 Y88.071 E.04011
G1 X49.639 Y88.071 E1.29794
G1 X48.998 Y88.023 E.02272
G1 X48.299 Y87.863 E.02537
G1 X47.387 Y87.458 E.03526
G1 X46.488 Y86.766 E.04011
G1 X27.659 Y67.937 E.94117
G1 X27.244 Y67.454 E.02252
G1 X26.859 Y66.842 E.02557
G1 X26.5 Y65.911 E.03526
G1 X26.354 Y64.785 E.04011
G1 X26.354 Y39.215 E.90383
G1 X26.439 Y38.358 E.03043
G1 X26.653 Y37.614 E.02737
G1 X26.974 Y36.951 E.02601
G1 X27.565 Y36.163 E.03483
G1 X30.942 Y32.847 E.16731
; printing object top right rear fram brace for tensioner.stl id:0 copy 0
EXCLUDE_OBJECT_START NAME=top_right_rear_fram_brace_for_tensioner.stl_id_0_copy_0
G1 E-.5
G1 Z.4 F21000
G1 X59.928 Y34.897
G1 Z.2
G1 E.5 F1800
;TYPE:Outer wall
G1 F3000
G1 X60.252 Y35.101 E.01355
G1 X90.349 Y65.183 E1.50406
G1 X90.581 Y65.473 E.01315
G1 X90.748 Y65.819 E.01355
G1 X90.828 Y66.172 E.01281
G1 X90.839 Y66.366 E.00689
G1 X90.839 Y80.776 E.50931
G1 X90.828 Y80.963 E.00664
G1 X90.743 Y81.336 E.01353
G1 X90.675 Y81.499 E.00623
G1 X90.477 Y81.813 E.01313
G1 X87.394 Y84.899 E.15418
G1 X87.07 Y85.103 E.01355
G1 X86.912 Y85.168 E.00604
G1 X86.538 Y85.253 E.01355
G1 X49.65 Y85.264 E1.30385
G1 X49.457 Y85.253 E.00683
G1 X49.095 Y85.17 E.01312
G1 X48.756 Y85.006 E.0133
G1 X48.611 Y84.903 E.00629
G1 X29.651 Y65.959 E.94735
G1 X29.521 Y65.814 E.00688
G1 X29.328 Y65.507 E.01281
G1 X29.202 Y65.146 E.01355
G1 X29.161 Y64.776 E.01315
G1 X29.173 Y39.023 E.91025
G1 X29.202 Y38.854 E.00604
G1 X29.326 Y38.499 E.01329
G1 X29.526 Y38.181 E.0133
G1 X32.617 Y35.093 E.15442
G1 X32.922 Y34.901 E.01275
G1 X33.279 Y34.777 E.01337
G1 X33.649 Y34.736 E.01316
G1 X34.131 Y34.736 E.01704
G1 X59.207 Y34.736 E.88632
G1 X59.592 Y34.78 E.0137
G1 X59.763 Y34.829 E.00629
G1 X59.891 Y34.882 E.00487
G1 X59.697 Y35.343 F21000
;TYPE:Inner wall
G1 F3000
G1 X59.95 Y35.502 E.01057
G1 X89.985 Y65.527 E1.50108
M73 P1 R22
G1 X90.149 Y65.728 E.00919
G1 X90.279 Y65.997 E.01057
G1 X90.33 Y66.228 E.00835
G1 X90.339 Y66.38 E.0054
G1 X90.339 Y80.762 E.50832
G1 X90.332 Y80.893 E.00465
G1 X90.265 Y81.183 E.01052
G1 X90.084 Y81.5 E.01291
G1 X87.19 Y84.411 E.14508
G1 X87.092 Y84.498 E.00461
G1 X86.839 Y84.657 E.01057
G1 X86.468 Y84.757 E.01359
G1 X49.664 Y84.764 E1.30085
G1 X49.528 Y84.756 E.00484
G1 X49.262 Y84.695 E.00966
G1 X49.011 Y84.574 E.00982
G1 X48.923 Y84.512 E.00381
G1 X30.015 Y65.616 E.94487
G1 X29.913 Y65.502 E.0054
G1 X29.786 Y65.302 E.00835
G1 X29.688 Y65.02 E.01056
G1 X29.661 Y64.762 E.00918
G1 X29.673 Y39.065 E.90827
G1 X29.779 Y38.718 E.01284
G1 X29.927 Y38.483 E.00982
G1 X30.014 Y38.385 E.00461
G1 X32.94 Y35.476 E.14582
G1 X33.126 Y35.36 E.00778
G1 X33.404 Y35.263 E.01041
G1 X33.663 Y35.236 E.0092
G1 X34.131 Y35.236 E.01655
G1 X59.179 Y35.236 E.88533
G1 X59.494 Y35.272 E.01121
G1 X59.598 Y35.302 E.00381
G1 X59.66 Y35.328 E.00239
G1 X59.447 Y35.734 F21000
G1 F3000
G1 X59.675 Y35.869 E.00936
G1 X89.653 Y65.841 E1.49836
G1 X89.754 Y65.961 E.00556
G1 X89.85 Y66.161 E.00784
G1 X89.882 Y66.393 E.00828
G1 X89.882 Y80.749 E.50741
G1 X89.827 Y81.05 E.01084
G1 X89.724 Y81.214 E.00682
G1 X86.875 Y84.079 E.14282
G1 X86.625 Y84.252 E.01075
G1 X86.404 Y84.302 E.00801
G1 X49.678 Y84.307 E1.29811
G1 X49.414 Y84.261 E.00948
G1 X49.209 Y84.154 E.00817
G1 X30.347 Y65.301 E.94261
G1 X30.205 Y65.115 E.00828
G1 X30.132 Y64.906 E.00784
G1 X30.118 Y64.749 E.00556
G1 X30.13 Y39.099 E.90663
G1 X30.194 Y38.917 E.0068
G1 X30.346 Y38.7 E.00938
G1 X33.235 Y35.827 E.14401
G1 X33.313 Y35.779 E.00325
G1 X33.562 Y35.7 E.00924
G1 X34.131 Y35.693 E.02013
G1 X59.153 Y35.693 E.88442
G1 X59.407 Y35.729 E.00906
G1 X59.294 Y36.169 F21000
G1 F3000
G1 X59.399 Y36.235 E.00437
G1 X89.363 Y66.202 E1.49787
G1 X89.42 Y66.321 E.00466
G1 X89.425 Y66.406 E.00303
G1 X89.425 Y80.736 E.5065
G1 X89.399 Y80.873 E.00493
G1 X89.364 Y80.927 E.00228
G1 X86.561 Y83.747 E.14055
G1 X86.447 Y83.824 E.00482
G1 X86.34 Y83.848 E.0039
G1 X49.691 Y83.85 E1.29537
G1 X49.566 Y83.827 E.00452
G1 X49.485 Y83.788 E.00317
G1 X30.679 Y64.987 E.9399
G1 X30.622 Y64.923 E.00302
G1 X30.579 Y64.799 E.00466
G1 X30.587 Y39.177 E.90564
G1 X30.678 Y39.015 E.00656
G1 X33.517 Y36.192 E.14151
G1 X33.626 Y36.154 E.00408
G1 X34.131 Y36.15 E.01788
G1 X59.127 Y36.151 E.88351
G1 X59.254 Y36.165 E.00452
G1 X59.127 Y36.608 F21000
G1 F3000
G1 X88.968 Y66.448 E1.49163
G1 X88.968 Y80.678 E.50296
G1 X86.269 Y83.393 E.13531
G1 X49.731 Y83.393 E1.29145
M73 P2 R22
G1 X31.032 Y64.694 E.93469
G1 X31.044 Y39.295 E.89776
G1 X33.747 Y36.607 E.13472
G1 X34.131 Y36.607 E.01359
G1 X59.087 Y36.608 E.88208
G1 E-.5
G1 Z.4 F21000
G1 X38.12 Y42.811
G1 X37.787 Y42.915
G1 X37.468 Y43.058
G1 X37.165 Y43.243
G1 X36.897 Y43.453
G1 X36.649 Y43.7
G1 X36.431 Y43.98
G1 X36.306 Y44.188
G1 X36.593 Y44.361
G1 Z.2
G1 E.5 F1800
;TYPE:Outer wall
G1 F3000
G1 X36.708 Y44.171 E.00786
G1 X36.901 Y43.923 E.01112
G1 X37.12 Y43.705 E.01091
G1 X37.356 Y43.519 E.01063
G1 X37.625 Y43.356 E.01112
G1 X37.907 Y43.229 E.01091
G1 X38.201 Y43.137 E.01089
G1 X38.504 Y43.082 E.01089
G1 X38.804 Y43.064 E.01063
G1 X39.118 Y43.082 E.01112
G1 X39.421 Y43.137 E.0109
G1 X39.716 Y43.229 E.01089
G1 X39.996 Y43.355 E.01089
G1 X40.254 Y43.511 E.01063
G1 X40.502 Y43.704 E.01112
G1 X40.72 Y43.923 E.01091
G1 X40.91 Y44.165 E.01089
G1 X41.07 Y44.429 E.01089
G1 X41.193 Y44.703 E.01063
G1 X41.287 Y45.003 E.01112
G1 X41.343 Y45.306 E.01091
G1 X41.362 Y45.614 E.01089
G1 X41.343 Y45.921 E.01089
G1 X41.288 Y46.224 E.01089
G1 X41.196 Y46.518 E.01089
G1 X41.07 Y46.799 E.01089
G1 X40.91 Y47.063 E.01089
G1 X40.72 Y47.305 E.01089
G1 X40.502 Y47.523 E.01089
G1 X40.26 Y47.713 E.01089
G1 X39.996 Y47.872 E.01089
G1 X39.722 Y47.996 E.01063
G1 X39.422 Y48.09 E.01112
G1 X39.118 Y48.146 E.0109
G1 X38.811 Y48.165 E.01089
G1 X38.504 Y48.146 E.01089
G1 X38.201 Y48.09 E.01089
G1 X37.907 Y47.999 E.01089
G1 X37.632 Y47.875 E.01063
G1 X37.363 Y47.713 E.01112
G1 X37.12 Y47.523 E.01091
G1 X36.902 Y47.305 E.01089
G1 X36.712 Y47.063 E.01089
G1 X36.553 Y46.799 E.01089
G1 X36.426 Y46.518 E.01089
G1 X36.335 Y46.224 E.01089
G1 X36.279 Y45.921 E.01089
G1 X36.26 Y45.614 E.01089
G1 X36.279 Y45.306 E.01089
G1 X36.335 Y45.004 E.01089
G1 X36.426 Y44.709 E.01089
G1 X36.553 Y44.429 E.01089
G1 X36.572 Y44.396 E.00136
G1 X36.099 Y44.218 F21000
;TYPE:Inner wall
G1 F3000
G1 X36.109 Y44.196 E.00086
G1 X36.296 Y43.887 E.01275
G1 X36.526 Y43.591 E.01326
G1 X36.787 Y43.33 E.01307
G1 X37.071 Y43.107 E.01274
G1 X37.392 Y42.912 E.01326
G1 X37.729 Y42.761 E.01307
G1 X38.081 Y42.651 E.01303
G1 X38.443 Y42.585 E.01302
G1 X38.803 Y42.563 E.01275
G1 X39.178 Y42.584 E.01326
G1 X39.541 Y42.651 E.01307
G1 X39.893 Y42.761 E.01303
G1 X40.229 Y42.912 E.01302
G1 X40.538 Y43.098 E.01275
G1 X40.834 Y43.329 E.01326
G1 X41.095 Y43.59 E.01307
G1 X41.322 Y43.88 E.01303
G1 X41.513 Y44.196 E.01302
G1 X41.661 Y44.525 E.01275
G1 X41.774 Y44.882 E.01326
G1 X41.84 Y45.246 E.01307
G1 X41.863 Y45.614 E.01302
G1 X41.84 Y45.982 E.01302
G1 X41.774 Y46.344 E.01303
G1 X41.664 Y46.696 E.01303
G1 X41.513 Y47.032 E.01302
G1 X41.322 Y47.347 E.01302
G1 X41.095 Y47.637 E.01303
G1 X40.835 Y47.898 E.01303
G1 X40.545 Y48.125 E.01302
G1 X40.229 Y48.316 E.01302
G1 X39.9 Y48.464 E.01275
G1 X39.543 Y48.577 E.01326
G1 X39.179 Y48.643 E.01307
G1 X38.811 Y48.665 E.01302
G1 X38.443 Y48.643 E.01303
G1 X38.081 Y48.577 E.01302
G1 X37.729 Y48.467 E.01302
G1 X37.4 Y48.319 E.01275
G1 X37.079 Y48.126 E.01326
G1 X36.787 Y47.898 E.01307
G1 X36.527 Y47.637 E.01302
G1 X36.3 Y47.347 E.01303
G1 X36.109 Y47.032 E.01302
G1 X35.958 Y46.696 E.01302
G1 X35.848 Y46.344 E.01303
G1 X35.782 Y45.982 E.01303
G1 X35.759 Y45.614 E.01303
G1 X35.782 Y45.246 E.01302
G1 X35.848 Y44.884 E.01302
G1 X35.958 Y44.532 E.01302
G1 X36.083 Y44.255 E.01075
G1 X35.683 Y44.028 F21000
G1 F3000
G1 X35.704 Y43.983 E.00175
G1 X35.918 Y43.628 E.01468
G1 X36.183 Y43.288 E.01521
G1 X36.484 Y42.987 E.01505
G1 X36.811 Y42.731 E.01467
G1 X37.178 Y42.507 E.01521
G1 X37.567 Y42.332 E.01505
G1 X37.971 Y42.206 E.01498
G1 X38.388 Y42.13 E.01498
G1 X38.802 Y42.105 E.01468
G1 X39.232 Y42.13 E.01521
G1 X39.651 Y42.206 E.01505
G1 X40.056 Y42.333 E.01498
G1 X40.442 Y42.506 E.01498
G1 X40.797 Y42.721 E.01468
G1 X41.137 Y42.986 E.01521
G1 X41.438 Y43.287 E.01505
G1 X41.699 Y43.62 E.01498
G1 X41.919 Y43.983 E.01498
G1 X42.089 Y44.362 E.01468
G1 X42.218 Y44.772 E.01521
G1 X42.295 Y45.191 E.01505
G1 X42.32 Y45.614 E.01498
G1 X42.295 Y46.037 E.01498
G1 X42.219 Y46.454 E.01498
G1 X42.092 Y46.858 E.01498
G1 X41.919 Y47.245 E.01498
G1 X41.699 Y47.608 E.01498
G1 X41.438 Y47.941 E.01498
G1 X41.138 Y48.241 E.01498
G1 X40.805 Y48.502 E.01498
G1 X40.442 Y48.721 E.01498
G1 X40.063 Y48.892 E.01468
G1 X39.653 Y49.021 E.01521
G1 X39.234 Y49.098 E.01505
G1 X38.811 Y49.123 E.01498
G1 X38.388 Y49.098 E.01498
G1 X37.971 Y49.021 E.01498
G1 X37.567 Y48.895 E.01498
G1 X37.188 Y48.725 E.01468
G1 X36.819 Y48.503 E.01521
G1 X36.484 Y48.241 E.01505
G1 X36.184 Y47.941 E.01498
G1 X35.923 Y47.608 E.01498
G1 X35.704 Y47.245 E.01498
G1 X35.53 Y46.858 E.01498
G1 X35.404 Y46.454 E.01498
G1 X35.327 Y46.037 E.01498
G1 X35.302 Y45.614 E.01498
G1 X35.327 Y45.191 E.01498
G1 X35.404 Y44.774 E.01498
G1 X35.53 Y44.369 E.01498
G1 X35.667 Y44.065 E.01181
G1 X35.267 Y43.838 F21000
G1 F3000
G1 X35.298 Y43.77 E.00265
G1 X35.541 Y43.368 E.01661
G1 X35.84 Y42.985 E.01717
G1 X36.18 Y42.644 E.01702
G1 X36.55 Y42.355 E.01661
G1 X36.965 Y42.102 E.01717
G1 X37.404 Y41.904 E.01703
G1 X37.862 Y41.762 E.01693
G1 X38.333 Y41.675 E.01693
G1 X38.802 Y41.647 E.01661
G1 X39.287 Y41.675 E.01717
G1 X39.76 Y41.762 E.01703
G1 X40.218 Y41.904 E.01694
G1 X40.655 Y42.101 E.01693
G1 X41.057 Y42.344 E.01661
G1 X41.44 Y42.642 E.01717
G1 X41.781 Y42.983 E.01703
G1 X42.076 Y43.36 E.01694
G1 X42.324 Y43.77 E.01693
G1 X42.517 Y44.199 E.01661
G1 X42.663 Y44.662 E.01717
G1 X42.749 Y45.136 E.01703
G1 X42.778 Y45.614 E.01693
G1 X42.749 Y46.092 E.01693
G1 X42.663 Y46.563 E.01694
G1 X42.521 Y47.021 E.01694
G1 X42.324 Y47.458 E.01693
G1 X42.076 Y47.868 E.01693
G1 X41.781 Y48.245 E.01693
G1 X41.442 Y48.584 E.01693
G1 X41.065 Y48.879 E.01693
G1 X40.655 Y49.127 E.01693
G1 X40.226 Y49.32 E.01661
G1 X39.763 Y49.466 E.01717
G1 X39.289 Y49.552 E.01703
G1 X38.811 Y49.581 E.01693
G1 X38.333 Y49.552 E.01693
G1 X37.862 Y49.466 E.01693
G1 X37.404 Y49.323 E.01693
G1 X36.976 Y49.131 E.01661
G1 X36.559 Y48.881 E.01717
G1 X36.18 Y48.584 E.01703
G1 X35.841 Y48.245 E.01693
G1 X35.546 Y47.868 E.01694
G1 X35.298 Y47.458 E.01693
G1 X35.101 Y47.021 E.01693
G1 X34.959 Y46.563 E.01694
G1 X34.873 Y46.092 E.01693
G1 X34.844 Y45.614 E.01693
G1 X34.873 Y45.136 E.01693
G1 X34.959 Y44.664 E.01693
G1 X35.101 Y44.207 E.01694
G1 X35.251 Y43.875 E.01287
G1 X34.852 Y43.649 F21000
G1 F3000
G1 X34.893 Y43.557 E.00354
G1 X35.164 Y43.109 E.01854
G1 X35.496 Y42.682 E.01913
G1 X35.877 Y42.302 E.019
G1 X36.289 Y41.978 E.01854
G1 X36.752 Y41.697 E.01912
G1 X37.242 Y41.476 E.019
G1 X37.752 Y41.317 E.01889
G1 X38.278 Y41.221 E.01889
G1 X38.801 Y41.189 E.01854
G1 X39.341 Y41.22 E.01912
G1 X39.87 Y41.317 E.019
G1 X40.38 Y41.476 E.01889
G1 X40.868 Y41.696 E.01889
G1 X41.316 Y41.967 E.01854
G1 X41.743 Y42.299 E.01912
G1 X42.123 Y42.679 E.019
G1 X42.453 Y43.1 E.01889
G1 X42.729 Y43.557 E.01889
G1 X42.945 Y44.036 E.01854
G1 X43.107 Y44.552 E.01912
G1 X43.204 Y45.081 E.01901
G1 X43.236 Y45.614 E.01889
G1 X43.204 Y46.147 E.01889
G1 X43.108 Y46.673 E.01889
G1 X42.949 Y47.183 E.01889
G1 X42.729 Y47.67 E.01889
G1 X42.453 Y48.128 E.01889
G1 X42.123 Y48.548 E.01889
G1 X41.746 Y48.926 E.01889
G1 X41.325 Y49.256 E.01889
G1 X40.868 Y49.532 E.01889
G1 X40.389 Y49.748 E.01854
G1 X39.873 Y49.91 E.01912
G1 X39.344 Y50.007 E.019
G1 X38.811 Y50.039 E.01889
G1 X38.278 Y50.007 E.01889
G1 X37.752 Y49.911 E.01889
G1 X37.242 Y49.752 E.01889
G1 X36.764 Y49.536 E.01854
G1 X36.3 Y49.258 E.01912
G1 X35.876 Y48.926 E.019
G1 X35.499 Y48.548 E.01888
G1 X35.169 Y48.128 E.01889
G1 X34.893 Y47.67 E.01889
G1 X34.673 Y47.183 E.01889
G1 X34.514 Y46.673 E.01889
G1 X34.418 Y46.147 E.01889
G1 X34.386 Y45.614 E.01889
G1 X34.418 Y45.08 E.01889
G1 X34.514 Y44.555 E.01889
G1 X34.673 Y44.045 E.01889
M73 P2 R21
G1 X34.835 Y43.685 E.01393
G1 E-.5
G1 Z.4 F21000
G1 X41.51 Y59.59
G1 X41.614 Y59.923
G1 X41.677 Y60.266
G1 X41.698 Y60.614
G1 X41.677 Y60.962
G1 X41.616 Y61.297
G1 X41.511 Y61.637
G1 X41.485 Y61.695
G1 X41.179 Y61.557
G1 Z.2
G1 E.5 F1800
;TYPE:Outer wall
G1 F3000
G1 X41.07 Y61.799 E.0094
G1 X40.91 Y62.063 E.01089
G1 X40.72 Y62.305 E.01089
G1 X40.502 Y62.523 E.01089
