; generated by PrusaSlicer 2.6.0-beta2+win64 on 2023-05-23 at 02:28:57 UTC


;
;

;
;
; TODO: check the size of the extruder and the y-bar clearance. Optimize & test supports.

; external perimeters extrusion width = 0.42mm
; perimeters extrusion width = 0.44mm
; infill extrusion width = 0.44mm
; solid infill extrusion width = 0.44mm
; top infill extrusion width = 0.44mm
; first layer extrusion width = 0.56mm

M190 S110 ; set bed temperature and wait for it to be reached
M104 S250 ; set temperature
;TYPE:Custom
START_PRINT T_BED=110 T_EXTRUDER=250
M109 S250 ; set temperature and wait for it to be reached
G21 ; set units to millimeters
G90 ; use absolute coordinates
M83 ; use relative distances for extrusion
; Filament gcode

    PRESSURE_ADVANCE_SELECT FILAMENT=ABS
M107
;LAYER_CHANGE
;Z:0.2
;HEIGHT:0.2
;BEFORE_LAYER_CHANGE
;0.2
G92 E0

G1 Z.2 F12000
;AFTER_LAYER_CHANGE
;0.2
G1 E-.5 F3000
M204 S3000
G1 X29.007 Y31.754 F12000
G1 E.5 F1800
M204 S1000
;TYPE:Skirt/Brim
;WIDTH:0.56
G1 X29.759 Y31.111 E.03999
G1 X31.03 Y30.379 E.05928
G1 X31.934 Y30.063 E.0387
G1 X32.653 Y29.912 E.02969
G1 X33.639 Y29.835 E.03997
G1 X59.474 Y29.842 E1.04414
G1 X60.426 Y29.949 E.03872
G1 X61.828 Y30.379 E.05927
G1 X62.916 Y30.981 E.05025
G1 X63.665 Y31.578 E.03871
G1 X93.821 Y61.724 E1.72332
G1 X94.465 Y62.476 E.04001
G1 X94.974 Y63.287 E.0387
G1 X95.512 Y64.652 E.0593
G1 X95.733 Y66.101 E.05924
G1 X95.74 Y80.785 E.59346
G1 X95.626 Y81.993 E.04904
G1 X95.196 Y83.395 E.05927
G1 X94.594 Y84.483 E.05025
G1 X94.146 Y85.065 E.02968
G1 X90.807 Y88.422 E.19136
G1 X90.241 Y88.889 E.02966
G1 X89.43 Y89.399 E.03872
G1 X88.065 Y89.937 E.0593
G1 X87.347 Y90.088 E.02965
G1 X86.361 Y90.165 E.03997
G1 X49.639 Y90.165 E1.48414
G1 X48.653 Y90.088 E.03997
G1 X47.719 Y89.875 E.03872
G1 X46.374 Y89.291 E.05926
G1 X45.759 Y88.889 E.02969
G1 X45.007 Y88.246 E.03999
G1 X26.179 Y69.418 E1.07614
G1 X25.536 Y68.666 E.03999
G1 X25.026 Y67.855 E.03872
G1 X24.488 Y66.491 E.05926
G1 X24.337 Y65.772 E.02969
G1 X24.26 Y64.785 E.04001
G1 X24.267 Y38.959 E1.04377
G1 X24.374 Y38.007 E.03872
G1 X24.804 Y36.605 E.05927
G1 X25.406 Y35.517 E.05025
G1 X26.003 Y34.768 E.03871
G1 X28.965 Y31.796 E.16958
M204 S7000
M204 S3000
G1 X29.331 Y32.161 F12000
M204 S1000
G1 F1800
G1 X30.058 Y31.532 E.03885
G1 X31.228 Y30.857 E.05459
G1 X32.078 Y30.56 E.03639
G1 X32.74 Y30.422 E.02733
G1 X33.639 Y30.352 E.03644
G1 X59.445 Y30.358 E1.04297
G1 X60.339 Y30.459 E.03636
G1 X61.63 Y30.857 E.0546
G1 X62.617 Y31.402 E.04557
G1 X63.485 Y32.119 E.0455
G1 X93.456 Y62.09 E1.71303
G1 X94.043 Y62.775 E.03646
G1 X94.522 Y63.537 E.03638
G1 X95.015 Y64.795 E.05461
G1 X95.217 Y66.13 E.05457
G1 X95.223 Y80.785 E.59229
G1 X95.116 Y81.906 E.04551
G1 X94.718 Y83.197 E.0546
G1 X94.173 Y84.184 E.04557
G1 X93.761 Y84.721 E.02735
G1 X90.463 Y88.036 E.18899
G1 X89.942 Y88.468 E.02735
G1 X89.18 Y88.947 E.03638
G1 X87.922 Y89.44 E.05461
G1 X86.361 Y89.648 E.06365
G1 X49.639 Y89.648 E1.48414
G1 X48.74 Y89.578 E.03644
G1 X47.862 Y89.378 E.03639
G1 X46.624 Y88.838 E.05459
G1 X45.373 Y87.881 E.06366
G1 X26.544 Y69.052 E1.0762
G1 X25.957 Y68.367 E.03646
G1 X25.478 Y67.605 E.03638
G1 X24.985 Y66.348 E.05457
G1 X24.777 Y64.785 E.06373
G1 X24.777 Y39.215 E1.03343
G1 X24.884 Y38.094 E.04551
G1 X25.196 Y37.01 E.04559
G1 X25.587 Y36.199 E.03639
G1 X26.389 Y35.112 E.0546
G1 X29.288 Y32.204 E.16595
M204 S7000
M204 S3000
G1 X29.655 Y32.569 F12000
M204 S1000
G1 F1800
G1 X30.357 Y31.954 E.03772
G1 X31.426 Y31.335 E.04992
G1 X32.826 Y30.931 E.05889
G1 X33.639 Y30.869 E.03295
G1 X59.416 Y30.875 E1.04179
G1 X60.253 Y30.969 E.03404
G1 X61.432 Y31.335 E.04989
G1 X62.318 Y31.824 E.0409
G1 X63.12 Y32.485 E.042
G1 X93.09 Y62.455 E1.71298
G1 X93.621 Y63.074 E.03296
G1 X94.069 Y63.787 E.03403
G1 X94.518 Y64.938 E.04993
G1 X94.7 Y66.159 E.04989
G1 X94.706 Y80.785 E.59112
G1 X94.606 Y81.82 E.04202
G1 X94.24 Y82.999 E.04989
G1 X93.751 Y83.885 E.0409
G1 X93.375 Y84.376 E.02499
G1 X90.118 Y87.651 E.18667
G1 X88.93 Y88.494 E.05887
G1 X87.779 Y88.943 E.04993
G1 X86.361 Y89.131 E.05781
G1 X49.639 Y89.131 E1.48414
G1 X48.826 Y89.069 E.03295
G1 X48.005 Y88.881 E.03404
G1 X46.874 Y88.386 E.0499
G1 X45.738 Y87.515 E.05785
G1 X26.91 Y68.687 E1.07614
G1 X26.379 Y68.068 E.03296
G1 X25.931 Y67.355 E.03403
G1 X25.482 Y66.204 E.04993
G1 X25.294 Y64.785 E.05785
G1 X25.294 Y39.215 E1.03343
G1 X25.394 Y38.18 E.04202
G1 X25.674 Y37.208 E.04088
G1 X26.039 Y36.449 E.03404
G1 X26.774 Y35.457 E.0499
G1 X29.612 Y32.611 E.16244
M204 S7000
; printing object top right rear fram brace for tensioner.stl id:0 copy 0
G1 E-.5 F3000
M204 S3000
G1 X86.255 Y83.683 F12000
G1 E.5 F1800
M204 S1000
;TYPE:Perimeter
;WIDTH:0.559999
G1 X49.842 Y83.683 E1.47165
G1 X49.67 Y83.661 E.00701
G1 X49.516 Y83.588 E.00689
G1 X31.444 Y65.516 E1.03293
G1 X30.799 Y64.841 E.03773
G1 X30.742 Y64.68 E.0069
G1 X30.742 Y39.414 E1.02114
G1 X30.753 Y39.224 E.00769
G1 X30.871 Y39.058 E.00823
G1 X33.541 Y36.404 E.15215
G1 X33.685 Y36.329 E.00656
G1 X59.016 Y36.318 E1.02377
G1 X59.209 Y36.328 E.00781
G1 X59.377 Y36.448 E.00834
G1 X89.094 Y66.165 E1.69851
G1 X89.247 Y66.366 E.01021
G1 X89.258 Y80.583 E.57459
G1 X89.237 Y80.755 E.007
G1 X89.163 Y80.909 E.00691
G1 X86.552 Y83.519 E.14921
G1 X86.416 Y83.626 E.00699
G1 X86.312 Y83.663 E.00446
M204 S7000
M204 S3000
G1 X86.284 Y84.2 F12000
M204 S1000
G1 F1800
G1 X49.842 Y84.2 E1.47282
G1 X49.415 Y84.143 E.01741
G1 X49.171 Y83.974 E.012
G1 X30.54 Y65.343 E1.06488
G1 X30.279 Y65.001 E.01739
G1 X30.225 Y64.709 E.012
G1 X30.225 Y39.414 E1.02231
G1 X30.248 Y39.086 E.01329
G1 X30.475 Y38.723 E.0173
G1 X33.278 Y35.936 E.15975
G1 X33.612 Y35.812 E.0144
G1 X59.016 Y35.8 E1.02672
G1 X59.347 Y35.823 E.01341
G1 X59.712 Y36.051 E.01739
G1 X89.46 Y65.799 E1.70028
G1 X89.721 Y66.141 E.01739
G1 X89.775 Y66.479 E.01383
G1 X89.775 Y80.583 E.57002
G1 X89.718 Y81.009 E.01737
G1 X89.549 Y81.254 E.01203
G1 X86.918 Y83.885 E.15038
G1 X86.576 Y84.146 E.01739
G1 X86.343 Y84.189 E.00958
M204 S7000
M204 S3000
G1 X86.313 Y84.717 F12000
M204 S1000
G1 F1800
G1 X49.842 Y84.717 E1.474
G1 X49.497 Y84.681 E.01402
G1 X49.145 Y84.586 E.01474
G1 X48.826 Y84.36 E.0158
G1 X30.174 Y65.709 E1.06605
G1 X29.956 Y65.439 E.01403
G1 X29.774 Y65.123 E.01474
G1 X29.708 Y64.738 E.01579
G1 X29.708 Y39.414 E1.02348
G1 X29.716 Y39.187 E.00918
G1 X29.815 Y38.759 E.01775
G1 X30.079 Y38.387 E.01844
G1 X32.811 Y35.67 E.15572
G1 X33.145 Y35.409 E.01713
G1 X33.538 Y35.295 E.01654
G1 X59.016 Y35.283 E1.02971
G1 X59.248 Y35.292 E.00938
G1 X59.674 Y35.39 E.01767
G1 X60.047 Y35.655 E.01849
G1 X89.826 Y65.433 E1.70203
G1 X90.044 Y65.703 E.01403
G1 X90.226 Y66.019 E.01474
G1 X90.292 Y66.479 E.01878
G1 X90.292 Y80.583 E.57002
G1 X90.256 Y80.927 E.01398
G1 X90.162 Y81.28 E.01476
G1 X89.935 Y81.599 E.01582
G1 X87.284 Y84.251 E.15155
G1 X87.014 Y84.469 E.01403
G1 X86.699 Y84.651 E.0147
G1 X86.372 Y84.707 E.01341
M204 S7000
M204 S3000
G1 X86.342 Y85.234 F12000
M204 S1000
;TYPE:External perimeter
G1 F1800
G1 X49.665 Y85.234 E1.48232
G1 X49.098 Y85.138 E.02324
G1 X48.921 Y85.052 E.00795
G1 X48.481 Y84.746 E.02166
G1 X29.683 Y65.949 E1.07439
G1 X29.351 Y65.481 E.02319
G1 X29.286 Y65.294 E.008
G1 X29.191 Y64.767 E.02164
G1 X29.191 Y39.414 E1.02466
G1 X29.216 Y39.011 E.01632
G1 X29.351 Y38.519 E.02062
G1 X29.683 Y38.052 E.02316
G1 X32.519 Y35.232 E.16164
G1 X32.931 Y34.932 E.0206
G1 X33.465 Y34.778 E.02246
G1 X59.016 Y34.766 E1.03266
G1 X59.422 Y34.791 E.01644
G1 X59.914 Y34.926 E.02062
G1 X60.382 Y35.258 E.02319
G1 X90.317 Y65.193 E1.71097
G1 X90.649 Y65.662 E.02322
G1 X90.766 Y65.996 E.0143
G1 X90.809 Y66.479 E.0196
G1 X90.809 Y80.76 E.57717
G1 X90.713 Y81.326 E.0232
G1 X90.627 Y81.504 E.00799
G1 X90.321 Y81.944 E.02166
G1 X87.524 Y84.742 E.15989
G1 X87.056 Y85.074 E.02319
G1 X86.869 Y85.139 E.008
G1 X86.401 Y85.223 E.01922
M204 S7000
G1 X86.117 Y84.903 F12000
G1 E-.5 F3000
M204 S3000
G1 X78.846 Y79.732 F12000
G1 E.5 F1800
M204 S1000
;TYPE:Perimeter
G1 X78.593 Y79.732 E.01023
G1 X78.037 Y79.665 E.02263
G1 X77.614 Y79.56 E.01761
G1 X77.09 Y79.362 E.02264
G1 X76.704 Y79.159 E.01763
G1 X76.243 Y78.841 E.02263
G1 X75.917 Y78.552 E.01761
G1 X75.546 Y78.133 E.02262
G1 X75.298 Y77.774 E.01763
G1 X75.038 Y77.278 E.02263
G1 X74.883 Y76.87 E.01764
G1 X74.749 Y76.327 E.0226
G1 X74.697 Y75.894 E.01763
G1 X74.697 Y75.334 E.02263
G1 X74.757 Y74.87 E.01891
G1 X74.885 Y74.348 E.02172
G1 X75.05 Y73.927 E.01828
G1 X75.299 Y73.452 E.02168
G1 X75.546 Y73.095 E.01755
G1 X75.917 Y72.676 E.02262
G1 X76.243 Y72.387 E.01761
G1 X76.704 Y72.069 E.02263
G1 X77.09 Y71.866 E.01763
G1 X77.614 Y71.668 E.02264
G1 X78.043 Y71.562 E.01786
G1 X78.578 Y71.497 E.02178
G1 X79.009 Y71.496 E.01742
G1 X79.578 Y71.562 E.02315
G1 X80.008 Y71.668 E.0179
G1 X80.532 Y71.866 E.02264
G1 X80.918 Y72.069 E.01763
G1 X81.379 Y72.387 E.02263
G1 X81.705 Y72.676 E.01761
G1 X82.076 Y73.095 E.02262
G1 X82.324 Y73.454 E.01763
G1 X82.584 Y73.95 E.02263
G1 X82.739 Y74.358 E.01764
G1 X82.873 Y74.901 E.0226
G1 X82.926 Y75.334 E.01763
G1 X82.926 Y75.894 E.02263
G1 X82.873 Y76.327 E.01763
G1 X82.739 Y76.87 E.0226
G1 X82.584 Y77.278 E.01764
G1 X82.324 Y77.774 E.02263
G1 X82.076 Y78.133 E.01763
G1 X81.705 Y78.552 E.02262
G1 X81.379 Y78.841 E.01761
G1 X80.918 Y79.159 E.02263
G1 X80.532 Y79.362 E.01763
G1 X80.008 Y79.56 E.02264
G1 X79.585 Y79.665 E.01761
G1 X78.906 Y79.732 E.02758
M204 S7000
M204 S3000
G1 X78.845 Y79.219 F12000
M204 S1000
G1 F1800
G1 X78.655 Y79.219 E.00768
G1 X78.1 Y79.151 E.0226
G1 X77.274 Y78.878 E.03516
G1 X76.537 Y78.416 E.03515
G1 X75.933 Y77.79 E.03516
G1 X75.756 Y77.534 E.01258
G1 X75.496 Y77.038 E.02263
G1 X75.385 Y76.747 E.01259
G1 X75.251 Y76.203 E.02264
G1 X75.214 Y75.894 E.01258
G1 X75.214 Y75.334 E.02263
G1 X75.259 Y74.994 E.01386
G1 X75.387 Y74.474 E.02164
G1 X75.507 Y74.167 E.01332
G1 X75.757 Y73.693 E.02166
G1 X75.933 Y73.438 E.01252
G1 X76.304 Y73.019 E.02262
G1 X76.537 Y72.812 E.0126
G1 X76.998 Y72.494 E.02263
G1 X77.274 Y72.349 E.0126
G1 X77.797 Y72.151 E.0226
G1 X78.106 Y72.076 E.01285
G1 X78.641 Y72.01 E.02179
G1 X78.949 Y72.009 E.01245
G1 X79.517 Y72.076 E.02312
G1 X79.825 Y72.151 E.01281
G1 X80.348 Y72.349 E.0226
G1 X80.624 Y72.494 E.0126
G1 X81.085 Y72.812 E.02263
G1 X81.318 Y73.019 E.0126
G1 X81.689 Y73.438 E.02262
G1 X81.866 Y73.694 E.01258
G1 X82.126 Y74.19 E.02263
G1 X82.237 Y74.481 E.01259
G1 X82.371 Y75.025 E.02264
G1 X82.408 Y75.334 E.01258
G1 X82.408 Y75.894 E.02263
G1 X82.371 Y76.203 E.01258
G1 X82.237 Y76.747 E.02264
G1 X82.126 Y77.038 E.01259
G1 X81.866 Y77.534 E.02263
G1 X81.689 Y77.79 E.01258
G1 X81.318 Y78.209 E.02262
G1 X80.624 Y78.734 E.03517
G1 X79.825 Y79.077 E.03514
G1 X79.522 Y79.151 E.01261
G1 X78.905 Y79.219 E.02509
M204 S7000
M204 S3000
G1 X78.807 Y78.697 F12000
M204 S1000
G1 F1800
G1 X78.162 Y78.638 E.02618
G1 X77.457 Y78.395 E.03014
G1 X76.831 Y77.99 E.03013
G1 X76.32 Y77.447 E.03014
G1 X75.953 Y76.798 E.03013
G1 X75.753 Y76.079 E.03016
G1 X75.731 Y75.334 E.03012
G1 X75.887 Y74.605 E.03013
G1 X76.214 Y73.935 E.03013
G1 X76.639 Y73.421 E.02696
G1 X76.831 Y73.238 E.01072
G1 X77.291 Y72.92 E.0226
G1 X77.799 Y72.703 E.02233
G1 X78.169 Y72.589 E.01565
G1 X78.704 Y72.523 E.02179
G1 X79.457 Y72.589 E.03055
G1 X80.165 Y72.833 E.03027
G1 X80.791 Y73.238 E.03013
G1 X81.302 Y73.781 E.03014
G1 X81.669 Y74.43 E.03013
G1 X81.869 Y75.148 E.03012
G1 X81.891 Y75.894 E.03016
G1 X81.735 Y76.623 E.03013
G1 X81.49 Y77.139 E.02309
G1 X81.302 Y77.447 E.01458
G1 X80.931 Y77.866 E.02262
G1 X80.331 Y78.308 E.03012
G1 X79.642 Y78.593 E.03013
G1 X78.867 Y78.702 E.03163
M204 S7000
M204 S3000
G1 X78.702 Y78.177 F12000
M204 S1000
;TYPE:External perimeter
G1 F1800
G1 X78.224 Y78.125 E.01943
G1 X77.64 Y77.911 E.02514
G1 X77.125 Y77.564 E.0251
G1 X76.707 Y77.104 E.02512
G1 X76.411 Y76.557 E.02514
G1 X76.255 Y75.956 E.02509
G1 X76.248 Y75.334 E.02514
G1 X76.389 Y74.729 E.02511
G1 X76.671 Y74.175 E.02512
G1 X77.026 Y73.764 E.02195
G1 X77.461 Y73.431 E.02214
G1 X77.64 Y73.316 E.0086
G1 X78.164 Y73.118 E.02264
G1 X78.767 Y73.036 E.02459
G1 X79.397 Y73.103 E.02561
G1 X79.982 Y73.316 E.02516
G1 X80.497 Y73.663 E.0251
G1 X80.915 Y74.124 E.02515
G1 X81.211 Y74.67 E.0251
G1 X81.367 Y75.272 E.02513
G1 X81.374 Y75.894 E.02514
G1 X81.233 Y76.499 E.02511
G1 X80.951 Y77.053 E.02512
G1 X80.544 Y77.523 E.02513
G1 X80.037 Y77.882 E.02511
G1 X79.458 Y78.11 E.02515
G1 X78.842 Y78.192 E.02512
G1 X78.762 Y78.183 E.00325
M204 S7000
G1 X78.488 Y78.514 F12000
G1 E-.5 F3000
M204 S3000
G1 X58.846 Y79.732 F12000
G1 E.5 F1800
M204 S1000
;TYPE:Perimeter
G1 X58.593 Y79.732 E.01023
G1 X58.037 Y79.665 E.02263
G1 X57.614 Y79.56 E.01761
G1 X57.09 Y79.362 E.02264
G1 X56.704 Y79.159 E.01763
G1 X56.243 Y78.841 E.02263
G1 X55.917 Y78.552 E.01761
G1 X55.546 Y78.133 E.02262
G1 X55.298 Y77.774 E.01763
G1 X55.038 Y77.278 E.02263
G1 X54.883 Y76.87 E.01764
G1 X54.749 Y76.327 E.0226
G1 X54.697 Y75.894 E.01763
G1 X54.697 Y75.334 E.02263
G1 X54.749 Y74.901 E.01763
G1 X54.883 Y74.358 E.0226
G1 X55.038 Y73.95 E.01764
G1 X55.298 Y73.454 E.02263
G1 X55.546 Y73.095 E.01763
G1 X55.917 Y72.676 E.02262
G1 X56.243 Y72.387 E.01761
G1 X56.704 Y72.069 E.02263
G1 X57.09 Y71.866 E.01763
G1 X57.614 Y71.668 E.02264
G1 X58.035 Y71.563 E.01754
G1 X58.578 Y71.497 E.02211
G1 X59.009 Y71.496 E.01742
G1 X59.578 Y71.562 E.02315
G1 X60.008 Y71.668 E.0179
G1 X60.532 Y71.866 E.02264
G1 X60.918 Y72.069 E.01763
G1 X61.379 Y72.387 E.02263
G1 X61.799 Y72.782 E.0233
G1 X62.16 Y73.196 E.0222
G1 X62.578 Y73.936 E.03435
G1 X62.743 Y74.382 E.01922
G1 X62.873 Y74.901 E.02162
G1 X62.926 Y75.334 E.01763
G1 X62.926 Y75.894 E.02263
G1 X62.873 Y76.327 E.01763
G1 X62.739 Y76.87 E.0226
G1 X62.584 Y77.278 E.01764
G1 X62.324 Y77.774 E.02263
G1 X62.076 Y78.133 E.01763
G1 X61.705 Y78.552 E.02262
G1 X61.379 Y78.841 E.01761
G1 X60.918 Y79.159 E.02263
G1 X60.532 Y79.362 E.01763
G1 X60.008 Y79.56 E.02264
G1 X59.585 Y79.665 E.01761
G1 X58.906 Y79.732 E.02758
M204 S7000
M204 S3000
G1 X58.845 Y79.219 F12000
M204 S1000
G1 F1800
G1 X58.655 Y79.219 E.00768
G1 X58.1 Y79.151 E.0226
G1 X57.274 Y78.878 E.03516
G1 X56.537 Y78.416 E.03515
G1 X55.933 Y77.79 E.03516
G1 X55.496 Y77.038 E.03515
G1 X55.385 Y76.747 E.01259
G1 X55.251 Y76.203 E.02264
G1 X55.214 Y75.894 E.01258
G1 X55.214 Y75.334 E.02263
G1 X55.251 Y75.025 E.01258
G1 X55.385 Y74.481 E.02264
G1 X55.496 Y74.19 E.01259
G1 X55.756 Y73.694 E.02263
G1 X55.933 Y73.438 E.01258
G1 X56.304 Y73.019 E.02262
G1 X56.537 Y72.812 E.0126
G1 X56.998 Y72.494 E.02263
G1 X57.274 Y72.349 E.0126
G1 X57.797 Y72.151 E.0226
G1 X58.381 Y72.042 E.02401
G1 X58.918 Y72.006 E.02175
G1 X59.517 Y72.076 E.02437
G1 X60.049 Y72.236 E.02245
G1 X60.582 Y72.466 E.02346
G1 X61.085 Y72.812 E.02467
G1 X61.412 Y73.125 E.01829
G1 X61.749 Y73.51 E.02068
G1 X62.12 Y74.177 E.03085
G1 X62.241 Y74.508 E.01424
G1 X62.371 Y75.025 E.02155
G1 X62.408 Y75.334 E.01258
G1 X62.408 Y75.894 E.02263
G1 X62.371 Y76.203 E.01258
G1 X62.237 Y76.747 E.02264
G1 X62.126 Y77.038 E.01259
G1 X61.866 Y77.534 E.02263
G1 X61.689 Y77.79 E.01258
G1 X61.318 Y78.209 E.02262
G1 X60.624 Y78.734 E.03517
G1 X59.825 Y79.077 E.03514
G1 X59.522 Y79.151 E.01261
G1 X58.905 Y79.219 E.02509
M204 S7000
M204 S3000
G1 X58.807 Y78.697 F12000
M204 S1000
G1 F1800
G1 X58.162 Y78.638 E.02618
G1 X57.457 Y78.395 E.03014
G1 X56.831 Y77.99 E.03013
G1 X56.32 Y77.447 E.03014
G1 X55.953 Y76.798 E.03013
G1 X55.753 Y76.079 E.03016
G1 X55.731 Y75.334 E.03012
G1 X55.887 Y74.605 E.03013
G1 X56.121 Y74.11 E.02213
G1 X56.32 Y73.781 E.01554
G1 X56.691 Y73.362 E.02262
G1 X57.291 Y72.92 E.03012
G1 X57.98 Y72.634 E.03015
G1 X58.704 Y72.523 E.0296
G1 X59.457 Y72.589 E.03055
G1 X60.165 Y72.833 E.03027
G1 X60.603 Y73.108 E.0209
G1 X60.931 Y73.362 E.01677
G1 X61.302 Y73.781 E.02262
G1 X61.663 Y74.418 E.02959
G1 X61.868 Y75.145 E.03053
G1 X61.891 Y75.894 E.03029
G1 X61.735 Y76.623 E.03013
G1 X61.409 Y77.293 E.03011
G1 X60.931 Y77.866 E.03016
G1 X60.331 Y78.308 E.03012
G1 X59.642 Y78.593 E.03013
G1 X58.867 Y78.702 E.03163
M204 S7000
M204 S3000
G1 X58.702 Y78.177 F12000
M204 S1000
;TYPE:External perimeter
G1 F1800
G1 X58.224 Y78.125 E.01943
G1 X57.64 Y77.911 E.02514
G1 X57.125 Y77.564 E.0251
G1 X56.707 Y77.104 E.02512
