; HEADER_BLOCK_START
; generated by OrcaSlicer 1.6.4-beta2 on 2023-08-10 at 14:43:35
; total layer number: 30
; HEADER_BLOCK_END

; THUMBNAIL_BLOCK_START
; THUMBNAIL_BLOCK_END

; external perimeters extrusion width = 0.40mm
; perimeters extrusion width = 0.46mm
; infill extrusion width = 0.64mm
; solid infill extrusion width = 0.56mm
; top infill extrusion width = 0.40mm
; first layer extrusion width = 0.50mm

; EXECUTABLE_BLOCK_START
EXCLUDE_OBJECT_DEFINE NAME=top_left_rear_fram_brace_for_tensioner.stl_id_0_copy_0 CENTER=60,60 POLYGON=[[28.811,55.2145],[28.8236,54.9906],[28.8612,54.7695],[28.9233,54.554],[29.0091,54.3467],[29.1176,54.1504],[29.2474,53.9675],[29.3968,53.8003],[48.2253,34.9719],[48.3925,34.8224],[48.5754,34.6926],[48.7717,34.5841],[48.9789,34.4983],[49.1944,34.4362],[49.4155,34.3987],[49.6395,34.3861],[86.3605,34.3861],[86.5845,34.3987],[86.8056,34.4362],[87.0211,34.4983],[87.2283,34.5841],[87.4246,34.6926],[87.6075,34.8224],[87.7747,34.9719],[90.6032,37.8003],[90.7526,37.9675],[90.8824,38.1504],[90.9909,38.3467],[91.0767,38.554],[91.1388,38.7695],[91.1764,38.9906],[91.189,39.2145],[91.189,53.6434],[91.1764,53.8674],[91.1388,54.0885],[91.0767,54.304],[90.9909,54.5112],[90.8824,54.7075],[90.7526,54.8904],[90.6032,55.0577],[70.8188,74.842],[60.6327,85.0281],[60.4655,85.1776],[60.2825,85.3074],[60.0863,85.4158],[59.879,85.5017],[59.6635,85.5638],[59.4424,85.6013],[59.2185,85.6139],[33.6395,85.6139],[33.4155,85.6013],[33.1944,85.5638],[32.9789,85.5017],[32.7717,85.4158],[32.5754,85.3074],[32.3925,85.1776],[32.2253,85.0281],[29.3968,82.1997],[29.2474,82.0325],[29.1176,81.8495],[29.0091,81.6533],[28.9233,81.446],[28.8612,81.2305],[28.8236,81.0094],[28.811,80.7855],[28.811,55.2145]]
M73 P0 R22
;TYPE:Custom
START_PRINT T_BED=105 T_EXTRUDER=260
G90
G21
M83 ; use relative distances for extrusion
; Filament gcode
M106 S0
;LAYER_CHANGE
;Z:0.2
;HEIGHT:0.2
;BEFORE_LAYER_CHANGE
;0.2
G92 E0

;AFTER_LAYER_CHANGE
;0.2
SET_VELOCITY_LIMIT ACCEL=1000 ACCEL_TO_DECEL=500
SET_VELOCITY_LIMIT SQUARE_CORNER_VELOCITY=9
G1 E-.5 F3000
G1 Z.2 F21000
G1 X39.521 Y39.571
G1 E.5 F1800
;TYPE:Skirt
;WIDTH:0.5
G1 F3000
G1 X46.451 Y32.649 E.34619
G1 X47.166 Y32.142 E.03099
G1 X47.864 Y31.806 E.02738
G1 X48.706 Y31.563 E.03099
G1 X49.476 Y31.477 E.02738
G1 X86.366 Y31.472 E1.30391
G1 X87.294 Y31.563 E.03294
G1 X88.136 Y31.806 E.03099
G1 X88.834 Y32.142 E.02738
G1 X89.549 Y32.649 E.03099
G1 X92.925 Y36.026 E.16876
G1 X93.433 Y36.741 E.031
G1 X93.877 Y37.747 E.03888
G1 X94.049 Y38.502 E.02738
G1 X94.103 Y39.215 E.02524
G1 X94.103 Y53.643 E.51
G1 X94.012 Y54.577 E.03314
G1 X93.683 Y55.626 E.03888
G1 X93.259 Y56.394 E.03099
G1 X92.664 Y57.118 E.03315
G1 X62.407 Y87.351 E1.51181
G1 X61.692 Y87.858 E.03099
G1 X60.994 Y88.194 E.02738
G1 X60.152 Y88.437 E.03099
G1 X59.382 Y88.523 E.02738
G1 X33.252 Y88.511 E.92358
G1 X31.864 Y88.194 E.05034
G1 X30.706 Y87.554 E.04675
G1 X27.074 Y83.974 E.18025
G1 X26.567 Y83.259 E.03099
G1 X26.231 Y82.561 E.02739
G1 X25.988 Y81.719 E.03099
G1 X25.897 Y80.785 E.03314
G1 X25.897 Y55.215 E.90383
G1 X25.988 Y54.281 E.03314
G1 X26.231 Y53.439 E.03099
G1 X26.741 Y52.464 E.03889
G1 X27.336 Y51.74 E.03314
G1 X39.492 Y39.599 E.60725
G1 X39.815 Y39.922 F21000
G1 F3000
G1 X46.755 Y32.99 E.34671
G1 X47.387 Y32.542 E.02738
G1 X48.039 Y32.228 E.02557
G1 X48.783 Y32.014 E.02738
G1 X49.639 Y31.929 E.03043
G1 X86.366 Y31.929 E1.29814
G1 X87.217 Y32.014 E.03023
G1 X87.961 Y32.228 E.02737
G1 X88.613 Y32.542 E.02557
G1 X89.245 Y32.99 E.02737
G1 X92.585 Y36.33 E.16695
G1 X93.033 Y36.962 E.02738
G1 X93.438 Y37.874 E.03526
G1 X93.599 Y38.579 E.02557
G1 X93.646 Y39.215 E.02252
G1 X93.646 Y53.643 E.51
G1 X93.561 Y54.5 E.03043
G1 X93.261 Y55.452 E.03527
G1 X92.886 Y56.129 E.02737
G1 X92.341 Y56.795 E.03043
G1 X62.103 Y87.01 E1.51091
G1 X61.471 Y87.458 E.02737
G1 X60.819 Y87.772 E.02557
G1 X60.075 Y87.986 E.02738
G1 X59.356 Y88.067 E.02557
G1 X33.278 Y88.055 E.92177
G1 X32.039 Y87.772 E.04492
G1 X30.971 Y87.181 E.04313
G1 X27.415 Y83.67 E.17664
G1 X26.967 Y83.038 E.02737
G1 X26.653 Y82.386 E.02557
G1 X26.439 Y81.642 E.02737
G1 X26.354 Y80.785 E.03043
G1 X26.354 Y55.215 E.90383
G1 X26.439 Y54.358 E.03043
G1 X26.653 Y53.614 E.02737
G1 X27.114 Y52.729 E.03527
G1 X27.659 Y52.063 E.03042
G1 X39.787 Y39.95 E.60583
; printing object top left rear fram brace for tensioner.stl id:0 copy 0
EXCLUDE_OBJECT_START NAME=top_left_rear_fram_brace_for_tensioner.stl_id_0_copy_0
G1 E-.5
G1 Z.4 F21000
G1 X59.825 Y85.137
G1 Z.2
G1 E.5 F1800
;TYPE:Outer wall
G1 F3000
G1 X59.579 Y85.223 E.00924
G1 X59.209 Y85.264 E.01315
G1 X33.462 Y85.253 E.91005
G1 X33.095 Y85.17 E.0133
G1 X32.756 Y85.006 E.0133
G1 X32.611 Y84.904 E.00629
G1 X29.526 Y81.819 E.15419
G1 X29.326 Y81.501 E.0133
G1 X29.202 Y81.146 E.0133
G1 X29.173 Y80.977 E.00604
G1 X29.161 Y55.224 E.91025
G1 X29.172 Y55.037 E.00663
G1 X29.255 Y54.67 E.0133
G1 X29.418 Y54.331 E.0133
G1 X29.651 Y54.041 E.01315
G1 X48.611 Y35.096 E.94735
G1 X48.756 Y34.994 E.00629
G1 X49.095 Y34.83 E.0133
G1 X49.457 Y34.748 E.01312
G1 X50.138 Y34.736 E.02407
G1 X86.349 Y34.736 E1.27992
G1 X86.727 Y34.779 E.01345
G1 X87.076 Y34.901 E.01305
G1 X87.394 Y35.101 E.0133
G1 X87.534 Y35.226 E.00664
G1 X90.349 Y38.041 E.14069
G1 X90.582 Y38.331 E.01315
G1 X90.748 Y38.677 E.01355
G1 X90.797 Y38.847 E.00629
G1 X90.839 Y39.224 E.0134
G1 X90.839 Y53.634 E.50931
G1 X90.828 Y53.821 E.00664
G1 X90.745 Y54.188 E.0133
G1 X90.581 Y54.527 E.0133
G1 X90.349 Y54.817 E.01315
G1 X60.252 Y84.899 E1.50405
M73 P1 R22
G1 X59.934 Y85.099 E.0133
G1 X59.863 Y85.124 E.00264
G1 X59.66 Y84.665 F21000
;TYPE:Inner wall
G1 F3000
G1 X59.453 Y84.737 E.00775
G1 X59.195 Y84.764 E.00919
G1 X33.532 Y84.757 E.90707
G1 X33.261 Y84.695 E.00981
G1 X33.011 Y84.574 E.00981
G1 X32.809 Y84.41 E.00919
G1 X29.927 Y81.517 E.14434
G1 X29.779 Y81.282 E.00981
G1 X29.673 Y80.935 E.01285
G1 X29.661 Y55.238 E.90827
G1 X29.668 Y55.107 E.00464
G1 X29.73 Y54.836 E.00981
G1 X29.851 Y54.586 E.00981
G1 X30.015 Y54.384 E.00919
G1 X48.923 Y35.488 E.94487
G1 X49.011 Y35.426 E.0038
G1 X49.261 Y35.305 E.00981
G1 X49.518 Y35.247 E.00929
G1 X50.142 Y35.236 E.02208
G1 X86.321 Y35.236 E1.27877
G1 X86.615 Y35.27 E.01046
G1 X86.857 Y35.354 E.00907
G1 X87.092 Y35.502 E.00982
G1 X87.191 Y35.59 E.00465
G1 X89.985 Y38.384 E.1397
G1 X90.149 Y38.586 E.00919
G1 X90.279 Y38.855 E.01056
G1 X90.309 Y38.959 E.00381
G1 X90.339 Y39.238 E.00994
G1 X90.339 Y53.62 E.50832
G1 X90.332 Y53.751 E.00465
G1 X90.27 Y54.022 E.00981
G1 X90.149 Y54.272 E.00982
G1 X89.985 Y54.473 E.00919
G1 X59.95 Y84.498 E1.50108
G1 X59.715 Y84.646 E.00981
G1 X59.698 Y84.652 E.00065
G1 X59.509 Y84.233 F21000
G1 F3000
G1 X59.339 Y84.293 E.00639
G1 X59.182 Y84.307 E.00557
G1 X33.596 Y84.302 E.90435
G1 X33.413 Y84.261 E.00663
G1 X33.244 Y84.179 E.00663
G1 X33.124 Y84.078 E.00556
G1 X30.294 Y81.242 E.14162
G1 X30.194 Y81.083 E.00663
G1 X30.13 Y80.901 E.0068
G1 X30.118 Y55.251 E.90663
G1 X30.164 Y54.988 E.00943
G1 X30.246 Y54.819 E.00663
G1 X30.347 Y54.699 E.00556
G1 X49.209 Y35.846 E.94261
G1 X49.413 Y35.739 E.00815
G1 X49.573 Y35.703 E.00579
G1 X50.146 Y35.693 E.02027
G1 X86.295 Y35.693 E1.27772
G1 X86.513 Y35.718 E.00774
G1 X86.658 Y35.769 E.00543
G1 X86.876 Y35.922 E.00944
G1 X89.653 Y38.699 E.13879
G1 X89.754 Y38.819 E.00556
G1 X89.862 Y39.061 E.00936
G1 X89.882 Y39.251 E.00677
G1 X89.882 Y53.607 E.50741
G1 X89.836 Y53.87 E.00944
G1 X89.754 Y54.039 E.00663
G1 X89.653 Y54.159 E.00556
G1 X59.675 Y84.131 E1.49836
G1 X59.544 Y84.214 E.00546
G1 X59.316 Y83.817 F21000
G1 F3000
G1 X59.169 Y83.85 E.00533
G1 X33.66 Y83.848 E.90163
G1 X33.565 Y83.826 E.00345
G1 X33.438 Y83.746 E.00533
G1 X30.66 Y80.966 E.1389
G1 X30.587 Y80.823 E.00566
G1 X30.575 Y55.264 E.90343
G1 X30.599 Y55.14 E.00444
G1 X30.679 Y55.013 E.00533
G1 X49.485 Y36.212 E.9399
G1 X49.628 Y36.159 E.00541
G1 X50.15 Y36.15 E.01845
G1 X86.27 Y36.151 E1.27667
G1 X86.458 Y36.183 E.00677
G1 X86.562 Y36.254 E.00446
G1 X89.321 Y39.013 E.13788
G1 X89.42 Y39.179 E.00683
G1 X89.425 Y53.594 E.50952
G1 X89.401 Y53.718 E.00446
G1 X89.363 Y53.798 E.00315
G1 X59.399 Y83.765 E1.49787
G1 X59.35 Y83.795 E.00203
G1 X59.127 Y83.393 F21000
G1 F3000
G1 X33.731 Y83.393 E.89763
G1 X31.044 Y80.706 E.13431
G1 X31.032 Y55.306 E.89777
G1 X49.724 Y36.615 E.93432
M73 P2 R22
G1 X86.269 Y36.608 E1.29173
G1 X88.968 Y39.306 E.13489
G1 X88.968 Y53.552 E.50352
G1 X59.155 Y83.364 E1.49023
M73 P2 R21
G1 E-.5
G1 Z.4 F21000
G1 X38.12 Y77.189
G1 X37.787 Y77.085
G1 X37.476 Y76.946
G1 X37.172 Y76.763
G1 X36.897 Y76.547
G1 X36.65 Y76.301
G1 X36.435 Y76.026
G1 X36.255 Y75.728
G1 X36.112 Y75.41
G1 X36.008 Y75.077
G1 X35.945 Y74.734
G1 X35.924 Y74.386
G1 X35.928 Y74.328
G1 X36.263 Y74.348
G1 Z.2
G1 E.5 F1800
;TYPE:Outer wall
G1 F3000
G1 X36.279 Y74.079 E.00953
G1 X36.335 Y73.776 E.01089
G1 X36.426 Y73.482 E.01089
G1 X36.553 Y73.201 E.01089
G1 X36.708 Y72.943 E.01063
G1 X36.901 Y72.695 E.01112
G1 X37.12 Y72.477 E.01091
G1 X37.362 Y72.287 E.01089
G1 X37.626 Y72.128 E.01089
G1 X37.907 Y72.001 E.01089
G1 X38.201 Y71.91 E.01089
G1 X38.504 Y71.854 E.01089
G1 X38.804 Y71.836 E.01063
G1 X39.118 Y71.854 E.01112
G1 X39.421 Y71.91 E.0109
G1 X39.716 Y72.001 E.01089
G1 X39.996 Y72.128 E.01089
G1 X40.26 Y72.287 E.01089
G1 X40.502 Y72.477 E.01089
G1 X40.72 Y72.695 E.01089
G1 X40.91 Y72.937 E.01089
G1 X41.07 Y73.201 E.01089
G1 X41.193 Y73.475 E.01063
G1 X41.287 Y73.775 E.01112
G1 X41.343 Y74.079 E.01091
G1 X41.362 Y74.386 E.01089
G1 X41.343 Y74.694 E.01089
G1 X41.288 Y74.996 E.01089
G1 X41.196 Y75.291 E.01089
G1 X41.07 Y75.571 E.01089
G1 X40.91 Y75.835 E.01089
G1 X40.72 Y76.077 E.01089
G1 X40.502 Y76.295 E.01089
G1 X40.26 Y76.485 E.01089
G1 X39.996 Y76.645 E.01089
G1 X39.722 Y76.768 E.01063
G1 X39.422 Y76.863 E.01112
G1 X39.118 Y76.918 E.0109
G1 X38.811 Y76.937 E.01089
G1 X38.504 Y76.918 E.01089
G1 X38.201 Y76.863 E.01089
G1 X37.907 Y76.771 E.01089
G1 X37.632 Y76.648 E.01063
G1 X37.363 Y76.486 E.01112
G1 X37.12 Y76.295 E.01091
G1 X36.902 Y76.077 E.01089
G1 X36.712 Y75.835 E.01089
G1 X36.553 Y75.571 E.01089
G1 X36.426 Y75.291 E.01089
G1 X36.335 Y74.996 E.01089
G1 X36.279 Y74.694 E.01089
G1 X36.26 Y74.388 E.01083
G1 X35.761 Y74.41 F21000
;TYPE:Inner wall
G1 F3000
G1 X35.759 Y74.386 E.00086
G1 X35.782 Y74.018 E.01302
G1 X35.848 Y73.656 E.01302
G1 X35.958 Y73.304 E.01303
G1 X36.109 Y72.968 E.01302
G1 X36.296 Y72.659 E.01275
G1 X36.526 Y72.363 E.01326
G1 X36.787 Y72.102 E.01307
G1 X37.078 Y71.875 E.01302
G1 X37.393 Y71.684 E.01303
G1 X37.729 Y71.533 E.01303
G1 X38.081 Y71.423 E.01303
G1 X38.443 Y71.357 E.01302
G1 X38.803 Y71.335 E.01275
G1 X39.178 Y71.357 E.01326
G1 X39.541 Y71.423 E.01307
G1 X39.893 Y71.533 E.01303
G1 X40.229 Y71.684 E.01302
G1 X40.545 Y71.875 E.01302
G1 X40.835 Y72.102 E.01302
G1 X41.095 Y72.363 E.01302
G1 X41.322 Y72.653 E.01303
G1 X41.513 Y72.968 E.01302
G1 X41.661 Y73.297 E.01275
G1 X41.774 Y73.655 E.01326
G1 X41.84 Y74.018 E.01307
G1 X41.863 Y74.386 E.01302
G1 X41.84 Y74.754 E.01302
G1 X41.774 Y75.116 E.01303
G1 X41.664 Y75.468 E.01303
G1 X41.513 Y75.804 E.01302
G1 X41.322 Y76.12 E.01302
G1 X41.095 Y76.41 E.01303
G1 X40.835 Y76.67 E.01303
G1 X40.545 Y76.897 E.01302
G1 X40.229 Y77.088 E.01302
G1 X39.9 Y77.236 E.01275
G1 X39.543 Y77.349 E.01326
G1 X39.179 Y77.415 E.01307
G1 X38.811 Y77.438 E.01302
G1 X38.443 Y77.415 E.01303
G1 X38.081 Y77.349 E.01302
G1 X37.729 Y77.239 E.01302
G1 X37.4 Y77.091 E.01275
G1 X37.079 Y76.898 E.01326
G1 X36.787 Y76.67 E.01307
G1 X36.527 Y76.41 E.01302
G1 X36.3 Y76.12 E.01303
G1 X36.109 Y75.804 E.01302
G1 X35.958 Y75.468 E.01302
G1 X35.848 Y75.116 E.01303
G1 X35.782 Y74.754 E.01302
G1 X35.763 Y74.45 E.01075
G1 X35.305 Y74.436 F21000
G1 F3000
G1 X35.302 Y74.386 E.00176
G1 X35.327 Y73.963 E.01498
G1 X35.404 Y73.546 E.01498
G1 X35.53 Y73.142 E.01498
G1 X35.704 Y72.755 E.01498
G1 X35.918 Y72.4 E.01468
G1 X36.183 Y72.06 E.01521
G1 X36.484 Y71.759 E.01505
G1 X36.817 Y71.498 E.01498
G1 X37.18 Y71.279 E.01498
G1 X37.567 Y71.105 E.01498
G1 X37.971 Y70.979 E.01498
G1 X38.388 Y70.902 E.01498
G1 X38.802 Y70.877 E.01468
G1 X39.232 Y70.902 E.01521
G1 X39.651 Y70.979 E.01505
G1 X40.056 Y71.105 E.01498
G1 X40.442 Y71.279 E.01498
G1 X40.805 Y71.498 E.01498
G1 X41.138 Y71.759 E.01498
G1 X41.438 Y72.059 E.01498
G1 X41.699 Y72.393 E.01498
G1 X41.919 Y72.755 E.01498
G1 X42.089 Y73.134 E.01468
G1 X42.218 Y73.544 E.01521
G1 X42.295 Y73.963 E.01505
G1 X42.32 Y74.386 E.01498
G1 X42.295 Y74.809 E.01498
G1 X42.219 Y75.226 E.01498
G1 X42.092 Y75.631 E.01498
G1 X41.919 Y76.017 E.01498
G1 X41.699 Y76.38 E.01498
G1 X41.438 Y76.713 E.01498
G1 X41.138 Y77.013 E.01498
G1 X40.805 Y77.274 E.01498
G1 X40.442 Y77.494 E.01498
G1 X40.063 Y77.664 E.01468
G1 X39.653 Y77.793 E.01521
G1 X39.234 Y77.87 E.01505
G1 X38.811 Y77.896 E.01498
G1 X38.388 Y77.87 E.01498
G1 X37.971 Y77.794 E.01498
G1 X37.567 Y77.667 E.01498
G1 X37.188 Y77.497 E.01468
G1 X36.819 Y77.276 E.01521
G1 X36.484 Y77.013 E.01505
G1 X36.184 Y76.713 E.01498
G1 X35.923 Y76.38 E.01498
G1 X35.704 Y76.017 E.01498
G1 X35.53 Y75.631 E.01498
G1 X35.404 Y75.226 E.01498
G1 X35.327 Y74.809 E.01498
G1 X35.307 Y74.476 E.01181
G1 X34.848 Y74.461 F21000
G1 F3000
G1 X34.844 Y74.386 E.00265
G1 X34.873 Y73.908 E.01693
G1 X34.959 Y73.437 E.01693
G1 X35.101 Y72.979 E.01694
G1 X35.298 Y72.542 E.01693
G1 X35.541 Y72.14 E.01661
G1 X35.84 Y71.757 E.01717
G1 X36.18 Y71.416 E.01702
G1 X36.557 Y71.121 E.01693
G1 X36.967 Y70.873 E.01693
G1 X37.404 Y70.677 E.01693
G1 X37.862 Y70.534 E.01693
G1 X38.333 Y70.448 E.01693
G1 X38.802 Y70.419 E.01661
G1 X39.287 Y70.447 E.01717
G1 X39.76 Y70.534 E.01703
G1 X40.218 Y70.677 E.01693
G1 X40.655 Y70.873 E.01693
G1 X41.065 Y71.121 E.01693
G1 X41.442 Y71.416 E.01693
G1 X41.781 Y71.755 E.01693
G1 X42.076 Y72.132 E.01694
G1 X42.324 Y72.542 E.01693
G1 X42.517 Y72.971 E.01661
G1 X42.663 Y73.434 E.01717
G1 X42.749 Y73.908 E.01703
G1 X42.778 Y74.386 E.01693
G1 X42.749 Y74.864 E.01693
G1 X42.663 Y75.336 E.01694
G1 X42.521 Y75.793 E.01694
G1 X42.324 Y76.23 E.01693
G1 X42.076 Y76.64 E.01693
G1 X41.781 Y77.017 E.01694
G1 X41.442 Y77.356 E.01693
G1 X41.065 Y77.651 E.01693
G1 X40.655 Y77.899 E.01693
G1 X40.226 Y78.092 E.01661
G1 X39.763 Y78.238 E.01717
G1 X39.289 Y78.325 E.01702
G1 X38.811 Y78.353 E.01693
G1 X38.333 Y78.325 E.01693
G1 X37.862 Y78.238 E.01693
G1 X37.404 Y78.096 E.01693
G1 X36.976 Y77.903 E.01661
G1 X36.559 Y77.653 E.01717
G1 X36.18 Y77.356 E.01703
G1 X35.841 Y77.017 E.01693
G1 X35.546 Y76.64 E.01694
G1 X35.298 Y76.23 E.01693
G1 X35.101 Y75.793 E.01693
G1 X34.959 Y75.336 E.01693
G1 X34.873 Y74.864 E.01693
G1 X34.851 Y74.501 E.01287
G1 X34.392 Y74.486 F21000
G1 F3000
G1 X34.386 Y74.386 E.00354
G1 X34.418 Y73.853 E.01889
G1 X34.514 Y73.327 E.01889
G1 X34.673 Y72.817 E.01889
G1 X34.893 Y72.33 E.01888
G1 X35.164 Y71.881 E.01854
G1 X35.496 Y71.454 E.01913
G1 X35.877 Y71.074 E.019
G1 X36.297 Y70.744 E.01889
G1 X36.754 Y70.468 E.01889
G1 X37.242 Y70.248 E.01889
G1 X37.752 Y70.089 E.01889
G1 X38.278 Y69.993 E.01889
G1 X38.801 Y69.961 E.01854
G1 X39.341 Y69.992 E.01912
G1 X39.87 Y70.089 E.019
G1 X40.38 Y70.248 E.01889
G1 X40.868 Y70.468 E.01889
G1 X41.325 Y70.744 E.01889
G1 X41.746 Y71.074 E.01889
G1 X42.123 Y71.452 E.01889
G1 X42.453 Y71.872 E.01889
G1 X42.729 Y72.33 E.01889
G1 X42.945 Y72.808 E.01854
G1 X43.107 Y73.324 E.01912
G1 X43.204 Y73.853 E.01901
G1 X43.236 Y74.386 E.01889
G1 X43.204 Y74.919 E.01889
G1 X43.108 Y75.445 E.01889
G1 X42.949 Y75.955 E.01889
G1 X42.729 Y76.443 E.01889
G1 X42.453 Y76.9 E.01889
G1 X42.123 Y77.321 E.01889
G1 X41.746 Y77.698 E.01889
G1 X41.325 Y78.028 E.01889
G1 X40.868 Y78.304 E.01889
G1 X40.389 Y78.52 E.01854
G1 X39.873 Y78.682 E.01912
G1 X39.344 Y78.779 E.019
G1 X38.811 Y78.811 E.01889
G1 X38.278 Y78.779 E.01889
G1 X37.752 Y78.683 E.01889
G1 X37.242 Y78.524 E.01889
G1 X36.764 Y78.309 E.01854
G1 X36.3 Y78.03 E.01912
G1 X35.876 Y77.698 E.019
G1 X35.499 Y77.321 E.01888
G1 X35.169 Y76.9 E.01889
G1 X34.893 Y76.443 E.01889
G1 X34.673 Y75.955 E.01889
G1 X34.514 Y75.445 E.01889
G1 X34.418 Y74.92 E.01889
G1 X34.394 Y74.526 E.01393
G1 E-.5
G1 Z.4 F21000
G1 X38.145 Y61.845
G1 Z.2
G1 E.5 F1800
;TYPE:Outer wall
G1 F3000
G1 X37.907 Y61.771 E.00883
