; generated by SuperSlicer 2.5.59 on 2023-08-04 at 22:41:34 UTC


;
;

;
;
; 

; external perimeters extrusion width = 0.40mm
; perimeters extrusion width = 0.46mm
; infill extrusion width = 0.64mm
; solid infill extrusion width = 0.56mm
; top infill extrusion width = 0.40mm
; support material extrusion width = 0.46mm
; first layer extrusion width = 0.50mm

; object:{"name":"trihorn_Fan_Duct_w-brace_v2(1)","id":"trihorn_Fan_Duct_w-brace_v2(1).stl id:0 copy 0","object_center":[60.000000,60.000000,0.000000],"boundingbox_center":[60.000000,60.000000,23.456001],"boundingbox_size":[57.307999,12.680000,46.912003]}
EXCLUDE_OBJECT_DEFINE NAME=trihorn_Fan_Duct_w_brace_v2_1_stl_id_0_copy_0 CENTER=60.000000,60.000000 POLYGON=[[31.346000,60.756000],[31.352002,60.544004],[31.376000,60.326000],[31.416000,60.108000],[31.472000,59.890000],[31.546002,59.676004],[31.638000,59.464000],[31.744000,59.260004],[31.868000,59.064000],[32.006000,58.878000],[32.158002,58.704000],[32.320000,58.542000],[32.495998,58.394000],[32.675998,58.264000],[32.868000,58.146000],[32.964000,58.094000],[33.057998,58.046000],[33.164002,57.998000],[33.256000,57.960000],[34.720000,57.388000],[41.160000,54.874000],[42.436000,54.376000],[43.646000,53.904000],[44.100000,53.728000],[44.250000,53.682000],[44.267996,53.678000],[44.404000,53.660000],[75.596000,53.660000],[75.729992,53.678000],[75.750000,53.682000],[75.898000,53.728000],[76.354008,53.904000],[85.278000,57.388000],[86.742008,57.960000],[86.940000,58.046000],[87.132008,58.146000],[87.320000,58.262000],[87.502000,58.394000],[87.678000,58.542000],[87.841992,58.704000],[87.994000,58.878000],[88.130008,59.064000],[88.254000,59.260004],[88.362000,59.464000],[88.452000,59.676004],[88.526000,59.890000],[88.584000,60.108000],[88.622000,60.326000],[88.646000,60.544004],[88.654000,60.756000],[88.654000,61.610000],[88.642000,61.920000],[88.634000,61.992000],[88.598000,62.264000],[88.582000,62.336000],[88.518008,62.612000],[88.425992,62.888000],[88.402000,62.956000],[88.278000,63.228000],[88.244000,63.294000],[88.093992,63.556000],[88.050000,63.622000],[87.962000,63.748000],[87.869992,63.870000],[87.716000,64.050004],[87.610000,64.162004],[87.498000,64.267996],[87.432000,64.328004],[87.313992,64.428000],[87.194000,64.519996],[87.118000,64.578004],[86.992008,64.664000],[86.902000,64.718004],[86.642000,64.867996],[86.540000,64.920000],[86.272000,65.040000],[86.156000,65.089996],[86.026000,65.138000],[85.757992,65.224000],[85.618000,65.267996],[85.464008,65.309996],[85.302000,65.350000],[81.098000,66.339996],[39.102000,66.339996],[34.698000,65.350000],[34.534000,65.309996],[34.382000,65.267996],[34.242000,65.224000],[33.974000,65.138000],[33.842000,65.089996],[33.728000,65.040000],[33.576000,64.972000],[33.460000,64.920000],[33.358002,64.867996],[33.096000,64.718004],[33.008000,64.664000],[32.882000,64.578004],[32.683998,64.428000],[32.565998,64.328004],[32.501998,64.267996],[32.390000,64.162004],[32.284000,64.050004],[32.130002,63.870000],[32.036000,63.748000],[31.992000,63.684000],[31.950000,63.622000],[31.905998,63.556000],[31.754002,63.294000],[31.720002,63.228000],[31.598000,62.956000],[31.574002,62.888000],[31.481998,62.612000],[31.418000,62.336000],[31.402000,62.264000],[31.363998,61.992000],[31.358002,61.920000],[31.346000,61.610000],[31.346000,60.756000]]
; plater:{"center":[60.000000,60.000000,0.000000],"boundingbox_center":[60.000000,60.000000,23.456001],"boundingbox_size":[57.307999,12.680000,46.912003]}

M73 P0 R34
;TYPE:Custom
; custom gcode: start_gcode
START_PRINT T_BED=110 T_EXTRUDER=260
; custom gcode end: start_gcode
M107
G21 ; set units to millimeters
G90 ; use absolute coordinates
M82 ; use absolute distances for extrusion
G92 E0
; custom gcode: start_filament_gcode
; filament start gcode

    PRESSURE_ADVANCE_SELECT FILAMENT=ABS
; custom gcode end: start_filament_gcode
;_TOOLCHANGE 0
M104 S260 ; set temperature
M109 S260 ; set temperature and wait for it to be reached
M190 S110 ; set bed temperature and wait for it to be reached
;LAYER_CHANGE
;Z:0.2
;HEIGHT:0.2
G1 Z0.2 F12000
M73 P0 R34
G1 E-0.5 F2400
M204 S2000
G1 X39.44 Y52.19 F12000
G1 E0 F1800
;TYPE:Skirt
;WIDTH:0.52
G1 X38.711 Y52.765 E0.03412
G1 X34.849 Y56.33 E0.22717
G1 X34.049 Y57.393 E0.27606
G1 X33.654 Y59.06 E0.33896
G1 X33.652 Y68.893 E0.70017
G1 X34.389 Y71.114 E0.78613
G1 X35.701 Y72.214 E0.84904
G1 X37.368 Y72.609 E0.91194
G1 X82.826 Y72.609 E2.5818
G1 X85.046 Y71.872 E2.66773
G1 X86.146 Y70.56 E2.73064
G1 X86.541 Y68.893 E2.79354
G1 X86.541 Y58.509 E3.175
G1 X86.147 Y56.844 E3.23786
G1 X85.047 Y55.531 E3.30077
G1 X80.3 Y52.023 E3.5176
G1 X79.68 Y51.684 E3.54354
G1 X78.683 Y51.302 E3.58275
G1 X77.989 Y51.138 E3.60896
G1 X77.024 Y51.036 E3.64461
G1 X43.185 Y51.03 E4.88765
G1 X41.602 Y51.224 E4.94623
G1 X40.316 Y51.684 E4.99642
G1 X39.44 Y52.19 E5.03357
G1 X39.7 Y52.59 F12000
G1 F1800
G1 X39.034 Y53.116 E5.06475
G1 X35.173 Y56.681 E5.2578
G1 X34.525 Y57.512 E5.29651
G1 X34.131 Y59.06 E5.35518
G1 X34.129 Y68.893 E5.71639
G1 X34.649 Y70.652 E5.78376
G1 X35.82 Y71.738 E5.84243
G1 X37.368 Y72.132 E5.9011
G1 X82.826 Y72.132 E7.57096
G1 X84.584 Y71.612 E7.6383
G1 X85.67 Y70.441 E7.69697
G1 X86.064 Y68.893 E7.75564
G1 X86.064 Y58.509 E8.1371
G1 X85.767 Y57.154 E8.18804
G1 X84.762 Y55.913 E8.24671
G1 X80.039 Y52.423 E8.46242
G1 X78.559 Y51.762 E8.52196
G1 X76.997 Y51.512 E8.58009
G1 X43.185 Y51.507 E9.82213
G1 X41.727 Y51.684 E9.87607
G1 X40.532 Y52.11 E9.92269
G1 X39.7 Y52.59 E9.95795
G92 E0
G1 E-0.5 F2400
; printing object trihorn_Fan_Duct_w-brace_v2(1).stl id:0 copy 0
EXCLUDE_OBJECT_START NAME=trihorn_Fan_Duct_w_brace_v2_1_stl_id_0_copy_0
G1 X67.759 Y68.896 F12000
G1 E0 F1800
;TYPE:Support material
;WIDTH:0.5
G1 X68.666 Y67.35 E0.06311
G1 X69.78 Y67.35 E0.1023
G1 X70.266 Y67.305 E0.11949
G1 X70.662 Y67.208 E0.13381
G1 X71.013 Y67.071 E0.14709
G1 X71.355 Y66.887 E0.16075
G1 X71.788 Y66.556 E0.17995
G1 X72.137 Y66.176 E0.1981
G1 X72.399 Y65.772 E0.21503
G1 X72.531 Y65.496 E0.22579
G1 X72.625 Y65.215 E0.23623
G1 X72.668 Y65.165 E0.23855
G1 X72.98 Y64.918 E0.25258
G1 X73.164 Y64.816 E0.25996
G1 X73.553 Y64.673 E0.27454
G1 X73.849 Y64.62 E0.28513
G1 X74.076 Y64.607 E0.29312
G1 X74.793 Y64.663 E0.31844
G1 X75.281 Y64.665 E0.33562
G1 X75.815 Y64.623 E0.35447
G1 X76.3 Y64.543 E0.37177
G1 X76.783 Y64.422 E0.38929
G1 X77.249 Y64.262 E0.40664
G1 X77.702 Y64.063 E0.42405
G1 X78.134 Y63.83 E0.44132
G1 X78.512 Y63.588 E0.45711
G1 X78.939 Y63.26 E0.47609
G1 X79.304 Y62.927 E0.49346
G1 X79.612 Y62.596 E0.50935
G1 X79.919 Y62.211 E0.52671
G1 X80.193 Y61.803 E0.544
G1 X80.455 Y61.329 E0.56305
G1 X80.639 Y60.918 E0.57891
G1 X80.804 Y60.456 E0.59618
G1 X80.942 Y59.937 E0.61508
G1 X81.027 Y59.449 E0.63248
G1 X81.068 Y59.001 E0.64834
G1 X81.066 Y58.208 E0.67624
G1 X82.825 Y58.509 E0.73905
G1 X82.825 Y68.893 E1.10452
G1 X67.759 Y68.896 E1.63475
G1 X82.346 Y68.779 F12000
G1 F1800
G1 X82.346 Y58.742 E1.98798
G1 X81.838 Y58.656 E2.00611
G1 X81.838 Y68.582 E2.35548
G1 X81.33 Y68.582 E2.37335
G1 X81.33 Y59.525 E2.69214
G1 X81.247 Y59.998 E2.70904
G1 X81.115 Y60.501 E2.72736
G1 X80.947 Y60.986 E2.74543
G1 X80.823 Y61.27 E2.75632
G1 X80.823 Y68.582 E3.01369
G1 X80.315 Y68.583 E3.03156
G1 X80.315 Y62.18 E3.25689
G1 X80.167 Y62.398 E3.26616
G1 X79.807 Y62.843 E3.28631
G1 X79.807 Y68.583 E3.48829
G1 X79.299 Y68.583 E3.50617
G1 X79.299 Y63.353 E3.69021
G1 X78.791 Y63.767 E3.71328
G1 X78.791 Y68.583 E3.88274
G1 X78.283 Y68.583 E3.90062
G1 X78.283 Y64.103 E4.05827
G1 X77.775 Y64.372 E4.07851
G1 X77.775 Y68.583 E4.22668
G1 X77.267 Y68.583 E4.24456
G1 X77.267 Y64.586 E4.38522
G1 X76.76 Y64.75 E4.40401
G1 X76.76 Y68.583 E4.53889
G1 X76.252 Y68.583 E4.55676
G1 X76.252 Y64.867 E4.68752
G1 X75.744 Y64.942 E4.70559
G1 X75.744 Y68.583 E4.8337
G1 X75.236 Y68.583 E4.85158
G1 X75.236 Y64.976 E4.97851
G1 X74.728 Y64.97 E4.99639
G1 X74.728 Y68.582 E5.12351
G1 X74.22 Y68.582 E5.14139
G1 X74.22 Y64.93 E5.26991
G1 X74.072 Y64.919 E5.27515
G1 X73.712 Y64.96 E5.28789
G1 X73.712 Y68.582 E5.41536
G1 X73.205 Y68.582 E5.43323
G1 X73.205 Y65.149 E5.55407
G1 X72.901 Y65.374 E5.56738
G1 X72.816 Y65.621 E5.57656
G1 X72.697 Y65.869 E5.58626
G1 X72.697 Y68.582 E5.68175
G1 X72.189 Y68.582 E5.69962
G1 X72.189 Y66.589 E5.76977
G1 X71.99 Y66.792 E5.77977
G1 X71.681 Y67.035 E5.79359
G1 X71.681 Y68.583 E5.84808
G1 X71.173 Y68.583 E5.86596
G1 X71.173 Y67.339 E5.90973
G1 X70.665 Y67.532 E5.92885
G1 X70.665 Y68.584 E5.96586
G1 X70.157 Y68.584 E5.98373
G1 X70.157 Y67.628 E6.01736
G1 X69.649 Y67.661 E6.03527
G1 X69.649 Y68.584 E6.06776
G1 X69.142 Y68.585 E6.08564
G1 X69.142 Y67.661 E6.11815
G1 X68.844 Y67.661 E6.12861
G1 X68.634 Y68.02 E6.14326
G1 X68.634 Y68.782 E6.17007
G92 E0
G1 E-0.5 F2400
G1 X50.14 Y67.374 F12000
G1 E0 F1800
G1 X49.271 Y68.892 E0.06156
G1 X37.368 Y68.893 E0.48047
M73 P1 R34
G1 X37.369 Y59.06 E0.82653
G1 X38.913 Y58.73 E0.88209
G1 X38.925 Y58.957 E0.89012
G1 X38.977 Y59.495 E0.90913
G1 X39.065 Y59.977 E0.92638
G1 X39.179 Y60.413 E0.94221
G1 X39.343 Y60.881 E0.95969
G1 X39.564 Y61.372 E0.97861
G1 X39.782 Y61.764 E0.99443
G1 X40.05 Y62.173 E1.01164
G1 X40.386 Y62.598 E1.0307
G1 X40.724 Y62.958 E1.04806
G1 X41.057 Y63.26 E1.06389
G1 X41.45 Y63.562 E1.08134
G1 X41.902 Y63.855 E1.10029
G1 X42.337 Y64.083 E1.11759
G1 X42.749 Y64.262 E1.13338
G1 X43.215 Y64.422 E1.15073
G1 X43.698 Y64.543 E1.16824
G1 X44.183 Y64.623 E1.18555
G1 X44.717 Y64.665 E1.2044
G1 X45.205 Y64.663 E1.22159
G1 X45.922 Y64.607 E1.2469
G1 X46.149 Y64.619 E1.2549
G1 X46.448 Y64.673 E1.26558
G1 X46.836 Y64.816 E1.28014
G1 X47.018 Y64.917 E1.28747
G1 X47.207 Y65.053 E1.29565
G1 X47.375 Y65.218 E1.30394
G1 X47.504 Y65.583 E1.31758
G1 X47.734 Y65.997 E1.33424
G1 X47.959 Y66.295 E1.34738
G1 X48.309 Y66.641 E1.36469
G1 X48.737 Y66.941 E1.38309
G1 X49.082 Y67.115 E1.39669
G1 X49.531 Y67.263 E1.41332
G1 X50.14 Y67.374 E1.43512
G1 X49.335 Y68.551 F12000
G1 F1800
G1 X49.335 Y67.527 E1.47117
G1 X49.049 Y67.436 E1.48173
G1 X48.827 Y67.337 E1.49028
G1 X48.827 Y68.581 E1.53407
G1 X48.319 Y68.581 E1.55195
G1 X48.319 Y67.028 E1.60663
G1 X48.018 Y66.802 E1.61986
G1 X47.811 Y66.589 E1.63032
G1 X47.811 Y68.581 E1.70045
G1 X47.303 Y68.582 E1.71832
G1 X47.303 Y65.865 E1.81395
G1 X47.175 Y65.605 E1.82414
G1 X47.1 Y65.375 E1.83265
G1 X46.795 Y65.149 E1.84602
G1 X46.795 Y68.583 E1.96687
G1 X46.288 Y68.582 E1.98474
G1 X46.288 Y64.96 E2.11223
G1 X45.926 Y64.919 E2.12502
G1 X45.78 Y64.93 E2.1302
G1 X45.78 Y68.583 E2.25874
G1 X45.272 Y68.582 E2.27661
G1 X45.272 Y64.97 E2.40375
G1 X44.764 Y64.976 E2.42163
G1 X44.764 Y68.583 E2.54856
G1 X44.256 Y68.583 E2.56644
G1 X44.256 Y64.942 E2.69454
G1 X43.748 Y64.867 E2.71261
G1 X43.748 Y68.583 E2.84336
G1 X43.24 Y68.583 E2.86123
G1 X43.24 Y64.751 E2.99609
G1 X42.733 Y64.586 E3.01488
G1 X42.733 Y68.582 E3.15552
G1 X42.225 Y68.582 E3.17339
G1 X42.225 Y64.373 E3.32154
G1 X41.717 Y64.107 E3.34171
G1 X41.717 Y68.582 E3.49922
G1 X41.209 Y68.582 E3.5171
G1 X41.209 Y63.769 E3.6865
G1 X40.701 Y63.357 E3.70952
G1 X40.701 Y68.582 E3.89344
G1 X40.193 Y68.582 E3.91131
G1 X40.193 Y62.847 E4.11315
G1 X39.829 Y62.398 E4.13351
G1 X39.685 Y62.185 E4.14256
G1 X39.685 Y68.582 E4.36772
G1 X39.177 Y68.582 E4.38559
G1 X39.177 Y61.275 E4.64277
G1 X39.053 Y60.991 E4.65367
G1 X38.88 Y60.498 E4.67208
G1 X38.751 Y59.996 E4.6903
G1 X38.67 Y59.539 E4.70663
G1 X38.67 Y68.582 E5.02489
G1 X38.162 Y68.582 E5.04277
G1 X38.162 Y59.007 E5.37975
G92 E0
G1 E-0.5 F2400
G1 X65.478 Y60.972 F12000
G1 E0 F1800
G1 X65.496 Y60.788 E0.0065
G1 X65.541 Y60.369 E0.02133
G1 X65.618 Y60.039 E0.03324
G1 X66.107 Y58.724 E0.08262
G1 X67.68 Y57.947 E0.1444
G1 X68.393 Y58.011 E0.16957
G1 X68.864 Y57.955 E0.18626
G1 X69.116 Y57.986 E0.19519
G1 X69.57 Y57.932 E0.2113
G1 X69.771 Y57.941 E0.21839
G1 X69.772 Y63.496 E0.41387
G1 X69.769 Y63.896 E0.42795
G1 X69.745 Y64.005 E0.43189
G1 X65.56 Y64.014 E0.57918
G1 X65.433 Y63.166 E0.60938
G1 X65.479 Y62.637 E0.62805
G1 X65.478 Y60.972 E0.68667
G1 X69.142 Y63.9 F12000
G1 F1800
G1 X69.142 Y58.296 E0.88391
G1 X68.863 Y58.268 E0.89376
G1 X68.634 Y58.295 E0.90189
G1 X68.634 Y63.704 E1.09224
G1 X68.126 Y63.704 E1.11011
G1 X68.126 Y58.299 E1.30033
G1 X67.74 Y58.264 E1.31398
G1 X67.618 Y58.324 E1.31876
G1 X67.618 Y63.704 E1.50808
G1 X67.11 Y63.704 E1.52596
G1 X67.11 Y58.575 E1.70645
G1 X66.602 Y58.826 E1.72639
G1 X66.602 Y63.704 E1.89805
G1 X66.094 Y63.704 E1.91593
G1 X66.094 Y59.085 E2.07847
G92 E0
G1 E-0.5 F2400
G1 X54.266 Y60.345 F12000
G1 E0 F1800
G1 X54.336 Y61.049 E0.0249
G1 X54.335 Y61.879 E0.05411
G1 X54.241 Y62.112 E0.06294
G1 X54.61 Y62.612 E0.08483
G1 X54.439 Y64.014 E0.13453
G1 X50.257 Y64.006 E0.28172
G1 X50.23 Y63.878 E0.28633
G1 X50.227 Y63.496 E0.29977
G1 X50.226 Y57.922 E0.49596
G1 X50.464 Y57.867 E0.50455
G1 X51.433 Y58.095 E0.53961
G1 X52.198 Y58.029 E0.56665
G1 X53.73 Y58.838 E0.62761
G1 X54.173 Y60.009 E0.67169
G1 X54.266 Y60.345 E0.68395
G1 X53.906 Y63.9 F12000
G1 F1800
G1 X53.906 Y60.208 E0.81387
G1 X53.877 Y60.105 E0.81763
G1 X53.481 Y59.058 E0.85705
G1 X53.398 Y59.013 E0.86038
G1 X53.398 Y63.703 E1.02544
G1 X52.89 Y63.703 E1.04331
G1 X52.89 Y58.745 E1.2178
G1 X52.382 Y58.477 E1.23801
G1 X52.382 Y63.703 E1.42193
G1 X51.874 Y63.703 E1.4398
G1 X51.874 Y58.369 E1.62753
G1 X51.41 Y58.409 E1.64392
G1 X51.366 Y58.399 E1.64551
G1 X51.366 Y63.703 E1.83218
G1 X50.858 Y63.703 E1.85005
G1 X50.858 Y58.077 E2.04805
G92 E0
G1 E-0.5 F2400
G1 X73.952 Y58.525 F12000
G1 E0 F1800
G1 X73.978 Y58.387 E0.00495
G1 X74.083 Y58.121 E0.01501
G1 X74.251 Y57.891 E0.02502
G1 X74.352 Y57.796 E0.02988
G1 X74.593 Y57.643 E0.03993
G1 X74.723 Y57.592 E0.04486
G1 X75.004 Y57.537 E0.05495
G1 X75.284 Y57.556 E0.06479
G1 X75.555 Y57.643 E0.07482
G1 X75.681 Y57.713 E0.0799
G1 X75.896 Y57.889 E0.08967
G1 X75.986 Y57.999 E0.09468
G1 X76.063 Y58.121 E0.09976
G1 X76.168 Y58.387 E0.10981
G1 X76.195 Y58.525 E0.11477
G1 X76.195 Y58.808 E0.12474
G1 X76.168 Y58.946 E0.12968
G1 X76.064 Y59.208 E0.13962
G1 X75.896 Y59.442 E0.14975
G1 X75.681 Y59.619 E0.15955
G1 X75.421 Y59.742 E0.16967
G1 X75.287 Y59.776 E0.17453
G1 X75.146 Y59.793 E0.17952
G1 X74.862 Y59.776 E0.18954
G1 X74.727 Y59.741 E0.19447
G1 X74.469 Y59.62 E0.20448
G1 X74.251 Y59.44 E0.21445
G1 X74.16 Y59.329 E0.21951
G1 X74.083 Y59.208 E0.22453
G1 X73.978 Y58.946 E0.23447
G1 X73.952 Y58.808 E0.23941
G1 X73.952 Y58.525 E0.24939
G1 X75.744 Y59.427 F12000
G1 F1800
G1 X75.744 Y58.198 E0.29265
G1 X75.668 Y58.101 E0.29699
G1 X75.515 Y57.976 E0.30395
G1 X75.422 Y57.925 E0.30767
G1 X75.236 Y57.864 E0.31456
G1 X75.236 Y59.468 E0.37101
G1 X75.02 Y59.483 E0.37864
G1 X74.92 Y59.47 E0.38217
G1 X74.728 Y59.407 E0.38928
G1 X74.728 Y57.713 E0.44891
G92 E0
G1 E-0.5 F2400
G1 X46.044 Y58.525 F12000
G1 E0 F1800
G1 X46.044 Y58.808 E0.00997
G1 X45.973 Y59.081 E0.0199
G1 X45.838 Y59.329 E0.02983
G1 X45.747 Y59.438 E0.03483
G1 X45.528 Y59.62 E0.04486
G1 X45.269 Y59.742 E0.05495
G1 X45.135 Y59.776 E0.05979
G1 X44.996 Y59.793 E0.06474
G1 X44.71 Y59.776 E0.07482
G1 X44.577 Y59.742 E0.07966
G1 X44.317 Y59.62 E0.08975
G1 X44.1 Y59.44 E0.09968
G1 X44.009 Y59.329 E0.10474
G1 X43.932 Y59.208 E0.10977
G1 X43.828 Y58.946 E0.1197
G1 X43.801 Y58.808 E0.12465
G1 X43.801 Y58.525 E0.13462
G1 X43.828 Y58.387 E0.13957
G1 X43.933 Y58.121 E0.14963
G1 X44.1 Y57.891 E0.15964
G1 X44.203 Y57.795 E0.16458
G1 X44.44 Y57.644 E0.17449
G1 X44.713 Y57.555 E0.1846
G1 X44.853 Y57.537 E0.18956
G1 X45.132 Y57.555 E0.19939
G1 X45.405 Y57.644 E0.20949
G1 X45.528 Y57.712 E0.21445
G1 X45.643 Y57.795 E0.21942
G1 X45.838 Y58.002 E0.22943
G1 X45.911 Y58.118 E0.23427
G1 X46.018 Y58.387 E0.24443
G1 X46.044 Y58.525 E0.24939
G1 X45.272 Y59.617 F12000
G1 F1800
G1 X45.272 Y57.926 E0.30893
M73 P1 R34
G1 X44.972 Y57.848 E0.31983
G1 X44.764 Y57.863 E0.32717
G1 X44.764 Y59.469 E0.38368
G1 X44.484 Y59.357 E0.39429
G1 X44.327 Y59.227 E0.40147
G1 X44.256 Y59.139 E0.40546
G1 X44.256 Y57.901 E0.44901
G92 E0
G1 E-0.5 F2400
G1 X62.533 Y55.569 F12000
G1 E0 F1800
;TYPE:External perimeter
G1 X61.306 Y55.507 E0.04324
G1 X59.019 Y55.504 E0.12372
G1 X58.097 Y55.523 E0.15619
G1 X57.468 Y55.578 E0.17841
G1 X57.539 Y56.347 E0.20558
G1 X57.539 Y64.982 E0.50947
