; HEADER_BLOCK_START
; generated by OrcaSlicer 1.6.3 on 2023-06-25 at 16:00:09
; total layer number: 270
; HEADER_BLOCK_END

; THUMBNAIL_BLOCK_START
; THUMBNAIL_BLOCK_END

; external perimeters extrusion width = 0.40mm
; perimeters extrusion width = 0.45mm
; infill extrusion width = 0.45mm
; solid infill extrusion width = 0.40mm
; top infill extrusion width = 0.40mm
; support material extrusion width = 0.40mm
; first layer extrusion width = 0.50mm

; EXECUTABLE_BLOCK_START
EXCLUDE_OBJECT_DEFINE NAME=trihorn_Fan_Duct_w-brace_v2.stl_id_0_copy_0 CENTER=60,60 POLYGON=[[31.3454,60.7563],[31.3532,60.5427],[31.3766,60.3261],[31.4165,60.1081],[31.4733,59.8906],[31.5472,59.6755],[31.638,59.4648],[31.7453,59.2605],[31.8686,59.0641],[32.0064,58.8784],[32.1577,58.704],[32.3211,58.5427],[32.4947,58.3956],[32.6768,58.2636],[32.8654,58.1471],[32.9616,58.0948],[33.0588,58.0465],[33.1566,58.0021],[33.2561,57.9613],[33.2572,57.9608],[33.275,57.9539],[33.3031,57.9429],[33.4625,57.8807],[33.5399,57.8504],[33.6307,57.815],[34.0509,57.6509],[34.413,57.5095],[35.3962,57.1256],[37.3683,56.3556],[38.7755,55.8062],[40.2211,55.2418],[40.9533,54.9559],[42.0834,54.5146],[43.6459,53.9045],[44.1004,53.7271],[44.2497,53.6818],[44.2688,53.6779],[44.4042,53.6604],[44.4432,53.6588],[75.5569,53.6588],[75.5958,53.6604],[75.7313,53.6779],[75.7503,53.6818],[75.8996,53.7271],[79.0467,54.9559],[79.7789,55.2418],[81.2245,55.8062],[82.6317,56.3556],[84.6038,57.1256],[85.587,57.5095],[85.9491,57.6509],[86.3693,57.815],[86.4601,57.8504],[86.5375,57.8807],[86.6969,57.9429],[86.725,57.9539],[86.7428,57.9608],[86.7439,57.9613],[86.9412,58.0465],[87.1346,58.1471],[87.3232,58.2636],[87.5053,58.3956],[87.6789,58.5427],[87.8423,58.704],[87.9936,58.8784],[88.1314,59.0641],[88.2547,59.2605],[88.362,59.4648],[88.4528,59.6755],[88.5267,59.8906],[88.5835,60.1081],[88.6234,60.3261],[88.6468,60.5427],[88.6546,60.7563],[88.6539,61.609],[88.6418,61.9197],[88.6348,61.9928],[88.5983,62.2647],[88.5825,62.3354],[88.5189,62.6117],[88.4259,62.8871],[88.4018,62.9566],[88.2793,63.2278],[88.2455,63.2949],[88.0937,63.5571],[88.0496,63.6218],[87.9632,63.748],[87.8697,63.8698],[87.7696,63.9868],[87.7154,64.0494],[87.6093,64.1613],[87.4974,64.2673],[87.4324,64.3273],[87.3155,64.4271],[87.1942,64.5198],[87.118,64.5772],[86.9919,64.6637],[86.9029,64.7186],[86.6425,64.8684],[86.5405,64.9207],[86.2716,65.0397],[86.1563,65.0895],[86.026,65.1369],[85.7582,65.2237],[85.6178,65.2681],[85.4651,65.3098],[85.3015,65.3487],[81.0978,66.3409],[81.0868,66.3409],[81.0434,66.3409],[75.4127,66.3411],[50.2941,66.3409],[39.7769,66.3409],[39.5892,66.3409],[39.4299,66.3409],[39.3006,66.3409],[39.2023,66.3409],[39.1361,66.3409],[39.1026,66.3409],[39.1021,66.3409],[34.6985,65.3487],[34.5348,65.3098],[34.3822,65.2681],[34.2418,65.2237],[33.9736,65.1368],[33.8434,65.0893],[33.7281,65.0396],[33.4595,64.9207],[33.3575,64.8684],[33.0971,64.7186],[33.0081,64.6637],[32.8825,64.5777],[32.8063,64.5202],[32.6845,64.4271],[32.5672,64.3269],[32.5022,64.2669],[32.3907,64.1613],[32.2846,64.0494],[32.2304,63.9868],[32.1303,63.8698],[32.0368,63.748],[31.9504,63.6218],[31.9063,63.5571],[31.7545,63.2949],[31.7207,63.2278],[31.5982,62.9566],[31.5741,62.8871],[31.481,62.6117],[31.4175,62.3354],[31.4017,62.2647],[31.3652,61.9928],[31.3582,61.9197],[31.3461,61.609],[31.3454,60.7563]]
M73 P0 R27
;TYPE:Custom
START_PRINT T_BED=110 T_EXTRUDER=260
G90
G21
M83 ; use relative distances for extrusion
; Filament gcode

    PRESSURE_ADVANCE_SELECT FILAMENT=ABS
M106 S0
;LAYER_CHANGE
;Z:0.2
;HEIGHT:0.2
;BEFORE_LAYER_CHANGE
;0.2
G92 E0

;AFTER_LAYER_CHANGE
;0.2
SET_VELOCITY_LIMIT ACCEL_TO_DECEL=500
M204 S1000
G1 E-.5 F3000
G1 Z.2 F21000
G1 X39.425 Y53.179
G1 E.5 F1800
;TYPE:Skirt
;WIDTH:0.5
G1 F3000
G1 X40.723 Y52.336 E.05448
G1 X41.889 Y51.923 E.0435
G1 X43.267 Y51.759 E.04884
G1 X76.883 Y51.763 E1.1831
G1 X77.81 Y51.86 E.03281
G1 X78.702 Y52.099 E.03249
G1 X79.554 Y52.478 E.03281
G1 X80.328 Y52.981 E.03249
G1 X83.93 Y56.341 E.17336
G1 X84.722 Y57.631 E.05327
G1 X84.842 Y58.459 E.02944
G1 X84.842 Y70.5 E.42377
G1 X84.449 Y71.961 E.05327
G1 X83.376 Y73.029 E.05327
G1 X81.928 Y73.414 E.05272
G1 X38.072 Y73.414 E1.54346
G1 X36.61 Y73.021 E.05327
G1 X35.543 Y71.947 E.05327
G1 X35.158 Y70.5 E.05272
G1 X35.158 Y58.469 E.4234
G1 X35.551 Y57.007 E.05327
G1 X36.066 Y56.356 E.02922
G1 X39.382 Y53.22 E.16063
G1 X39.695 Y53.551 F21000
G1 F3000
G1 X39.713 Y53.534 E.00087
G1 X40.931 Y52.743 E.05111
G1 X42.007 Y52.365 E.04014
G1 X43.267 Y52.216 E.04464
G1 X76.859 Y52.219 E1.18226
G1 X77.739 Y52.311 E.03112
G1 X78.538 Y52.526 E.02913
G1 X79.569 Y53.014 E.04014
G1 X80.284 Y53.534 E.03112
G1 X83.616 Y56.673 E.1611
G1 X84.385 Y58.459 E.06842
G1 X84.385 Y70.5 E.42377
G1 X83.993 Y71.831 E.04884
G1 X82.943 Y72.737 E.04884
G1 X81.928 Y72.957 E.03653
G1 X38.072 Y72.957 E1.54346
G1 X36.741 Y72.565 E.04884
G1 X35.834 Y71.514 E.04884
G1 X35.615 Y70.5 E.03653
G1 X35.615 Y58.469 E.4234
G1 X36.38 Y56.687 E.06825
G1 X39.651 Y53.592 E.15849
; printing object trihorn_Fan_Duct_w-brace_v2.stl id:0 copy 0
EXCLUDE_OBJECT_START NAME=trihorn_Fan_Duct_w-brace_v2.stl_id_0_copy_0
G1 E-.5
G1 Z.4 F21000
G1 X39.402 Y58.493
G1 Z.2
G1 E.5 F1800
;TYPE:Support
G1 F3000
G1 X39.407 Y58.967 E.01668
G1 X39.448 Y59.411 E.0157
G1 X39.527 Y59.865 E.01624
G1 X39.651 Y60.335 E.01708
G1 X39.802 Y60.758 E.01582
G1 X39.984 Y61.165 E.0157
G1 X40.219 Y61.591 E.01711
G1 X40.461 Y61.954 E.01534
G1 X40.745 Y62.316 E.01621
G1 X41.069 Y62.662 E.01669
G1 X41.399 Y62.963 E.0157
G1 X41.764 Y63.244 E.01624
G1 X42.172 Y63.507 E.01708
G1 X42.579 Y63.723 E.01621
G1 X42.992 Y63.9 E.01582
G1 X43.415 Y64.044 E.0157
G1 X43.862 Y64.156 E.01624
G1 X44.341 Y64.234 E.01708
G1 X44.8 Y64.269 E.01621
G1 X45.236 Y64.268 E.01534
G1 X45.891 Y64.212 E.02311
G1 X46.169 Y64.214 E.0098
G1 X46.624 Y64.289 E.01621
G1 X46.893 Y64.377 E.00997
G1 X47.289 Y64.578 E.01562
G1 X47.56 Y64.777 E.01182
G1 X47.751 Y64.957 E.00926
G1 X47.898 Y65.362 E.01515
G1 X48.104 Y65.752 E.01551
G1 X48.263 Y65.972 E.00956
G1 X48.444 Y66.172 E.00951
G1 X48.78 Y66.455 E.01546
G1 X49.021 Y66.607 E.01002
G1 X49.284 Y66.735 E.01027
G1 X49.698 Y66.871 E.01535
G1 X50.018 Y66.926 E.01143
G1 X50.5 Y66.941 E.01697
G1 X50.5 Y70.5 E.12524
G1 X38.072 Y70.5 E.43739
G1 X38.072 Y58.469 E.4234
G1 X39.416 Y58.295 E.04768
G1 X39.406 Y58.424 E.00456
G1 E-.5
G1 Z.4 F21000
G1 X40.665 Y59.41
G1 X47.078 Y63.171
G1 X47.293 Y63.357
G1 X47.478 Y63.545
G1 X47.585 Y63.664
G1 X47.74 Y63.859
G1 X47.881 Y64.057
M73 P0 R26
G1 X48.32 Y64.695
G1 X49.072 Y65.853
G1 X50.089 Y67.342
G1 Z.2
G1 E.5 F1800
G1 F3000
G1 X50.089 Y70.088 E.09664
G1 X38.483 Y70.088 E.40844
G1 X38.483 Y58.831 E.3962
G1 X38.992 Y58.765 E.01806
G1 X39.039 Y59.457 E.02443
G1 X39.133 Y59.986 E.01892
G1 X39.248 Y60.424 E.01594
G1 X39.408 Y60.881 E.01702
G1 X39.631 Y61.379 E.01923
G1 X39.85 Y61.776 E.01596
G1 X40.123 Y62.189 E.0174
G1 X40.455 Y62.609 E.01886
G1 X40.786 Y62.961 E.01699
G1 X41.128 Y63.272 E.0163
G1 X41.521 Y63.576 E.01745
G1 X41.971 Y63.866 E.01886
G1 X42.408 Y64.097 E.0174
G1 X42.852 Y64.287 E.01699
G1 X43.291 Y64.436 E.0163
G1 X43.771 Y64.557 E.01745
G1 X44.3 Y64.643 E.01886
G1 X44.793 Y64.681 E.0174
G1 X45.246 Y64.679 E.01594
G1 X45.915 Y64.623 E.02362
G1 X46.145 Y64.625 E.00807
G1 X46.521 Y64.687 E.01344
G1 X46.875 Y64.819 E.01328
G1 X47.189 Y65.008 E.01291
G1 X47.399 Y65.187 E.00969
G1 X47.583 Y65.663 E.01796
G1 X47.764 Y65.983 E.01295
G1 X47.973 Y66.267 E.01241
G1 X48.319 Y66.617 E.01731
G1 X48.581 Y66.818 E.01162
G1 X48.814 Y66.962 E.00965
G1 X49.153 Y67.126 E.01323
G1 X49.649 Y67.282 E.0183
G1 X50.089 Y67.342 E.01564
G1 X49.581 Y67.794 F21000
G1 F3000
G1 X49.581 Y69.58 E.06288
G1 X38.991 Y69.58 E.37269
G1 X38.991 Y61.983 E.26737
G1 X39.325 Y61.89 E.0122
G1 X39.706 Y62.479 E.02468
G1 X40.036 Y62.901 E.01887
G1 X40.393 Y63.286 E.01848
G1 X40.794 Y63.655 E.01918
G1 X41.22 Y63.985 E.01895
G1 X41.669 Y64.278 E.01887
G1 X42.141 Y64.532 E.01887
G1 X42.622 Y64.743 E.01848
G1 X43.199 Y64.939 E.02143
G1 X43.659 Y65.053 E.0167
G1 X44.188 Y65.141 E.01887
G1 X44.722 Y65.186 E.01887
G1 X45.259 Y65.187 E.01888
G1 X45.945 Y65.13 E.02425
G1 X46.114 Y65.132 E.00594
G1 X46.395 Y65.18 E.01003
G1 X46.697 Y65.298 E.01141
G1 X46.96 Y65.473 E.01111
G1 X47.125 Y65.883 E.01557
G1 X47.344 Y66.269 E.01561
G1 X47.589 Y66.599 E.01445
G1 X47.949 Y66.968 E.01816
G1 X48.301 Y67.242 E.01571
G1 X48.63 Y67.441 E.01352
G1 X49.127 Y67.66 E.01911
G1 X49.581 Y67.794 E.01665
G1 X49.073 Y68.182 F21000
G1 F3000
G1 X49.073 Y69.073 E.03133
G1 X39.499 Y69.073 E.33694
G1 X39.499 Y63.074 E.21113
G1 X40.087 Y63.698 E.03018
G1 X40.46 Y64.038 E.01777
G1 X40.919 Y64.394 E.02045
G1 X41.475 Y64.752 E.02328
G1 X41.986 Y65.022 E.02034
G1 X42.506 Y65.243 E.01988
G1 X43.066 Y65.429 E.02077
G1 X43.547 Y65.548 E.01744
G1 X44.117 Y65.644 E.02034
G1 X44.776 Y65.696 E.02327
G1 X45.271 Y65.695 E.01742
G1 X46.088 Y65.64 E.0288
G1 X46.273 Y65.673 E.00664
G1 X46.454 Y65.744 E.00685
G1 X46.53 Y65.788 E.0031
G1 X46.705 Y66.177 E.015
G1 X46.924 Y66.555 E.01537
G1 X47.204 Y66.931 E.0165
G1 X47.469 Y67.215 E.01368
G1 X47.931 Y67.603 E.02124
G1 X48.302 Y67.84 E.01549
G1 X48.694 Y68.034 E.01539
G1 X49.073 Y68.182 E.01433
G1 X47.972 Y68.233 F21000
G1 F3000
G1 X47.877 Y68.565 E.01214
G1 X40.007 Y68.565 E.27699
G1 X40.007 Y64.335 E.14887
G1 X40.618 Y64.804 E.0271
G1 X41.226 Y65.196 E.02548
G1 X41.775 Y65.484 E.02181
G1 X42.333 Y65.72 E.02132
G1 X42.831 Y65.889 E.0185
G1 X43.537 Y66.065 E.02561
G1 X44.149 Y66.16 E.02181
G1 X44.663 Y66.2 E.01814
G1 X45.388 Y66.198 E.02551
G1 X46.123 Y66.134 E.02597
G1 X46.424 Y66.716 E.02304
G1 X46.819 Y67.262 E.02375
G1 X47.115 Y67.58 E.01529
G1 X47.354 Y67.796 E.01134
G1 X47.629 Y68.011 E.01227
G1 X47.972 Y68.233 E.01437
G1 X46.857 Y68.057 F21000
G1 F3000
G1 X40.515 Y68.057 E.22321
G1 X40.515 Y65.346 E.09539
G1 X40.978 Y65.639 E.01928
G1 X41.564 Y65.946 E.02328
G1 X42.16 Y66.198 E.02277
G1 X42.801 Y66.41 E.02375
G1 X43.445 Y66.564 E.02333
G1 X44.099 Y66.665 E.02328
G1 X44.759 Y66.712 E.02328
G1 X45.296 Y66.71 E.01889
G1 X45.817 Y66.67 E.0184
G1 X46.084 Y67.127 E.0186
G1 X46.326 Y67.46 E.01451
G1 X46.857 Y68.057 E.02811
G1 X43.718 Y67.549 F21000
G1 F3000
G1 X41.023 Y67.549 E.09485
G1 X41.023 Y66.249 E.04577
G1 X41.854 Y66.624 E.03209
G1 X42.524 Y66.858 E.025
G1 X43.21 Y67.035 E.02493
G1 X43.752 Y67.129 E.01934
G1 X43.718 Y67.549 E.01484
G1 E-.5
G1 Z.4 F21000
G1 X44.4 Y63.029
G1 X44.654 Y61.347
G1 X45.279 Y57.2
G1 Z.2
G1 E.5 F1800
G1 F3000
G1 X45.462 Y57.247 E.00662
G1 X45.802 Y57.407 E.01322
G1 X46.091 Y57.647 E.01322
G1 X46.211 Y57.792 E.00662
G1 X46.312 Y57.951 E.00662
G1 X46.449 Y58.295 E.01302
G1 X46.486 Y58.486 E.00685
G1 X46.486 Y58.861 E.01319
G1 X46.392 Y59.224 E.01322
G1 X46.312 Y59.395 E.00662
G1 X46.211 Y59.554 E.00662
G1 X45.954 Y59.828 E.01322
G1 X45.637 Y60.029 E.01322
G1 X45.462 Y60.098 E.00662
G1 X45.092 Y60.169 E.01325
G1 X44.723 Y60.146 E.01299
G1 X44.535 Y60.098 E.00685
G1 X44.196 Y59.938 E.01319
G1 X44.043 Y59.828 E.00662
G1 X43.786 Y59.554 E.01322
G1 X43.607 Y59.23 E.01302
G1 X43.547 Y59.045 E.00685
G1 X43.5 Y58.673 E.01319
G1 X43.512 Y58.485 E.00662
G1 X43.605 Y58.121 E.01322
G1 X43.685 Y57.951 E.00662
G1 X43.907 Y57.646 E.01325
G1 X44.043 Y57.518 E.00659
G1 X44.36 Y57.317 E.01322
G1 X44.535 Y57.247 E.00662
G1 X44.905 Y57.177 E.01322
G1 X45.211 Y57.192 E.01082
G1 X46.077 Y58.809 F21000
G1 F3000
G1 X46.009 Y59.073 E.00959
G1 X45.951 Y59.196 E.0048
G1 X45.878 Y59.311 E.0048
G1 X45.691 Y59.51 E.00959
G1 X45.461 Y59.656 E.00959
G1 X45.334 Y59.706 E.0048
G1 X45.065 Y59.757 E.00964
G1 X44.93 Y59.757 E.00475
G1 X44.661 Y59.706 E.00964
G1 X44.416 Y59.59 E.00953
G1 X44.306 Y59.51 E.0048
G1 X44.12 Y59.311 E.00959
G1 X43.99 Y59.077 E.00941
G1 X43.946 Y58.941 E.00503
G1 X43.912 Y58.673 E.00953
G1 X43.921 Y58.537 E.0048
G1 X43.988 Y58.273 E.00959
G1 X44.046 Y58.149 E.0048
G1 X44.208 Y57.928 E.00964
G1 X44.306 Y57.835 E.00475
G1 X44.536 Y57.689 E.00959
G1 X44.663 Y57.639 E.0048
G1 X44.795 Y57.605 E.0048
G1 X45.067 Y57.588 E.00959
G1 X45.334 Y57.639 E.00959
G1 X45.461 Y57.689 E.0048
G1 X45.581 Y57.755 E.0048
G1 X45.791 Y57.929 E.00959
G1 X45.951 Y58.149 E.00959
G1 X46.05 Y58.398 E.00941
G1 X46.077 Y58.538 E.00503
G1 X46.077 Y58.809 E.00953
G1 X45.572 Y58.745 F21000
G1 F3000
G1 X45.505 Y58.951 E.00762
G1 X45.367 Y59.118 E.00762
G1 X45.177 Y59.222 E.00762
G1 X45.033 Y59.249 E.00518
G1 X44.895 Y59.241 E.00487
G1 X44.689 Y59.161 E.00777
G1 X44.531 Y59.012 E.00762
G1 X44.439 Y58.814 E.0077
G1 X44.425 Y58.6 E.00754
G1 X44.492 Y58.394 E.00762
G1 X44.63 Y58.228 E.00762
G1 X44.82 Y58.123 E.00762
G1 X45.035 Y58.096 E.00762
G1 X45.245 Y58.15 E.00762
G1 X45.42 Y58.277 E.00762
G1 X45.536 Y58.46 E.00762
G1 X45.572 Y58.603 E.00518
G1 X45.572 Y58.745 E.00502
G1 E-.5
G1 Z.4 F21000
G1 X47.6 Y58.64
G1 X48.92 Y56.778
G1 X49.141 Y56.559
G1 X49.399 Y56.362
G1 X49.641 Y56.216
G1 X49.885 Y56.103
G1 X50.151 Y56.01
G1 X50.365 Y55.955
G1 X50.415 Y55.944
G1 X50.623 Y55.908
G1 X50.853 Y55.885
G1 X51.101 Y55.876
G1 X58.42 Y55.874
G1 X62.2 Y55.874
G1 X68.899 Y55.877
G1 X69.125 Y55.884
G1 X69.377 Y55.909
G1 X69.61 Y55.95
G1 X69.848 Y56.01
G1 X70.114 Y56.103
G1 X70.328 Y56.201
G1 X72.653 Y57.337
G1 X75.279 Y57.2
G1 Z.2
G1 E.5 F1800
G1 F3000
G1 X75.462 Y57.247 E.00662
G1 X75.802 Y57.407 E.01322
G1 X76.091 Y57.647 E.01322
G1 X76.211 Y57.792 E.00662
G1 X76.392 Y58.121 E.01322
G1 X76.45 Y58.3 E.00662
G1 X76.486 Y58.485 E.00662
G1 X76.486 Y58.861 E.01322
G1 X76.45 Y59.045 E.00662
G1 X76.312 Y59.395 E.01322
G1 X76.091 Y59.699 E.01322
G1 X75.954 Y59.828 E.00662
G1 X75.637 Y60.029 E.01322
G1 X75.462 Y60.098 E.00662
G1 X75.092 Y60.169 E.01325
G1 X74.723 Y60.146 E.01299
G1 X74.535 Y60.098 E.00685
G1 X74.196 Y59.938 E.01319
G1 X73.906 Y59.699 E.01322
G1 X73.786 Y59.554 E.00662
G1 X73.607 Y59.23 E.01302
G1 X73.547 Y59.045 E.00685
G1 X73.5 Y58.673 E.01319
G1 X73.512 Y58.485 E.00662
G1 X73.547 Y58.3 E.00662
G1 X73.685 Y57.951 E.01322
G1 X73.906 Y57.647 E.01322
G1 X74.043 Y57.518 E.00662
G1 X74.196 Y57.407 E.00662
G1 X74.535 Y57.247 E.01322
G1 X74.905 Y57.177 E.01322
G1 X75.211 Y57.192 E.01082
G1 X73.921 Y58.809 F21000
G1 F3000
G1 X73.912 Y58.673 E.0048
G1 X73.946 Y58.402 E.00959
G1 X74.046 Y58.149 E.00959
G1 X74.207 Y57.929 E.00959
G1 X74.416 Y57.755 E.00959
G1 X74.536 Y57.689 E.0048
G1 X74.795 Y57.605 E.00959
G1 X74.93 Y57.588 E.0048
G1 X75.067 Y57.588 E.0048
G1 X75.334 Y57.639 E.00959
G1 X75.581 Y57.755 E.00959
G1 X75.691 Y57.835 E.0048
G1 X75.791 Y57.929 E.0048
G1 X75.951 Y58.149 E.00959
G1 X76.009 Y58.273 E.0048
G1 X76.077 Y58.537 E.00959
G1 X76.085 Y58.673 E.0048
G1 X76.051 Y58.943 E.00959
G1 X75.951 Y59.196 E.00959
G1 X75.791 Y59.417 E.00959
G1 X75.691 Y59.51 E.0048
G1 X75.461 Y59.656 E.00959
G1 X75.207 Y59.739 E.00941
G1 X75.065 Y59.757 E.00503
G1 X74.8 Y59.741 E.00936
G1 X74.661 Y59.706 E.00503
G1 X74.416 Y59.59 E.00953
G1 X74.306 Y59.51 E.0048
G1 X74.207 Y59.417 E.0048
G1 X74.046 Y59.196 E.00959
G1 X73.946 Y58.941 E.00964
G1 X73.921 Y58.809 E.00475
G1 X74.425 Y58.745 F21000
G1 F3000
G1 X74.439 Y58.529 E.00762
G1 X74.531 Y58.333 E.00762
G1 X74.689 Y58.185 E.00762
G1 X74.89 Y58.105 E.00762
G1 X75.107 Y58.105 E.00762
G1 X75.308 Y58.185 E.00762
G1 X75.42 Y58.277 E.0051
G1 X75.505 Y58.394 E.0051
G1 X75.572 Y58.6 E.00762
G1 X75.572 Y58.745 E.0051
G1 X75.536 Y58.885 E.0051
G1 X75.42 Y59.068 E.00762
G1 X75.245 Y59.195 E.00762
G1 X75.033 Y59.249 E.0077
G1 X74.818 Y59.221 E.00762
G1 X74.63 Y59.118 E.00754
G1 X74.492 Y58.951 E.00762
G1 X74.425 Y58.745 E.00762
G1 E-.5
G1 Z.4 F21000
G1 X77.697 Y58.62
G1 X79.396 Y58.555
G1 X81.928 Y58.459
G1 Z.2
G1 E.5 F1800
G1 F3000
G1 X81.928 Y70.5 E.42377
G1 X69.5 Y70.5 E.43739
G1 X69.5 Y66.941 E.12524
G1 X69.904 Y66.933 E.01423
G1 X70.126 Y66.906 E.00786
G1 X70.412 Y66.841 E.01033
G1 X70.854 Y66.672 E.01665
G1 X71.078 Y66.548 E.00901
G1 X71.309 Y66.389 E.00988
G1 X71.527 Y66.2 E.01016
G1 X71.82 Y65.863 E.01574
G1 X71.965 Y65.638 E.00939
G1 X72.098 Y65.372 E.01049
G1 X72.248 Y64.958 E.0155
G1 X72.442 Y64.776 E.00934
G1 X72.711 Y64.578 E.01176
G1 X73.107 Y64.378 E.01562
G1 X73.377 Y64.289 E.01001
G1 X73.831 Y64.215 E.01616
