; HEADER_BLOCK_START
; generated by OrcaSlicer 1.6.3 on 2023-06-02 at 21:13:59
; total layer number: 47
; HEADER_BLOCK_END

; THUMBNAIL_BLOCK_START
; THUMBNAIL_BLOCK_END

; external perimeters extrusion width = 0.40mm
; perimeters extrusion width = 0.45mm
; infill extrusion width = 0.45mm
; solid infill extrusion width = 0.40mm
; top infill extrusion width = 0.40mm
; support material extrusion width = 0.40mm
; first layer extrusion width = 0.50mm

; external perimeters extrusion width = 0.40mm
; perimeters extrusion width = 0.45mm
; infill extrusion width = 0.45mm
; solid infill extrusion width = 0.40mm
; top infill extrusion width = 0.40mm
; support material extrusion width = 0.40mm
; first layer extrusion width = 0.50mm

; EXECUTABLE_BLOCK_START
EXCLUDE_OBJECT_DEFINE NAME=Under_duct_scalable_brace_spacer.stl_id_0_copy_0 CENTER=60,67.4992 POLYGON=[[57.5,67.4992],[57.5033,67.3705],[57.5132,67.2421],[57.5298,67.1144],[57.5529,66.9878],[57.5824,66.8625],[57.6184,66.7389],[57.6607,66.6173],[57.7092,66.498],[57.7638,66.3814],[57.8243,66.2678],[57.8906,66.1574],[57.9624,66.0506],[58.0397,65.9476],[58.1222,65.8488],[58.2096,65.7543],[58.3018,65.6645],[58.3985,65.5795],[58.4995,65.4996],[58.6044,65.425],[58.713,65.3559],[58.8251,65.2925],[58.9402,65.2349],[59.0582,65.1834],[59.1786,65.1379],[59.3013,65.0988],[59.4258,65.066],[59.5518,65.0397],[59.679,65.0199],[59.8071,65.0066],[59.9356,65],[60.0644,65],[60.1929,65.0066],[60.321,65.0199],[60.4482,65.0397],[60.5742,65.066],[60.6987,65.0988],[60.8214,65.1379],[60.9418,65.1834],[61.0598,65.2349],[61.1749,65.2925],[61.287,65.3559],[61.3956,65.425],[61.5005,65.4996],[61.6015,65.5795],[61.6982,65.6645],[61.7904,65.7543],[61.8778,65.8488],[61.9603,65.9476],[62.0376,66.0506],[62.1094,66.1574],[62.1757,66.2678],[62.2362,66.3814],[62.2908,66.498],[62.3393,66.6173],[62.3816,66.7389],[62.4176,66.8625],[62.4471,66.9878],[62.4702,67.1144],[62.4867,67.2421],[62.4967,67.3705],[62.5,67.4992],[62.4967,67.6279],[62.4867,67.7562],[62.4702,67.8839],[62.4471,68.0105],[62.4176,68.1358],[62.3816,68.2595],[62.3393,68.381],[62.2908,68.5003],[62.2362,68.6169],[62.1757,68.7305],[62.1094,68.8409],[62.0376,68.9477],[61.9603,69.0507],[61.8778,69.1496],[61.7904,69.244],[61.6982,69.3339],[61.6015,69.4189],[61.5005,69.4988],[61.3956,69.5734],[61.287,69.6425],[61.1749,69.7059],[61.0598,69.7634],[60.9418,69.815],[60.8214,69.8604],[60.6987,69.8995],[60.5742,69.9323],[60.4482,69.9587],[60.321,69.9785],[60.1929,69.9917],[60.0644,69.9983],[59.9356,69.9983],[59.8071,69.9917],[59.679,69.9785],[59.5518,69.9587],[59.4258,69.9323],[59.3013,69.8995],[59.1786,69.8604],[59.0582,69.815],[58.9402,69.7634],[58.8251,69.7059],[58.713,69.6425],[58.6044,69.5734],[58.4995,69.4988],[58.3985,69.4189],[58.3018,69.3339],[58.2096,69.244],[58.1222,69.1496],[58.0397,69.0507],[57.9624,68.9477],[57.8906,68.8409],[57.8243,68.7305],[57.7638,68.6169],[57.7092,68.5003],[57.6607,68.381],[57.6184,68.2595],[57.5824,68.1358],[57.5529,68.0105],[57.5298,67.8839],[57.5132,67.7562],[57.5033,67.6279],[57.5,67.4992]]
EXCLUDE_OBJECT_DEFINE NAME=Under_duct_scalable_brace_spacer.stl_id_1_copy_0 CENTER=60,52.5008 POLYGON=[[57.5,52.5008],[57.5033,52.3721],[57.5133,52.2438],[57.5298,52.1161],[57.5529,51.9895],[57.5824,51.8642],[57.6184,51.7405],[57.6607,51.619],[57.7092,51.4997],[57.7638,51.3831],[57.8243,51.2695],[57.8906,51.1591],[57.9624,51.0523],[58.0397,50.9493],[58.1222,50.8504],[58.2096,50.756],[58.3018,50.6661],[58.3985,50.5811],[58.4995,50.5012],[58.6044,50.4266],[58.713,50.3575],[58.8251,50.2941],[58.9402,50.2366],[59.0582,50.185],[59.1786,50.1396],[59.3013,50.1004],[59.4258,50.0677],[59.5518,50.0413],[59.679,50.0215],[59.8071,50.0083],[59.9356,50.0017],[60.0644,50.0017],[60.1929,50.0083],[60.321,50.0215],[60.4482,50.0413],[60.5742,50.0677],[60.6987,50.1004],[60.8214,50.1396],[60.9418,50.185],[61.0598,50.2366],[61.1749,50.2941],[61.287,50.3575],[61.3956,50.4266],[61.5005,50.5012],[61.6015,50.5811],[61.6982,50.6661],[61.7904,50.756],[61.8778,50.8504],[61.9603,50.9493],[62.0376,51.0523],[62.1094,51.1591],[62.1757,51.2695],[62.2362,51.3831],[62.2908,51.4997],[62.3393,51.619],[62.3816,51.7405],[62.4176,51.8642],[62.4471,51.9895],[62.4702,52.1161],[62.4868,52.2438],[62.4967,52.3721],[62.5,52.5008],[62.4967,52.6295],[62.4868,52.7579],[62.4702,52.8856],[62.4471,53.0122],[62.4176,53.1375],[62.3816,53.2611],[62.3393,53.3827],[62.2908,53.502],[62.2362,53.6186],[62.1757,53.7322],[62.1094,53.8426],[62.0376,53.9494],[61.9603,54.0524],[61.8778,54.1512],[61.7904,54.2457],[61.6982,54.3355],[61.6015,54.4205],[61.5005,54.5004],[61.3956,54.575],[61.287,54.6441],[61.1749,54.7075],[61.0598,54.7651],[60.9418,54.8166],[60.8214,54.8621],[60.6987,54.9012],[60.5742,54.934],[60.4482,54.9603],[60.321,54.9801],[60.1929,54.9934],[60.0644,55],[59.9356,55],[59.8071,54.9934],[59.679,54.9801],[59.5518,54.9603],[59.4258,54.934],[59.3013,54.9012],[59.1786,54.8621],[59.0582,54.8166],[58.9402,54.7651],[58.8251,54.7075],[58.713,54.6441],[58.6044,54.575],[58.4995,54.5004],[58.3985,54.4205],[58.3018,54.3355],[58.2096,54.2457],[58.1222,54.1512],[58.0397,54.0524],[57.9624,53.9494],[57.8906,53.8426],[57.8243,53.7322],[57.7638,53.6186],[57.7092,53.502],[57.6607,53.3827],[57.6184,53.2611],[57.5824,53.1375],[57.5529,53.0122],[57.5298,52.8856],[57.5133,52.7579],[57.5033,52.6295],[57.5,52.5008]]
M73 P0 R2
;TYPE:Custom
START_PRINT T_BED=110 T_EXTRUDER=260
G90
G21
M83 ; use relative distances for extrusion
; Filament gcode

    PRESSURE_ADVANCE_SELECT FILAMENT=ABS
M106 S0
;LAYER_CHANGE
;Z:0.2
;HEIGHT:0.2
;BEFORE_LAYER_CHANGE
;0.2
G92 E0

;AFTER_LAYER_CHANGE
;0.2
SET_VELOCITY_LIMIT ACCEL_TO_DECEL=500
M204 S1000
G1 E-.5 F3000
G1 Z.2 F21000
G1 X56.176 Y48.669
G1 E.5 F1800
;TYPE:Skirt
;WIDTH:0.5
G1 F3000
G1 X57.04 Y47.968 E.03918
G1 X58.03 Y47.458 E.03917
G1 X59.103 Y47.162 E.03919
G1 X60.082 Y47.088 E.03453
G1 X61.044 Y47.189 E.03406
G1 X61.85 Y47.413 E.02942
G1 X62.61 Y47.758 E.0294
G1 X63.41 Y48.296 E.03392
G1 X64.017 Y48.871 E.02941
G1 X64.608 Y49.659 E.03467
G1 X64.99 Y50.402 E.02941
G1 X65.254 Y51.195 E.02941
G1 X65.414 Y52.501 E.04631
G1 X65.414 Y67.499 E.52785
G1 X65.314 Y68.533 E.03656
G1 X64.983 Y69.614 E.03979
G1 X64.455 Y70.575 E.03857
G1 X63.824 Y71.331 E.03468
G1 X62.96 Y72.032 E.03918
G1 X61.97 Y72.542 E.03917
G1 X61.044 Y72.811 E.03393
G1 X59.936 Y72.912 E.03918
G1 X58.956 Y72.811 E.03467
G1 X58.15 Y72.587 E.02941
G1 X57.39 Y72.242 E.0294
G1 X56.59 Y71.704 E.03392
G1 X55.983 Y71.129 E.02941
G1 X55.392 Y70.341 E.03467
G1 X55.01 Y69.598 E.02941
G1 X54.746 Y68.805 E.02941
G1 X54.586 Y67.499 E.04631
G1 X54.586 Y52.501 E.52785
M73 P1 R2
G1 X54.689 Y51.45 E.03716
G1 X55.01 Y50.402 E.03857
G1 X55.473 Y49.532 E.03468
G1 X56.138 Y48.715 E.03707
G1 X56.49 Y49.002 F21000
G1 F3000
G1 X56.495 Y48.996 E.00025
G1 X57.286 Y48.353 E.03587
G1 X58.191 Y47.886 E.03586
G1 X59.174 Y47.614 E.03588
G1 X60.08 Y47.545 E.032
G1 X60.951 Y47.636 E.03081
G1 X61.688 Y47.841 E.02693
G1 X62.385 Y48.156 E.02692
G1 X63.126 Y48.654 E.03144
G1 X63.681 Y49.181 E.02693
G1 X64.216 Y49.894 E.03136
G1 X64.567 Y50.574 E.02693
G1 X64.809 Y51.3 E.02693
G1 X64.957 Y52.501 E.04259
G1 X64.957 Y67.499 E.52785
G1 X64.864 Y68.451 E.03366
G1 X64.56 Y69.441 E.03643
G1 X64.076 Y70.319 E.03531
G1 X63.505 Y71.004 E.03137
G1 X62.714 Y71.647 E.03587
G1 X61.809 Y72.114 E.03587
G1 X60.951 Y72.364 E.03145
G1 X59.936 Y72.455 E.03587
G1 X59.049 Y72.364 E.03137
G1 X58.312 Y72.159 E.02693
G1 X57.615 Y71.844 E.02692
G1 X56.874 Y71.346 E.03144
G1 X56.319 Y70.819 E.02693
G1 X55.784 Y70.106 E.03136
G1 X55.433 Y69.426 E.02693
G1 X55.191 Y68.7 E.02692
G1 X55.043 Y67.499 E.04259
G1 X55.043 Y52.501 E.52785
G1 X55.139 Y51.533 E.03422
G1 X55.433 Y50.574 E.03531
G1 X55.852 Y49.787 E.03137
G1 X56.452 Y49.048 E.03351
; printing object Under duct scalable brace spacer.stl id:0 copy 0
EXCLUDE_OBJECT_START NAME=Under_duct_scalable_brace_spacer.stl_id_0_copy_0
G1 E-.5
G1 Z.4 F21000
G1 X57.717 Y67.461
M73 P2 R2
G1 Z.2
G1 E.5 F1800
;TYPE:Outer wall
;WIDTH:0.497174
G1 F3000
G1 X57.711 Y67.353 E.00378
;WIDTH:0.494013
G1 X57.81 Y66.824 E.01868
G1 X57.992 Y66.389 E.01638
;WIDTH:0.491151
G1 X58.262 Y66.002 E.01628
;WIDTH:0.490392
G1 X58.604 Y65.678 E.01626
;WIDTH:0.489385
G1 X59.048 Y65.411 E.01779
;WIDTH:0.488423
G1 X59.531 Y65.257 E.01738
;WIDTH:0.491436
G1 X60.044 Y65.207 E.01781
;WIDTH:0.491808
G1 X60.504 Y65.262 E.01603
;WIDTH:0.492099
G1 X60.951 Y65.412 E.01631
G1 X61.358 Y65.651 E.01631
;WIDTH:0.49161
G1 X61.708 Y65.968 E.0163
;WIDTH:0.490885
G1 X61.985 Y66.349 E.01627
;WIDTH:0.490366
G1 X62.179 Y66.779 E.01626
;WIDTH:0.489024
G1 X62.284 Y67.286 E.01778
;WIDTH:0.488179
G1 X62.284 Y67.35 E.00219
;WIDTH:0.49056
G1 X62.26 Y67.88 E.01829
;WIDTH:0.490822
G1 X62.107 Y68.403 E.0188
G1 X61.883 Y68.81 E.01599
G1 X61.575 Y69.167 E.01627
;WIDTH:0.489919
G1 X61.207 Y69.451 E.01601
;WIDTH:0.497759
G1 X60.78 Y69.652 E.01653
G1 X60.399 Y69.746 E.01373
;WIDTH:0.486313
G1 X59.835 Y69.782 E.01931
G1 X59.375 Y69.702 E.01593
;WIDTH:0.484813
G1 X58.95 Y69.534 E.01554
;WIDTH:0.483954
G1 X58.51 Y69.228 E.01823
;WIDTH:0.486731
G1 X58.108 Y68.792 E.02025
;WIDTH:0.496701
G1 X57.865 Y68.329 E.01827
;WIDTH:0.497174
G1 X57.74 Y67.875 E.01648
G1 X57.72 Y67.521 E.0124
G1 X57.735 Y67.448
G1 E-.5
G1 Z.4 F21000
G1 X58.806 Y68.638
G1 X58.88 Y68.711
G1 X58.96 Y68.78
G1 X59.043 Y68.843
G1 X59.13 Y68.901
G1 X59.221 Y68.954
G1 X59.315 Y69
G1 X59.411 Y69.041
G1 X59.51 Y69.075
G1 X59.611 Y69.103
G1 X59.713 Y69.124
G1 X59.817 Y69.139
G1 X59.921 Y69.147
G1 X60.026 Y69.149
G1 X60.131 Y69.144
G1 X60.235 Y69.132
G1 X60.338 Y69.114
G1 X61.153 Y68.939
G1 Z.2
G1 E.5 F1800
;WIDTH:0.48634
G1 F3000
G1 X60.893 Y69.117 E.01074
G1 X60.412 Y69.298 E.01757
G1 X59.83 Y69.339 E.01991
;WIDTH:0.489959
G1 X59.406 Y69.25 E.01493
;WIDTH:0.490362
G1 X59.063 Y69.092 E.013
;WIDTH:0.497395
G1 X58.682 Y68.779 E.01726
G1 X58.426 Y68.469 E.01405
;WIDTH:0.487721
G1 X58.223 Y68.005 E.01736
;WIDTH:0.488345
G1 X58.153 Y67.418 E.02028
;WIDTH:0.494013
G1 X58.252 Y66.915 E.01781
G1 X58.457 Y66.482 E.0166
;WIDTH:0.484465
G1 X58.677 Y66.209 E.01195
;WIDTH:0.485272
G1 X58.945 Y65.981 E.01197
;WIDTH:0.48633
G1 X59.251 Y65.808 E.012
;WIDTH:0.486505
G1 X59.585 Y65.697 E.01201
;WIDTH:0.491436
G1 X60.056 Y65.654 E.01634
G1 X60.577 Y65.744 E.01825
;WIDTH:0.483957
G1 X60.942 Y65.909 E.01362
;WIDTH:0.483603
G1 X61.226 Y66.116 E.01191
;WIDTH:0.484237
G1 X61.46 Y66.367 E.01166
;WIDTH:0.484524
G1 X61.652 Y66.671 E.01223
;WIDTH:0.485789
G1 X61.777 Y66.99 E.01171
;WIDTH:0.488179
G1 X61.841 Y67.312 E.01126
;WIDTH:0.49056
G1 X61.826 Y67.775 E.01595
;WIDTH:0.490833
G1 X61.684 Y68.257 E.01733
G1 X61.44 Y68.658 E.01619
;WIDTH:0.484836
G1 X61.201 Y68.903 E.01165
; stop printing object Under duct scalable brace spacer.stl id:0 copy 0
EXCLUDE_OBJECT_END NAME=Under_duct_scalable_brace_spacer.stl_id_0_copy_0
; printing object Under duct scalable brace spacer.stl id:1 copy 0
EXCLUDE_OBJECT_START NAME=Under_duct_scalable_brace_spacer.stl_id_1_copy_0
G1 E-.5
G1 Z.4 F21000
G1 X61.22 Y68.927
G1 X61.23 Y68.919
G1 X61.318 Y68.838
G1 X61.4 Y68.752
G1 X61.477 Y68.661
G1 X61.547 Y68.565
G1 X61.612 Y68.464
G1 X61.67 Y68.36
G1 X61.721 Y68.252
G1 X61.765 Y68.142
G1 X61.803 Y68.028
G1 X61.833 Y67.913
G1 X61.855 Y67.796
G1 X61.87 Y67.678
G1 X61.878 Y67.559
G1 X61.878 Y67.44
G1 X61.87 Y67.321
G1 X61.855 Y67.202
G1 X61.832 Y67.085
G1 X58.663 Y53.82
G1 X57.717 Y52.463
G1 Z.2
G1 E.5 F1800
;WIDTH:0.497174
M73 P3 R2
G1 F3000
G1 X57.711 Y52.355 E.00378
;WIDTH:0.494013
G1 X57.81 Y51.826 E.01868
G1 X57.992 Y51.391 E.01638
;WIDTH:0.491151
G1 X58.262 Y51.004 E.01628
;WIDTH:0.490392
G1 X58.604 Y50.679 E.01626
;WIDTH:0.489385
G1 X59.048 Y50.412 E.01779
;WIDTH:0.488423
G1 X59.531 Y50.259 E.01738
;WIDTH:0.491436
G1 X60.044 Y50.209 E.01781
;WIDTH:0.491808
G1 X60.504 Y50.263 E.01603
;WIDTH:0.492099
G1 X60.951 Y50.414 E.01631
G1 X61.358 Y50.653 E.01631
;WIDTH:0.49161
G1 X61.708 Y50.969 E.0163
;WIDTH:0.490885
G1 X61.985 Y51.351 E.01627
;WIDTH:0.490366
G1 X62.179 Y51.781 E.01626
;WIDTH:0.489024
G1 X62.284 Y52.288 E.01778
;WIDTH:0.488179
G1 X62.284 Y52.352 E.00219
;WIDTH:0.49056
G1 X62.26 Y52.882 E.01829
;WIDTH:0.490822
G1 X62.107 Y53.405 E.0188
G1 X61.883 Y53.811 E.01599
G1 X61.575 Y54.169 E.01627
;WIDTH:0.489919
G1 X61.207 Y54.452 E.01601
;WIDTH:0.497759
G1 X60.78 Y54.654 E.01653
G1 X60.399 Y54.748 E.01373
;WIDTH:0.486313
G1 X59.835 Y54.784 E.01931
G1 X59.375 Y54.703 E.01593
;WIDTH:0.484813
G1 X58.95 Y54.535 E.01554
;WIDTH:0.483954
G1 X58.51 Y54.229 E.01823
;WIDTH:0.486731
G1 X58.108 Y53.794 E.02025
;WIDTH:0.496701
G1 X57.865 Y53.331 E.01827
;WIDTH:0.497174
G1 X57.74 Y52.876 E.01648
G1 X57.72 Y52.522 E.0124
G1 X57.735 Y52.45
G1 E-.5
G1 Z.4 F21000
G1 X58.806 Y53.64
G1 X58.88 Y53.713
G1 X58.96 Y53.782
G1 X59.043 Y53.845
G1 X59.13 Y53.903
G1 X59.221 Y53.955
G1 X59.315 Y54.002
G1 X59.411 Y54.042
G1 X59.51 Y54.077
G1 X59.611 Y54.104
G1 X59.713 Y54.126
G1 X59.817 Y54.141
G1 X59.921 Y54.149
G1 X60.026 Y54.151
G1 X60.131 Y54.146
G1 X60.235 Y54.134
G1 X60.338 Y54.116
G1 X61.153 Y53.94
G1 Z.2
G1 E.5 F1800
;WIDTH:0.48634
G1 F3000
G1 X60.893 Y54.118 E.01074
G1 X60.412 Y54.3 E.01757
G1 X59.83 Y54.341 E.01991
;WIDTH:0.489959
G1 X59.406 Y54.252 E.01493
;WIDTH:0.490362
G1 X59.063 Y54.093 E.013
;WIDTH:0.497395
G1 X58.682 Y53.78 E.01726
G1 X58.426 Y53.471 E.01405
;WIDTH:0.487721
G1 X58.223 Y53.006 E.01736
;WIDTH:0.488345
G1 X58.153 Y52.419 E.02028
;WIDTH:0.494013
G1 X58.252 Y51.916 E.01781
G1 X58.457 Y51.484 E.0166
;WIDTH:0.484465
G1 X58.677 Y51.21 E.01195
;WIDTH:0.485272
G1 X58.945 Y50.983 E.01197
;WIDTH:0.48633
G1 X59.251 Y50.81 E.012
;WIDTH:0.486505
G1 X59.585 Y50.699 E.01201
;WIDTH:0.491436
G1 X60.056 Y50.656 E.01634
G1 X60.577 Y50.745 E.01825
;WIDTH:0.483957
G1 X60.942 Y50.911 E.01362
;WIDTH:0.483603
G1 X61.226 Y51.118 E.01191
;WIDTH:0.484237
G1 X61.46 Y51.368 E.01166
;WIDTH:0.484524
G1 X61.652 Y51.672 E.01223
;WIDTH:0.485789
G1 X61.777 Y51.992 E.01171
;WIDTH:0.488179
G1 X61.841 Y52.314 E.01126
;WIDTH:0.49056
G1 X61.826 Y52.777 E.01595
;WIDTH:0.490833
G1 X61.684 Y53.259 E.01733
G1 X61.44 Y53.66 E.01619
;WIDTH:0.484836
G1 X61.201 Y53.905 E.01165
; stop printing object Under duct scalable brace spacer.stl id:1 copy 0
EXCLUDE_OBJECT_END NAME=Under_duct_scalable_brace_spacer.stl_id_1_copy_0
;LAYER_CHANGE
;Z:0.4
;HEIGHT:0.2
;BEFORE_LAYER_CHANGE
;0.4
G92 E0

;AFTER_LAYER_CHANGE
;0.4
SET_VELOCITY_LIMIT ACCEL_TO_DECEL=3000
M204 S6000
M140 S110 ; set bed temperature
; printing object Under duct scalable brace spacer.stl id:0 copy 0
EXCLUDE_OBJECT_START NAME=Under_duct_scalable_brace_spacer.stl_id_0_copy_0
SET_VELOCITY_LIMIT ACCEL_TO_DECEL=2000
M204 S4000
G1 E-.5 F3000
G1 Z.4 F21000
G1 X61.205 Y53.909
G1 X57.716 Y67.478
G1 E.5 F1800
;WIDTH:0.493592
G1 F1184
G1 X57.709 Y67.404 E.00256
;WIDTH:0.498977
G1 X57.779 Y66.944 E.01634
G1 X57.96 Y66.465 E.018
;WIDTH:0.491265
G1 X58.262 Y66.002 E.01907
G1 X58.604 Y65.678 E.01629
;WIDTH:0.489386
G1 X58.986 Y65.442 E.01544
;WIDTH:0.487929
G1 X59.398 Y65.288 E.01506
;WIDTH:0.486568
G1 X59.859 Y65.221 E.0159
;WIDTH:0.484521
G1 X60.365 Y65.239 E.01722
;WIDTH:0.491886
G1 X60.951 Y65.412 E.02113
G1 X61.358 Y65.651 E.01631
;WIDTH:0.491608
G1 X61.708 Y65.968 E.0163
;WIDTH:0.491081
G1 X61.985 Y66.349 E.01628
;WIDTH:0.498409
G1 X62.175 Y66.78 E.01652
G1 X62.282 Y67.287 E.01815
;WIDTH:0.492383
G1 X62.273 Y67.762 E.01646
;WIDTH:0.486266
G1 X62.161 Y68.24 E.01674
;WIDTH:0.48458
G1 X61.945 Y68.706 E.01749
;WIDTH:0.49193
G1 X61.575 Y69.167 E.02042
G1 X61.2 Y69.453 E.01631
;WIDTH:0.491823
G1 X60.757 Y69.667 E.01701
;WIDTH:0.491257
M73 P4 R2
G1 X60.251 Y69.775 E.01785
;WIDTH:0.485727
G1 X59.807 Y69.782 E.01515
G1 X59.375 Y69.702 E.01497
;WIDTH:0.484814
G1 X58.988 Y69.544 E.01423
;WIDTH:0.484341
G1 X58.59 Y69.302 E.01581
G1 X58.235 Y68.956 E.01688
;WIDTH:0.484999
G1 X57.964 Y68.541 E.01686
G1 X57.76 Y67.976 E.02044
;WIDTH:0.493592
G1 X57.721 Y67.538 E.01528
SET_VELOCITY_LIMIT ACCEL_TO_DECEL=3000
M204 S6000
SET_VELOCITY_LIMIT ACCEL_TO_DECEL=2000
M204 S4000
G1 E-.5 F3000
G1 Z.6 F21000
G1 X58.806 Y68.638 Z.4
G1 X58.88 Y68.711
G1 X58.96 Y68.78
G1 X59.043 Y68.843
G1 X59.13 Y68.901
