; HEADER_BLOCK_START
; generated by OrcaSlicer 1.7.0-beta on 2023-09-14 at 20:22:10
; total layer number: 70
; HEADER_BLOCK_END

; THUMBNAIL_BLOCK_START
; THUMBNAIL_BLOCK_END

; external perimeters extrusion width = 0.40mm
; perimeters extrusion width = 0.46mm
; infill extrusion width = 0.64mm
; solid infill extrusion width = 0.56mm
; top infill extrusion width = 0.40mm
; support material extrusion width = 0.46mm
; first layer extrusion width = 0.50mm

; external perimeters extrusion width = 0.40mm
; perimeters extrusion width = 0.46mm
; infill extrusion width = 0.64mm
; solid infill extrusion width = 0.56mm
; top infill extrusion width = 0.40mm
; support material extrusion width = 0.46mm
; first layer extrusion width = 0.50mm

; EXECUTABLE_BLOCK_START
EXCLUDE_OBJECT_DEFINE NAME=Under_duct_scalable_brace_spacer.stl_id_0_copy_0 CENTER=60,67.4992 POLYGON=[[57.5,67.4992],[57.5033,67.3705],[57.5132,67.2421],[57.5298,67.1144],[57.5529,66.9878],[57.5824,66.8625],[57.6184,66.7389],[57.6607,66.6173],[57.7092,66.498],[57.7638,66.3814],[57.8243,66.2678],[57.8906,66.1574],[57.9624,66.0506],[58.0397,65.9476],[58.1222,65.8488],[58.2096,65.7543],[58.3018,65.6645],[58.3985,65.5795],[58.4995,65.4996],[58.6044,65.425],[58.713,65.3559],[58.8251,65.2925],[58.9402,65.2349],[59.0582,65.1834],[59.1786,65.1379],[59.3013,65.0988],[59.4258,65.066],[59.5518,65.0397],[59.679,65.0199],[59.8071,65.0066],[59.9356,65],[60.0644,65],[60.1929,65.0066],[60.321,65.0199],[60.4482,65.0397],[60.5742,65.066],[60.6987,65.0988],[60.8214,65.1379],[60.9418,65.1834],[61.0598,65.2349],[61.1749,65.2925],[61.287,65.3559],[61.3956,65.425],[61.5005,65.4996],[61.6015,65.5795],[61.6982,65.6645],[61.7904,65.7543],[61.8778,65.8488],[61.9603,65.9476],[62.0376,66.0506],[62.1094,66.1574],[62.1757,66.2678],[62.2362,66.3814],[62.2908,66.498],[62.3393,66.6173],[62.3816,66.7389],[62.4176,66.8625],[62.4471,66.9878],[62.4702,67.1144],[62.4867,67.2421],[62.4967,67.3705],[62.5,67.4992],[62.4967,67.6279],[62.4867,67.7562],[62.4702,67.8839],[62.4471,68.0105],[62.4176,68.1358],[62.3816,68.2595],[62.3393,68.381],[62.2908,68.5003],[62.2362,68.6169],[62.1757,68.7305],[62.1094,68.8409],[62.0376,68.9477],[61.9603,69.0507],[61.8778,69.1496],[61.7904,69.244],[61.6982,69.3339],[61.6015,69.4189],[61.5005,69.4988],[61.3956,69.5734],[61.287,69.6425],[61.1749,69.7059],[61.0598,69.7634],[60.9418,69.815],[60.8214,69.8604],[60.6987,69.8995],[60.5742,69.9323],[60.4482,69.9587],[60.321,69.9785],[60.1929,69.9917],[60.0644,69.9983],[59.9356,69.9983],[59.8071,69.9917],[59.679,69.9785],[59.5518,69.9587],[59.4258,69.9323],[59.3013,69.8995],[59.1786,69.8604],[59.0582,69.815],[58.9402,69.7634],[58.8251,69.7059],[58.713,69.6425],[58.6044,69.5734],[58.4995,69.4988],[58.3985,69.4189],[58.3018,69.3339],[58.2096,69.244],[58.1222,69.1496],[58.0397,69.0507],[57.9624,68.9477],[57.8906,68.8409],[57.8243,68.7305],[57.7638,68.6169],[57.7092,68.5003],[57.6607,68.381],[57.6184,68.2595],[57.5824,68.1358],[57.5529,68.0105],[57.5298,67.8839],[57.5132,67.7562],[57.5033,67.6279],[57.5,67.4992]]
EXCLUDE_OBJECT_DEFINE NAME=Under_duct_scalable_brace_spacer.stl_id_1_copy_0 CENTER=60,52.5008 POLYGON=[[57.5,52.5008],[57.5033,52.3721],[57.5132,52.2438],[57.5298,52.1161],[57.5529,51.9895],[57.5824,51.8642],[57.6184,51.7405],[57.6607,51.619],[57.7092,51.4997],[57.7638,51.3831],[57.8243,51.2695],[57.8906,51.1591],[57.9624,51.0523],[58.0397,50.9493],[58.1222,50.8504],[58.2096,50.756],[58.3018,50.6661],[58.3985,50.5811],[58.4995,50.5012],[58.6044,50.4266],[58.713,50.3575],[58.8251,50.2941],[58.9402,50.2366],[59.0582,50.185],[59.1786,50.1396],[59.3013,50.1004],[59.4258,50.0677],[59.5518,50.0413],[59.679,50.0215],[59.8071,50.0083],[59.9356,50.0017],[60.0644,50.0017],[60.1929,50.0083],[60.321,50.0215],[60.4482,50.0413],[60.5742,50.0677],[60.6987,50.1004],[60.8214,50.1396],[60.9418,50.185],[61.0598,50.2366],[61.1749,50.2941],[61.287,50.3575],[61.3956,50.4266],[61.5005,50.5012],[61.6015,50.5811],[61.6982,50.6661],[61.7904,50.756],[61.8778,50.8504],[61.9603,50.9493],[62.0376,51.0523],[62.1094,51.1591],[62.1757,51.2695],[62.2362,51.3831],[62.2908,51.4997],[62.3393,51.619],[62.3816,51.7405],[62.4176,51.8642],[62.4471,51.9895],[62.4702,52.1161],[62.4867,52.2438],[62.4967,52.3721],[62.5,52.5008],[62.4967,52.6295],[62.4867,52.7579],[62.4702,52.8856],[62.4471,53.0122],[62.4176,53.1375],[62.3816,53.2611],[62.3393,53.3827],[62.2908,53.502],[62.2362,53.6186],[62.1757,53.7322],[62.1094,53.8426],[62.0376,53.9494],[61.9603,54.0524],[61.8778,54.1512],[61.7904,54.2457],[61.6982,54.3355],[61.6015,54.4205],[61.5005,54.5004],[61.3956,54.575],[61.287,54.6441],[61.1749,54.7075],[61.0598,54.7651],[60.9418,54.8166],[60.8214,54.8621],[60.6987,54.9012],[60.5742,54.934],[60.4482,54.9603],[60.321,54.9801],[60.1929,54.9934],[60.0644,55],[59.9356,55],[59.8071,54.9934],[59.679,54.9801],[59.5518,54.9603],[59.4258,54.934],[59.3013,54.9012],[59.1786,54.8621],[59.0582,54.8166],[58.9402,54.7651],[58.8251,54.7075],[58.713,54.6441],[58.6044,54.575],[58.4995,54.5004],[58.3985,54.4205],[58.3018,54.3355],[58.2096,54.2457],[58.1222,54.1512],[58.0397,54.0524],[57.9624,53.9494],[57.8906,53.8426],[57.8243,53.7322],[57.7638,53.6186],[57.7092,53.502],[57.6607,53.3827],[57.6184,53.2611],[57.5824,53.1375],[57.5529,53.0122],[57.5298,52.8856],[57.5132,52.7579],[57.5033,52.6295],[57.5,52.5008]]
M73 P0 R3
;TYPE:Custom
START_PRINT T_BED=110 T_EXTRUDER=260
G90
G21
M83 ; use relative distances for extrusion
; Filament gcode

    PRESSURE_ADVANCE_SELECT FILAMENT=ABS
M106 S0
;LAYER_CHANGE
;Z:0.2
;HEIGHT:0.2
;BEFORE_LAYER_CHANGE
;0.2
G92 E0

;AFTER_LAYER_CHANGE
;0.2
;_SET_FAN_SPEED_CHANGING_LAYER
SET_VELOCITY_LIMIT ACCEL=1000 ACCEL_TO_DECEL=500
SET_VELOCITY_LIMIT SQUARE_CORNER_VELOCITY=9
G1 E-.5 F3000
G1 Z.2 F21000
G1 X56.176 Y48.669
G1 Z.2
G1 E.5 F1800
;TYPE:Skirt
;WIDTH:0.5
G1 F3000
G1 X57.04 Y47.968 E.03918
G1 X58.03 Y47.458 E.03917
G1 X59.103 Y47.162 E.03919
G1 X60.076 Y47.088 E.03433
G1 X61.044 Y47.189 E.03426
G1 X61.85 Y47.413 E.02942
G1 X62.61 Y47.758 E.0294
G1 X63.41 Y48.296 E.03392
G1 X64.017 Y48.871 E.02941
G1 X64.608 Y49.659 E.03467
G1 X64.99 Y50.402 E.02941
G1 X65.254 Y51.195 E.02941
G1 X65.414 Y52.501 E.04631
G1 X65.414 Y67.499 E.52785
G1 X65.314 Y68.533 E.03656
G1 X64.986 Y69.609 E.03959
G1 X64.455 Y70.575 E.03877
G1 X63.824 Y71.331 E.03468
G1 X62.96 Y72.032 E.03918
G1 X61.97 Y72.542 E.03917
G1 X61.044 Y72.811 E.03393
G1 X59.936 Y72.912 E.03918
G1 X58.956 Y72.811 E.03467
G1 X58.15 Y72.587 E.02941
G1 X57.39 Y72.242 E.0294
G1 X56.59 Y71.704 E.03392
G1 X55.983 Y71.129 E.02941
G1 X55.392 Y70.341 E.03467
G1 X55.01 Y69.598 E.02941
G1 X54.746 Y68.805 E.02941
G1 X54.586 Y67.499 E.04631
G1 X54.586 Y52.501 E.52785
G1 X54.686 Y51.467 E.03656
G1 X55.01 Y50.402 E.03918
G1 X55.545 Y49.425 E.03918
G1 X56.15 Y48.7 E.03327
G1 X56.495 Y48.996 F21000
G1 F3000
G1 X57.286 Y48.353 E.03587
G1 X58.191 Y47.886 E.03587
G1 X59.174 Y47.614 E.03588
G1 X60.075 Y47.545 E.03181
G1 X60.951 Y47.636 E.03099
G1 X61.688 Y47.841 E.02693
G1 X62.385 Y48.156 E.02692
G1 X63.126 Y48.654 E.03144
G1 X63.681 Y49.181 E.02693
G1 X64.216 Y49.894 E.03136
G1 X64.567 Y50.574 E.02693
G1 X64.809 Y51.3 E.02693
G1 X64.957 Y52.501 E.04259
G1 X64.957 Y67.499 E.52785
M73 P1 R3
G1 X64.864 Y68.451 E.03366
G1 X64.563 Y69.436 E.03624
G1 X64.076 Y70.319 E.0355
G1 X63.505 Y71.004 E.03137
G1 X62.714 Y71.647 E.03587
G1 X61.809 Y72.114 E.03586
G1 X60.951 Y72.364 E.03145
G1 X59.936 Y72.455 E.03587
G1 X59.049 Y72.364 E.03137
G1 X58.312 Y72.159 E.02693
G1 X57.615 Y71.844 E.02692
G1 X56.874 Y71.346 E.03144
G1 X56.319 Y70.819 E.02693
G1 X55.784 Y70.106 E.03136
G1 X55.433 Y69.426 E.02693
G1 X55.191 Y68.7 E.02693
G1 X55.043 Y67.499 E.04259
G1 X55.043 Y52.501 E.52785
G1 X55.136 Y51.549 E.03366
G1 X55.433 Y50.574 E.03587
G1 X55.924 Y49.681 E.03588
G1 X56.469 Y49.027 E.02996
; printing object Under duct scalable brace spacer.stl id:0 copy 0
G1 E-.5
EXCLUDE_OBJECT_START NAME=Under_duct_scalable_brace_spacer.stl_id_0_copy_0
G1 Z.4 F21000
G1 X61.266 Y69.403 Z.4
G1 Z.2
G1 E.5 F1800
;TYPE:Outer wall
;WIDTH:0.491931
G1 F3000
G1 X61.2 Y69.453 E.00286
;WIDTH:0.491824
G1 X60.757 Y69.667 E.01701
;WIDTH:0.491256
G1 X60.251 Y69.775 E.01785
;WIDTH:0.48573
G1 X59.807 Y69.782 E.01515
G1 X59.375 Y69.702 E.01496
;WIDTH:0.484813
G1 X58.972 Y69.544 E.01473
;WIDTH:0.484092
G1 X58.596 Y69.298 E.01525
;WIDTH:0.48322
G1 X58.234 Y68.955 E.0169
;WIDTH:0.485
G1 X57.964 Y68.541 E.01684
G1 X57.76 Y67.976 E.02044
;WIDTH:0.494885
G1 X57.71 Y67.404 E.01997
G1 X57.779 Y66.917 E.01713
;WIDTH:0.491094
G1 X57.965 Y66.452 E.01728
;WIDTH:0.497042
G1 X58.264 Y66.004 E.01882
G1 X58.606 Y65.681 E.01647
;WIDTH:0.496782
G1 X59.048 Y65.411 E.01809
;WIDTH:0.488424
G1 X59.53 Y65.257 E.01738
;WIDTH:0.491442
G1 X60.041 Y65.207 E.01772
;WIDTH:0.491887
G1 X60.504 Y65.262 E.01612
G1 X60.951 Y65.412 E.0163
G1 X61.358 Y65.651 E.01631
;WIDTH:0.49161
G1 X61.708 Y65.968 E.0163
;WIDTH:0.491083
G1 X61.985 Y66.349 E.01628
;WIDTH:0.498407
G1 X62.175 Y66.78 E.01652
G1 X62.282 Y67.287 E.01815
;WIDTH:0.492384
G1 X62.273 Y67.762 E.01646
;WIDTH:0.486265
G1 X62.16 Y68.24 E.01677
;WIDTH:0.48465
G1 X61.945 Y68.707 E.01746
;WIDTH:0.491931
G1 X61.575 Y69.167 E.02042
G1 X61.298 Y69.379 E.01206
G1 X60.635 Y69.228 F21000
;WIDTH:0.483548
G1 F3000
G1 X60.513 Y69.274 E.00444
;WIDTH:0.487263
G1 X60.126 Y69.345 E.01346
;WIDTH:0.488751
G1 X59.774 Y69.336 E.01208
;WIDTH:0.489943
G1 X59.405 Y69.25 E.01302
;WIDTH:0.490642
G1 X59.063 Y69.091 E.01302
;WIDTH:0.491243
G1 X58.667 Y68.777 E.01744
G1 X58.369 Y68.367 E.0175
;WIDTH:0.485496
G1 X58.193 Y67.883 E.01754
;WIDTH:0.4869
G1 X58.163 Y67.3 E.01996
G1 X58.252 Y66.903 E.0139
;WIDTH:0.488319
G1 X58.399 Y66.575 E.01235
G1 X58.721 Y66.166 E.01782
;WIDTH:0.488135
G1 X59.2 Y65.833 E.02003
G1 X59.585 Y65.697 E.01397
;WIDTH:0.491442
G1 X60.053 Y65.654 E.01625
G1 X60.585 Y65.746 E.01862
;WIDTH:0.483791
G1 X60.942 Y65.909 E.01334
;WIDTH:0.483627
G1 X61.226 Y66.116 E.01192
;WIDTH:0.483953
G1 X61.466 Y66.373 E.01193
;WIDTH:0.485417
G1 X61.658 Y66.684 E.01244
G1 X61.818 Y67.173 E.01753
;WIDTH:0.486265
G1 X61.83 Y67.756 E.01993
;WIDTH:0.491205
G1 X61.69 Y68.242 E.01742
;WIDTH:0.491797
G1 X61.507 Y68.565 E.01287
G1 X61.136 Y68.957 E.01864
;WIDTH:0.483922
G1 X60.802 Y69.164 E.01334
;WIDTH:0.483548
G1 X60.672 Y69.214 E.00471
; stop printing object Under duct scalable brace spacer.stl id:0 copy 0
; printing object Under duct scalable brace spacer.stl id:1 copy 0
G1 E-.5
EXCLUDE_OBJECT_END NAME=Under_duct_scalable_brace_spacer.stl_id_0_copy_0
EXCLUDE_OBJECT_START NAME=Under_duct_scalable_brace_spacer.stl_id_1_copy_0
G1 Z.4 F21000
G1 X60.685 Y69.248 Z.4
G1 X60.726 Y69.232
G1 X60.834 Y69.183
G1 X60.939 Y69.126
G1 X61.041 Y69.063
G1 X61.138 Y68.994
G1 X61.231 Y68.919
G1 X61.322 Y68.834
G1 X61.4 Y68.752
G1 X61.477 Y68.661
G1 X61.547 Y68.565
G1 X61.612 Y68.464
G1 X61.67 Y68.36
G1 X61.721 Y68.252
G1 X61.765 Y68.142
G1 X61.803 Y68.028
G1 X61.833 Y67.913
G1 X61.855 Y67.796
G1 X61.871 Y67.672
G1 X61.878 Y67.559
G1 X61.878 Y67.439
G1 X61.266 Y54.405
G1 Z.2
M73 P2 R3
G1 E.5 F1800
;WIDTH:0.491931
G1 F3000
G1 X61.2 Y54.455 E.00286
;WIDTH:0.491824
G1 X60.757 Y54.668 E.01701
;WIDTH:0.491256
G1 X60.251 Y54.777 E.01785
;WIDTH:0.48573
G1 X59.807 Y54.783 E.01515
G1 X59.375 Y54.703 E.01496
;WIDTH:0.484813
G1 X58.972 Y54.545 E.01473
;WIDTH:0.484092
G1 X58.596 Y54.3 E.01525
;WIDTH:0.48322
G1 X58.234 Y53.957 E.0169
;WIDTH:0.485
G1 X57.964 Y53.543 E.01684
G1 X57.76 Y52.978 E.02044
;WIDTH:0.494885
G1 X57.71 Y52.406 E.01997
G1 X57.779 Y51.919 E.01713
;WIDTH:0.491094
G1 X57.965 Y51.454 E.01728
;WIDTH:0.497042
G1 X58.264 Y51.006 E.01882
G1 X58.606 Y50.682 E.01647
;WIDTH:0.496782
G1 X59.048 Y50.412 E.01809
;WIDTH:0.488424
G1 X59.53 Y50.259 E.01738
;WIDTH:0.491442
G1 X60.041 Y50.209 E.01772
;WIDTH:0.491887
G1 X60.504 Y50.263 E.01612
G1 X60.951 Y50.414 E.0163
G1 X61.358 Y50.653 E.01631
;WIDTH:0.49161
G1 X61.708 Y50.969 E.0163
;WIDTH:0.491083
G1 X61.985 Y51.351 E.01628
;WIDTH:0.498407
G1 X62.175 Y51.782 E.01652
G1 X62.282 Y52.288 E.01815
;WIDTH:0.492384
G1 X62.273 Y52.764 E.01646
;WIDTH:0.486265
G1 X62.16 Y53.242 E.01677
;WIDTH:0.48465
G1 X61.945 Y53.708 E.01746
;WIDTH:0.491931
G1 X61.575 Y54.168 E.02042
G1 X61.298 Y54.38 E.01206
G1 X60.635 Y54.229 F21000
;WIDTH:0.483548
G1 F3000
G1 X60.513 Y54.276 E.00444
;WIDTH:0.487263
G1 X60.126 Y54.346 E.01346
;WIDTH:0.488751
G1 X59.774 Y54.337 E.01208
;WIDTH:0.489943
G1 X59.405 Y54.252 E.01302
;WIDTH:0.490642
G1 X59.063 Y54.093 E.01302
;WIDTH:0.491243
G1 X58.667 Y53.778 E.01744
G1 X58.369 Y53.368 E.0175
;WIDTH:0.485496
G1 X58.193 Y52.885 E.01754
;WIDTH:0.4869
G1 X58.163 Y52.302 E.01996
G1 X58.252 Y51.905 E.0139
;WIDTH:0.488319
G1 X58.399 Y51.576 E.01235
G1 X58.721 Y51.168 E.01782
;WIDTH:0.488135
G1 X59.2 Y50.834 E.02003
G1 X59.585 Y50.699 E.01397
;WIDTH:0.491442
G1 X60.053 Y50.656 E.01625
G1 X60.585 Y50.748 E.01862
;WIDTH:0.483791
G1 X60.942 Y50.911 E.01334
;WIDTH:0.483627
G1 X61.226 Y51.118 E.01192
;WIDTH:0.483953
G1 X61.466 Y51.375 E.01193
;WIDTH:0.485417
G1 X61.658 Y51.686 E.01244
G1 X61.818 Y52.175 E.01753
;WIDTH:0.486265
G1 X61.83 Y52.758 E.01993
;WIDTH:0.491205
G1 X61.69 Y53.243 E.01742
;WIDTH:0.491797
G1 X61.507 Y53.567 E.01287
G1 X61.136 Y53.959 E.01864
;WIDTH:0.483922
G1 X60.802 Y54.166 E.01334
;WIDTH:0.483548
G1 X60.672 Y54.215 E.00471
; stop printing object Under duct scalable brace spacer.stl id:1 copy 0
;LAYER_CHANGE
;Z:0.4
;HEIGHT:0.2
;BEFORE_LAYER_CHANGE
;0.4
G92 E0

EXCLUDE_OBJECT_END NAME=Under_duct_scalable_brace_spacer.stl_id_1_copy_0
;AFTER_LAYER_CHANGE
;0.4
;_SET_FAN_SPEED_CHANGING_LAYER
SET_VELOCITY_LIMIT ACCEL=6000 ACCEL_TO_DECEL=3000
M140 S110 ; set bed temperature
; printing object Under duct scalable brace spacer.stl id:0 copy 0
SET_VELOCITY_LIMIT ACCEL=4000 ACCEL_TO_DECEL=2000
SET_VELOCITY_LIMIT SQUARE_CORNER_VELOCITY=12
G1 E-.5 F3000
EXCLUDE_OBJECT_START NAME=Under_duct_scalable_brace_spacer.stl_id_0_copy_0
G1 Z.4 F21000
G1 X60.678 Y54.231 Z.4
G1 X61.848 Y67.306
G1 X61.858 Y67.439
G1 X61.858 Y67.558
G1 X61.85 Y67.676
G1 X61.835 Y67.793
G1 X61.813 Y67.909
G1 X61.783 Y68.023
G1 X61.747 Y68.135
G1 X61.266 Y69.403
G1 E.5 F1800
SET_VELOCITY_LIMIT SQUARE_CORNER_VELOCITY=7
;WIDTH:0.491931
G1 F1136
G1 X61.2 Y69.453 E.00285
;WIDTH:0.491824
G1 X60.757 Y69.667 E.01701
;WIDTH:0.491255
G1 X60.251 Y69.775 E.01785
;WIDTH:0.48573
G1 X59.807 Y69.782 E.01515
G1 X59.375 Y69.702 E.01496
;WIDTH:0.484814
G1 X58.967 Y69.541 E.01492
;WIDTH:0.48414
G1 X58.595 Y69.297 E.01511
;WIDTH:0.485245
G1 X58.268 Y68.998 E.01509
G1 X57.964 Y68.541 E.01871
;WIDTH:0.484999
G1 X57.76 Y67.976 E.02044
;WIDTH:0.49404
G1 X57.71 Y67.404 E.01994
G1 X57.775 Y66.943 E.01619
;WIDTH:0.491358
G1 X57.96 Y66.462 E.01777
;WIDTH:0.485429
G1 X58.206 Y66.075 E.01562
G1 X58.512 Y65.76 E.01497
;WIDTH:0.494859
G1 X59.007 Y65.433 E.02065
;WIDTH:0.497671
G1 X59.497 Y65.266 E.01811
G1 X60.052 Y65.208 E.01954
;WIDTH:0.491699
G1 X60.504 Y65.262 E.01575
;WIDTH:0.492296
G1 X60.951 Y65.412 E.01632
G1 X61.358 Y65.651 E.01632
;WIDTH:0.49161
G1 X61.708 Y65.968 E.0163
;WIDTH:0.491081
G1 X61.985 Y66.349 E.01628
;WIDTH:0.498407
G1 X62.175 Y66.78 E.01652
G1 X62.282 Y67.287 E.01815
;WIDTH:0.492383
G1 X62.273 Y67.762 E.01646
;WIDTH:0.486265
G1 X62.161 Y68.24 E.01674
;WIDTH:0.48458
G1 X61.945 Y68.706 E.01748
;WIDTH:0.491931
G1 X61.575 Y69.167 E.02042
G1 X61.298 Y69.379 E.01208
SET_VELOCITY_LIMIT SQUARE_CORNER_VELOCITY=12
G1 X60.643 Y69.222 F21000
SET_VELOCITY_LIMIT SQUARE_CORNER_VELOCITY=7
;WIDTH:0.483547
G1 F1136
G1 X60.472 Y69.284 E.00617
;WIDTH:0.487262
G1 X60.126 Y69.345 E.01203
;WIDTH:0.488752
G1 X59.774 Y69.336 E.01208
;WIDTH:0.489958
G1 X59.406 Y69.25 E.01301
;WIDTH:0.490332
G1 X59.063 Y69.092 E.01298
;WIDTH:0.491001
G1 X58.66 Y68.769 E.01781
G1 X58.369 Y68.367 E.01715
;WIDTH:0.485494
G1 X58.193 Y67.883 E.01754
;WIDTH:0.487535
G1 X58.161 Y67.316 E.01943
G1 X58.252 Y66.904 E.01446
;WIDTH:0.488865
G1 X58.385 Y66.596 E.01152
;WIDTH:0.489221
G1 X58.6 Y66.289 E.01286
;WIDTH:0.489456
G1 X58.849 Y66.053 E.0118
G1 X59.307 Y65.786 E.01822
;WIDTH:0.487296
G1 X59.878 Y65.658 E.02002
;WIDTH:0.484316
G1 X60.283 Y65.673 E.01379
