; HEADER_BLOCK_START
; generated by OrcaSlicer 1.7.0-beta on 2023-09-27 at 09:52:33
; total layer number: 150
; HEADER_BLOCK_END

; THUMBNAIL_BLOCK_START
; THUMBNAIL_BLOCK_END

; external perimeters extrusion width = 0.40mm
; perimeters extrusion width = 0.46mm
; infill extrusion width = 0.64mm
; solid infill extrusion width = 0.56mm
; top infill extrusion width = 0.40mm
; first layer extrusion width = 0.50mm

; external perimeters extrusion width = 0.40mm
; perimeters extrusion width = 0.46mm
; infill extrusion width = 0.64mm
; solid infill extrusion width = 0.56mm
; top infill extrusion width = 0.40mm
; first layer extrusion width = 0.50mm

; external perimeters extrusion width = 0.40mm
; perimeters extrusion width = 0.46mm
; infill extrusion width = 0.64mm
; solid infill extrusion width = 0.56mm
; top infill extrusion width = 0.40mm
; first layer extrusion width = 0.50mm

; external perimeters extrusion width = 0.40mm
; perimeters extrusion width = 0.46mm
; infill extrusion width = 0.64mm
; solid infill extrusion width = 0.56mm
; top infill extrusion width = 0.40mm
; first layer extrusion width = 0.50mm

; EXECUTABLE_BLOCK_START
EXCLUDE_OBJECT_DEFINE NAME=Under_duct_scalable_brace_spacer.stl_id_0_copy_0 CENTER=65,64.9992 POLYGON=[[62.5,64.9992],[62.5033,64.8705],[62.5133,64.7421],[62.5298,64.6144],[62.5529,64.4878],[62.5824,64.3625],[62.6184,64.2389],[62.6607,64.1173],[62.7092,63.998],[62.7638,63.8814],[62.8243,63.7678],[62.8906,63.6574],[62.9624,63.5506],[63.0397,63.4476],[63.1222,63.3488],[63.2096,63.2543],[63.3018,63.1645],[63.3985,63.0795],[63.4995,62.9996],[63.6044,62.925],[63.713,62.8559],[63.8251,62.7925],[63.9402,62.7349],[64.0582,62.6834],[64.1786,62.6379],[64.3013,62.5988],[64.4258,62.566],[64.5518,62.5397],[64.679,62.5199],[64.8071,62.5066],[64.9356,62.5],[65.0644,62.5],[65.1929,62.5066],[65.321,62.5199],[65.4482,62.5397],[65.5742,62.566],[65.6987,62.5988],[65.8214,62.6379],[65.9418,62.6834],[66.0598,62.7349],[66.1749,62.7925],[66.287,62.8559],[66.3956,62.925],[66.5005,62.9996],[66.6015,63.0795],[66.6982,63.1645],[66.7904,63.2543],[66.8778,63.3488],[66.9603,63.4476],[67.0376,63.5506],[67.1094,63.6574],[67.1757,63.7678],[67.2362,63.8814],[67.2908,63.998],[67.3393,64.1173],[67.3816,64.2389],[67.4176,64.3625],[67.4471,64.4878],[67.4702,64.6144],[67.4868,64.7421],[67.4967,64.8705],[67.5,64.9992],[67.4967,65.1279],[67.4868,65.2562],[67.4702,65.3839],[67.4471,65.5105],[67.4176,65.6358],[67.3816,65.7595],[67.3393,65.881],[67.2908,66.0003],[67.2362,66.1169],[67.1757,66.2305],[67.1094,66.3409],[67.0376,66.4477],[66.9603,66.5507],[66.8778,66.6495],[66.7904,66.744],[66.6982,66.8339],[66.6015,66.9189],[66.5005,66.9988],[66.3956,67.0734],[66.287,67.1425],[66.1749,67.2059],[66.0598,67.2634],[65.9418,67.315],[65.8214,67.3604],[65.6987,67.3995],[65.5742,67.4323],[65.4482,67.4587],[65.321,67.4785],[65.1929,67.4917],[65.0644,67.4983],[64.9356,67.4983],[64.8071,67.4917],[64.679,67.4785],[64.5518,67.4587],[64.4258,67.4323],[64.3013,67.3995],[64.1786,67.3604],[64.0582,67.315],[63.9402,67.2634],[63.8251,67.2059],[63.713,67.1425],[63.6044,67.0734],[63.4995,66.9988],[63.3985,66.9189],[63.3018,66.8339],[63.2096,66.744],[63.1222,66.6495],[63.0397,66.5507],[62.9624,66.4477],[62.8906,66.3409],[62.8243,66.2305],[62.7638,66.1169],[62.7092,66.0003],[62.6607,65.881],[62.6184,65.7595],[62.5824,65.6358],[62.5529,65.5105],[62.5298,65.3839],[62.5133,65.2562],[62.5033,65.1279],[62.5,64.9992]]
EXCLUDE_OBJECT_DEFINE NAME=Under_duct_scalable_brace_spacer.stl_id_1_copy_0 CENTER=55,64.9992 POLYGON=[[52.5,64.9992],[52.5033,64.8705],[52.5132,64.7421],[52.5298,64.6144],[52.5529,64.4878],[52.5824,64.3625],[52.6184,64.2389],[52.6607,64.1173],[52.7092,63.998],[52.7638,63.8814],[52.8243,63.7678],[52.8906,63.6574],[52.9624,63.5506],[53.0397,63.4477],[53.1222,63.3488],[53.2096,63.2543],[53.3018,63.1645],[53.3985,63.0795],[53.4995,62.9996],[53.6044,62.925],[53.713,62.8559],[53.8251,62.7925],[53.9402,62.7349],[54.0582,62.6834],[54.1786,62.6379],[54.3013,62.5988],[54.4258,62.566],[54.5518,62.5397],[54.679,62.5199],[54.8071,62.5066],[54.9356,62.5],[55.0644,62.5],[55.1929,62.5066],[55.321,62.5199],[55.4482,62.5397],[55.5742,62.566],[55.6987,62.5988],[55.8214,62.6379],[55.9418,62.6834],[56.0598,62.7349],[56.1749,62.7925],[56.287,62.8559],[56.3956,62.925],[56.5005,62.9996],[56.6015,63.0795],[56.6982,63.1645],[56.7904,63.2543],[56.8778,63.3488],[56.9603,63.4477],[57.0376,63.5506],[57.1094,63.6574],[57.1757,63.7678],[57.2362,63.8814],[57.2908,63.998],[57.3393,64.1173],[57.3816,64.2389],[57.4176,64.3625],[57.4471,64.4878],[57.4702,64.6144],[57.4867,64.7421],[57.4967,64.8705],[57.5,64.9992],[57.4967,65.1279],[57.4867,65.2562],[57.4702,65.3839],[57.4471,65.5105],[57.4176,65.6359],[57.3816,65.7595],[57.3393,65.881],[57.2908,66.0003],[57.2362,66.1169],[57.1757,66.2305],[57.1094,66.3409],[57.0376,66.4477],[56.9603,66.5507],[56.8778,66.6496],[56.7904,66.744],[56.6982,66.8339],[56.6015,66.9189],[56.5005,66.9988],[56.3956,67.0734],[56.287,67.1425],[56.1749,67.2059],[56.0598,67.2634],[55.9418,67.315],[55.8214,67.3604],[55.6987,67.3995],[55.5742,67.4323],[55.4482,67.4587],[55.321,67.4785],[55.1929,67.4917],[55.0644,67.4983],[54.9356,67.4983],[54.8071,67.4917],[54.679,67.4785],[54.5518,67.4587],[54.4258,67.4323],[54.3013,67.3995],[54.1786,67.3604],[54.0582,67.315],[53.9402,67.2634],[53.8251,67.2059],[53.713,67.1425],[53.6044,67.0734],[53.4995,66.9988],[53.3985,66.9189],[53.3018,66.8339],[53.2096,66.744],[53.1222,66.6496],[53.0397,66.5507],[52.9624,66.4477],[52.8906,66.3409],[52.8243,66.2305],[52.7638,66.1169],[52.7092,66.0003],[52.6607,65.881],[52.6184,65.7595],[52.5824,65.6359],[52.5529,65.5105],[52.5298,65.3839],[52.5132,65.2562],[52.5033,65.1279],[52.5,64.9992]]
EXCLUDE_OBJECT_DEFINE NAME=Under_duct_scalable_brace_spacer.stl_id_2_copy_0 CENTER=55,55.0008 POLYGON=[[52.5,55.0008],[52.5033,54.8721],[52.5132,54.7438],[52.5298,54.6161],[52.5529,54.4895],[52.5824,54.3642],[52.6184,54.2405],[52.6607,54.119],[52.7092,53.9997],[52.7638,53.8831],[52.8243,53.7695],[52.8906,53.6591],[52.9624,53.5523],[53.0397,53.4493],[53.1222,53.3505],[53.2096,53.256],[53.3018,53.1661],[53.3985,53.0811],[53.4995,53.0012],[53.6044,52.9266],[53.713,52.8575],[53.8251,52.7941],[53.9402,52.7366],[54.0582,52.685],[54.1786,52.6396],[54.3013,52.6005],[54.4258,52.5677],[54.5518,52.5413],[54.679,52.5215],[54.8071,52.5083],[54.9356,52.5017],[55.0644,52.5017],[55.1929,52.5083],[55.321,52.5215],[55.4482,52.5413],[55.5742,52.5677],[55.6987,52.6005],[55.8214,52.6396],[55.9418,52.685],[56.0598,52.7366],[56.1749,52.7941],[56.287,52.8575],[56.3956,52.9266],[56.5005,53.0012],[56.6015,53.0811],[56.6982,53.1661],[56.7904,53.256],[56.8778,53.3505],[56.9603,53.4493],[57.0376,53.5523],[57.1094,53.6591],[57.1757,53.7695],[57.2362,53.8831],[57.2908,53.9997],[57.3393,54.119],[57.3816,54.2405],[57.4176,54.3642],[57.4471,54.4895],[57.4702,54.6161],[57.4867,54.7438],[57.4967,54.8721],[57.5,55.0008],[57.4967,55.1295],[57.4867,55.2579],[57.4702,55.3856],[57.4471,55.5122],[57.4176,55.6375],[57.3816,55.7611],[57.3393,55.8827],[57.2908,56.002],[57.2362,56.1186],[57.1757,56.2322],[57.1094,56.3426],[57.0376,56.4494],[56.9603,56.5524],[56.8778,56.6512],[56.7904,56.7457],[56.6982,56.8355],[56.6015,56.9205],[56.5005,57.0004],[56.3956,57.075],[56.287,57.1441],[56.1749,57.2075],[56.0598,57.2651],[55.9418,57.3166],[55.8214,57.3621],[55.6987,57.4012],[55.5742,57.434],[55.4482,57.4603],[55.321,57.4801],[55.1929,57.4934],[55.0644,57.5],[54.9356,57.5],[54.8071,57.4934],[54.679,57.4801],[54.5518,57.4603],[54.4258,57.434],[54.3013,57.4012],[54.1786,57.3621],[54.0582,57.3166],[53.9402,57.2651],[53.8251,57.2075],[53.713,57.1441],[53.6044,57.075],[53.4995,57.0004],[53.3985,56.9205],[53.3018,56.8355],[53.2096,56.7457],[53.1222,56.6512],[53.0397,56.5524],[52.9624,56.4494],[52.8906,56.3426],[52.8243,56.2322],[52.7638,56.1186],[52.7092,56.002],[52.6607,55.8827],[52.6184,55.7611],[52.5824,55.6375],[52.5529,55.5122],[52.5298,55.3856],[52.5132,55.2579],[52.5033,55.1295],[52.5,55.0008]]
EXCLUDE_OBJECT_DEFINE NAME=Under_duct_scalable_brace_spacer.stl_id_3_copy_0 CENTER=65,55.0008 POLYGON=[[62.5,55.0008],[62.5033,54.8721],[62.5132,54.7438],[62.5298,54.6161],[62.5529,54.4895],[62.5824,54.3641],[62.6184,54.2405],[62.6607,54.119],[62.7092,53.9997],[62.7638,53.8831],[62.8243,53.7695],[62.8906,53.6591],[62.9624,53.5523],[63.0397,53.4493],[63.1222,53.3504],[63.2096,53.256],[63.3018,53.1661],[63.3985,53.0811],[63.4995,53.0012],[63.6044,52.9266],[63.713,52.8575],[63.8251,52.7941],[63.9402,52.7366],[64.0582,52.685],[64.1786,52.6396],[64.3013,52.6004],[64.4258,52.5677],[64.5518,52.5413],[64.679,52.5215],[64.8071,52.5083],[64.9356,52.5017],[65.0644,52.5017],[65.1929,52.5083],[65.321,52.5215],[65.4482,52.5413],[65.5742,52.5677],[65.6987,52.6004],[65.8214,52.6396],[65.9418,52.685],[66.0598,52.7366],[66.1749,52.7941],[66.287,52.8575],[66.3956,52.9266],[66.5005,53.0012],[66.6015,53.0811],[66.6982,53.1661],[66.7904,53.256],[66.8778,53.3504],[66.9603,53.4493],[67.0376,53.5523],[67.1094,53.6591],[67.1757,53.7695],[67.2362,53.8831],[67.2908,53.9997],[67.3393,54.119],[67.3816,54.2405],[67.4176,54.3641],[67.4471,54.4895],[67.4702,54.6161],[67.4867,54.7438],[67.4967,54.8721],[67.5,55.0008],[67.4967,55.1295],[67.4867,55.2579],[67.4702,55.3856],[67.4471,55.5122],[67.4176,55.6375],[67.3816,55.7611],[67.3393,55.8827],[67.2908,56.002],[67.2362,56.1186],[67.1757,56.2322],[67.1094,56.3426],[67.0376,56.4494],[66.9603,56.5523],[66.8778,56.6512],[66.7904,56.7457],[66.6982,56.8355],[66.6015,56.9205],[66.5005,57.0004],[66.3956,57.075],[66.287,57.1441],[66.1749,57.2075],[66.0598,57.2651],[65.9418,57.3166],[65.8214,57.3621],[65.6987,57.4012],[65.5742,57.434],[65.4482,57.4603],[65.321,57.4801],[65.1929,57.4934],[65.0644,57.5],[64.9356,57.5],[64.8071,57.4934],[64.679,57.4801],[64.5518,57.4603],[64.4258,57.434],[64.3013,57.4012],[64.1786,57.3621],[64.0582,57.3166],[63.9402,57.2651],[63.8251,57.2075],[63.713,57.1441],[63.6044,57.075],[63.4995,57.0004],[63.3985,56.9205],[63.3018,56.8355],[63.2096,56.7457],[63.1222,56.6512],[63.0397,56.5523],[62.9624,56.4494],[62.8906,56.3426],[62.8243,56.2322],[62.7638,56.1186],[62.7092,56.002],[62.6607,55.8827],[62.6184,55.7611],[62.5824,55.6375],[62.5529,55.5122],[62.5298,55.3856],[62.5132,55.2579],[62.5033,55.1295],[62.5,55.0008]]
M73 P0 R10
;TYPE:Custom
START_PRINT T_BED=110 T_EXTRUDER=260
G90
G21
M83 ; use relative distances for extrusion
; Filament gcode

    PRESSURE_ADVANCE_SELECT FILAMENT=ABS
M106 S0
;LAYER_CHANGE
;Z:0.2
;HEIGHT:0.2
;BEFORE_LAYER_CHANGE
;0.2
G92 E0

;AFTER_LAYER_CHANGE
;0.2
;_SET_FAN_SPEED_CHANGING_LAYER
SET_VELOCITY_LIMIT ACCEL=1000 ACCEL_TO_DECEL=500
SET_VELOCITY_LIMIT SQUARE_CORNER_VELOCITY=9
G1 E-.5 F3000
G1 Z.2 F21000
G1 X51.176 Y51.169
G1 Z.2
G1 E.5 F1800
;TYPE:Skirt
;WIDTH:0.5
G1 F3000
G1 X52.04 Y50.468 E.03918
G1 X53.03 Y49.958 E.03917
G1 X54.103 Y49.662 E.03919
G1 X54.936 Y49.588 E.0294
G1 X64.939 Y49.588 E.35206
G1 X65.897 Y49.662 E.0338
G1 X66.708 Y49.863 E.02941
G1 X67.61 Y50.258 E.03467
G1 X68.309 Y50.716 E.0294
G1 X68.929 Y51.276 E.02941
G1 X69.527 Y52.032 E.03392
G1 X69.99 Y52.902 E.03467
G1 X70.254 Y53.695 E.02941
G1 X70.413 Y54.926 E.04368
G1 X70.41 Y65.203 E.36169
G1 X70.18 Y66.574 E.04893
G1 X69.929 Y67.238 E.02498
G1 X69.527 Y67.968 E.02932
G1 X68.824 Y68.831 E.03919
G1 X67.851 Y69.601 E.04368
G1 X66.707 Y70.137 E.04444
G1 X65.493 Y70.39 E.04367
G1 X54.657 Y70.402 E.38135
G1 X53.293 Y70.137 E.04892
G1 X52.04 Y69.532 E.04894
G1 X51.069 Y68.722 E.04452
G1 X50.326 Y67.731 E.04359
G1 X49.82 Y66.574 E.04443
G1 X49.608 Y65.481 E.03918
G1 X49.598 Y54.647 E.38129
G1 X49.867 Y53.28 E.04904
G1 X50.473 Y52.032 E.04882
G1 X51.151 Y51.2 E.03778
G1 X51.495 Y51.496 F21000
G1 F3000
G1 X52.286 Y50.853 E.03587
G1 X53.191 Y50.386 E.03586
G1 X54.174 Y50.114 E.03588
G1 X54.936 Y50.045 E.02692
G1 X64.939 Y50.045 E.35204
G1 X65.826 Y50.114 E.03133
G1 X66.569 Y50.299 E.02693
G1 X67.385 Y50.656 E.03136
G1 X68.025 Y51.075 E.02692
G1 X68.594 Y51.587 E.02693
G1 X69.148 Y52.287 E.03144
G1 X69.567 Y53.074 E.03136
G1 X69.809 Y53.8 E.02693
G1 X69.957 Y55.001 E.04259
G1 X69.953 Y65.191 E.35864
G1 X69.741 Y66.446 E.0448
G1 X69.148 Y67.713 E.04921
G1 X68.505 Y68.504 E.03588
G1 X67.606 Y69.216 E.04037
G1 X66.568 Y69.701 E.04031
G1 X65.446 Y69.936 E.04036
G1 X54.681 Y69.946 E.37886
G1 X53.432 Y69.701 E.04479
G1 X52.286 Y69.147 E.0448
G1 X51.405 Y68.411 E.04039
G1 X50.718 Y67.495 E.04028
G1 X50.259 Y66.446 E.0403
G1 X50.063 Y65.446 E.03587
G1 X50.054 Y54.683 E.3788
G1 X50.299 Y53.43 E.04491
G1 X50.852 Y52.287 E.04469
G1 X51.47 Y51.527 E.03447
; printing object Under duct scalable brace spacer.stl id:1 copy 0
G1 E-.5
EXCLUDE_OBJECT_START NAME=Under_duct_scalable_brace_spacer.stl_id_1_copy_0
G1 Z.4 F21000
G1 X55.384 Y67.215 Z.4
G1 Z.2
G1 E.5 F1800
;TYPE:Outer wall
G1 F3000
G1 X55.174 Y67.242 E.00747
G1 X54.711 Y67.23 E.01628
G1 X54.261 Y67.124 E.01628
G1 X53.842 Y66.928 E.01628
G1 X53.652 Y66.8 E.00804
G1 X53.385 Y66.565 E.01254
G1 X53.236 Y66.395 E.00795
G1 X52.988 Y66.005 E.01628
G1 X52.825 Y65.572 E.01628
G1 X52.753 Y65.115 E.01628
G1 X52.777 Y64.653 E.01628
G1 X52.824 Y64.429 E.00804
G1 X52.94 Y64.095 E.01245
G1 X53.042 Y63.891 E.00804
G1 X53.31 Y63.514 E.01628
G1 X53.65 Y63.2 E.01628
G1 X54.046 Y62.962 E.01628
G1 X54.483 Y62.81 E.01628
G1 X54.708 Y62.769 E.00804
G1 X55.064 Y62.751 E.01253
G1 X55.289 Y62.768 E.00795
G1 X55.739 Y62.874 E.01628
G1 X56.158 Y63.07 E.01628
G1 X56.528 Y63.348 E.01628
G1 X56.834 Y63.696 E.01628
G1 X57.061 Y64.098 E.01628
G1 X57.202 Y64.539 E.01628
G1 X57.237 Y64.765 E.00804
G1 X57.246 Y65.118 E.01245
G1 X57.223 Y65.345 E.00804
G1 X57.176 Y65.569 E.00803
G1 X57.059 Y65.905 E.01254
G1 X56.958 Y66.107 E.00795
G1 X56.69 Y66.484 E.01628
G1 X56.35 Y66.799 E.01628
G1 X56.158 Y66.928 E.00815
G1 X55.742 Y67.123 E.01616
G1 X55.423 Y67.206 E.01161
G1 E-.5
G1 Z.4 F21000
G1 X54.13 Y66.401 Z.4
G1 X54.043 Y66.343
G1 X53.96 Y66.28
G1 X53.88 Y66.211
G1 X53.806 Y66.138
G1 X53.736 Y66.06
G1 X53.671 Y65.978
G1 X53.612 Y65.891
G1 X53.558 Y65.801
G1 X53.51 Y65.708
G1 X53.468 Y65.612
G1 X53.432 Y65.514
G1 X53.403 Y65.416
G1 X53.38 Y65.311
G1 X53.214 Y64.366
G1 Z.2
G1 E.5 F1800
G1 F3000
G1 X53.235 Y64.293 E.00268
G1 X53.401 Y63.971 E.01272
G1 X53.624 Y63.687 E.01272
G1 X53.897 Y63.451 E.01272
G1 X54.21 Y63.27 E.01272
G1 X54.552 Y63.152 E.01272
G1 X54.91 Y63.1 E.01272
G1 X55.271 Y63.117 E.01272
G1 X55.622 Y63.203 E.01272
G1 X55.951 Y63.353 E.01272
G1 X56.245 Y63.562 E.01272
G1 X56.493 Y63.822 E.01263
G1 X56.69 Y64.128 E.01281
G1 X56.823 Y64.46 E.01258
G1 X56.877 Y64.699 E.00862
G1 X56.9 Y64.943 E.00862
G1 X56.877 Y65.3 E.01258
G1 X56.786 Y65.649 E.01272
G1 X56.631 Y65.976 E.01272
G1 X56.417 Y66.267 E.01272
G1 X56.153 Y66.51 E.01263
G1 X55.844 Y66.703 E.01281
G1 X55.507 Y66.832 E.01273
G1 X55.151 Y66.894 E.01272
G1 X54.789 Y66.889 E.01272
G1 X54.436 Y66.815 E.01272
G1 X54.102 Y66.675 E.01272
G1 X53.801 Y66.475 E.01272
G1 X53.547 Y66.224 E.01258
G1 X53.401 Y66.027 E.00863
G1 X53.282 Y65.813 E.00862
G1 X53.161 Y65.479 E.01249
G1 X53.103 Y65.124 E.01267
G1 X53.103 Y64.879 E.00863
G1 X53.134 Y64.636 E.00862
G1 X53.202 Y64.404 E.00849
; stop printing object Under duct scalable brace spacer.stl id:1 copy 0
; printing object Under duct scalable brace spacer.stl id:2 copy 0
G1 E-.5
EXCLUDE_OBJECT_END NAME=Under_duct_scalable_brace_spacer.stl_id_1_copy_0
EXCLUDE_OBJECT_START NAME=Under_duct_scalable_brace_spacer.stl_id_2_copy_0
G1 Z.4 F21000
G1 X55.374 Y57.218 Z.4
G1 Z.2
G1 E.5 F1800
G1 F3000
G1 X55.174 Y57.244 E.0071
G1 X54.711 Y57.232 E.01628
G1 X54.261 Y57.126 E.01628
G1 X53.842 Y56.93 E.01628
G1 X53.652 Y56.802 E.00803
G1 X53.385 Y56.566 E.01255
G1 X53.236 Y56.397 E.00793
G1 X52.988 Y56.007 E.01628
G1 X52.825 Y55.574 E.01628
G1 X52.753 Y55.117 E.01628
G1 X52.777 Y54.655 E.01628
G1 X52.824 Y54.431 E.00804
G1 X52.94 Y54.097 E.01245
G1 X53.042 Y53.893 E.00804
G1 X53.31 Y53.516 E.01628
G1 X53.65 Y53.201 E.01628
G1 X54.046 Y52.963 E.01628
G1 X54.483 Y52.811 E.01628
G1 X54.708 Y52.77 E.00804
G1 X55.064 Y52.752 E.01255
