; HEADER_BLOCK_START
; generated by OrcaSlicer 1.6.3 on 2023-06-17 at 20:10:49
; total layer number: 85
; HEADER_BLOCK_END

; THUMBNAIL_BLOCK_START
; THUMBNAIL_BLOCK_END

; external perimeters extrusion width = 0.40mm
; perimeters extrusion width = 0.45mm
; infill extrusion width = 0.45mm
; solid infill extrusion width = 0.40mm
; top infill extrusion width = 0.40mm
; first layer extrusion width = 0.50mm

; EXECUTABLE_BLOCK_START
EXCLUDE_OBJECT_DEFINE NAME=Under_duct_scalable_brace_spacer.stl_id_0_copy_0 CENTER=60,55.0008 POLYGON=[[57.5,55.0008],[57.5033,54.8721],[57.5133,54.7438],[57.5298,54.6161],[57.5529,54.4895],[57.5824,54.3642],[57.6184,54.2405],[57.6607,54.119],[57.7092,53.9997],[57.7638,53.8831],[57.8243,53.7695],[57.8906,53.6591],[57.9624,53.5523],[58.0397,53.4493],[58.1222,53.3504],[58.2096,53.256],[58.3018,53.1661],[58.3985,53.0811],[58.4995,53.0012],[58.6044,52.9266],[58.713,52.8575],[58.8251,52.7941],[58.9402,52.7366],[59.0582,52.685],[59.1786,52.6396],[59.3013,52.6004],[59.4258,52.5677],[59.5518,52.5413],[59.679,52.5215],[59.8071,52.5083],[59.9356,52.5017],[60.0644,52.5017],[60.1929,52.5083],[60.321,52.5215],[60.4482,52.5413],[60.5742,52.5677],[60.6987,52.6004],[60.8214,52.6396],[60.9418,52.685],[61.0598,52.7366],[61.1749,52.7941],[61.287,52.8575],[61.3956,52.9266],[61.5005,53.0012],[61.6015,53.0811],[61.6982,53.1661],[61.7904,53.256],[61.8778,53.3504],[61.9603,53.4493],[62.0376,53.5523],[62.1094,53.6591],[62.1757,53.7695],[62.2362,53.8831],[62.2908,53.9997],[62.3393,54.119],[62.3816,54.2405],[62.4176,54.3642],[62.4471,54.4895],[62.4702,54.6161],[62.4868,54.7438],[62.4967,54.8721],[62.5,55.0008],[62.4967,55.1295],[62.4868,55.2579],[62.4702,55.3856],[62.4471,55.5122],[62.4176,55.6375],[62.3816,55.7611],[62.3393,55.8827],[62.2908,56.002],[62.2362,56.1186],[62.1757,56.2322],[62.1094,56.3426],[62.0376,56.4494],[61.9603,56.5524],[61.8778,56.6512],[61.7904,56.7457],[61.6982,56.8355],[61.6015,56.9205],[61.5005,57.0004],[61.3956,57.075],[61.287,57.1441],[61.1749,57.2075],[61.0598,57.2651],[60.9418,57.3166],[60.8214,57.3621],[60.6987,57.4012],[60.5742,57.434],[60.4482,57.4603],[60.321,57.4801],[60.1929,57.4934],[60.0644,57.5],[59.9356,57.5],[59.8071,57.4934],[59.679,57.4801],[59.5518,57.4603],[59.4258,57.434],[59.3013,57.4012],[59.1786,57.3621],[59.0582,57.3166],[58.9402,57.2651],[58.8251,57.2075],[58.713,57.1441],[58.6044,57.075],[58.4995,57.0004],[58.3985,56.9205],[58.3018,56.8355],[58.2096,56.7457],[58.1222,56.6512],[58.0397,56.5524],[57.9624,56.4494],[57.8906,56.3426],[57.8243,56.2322],[57.7638,56.1186],[57.7092,56.002],[57.6607,55.8827],[57.6184,55.7611],[57.5824,55.6375],[57.5529,55.5122],[57.5298,55.3856],[57.5133,55.2579],[57.5033,55.1295],[57.5,55.0008]]
M73 P0 R4
;TYPE:Custom
START_PRINT T_BED=110 T_EXTRUDER=260
G90
G21
M83 ; use relative distances for extrusion
; Filament gcode

    PRESSURE_ADVANCE_SELECT FILAMENT=ABS
M106 S0
;LAYER_CHANGE
;Z:0.2
;HEIGHT:0.2
;BEFORE_LAYER_CHANGE
;0.2
G92 E0

;AFTER_LAYER_CHANGE
;0.2
SET_VELOCITY_LIMIT ACCEL_TO_DECEL=500
M204 S1000
G1 E-.5 F3000
G1 Z.2 F21000
G1 X56.268 Y51.079
G1 E.5 F1800
;TYPE:Skirt
;WIDTH:0.5
G1 F2072
G1 X57.04 Y50.468 E.03467
G1 X58.03 Y49.958 E.03917
G1 X59.103 Y49.662 E.03919
G1 X60.074 Y49.588 E.03426
G1 X61.17 Y49.715 E.03884
G1 X62.227 Y50.066 E.03917
G1 X63.084 Y50.552 E.03468
G1 X63.929 Y51.276 E.03918
G1 X64.608 Y52.159 E.03918
G1 X65.039 Y53.021 E.03393
G1 X65.337 Y54.094 E.03918
G1 X65.413 Y55.076 E.03467
G1 X65.283 Y56.181 E.03918
G1 X64.986 Y57.109 E.03426
G1 X64.455 Y58.076 E.03884
G1 X63.824 Y58.833 E.03468
G1 X62.96 Y59.534 E.03918
G1 X61.97 Y60.043 E.03917
G1 X61.044 Y60.313 E.03393
G1 X59.936 Y60.414 E.03918
G1 X58.956 Y60.313 E.03467
G1 X57.891 Y59.987 E.03917
G1 X56.916 Y59.45 E.03919
G1 X56.169 Y58.826 E.03425
G1 X55.473 Y57.969 E.03885
G1 X54.961 Y56.98 E.03919
G1 X54.663 Y55.908 E.03918
G1 X54.587 Y54.926 E.03467
G1 X54.717 Y53.82 E.03918
G1 X55.014 Y52.893 E.03426
G1 X55.545 Y51.925 E.03885
G1 X56.229 Y51.125 E.03707
G1 X56.575 Y51.421 F21000
G1 F2072
G1 X56.587 Y51.406 E.00067
G1 X57.286 Y50.853 E.03136
G1 X58.191 Y50.386 E.03586
G1 X59.174 Y50.114 E.03588
G1 X60.073 Y50.045 E.03175
G1 X61.077 Y50.163 E.03556
G1 X62.044 Y50.485 E.03587
G1 X62.819 Y50.924 E.03137
G1 X63.594 Y51.587 E.03587
G1 X64.216 Y52.394 E.03587
G1 X64.615 Y53.193 E.03144
G1 X64.887 Y54.176 E.03587
G1 X64.956 Y55.064 E.03137
G1 X64.839 Y56.077 E.03587
G1 X64.563 Y56.936 E.03175
G1 X64.076 Y57.821 E.03556
G1 X63.505 Y58.505 E.03137
G1 X62.714 Y59.148 E.03587
G1 X61.809 Y59.616 E.03586
G1 X60.951 Y59.865 E.03145
G1 X59.936 Y59.957 E.03587
G1 X59.049 Y59.865 E.03137
G1 X58.074 Y59.568 E.03587
G1 X57.181 Y59.078 E.03588
G1 X56.489 Y58.499 E.03174
G1 X55.852 Y57.714 E.03557
G1 X55.385 Y56.808 E.03588
G1 X55.113 Y55.826 E.03587
G1 X55.044 Y54.938 E.03137
G1 X55.161 Y53.925 E.03587
G1 X55.437 Y53.066 E.03175
G1 X55.924 Y52.181 E.03557
G1 X56.536 Y51.466 E.0331
; printing object Under duct scalable brace spacer.stl id:0 copy 0
EXCLUDE_OBJECT_START NAME=Under_duct_scalable_brace_spacer.stl_id_0_copy_0
M73 P1 R4
G1 E-.5 F3000
G1 Z.4 F21000
G1 X58.213 Y54.363
G1 Z.2
G1 E.5 F1800
;TYPE:Outer wall
G1 F2072
G1 X58.339 Y54.077 E.01099
G1 X58.544 Y53.779 E.01272
G1 X58.798 Y53.528 E.01258
G1 X58.998 Y53.386 E.00862
G1 X59.214 Y53.27 E.00862
G1 X59.552 Y53.153 E.01258
G1 X59.91 Y53.102 E.01272
G1 X60.271 Y53.119 E.01272
G1 X60.622 Y53.204 E.01272
G1 X60.951 Y53.354 E.01272
G1 X61.245 Y53.564 E.01272
G1 X61.494 Y53.826 E.01272
G1 X61.69 Y54.13 E.01272
G1 X61.824 Y54.465 E.01272
G1 X61.893 Y54.82 E.01272
G1 X61.893 Y55.177 E.01256
G1 X61.824 Y55.536 E.01287
G1 X61.69 Y55.872 E.01273
G1 X61.494 Y56.176 E.01272
G1 X61.245 Y56.438 E.01272
G1 X60.951 Y56.647 E.01272
G1 X60.625 Y56.796 E.01258
G1 X60.389 Y56.861 E.00863
G1 X60.147 Y56.896 E.00862
G1 X59.794 Y56.891 E.01242
G1 X59.436 Y56.816 E.01287
G1 X59.106 Y56.679 E.01257
G1 X58.801 Y56.477 E.01287
G1 X58.544 Y56.223 E.01273
G1 X58.339 Y55.925 E.01272
G1 X58.195 Y55.598 E.01258
G1 X58.134 Y55.361 E.00862
G1 X58.103 Y55.122 E.00846
G1 X58.114 Y54.765 E.01257
G1 X58.191 Y54.418 E.0125
G1 X58.172 Y54.316
G1 E-.5 F3000
G1 Z.4 F21000
G1 X58.713 Y57.144
G1 X60.36 Y57.22
G1 Z.2
G1 E.5 F1800
G1 F2072
G1 X60.174 Y57.244 E.00662
G1 X59.711 Y57.232 E.01628
G1 X59.261 Y57.126 E.01628
G1 X58.842 Y56.93 E.01628
G1 X58.653 Y56.802 E.00803
G1 X58.384 Y56.565 E.0126
G1 X58.236 Y56.397 E.00788
G1 X57.988 Y56.007 E.01628
G1 X57.825 Y55.574 E.01628
G1 X57.753 Y55.117 E.01628
G1 X57.777 Y54.655 E.01628
G1 X57.824 Y54.431 E.00803
G1 X57.942 Y54.093 E.0126
G1 X58.042 Y53.893 E.00788
G1 X58.31 Y53.516 E.01628
G1 X58.65 Y53.201 E.01628
G1 X59.046 Y52.963 E.01628
G1 X59.483 Y52.811 E.01628
G1 X59.708 Y52.77 E.00803
G1 X60.065 Y52.752 E.0126
G1 X60.289 Y52.77 E.00788
G1 X60.739 Y52.876 E.01628
G1 X61.158 Y53.072 E.01628
G1 X61.528 Y53.35 E.01628
G1 X61.834 Y53.697 E.01628
G1 X62.061 Y54.1 E.01628
G1 X62.202 Y54.541 E.01628
G1 X62.237 Y54.766 E.00804
G1 X62.246 Y55.12 E.01245
G1 X62.223 Y55.347 E.00804
G1 X62.176 Y55.57 E.00803
G1 X62.058 Y55.909 E.0126
G1 X61.958 Y56.109 E.00788
G1 X61.69 Y56.486 E.01628
G1 X61.35 Y56.8 E.01628
G1 X61.158 Y56.93 E.00815
G1 X60.742 Y57.124 E.01617
G1 X60.419 Y57.209 E.01176
G1 X60.335 Y57.192
; stop printing object Under duct scalable brace spacer.stl id:0 copy 0
EXCLUDE_OBJECT_END NAME=Under_duct_scalable_brace_spacer.stl_id_0_copy_0
;LAYER_CHANGE
;Z:0.4
;HEIGHT:0.2
;BEFORE_LAYER_CHANGE
;0.4
G92 E0

;AFTER_LAYER_CHANGE
;0.4
SET_VELOCITY_LIMIT ACCEL_TO_DECEL=3000
M204 S6000
; printing object Under duct scalable brace spacer.stl id:0 copy 0
EXCLUDE_OBJECT_START NAME=Under_duct_scalable_brace_spacer.stl_id_0_copy_0
SET_VELOCITY_LIMIT ACCEL_TO_DECEL=2000
M204 S4000
G1 E-.5 F3000
G1 Z.4 F21000
G1 X59.13 Y56.403
G1 X59.043 Y56.345
G1 X58.96 Y56.282
G1 X58.88 Y56.213
G1 X58.815 Y56.149
G1 X58.736 Y56.061
G1 X58.671 Y55.979
G1 X58.612 Y55.893
G1 X58.558 Y55.803
G1 X58.51 Y55.71
G1 X58.468 Y55.614
G1 X58.432 Y55.516
G1 X58.403 Y55.415
G1 X58.38 Y55.313
G1 X58.363 Y55.21
G1 X58.257 Y54.39
G1 E.5 F1800
;WIDTH:0.4
G1 F600
G1 X58.283 Y54.31 E.00232
G1 X58.443 Y54 E.00959
G1 X58.66 Y53.724 E.00967
G1 X58.926 Y53.493 E.00967
G1 X59.231 Y53.317 E.00967
G1 X59.564 Y53.202 E.00967
G1 X59.912 Y53.152 E.00967
G1 X60.263 Y53.169 E.00967
G1 X60.605 Y53.252 E.00967
G1 X60.925 Y53.398 E.00967
G1 X61.212 Y53.602 E.00967
G1 X61.446 Y53.846 E.00931
G1 X61.645 Y54.152 E.01003
G1 X61.776 Y54.479 E.00969
G1 X61.843 Y54.825 E.00968
G1 X61.843 Y55.177 E.00967
G1 X61.776 Y55.522 E.00967
G1 X61.645 Y55.849 E.00967
G1 X61.455 Y56.145 E.00967
G1 X61.212 Y56.4 E.00968
G1 X60.925 Y56.604 E.00967
G1 X60.608 Y56.749 E.00959
G1 X60.379 Y56.812 E.00654
G1 X60.144 Y56.846 E.00654
G1 X59.795 Y56.84 E.00959
G1 X59.45 Y56.768 E.00967
G1 X59.126 Y56.632 E.00967
G1 X58.833 Y56.437 E.00967
G1 X58.582 Y56.191 E.00967
G1 X58.383 Y55.901 E.00967
G1 X58.243 Y55.581 E.00959
M73 P2 R4
G1 X58.183 Y55.351 E.00654
G1 X58.153 Y55.115 E.00654
G1 X58.164 Y54.77 E.0095
G1 X58.209 Y54.536 E.00654
G1 X58.238 Y54.447 E.00257
G1 X58.245 Y54.378
SET_VELOCITY_LIMIT ACCEL_TO_DECEL=3000
M204 S6000
SET_VELOCITY_LIMIT ACCEL_TO_DECEL=2000
M204 S4000
G1 E-.5 F3000
G1 Z.6 F21000
G1 X58.604 Y57.075 Z.4
G1 X60.365 Y57.27
G1 E.5 F1800
G1 F600
G1 X60.178 Y57.294 E.00519
G1 X59.941 Y57.3 E.00651
G1 X59.705 Y57.282 E.00651
G1 X59.472 Y57.239 E.00651
G1 X59.244 Y57.173 E.00651
G1 X59.028 Y57.085 E.00644
G1 X58.714 Y56.907 E.0099
G1 X58.527 Y56.767 E.00644
G1 X58.353 Y56.606 E.00651
G1 X58.197 Y56.428 E.00651
G1 X58.06 Y56.235 E.00651
G1 X57.943 Y56.029 E.00651
G1 X57.848 Y55.812 E.00651
G1 X57.776 Y55.587 E.00651
G1 X57.728 Y55.355 E.00651
G1 X57.703 Y55.119 E.00651
G1 X57.703 Y54.882 E.00651
G1 X57.728 Y54.647 E.00651
G1 X57.776 Y54.418 E.00644
G1 X57.894 Y54.078 E.0099
G1 X57.999 Y53.868 E.00644
G1 X58.126 Y53.668 E.00651
G1 X58.273 Y53.483 E.00651
G1 X58.438 Y53.313 E.00651
G1 X58.62 Y53.161 E.00651
G1 X58.816 Y53.029 E.00651
G1 X59.025 Y52.918 E.00651
G1 X59.244 Y52.829 E.00651
G1 X59.472 Y52.763 E.00651
G1 X59.702 Y52.721 E.00643
G1 X60.075 Y52.703 E.01027
G1 X60.295 Y52.72 E.00607
G1 X60.528 Y52.763 E.00651
G1 X60.756 Y52.829 E.00651
G1 X60.975 Y52.918 E.00651
G1 X61.184 Y53.029 E.00651
G1 X61.38 Y53.161 E.00651
G1 X61.562 Y53.313 E.00651
G1 X61.727 Y53.483 E.00651
G1 X61.874 Y53.668 E.00651
G1 X62.001 Y53.868 E.00651
G1 X62.107 Y54.08 E.00651
G1 X62.191 Y54.301 E.00651
G1 X62.251 Y54.53 E.00651
G1 X62.287 Y54.762 E.00644
G1 X62.296 Y55.122 E.0099
G1 X62.272 Y55.355 E.00644
G1 X62.224 Y55.584 E.00644
G1 X62.106 Y55.924 E.0099
G1 X62.001 Y56.134 E.00644
G1 X61.874 Y56.333 E.00651
G1 X61.727 Y56.519 E.00651
G1 X61.562 Y56.689 E.00651
G1 X61.38 Y56.84 E.00651
G1 X61.184 Y56.972 E.00651
G1 X60.975 Y57.084 E.00651
G1 X60.758 Y57.172 E.00643
G1 X60.424 Y57.259 E.0095
G1 X60.34 Y57.241
SET_VELOCITY_LIMIT ACCEL_TO_DECEL=3000
M204 S6000
; stop printing object Under duct scalable brace spacer.stl id:0 copy 0
EXCLUDE_OBJECT_END NAME=Under_duct_scalable_brace_spacer.stl_id_0_copy_0
;LAYER_CHANGE
;Z:0.6
;HEIGHT:0.2
;BEFORE_LAYER_CHANGE
;0.6
G92 E0

;AFTER_LAYER_CHANGE
;0.6
; printing object Under duct scalable brace spacer.stl id:0 copy 0
EXCLUDE_OBJECT_START NAME=Under_duct_scalable_brace_spacer.stl_id_0_copy_0
SET_VELOCITY_LIMIT ACCEL_TO_DECEL=2000
M204 S4000
G1 E-.5 F3000
G1 Z.6 F21000
G1 X59.13 Y56.403
G1 X59.043 Y56.345
G1 X58.96 Y56.282
G1 X58.88 Y56.213
G1 X58.806 Y56.14
G1 X58.736 Y56.061
G1 X58.685 Y55.996
G1 X58.612 Y55.893
G1 X58.558 Y55.803
G1 X58.51 Y55.71
G1 X58.468 Y55.614
G1 X58.432 Y55.516
G1 X58.403 Y55.415
G1 X58.38 Y55.313
G1 X58.363 Y55.21
G1 X58.254 Y54.394
G1 E.5 F1800
G1 F600
G1 X58.383 Y54.101 E.00879
G1 X58.582 Y53.811 E.00967
G1 X58.831 Y53.566 E.00959
G1 X59.024 Y53.429 E.00654
G1 X59.234 Y53.316 E.00654
G1 X59.564 Y53.202 E.00959
G1 X59.912 Y53.152 E.00967
G1 X60.263 Y53.169 E.00966
G1 X60.584 Y53.245 E.00906
G1 X60.925 Y53.397 E.01028
G1 X61.212 Y53.602 E.0097
G1 X61.453 Y53.854 E.00959
G1 X61.588 Y54.05 E.00654
G1 X61.697 Y54.262 E.00654
G1 X61.805 Y54.593 E.00959
G1 X61.85 Y54.942 E.00967
G1 X61.828 Y55.293 E.00967
G1 X61.739 Y55.634 E.00967
G1 X61.588 Y55.952 E.00968
M73 P3 R4
G1 X61.379 Y56.235 E.00967
G1 X61.121 Y56.474 E.00968
G1 X60.822 Y56.659 E.00967
G1 X60.493 Y56.785 E.00967
G1 X60.147 Y56.846 E.00967
G1 X59.795 Y56.84 E.00967
G1 X59.451 Y56.768 E.00966
G1 X59.146 Y56.642 E.00906
G1 X58.833 Y56.438 E.01028
G1 X58.582 Y56.191 E.0097
G1 X58.383 Y55.901 E.00967
G1 X58.243 Y55.581 E.00959
G1 X58.183 Y55.351 E.00653
G1 X58.155 Y55.138 E.00593
G1 X58.164 Y54.767 E.01019
G1 X58.235 Y54.45 E.00893
G1 X58.212 Y54.346
SET_VELOCITY_LIMIT ACCEL_TO_DECEL=3000
M204 S6000
SET_VELOCITY_LIMIT ACCEL_TO_DECEL=2000
M204 S4000
G1 E-.5 F3000
G1 Z.8 F21000
G1 X58.604 Y57.075
G1 X60.365 Y57.269
G1 Z.6
G1 E.5 F1800
G1 F600
G1 X60.177 Y57.294 E.00519
G1 X59.941 Y57.3 E.00651
G1 X59.705 Y57.282 E.00651
G1 X59.472 Y57.239 E.00651
G1 X59.244 Y57.173 E.00651
G1 X59.027 Y57.085 E.00644
G1 X58.714 Y56.907 E.0099
G1 X58.527 Y56.767 E.00644
G1 X58.353 Y56.606 E.00651
G1 X58.197 Y56.428 E.00651
G1 X58.06 Y56.235 E.00651
G1 X57.943 Y56.029 E.00651
G1 X57.848 Y55.812 E.00651
G1 X57.776 Y55.587 E.00651
G1 X57.728 Y55.355 E.00651
G1 X57.703 Y55.119 E.00651
G1 X57.703 Y54.882 E.00651
G1 X57.728 Y54.647 E.00651
G1 X57.776 Y54.418 E.00644
G1 X57.894 Y54.078 E.0099
G1 X57.999 Y53.868 E.00644
G1 X58.126 Y53.668 E.00651
G1 X58.273 Y53.483 E.00651
G1 X58.438 Y53.313 E.00651
G1 X58.62 Y53.161 E.00651
G1 X58.816 Y53.029 E.00651
G1 X59.025 Y52.918 E.00651
G1 X59.244 Y52.829 E.00651
G1 X59.472 Y52.763 E.00651
G1 X59.702 Y52.721 E.00642
G1 X60.084 Y52.703 E.01051
G1 X60.295 Y52.72 E.00583
G1 X60.528 Y52.763 E.00652
G1 X60.756 Y52.829 E.00651
G1 X60.975 Y52.918 E.00651
G1 X61.184 Y53.029 E.00651
G1 X61.38 Y53.161 E.00651
G1 X61.562 Y53.313 E.00651
G1 X61.727 Y53.483 E.00651
G1 X61.874 Y53.668 E.00651
G1 X62.001 Y53.868 E.00651
G1 X62.107 Y54.08 E.00651
G1 X62.191 Y54.301 E.00651
G1 X62.251 Y54.53 E.00651
G1 X62.287 Y54.762 E.00644
G1 X62.296 Y55.122 E.0099
G1 X62.272 Y55.355 E.00644
G1 X62.225 Y55.583 E.00642
G1 X62.097 Y55.944 E.01052
G1 X62.002 Y56.133 E.00583
G1 X61.874 Y56.333 E.00652
G1 X61.727 Y56.519 E.00651
G1 X61.562 Y56.689 E.00651
G1 X61.38 Y56.84 E.00651
G1 X61.184 Y56.972 E.00651
G1 X60.975 Y57.084 E.00651
G1 X60.758 Y57.172 E.00644
G1 X60.424 Y57.26 E.0095
G1 X60.34 Y57.241
SET_VELOCITY_LIMIT ACCEL_TO_DECEL=3000
M204 S6000
; stop printing object Under duct scalable brace spacer.stl id:0 copy 0
EXCLUDE_OBJECT_END NAME=Under_duct_scalable_brace_spacer.stl_id_0_copy_0
M106 S204
;LAYER_CHANGE
;Z:0.8
;HEIGHT:0.2
;BEFORE_LAYER_CHANGE
;0.8
G92 E0

;AFTER_LAYER_CHANGE
;0.8
; printing object Under duct scalable brace spacer.stl id:0 copy 0
EXCLUDE_OBJECT_START NAME=Under_duct_scalable_brace_spacer.stl_id_0_copy_0
SET_VELOCITY_LIMIT ACCEL_TO_DECEL=2000
M204 S4000
G1 E-.5 F3000
G1 Z.8 F21000
G1 X59.13 Y56.403
G1 X59.043 Y56.345
G1 X58.96 Y56.282
G1 X58.88 Y56.213
G1 X58.806 Y56.14
G1 X58.736 Y56.061
G1 X58.671 Y55.979
G1 X58.612 Y55.893
G1 X58.558 Y55.803
G1 X58.51 Y55.71
G1 X58.468 Y55.614
G1 X58.432 Y55.516
G1 X58.403 Y55.415
G1 X58.38 Y55.313
G1 X58.363 Y55.21
G1 X58.254 Y54.403
G1 E.5 F1800
G1 F600
G1 X58.382 Y54.102 E.009
G1 X58.582 Y53.811 E.00971
G1 X58.831 Y53.566 E.00959
G1 X59.024 Y53.429 E.00654
G1 X59.234 Y53.316 E.00654
M73 P4 R4
G1 X59.564 Y53.202 E.00959
G1 X59.912 Y53.152 E.00967
G1 X60.263 Y53.169 E.00967
G1 X60.605 Y53.252 E.00967
G1 X60.925 Y53.398 E.00967
G1 X61.212 Y53.602 E.00967
G1 X61.455 Y53.857 E.00967
G1 X61.645 Y54.153 E.00967
G1 X61.775 Y54.476 E.00959
G1 X61.827 Y54.708 E.00654
G1 X61.85 Y54.945 E.00654
G1 X61.828 Y55.293 E.00959
G1 X61.739 Y55.634 E.00967
G1 X61.588 Y55.952 E.00967
G1 X61.379 Y56.235 E.00967
G1 X61.121 Y56.474 E.00967
G1 X60.822 Y56.659 E.00967
G1 X60.493 Y56.785 E.00967
G1 X60.147 Y56.846 E.00967
G1 X59.795 Y56.84 E.00967
G1 X59.45 Y56.768 E.00967
G1 X59.126 Y56.632 E.00967
G1 X58.833 Y56.437 E.00967
G1 X58.582 Y56.191 E.00967
