; HEADER_BLOCK_START
; generated by OrcaSlicer 1.7.0-beta on 2023-09-27 at 17:34:08
; total layer number: 115
; HEADER_BLOCK_END

; THUMBNAIL_BLOCK_START
; THUMBNAIL_BLOCK_END

; external perimeters extrusion width = 0.40mm
; perimeters extrusion width = 0.46mm
; infill extrusion width = 0.64mm
; solid infill extrusion width = 0.56mm
; top infill extrusion width = 0.40mm
; first layer extrusion width = 0.50mm

; external perimeters extrusion width = 0.40mm
; perimeters extrusion width = 0.46mm
; infill extrusion width = 0.64mm
; solid infill extrusion width = 0.56mm
; top infill extrusion width = 0.40mm
; first layer extrusion width = 0.50mm

; EXECUTABLE_BLOCK_START
EXCLUDE_OBJECT_DEFINE NAME=Under_duct_scalable_brace_spacer.stl_id_0_copy_0 CENTER=60,64.9992 POLYGON=[[57.5,64.9992],[57.5033,64.8705],[57.5132,64.7421],[57.5298,64.6144],[57.5529,64.4878],[57.5824,64.3625],[57.6184,64.2389],[57.6607,64.1173],[57.7092,63.998],[57.7638,63.8814],[57.8243,63.7678],[57.8906,63.6574],[57.9624,63.5506],[58.0397,63.4476],[58.1222,63.3488],[58.2096,63.2543],[58.3018,63.1645],[58.3985,63.0795],[58.4995,62.9996],[58.6044,62.925],[58.713,62.8559],[58.8251,62.7925],[58.9402,62.7349],[59.0582,62.6834],[59.1786,62.6379],[59.3013,62.5988],[59.4258,62.566],[59.5518,62.5397],[59.679,62.5199],[59.8071,62.5066],[59.9356,62.5],[60.0644,62.5],[60.1929,62.5066],[60.321,62.5199],[60.4482,62.5397],[60.5742,62.566],[60.6987,62.5988],[60.8214,62.6379],[60.9418,62.6834],[61.0598,62.7349],[61.1749,62.7925],[61.287,62.8559],[61.3956,62.925],[61.5005,62.9996],[61.6015,63.0795],[61.6982,63.1645],[61.7904,63.2543],[61.8778,63.3488],[61.9603,63.4476],[62.0376,63.5506],[62.1094,63.6574],[62.1757,63.7678],[62.2362,63.8814],[62.2908,63.998],[62.3393,64.1173],[62.3816,64.2389],[62.4176,64.3625],[62.4471,64.4878],[62.4702,64.6144],[62.4867,64.7421],[62.4967,64.8705],[62.5,64.9992],[62.4967,65.1279],[62.4867,65.2562],[62.4702,65.3839],[62.4471,65.5105],[62.4176,65.6358],[62.3816,65.7595],[62.3393,65.881],[62.2908,66.0003],[62.2362,66.1169],[62.1757,66.2305],[62.1094,66.3409],[62.0376,66.4477],[61.9603,66.5507],[61.8778,66.6496],[61.7904,66.744],[61.6982,66.8339],[61.6015,66.9189],[61.5005,66.9988],[61.3956,67.0734],[61.287,67.1425],[61.1749,67.2059],[61.0598,67.2634],[60.9418,67.315],[60.8214,67.3604],[60.6987,67.3995],[60.5742,67.4323],[60.4482,67.4587],[60.321,67.4785],[60.1929,67.4917],[60.0644,67.4983],[59.9356,67.4983],[59.8071,67.4917],[59.679,67.4785],[59.5518,67.4587],[59.4258,67.4323],[59.3013,67.3995],[59.1786,67.3604],[59.0582,67.315],[58.9402,67.2634],[58.8251,67.2059],[58.713,67.1425],[58.6044,67.0734],[58.4995,66.9988],[58.3985,66.9189],[58.3018,66.8339],[58.2096,66.744],[58.1222,66.6496],[58.0397,66.5507],[57.9624,66.4477],[57.8906,66.3409],[57.8243,66.2305],[57.7638,66.1169],[57.7092,66.0003],[57.6607,65.881],[57.6184,65.7595],[57.5824,65.6358],[57.5529,65.5105],[57.5298,65.3839],[57.5132,65.2562],[57.5033,65.1279],[57.5,64.9992]]
EXCLUDE_OBJECT_DEFINE NAME=Under_duct_scalable_brace_spacer.stl_id_1_copy_0 CENTER=60,55.0008 POLYGON=[[57.5,55.0008],[57.5033,54.8721],[57.5133,54.7438],[57.5298,54.6161],[57.5529,54.4895],[57.5824,54.3642],[57.6184,54.2405],[57.6607,54.119],[57.7092,53.9997],[57.7638,53.8831],[57.8243,53.7695],[57.8906,53.6591],[57.9624,53.5523],[58.0397,53.4493],[58.1222,53.3504],[58.2096,53.256],[58.3018,53.1661],[58.3985,53.0811],[58.4995,53.0012],[58.6044,52.9266],[58.713,52.8575],[58.8251,52.7941],[58.9402,52.7366],[59.0582,52.685],[59.1786,52.6396],[59.3013,52.6004],[59.4258,52.5677],[59.5518,52.5413],[59.679,52.5215],[59.8071,52.5083],[59.9356,52.5017],[60.0644,52.5017],[60.1929,52.5083],[60.321,52.5215],[60.4482,52.5413],[60.5742,52.5677],[60.6987,52.6004],[60.8214,52.6396],[60.9418,52.685],[61.0598,52.7366],[61.1749,52.7941],[61.287,52.8575],[61.3956,52.9266],[61.5005,53.0012],[61.6015,53.0811],[61.6982,53.1661],[61.7904,53.256],[61.8778,53.3504],[61.9603,53.4493],[62.0376,53.5523],[62.1094,53.6591],[62.1757,53.7695],[62.2362,53.8831],[62.2908,53.9997],[62.3393,54.119],[62.3816,54.2405],[62.4176,54.3642],[62.4471,54.4895],[62.4702,54.6161],[62.4868,54.7438],[62.4967,54.8721],[62.5,55.0008],[62.4967,55.1295],[62.4868,55.2579],[62.4702,55.3856],[62.4471,55.5122],[62.4176,55.6375],[62.3816,55.7611],[62.3393,55.8827],[62.2908,56.002],[62.2362,56.1186],[62.1757,56.2322],[62.1094,56.3426],[62.0376,56.4494],[61.9603,56.5524],[61.8778,56.6512],[61.7904,56.7457],[61.6982,56.8355],[61.6015,56.9205],[61.5005,57.0004],[61.3956,57.075],[61.287,57.1441],[61.1749,57.2075],[61.0598,57.2651],[60.9418,57.3166],[60.8214,57.3621],[60.6987,57.4012],[60.5742,57.434],[60.4482,57.4603],[60.321,57.4801],[60.1929,57.4934],[60.0644,57.5],[59.9356,57.5],[59.8071,57.4934],[59.679,57.4801],[59.5518,57.4603],[59.4258,57.434],[59.3013,57.4012],[59.1786,57.3621],[59.0582,57.3166],[58.9402,57.2651],[58.8251,57.2075],[58.713,57.1441],[58.6044,57.075],[58.4995,57.0004],[58.3985,56.9205],[58.3018,56.8355],[58.2096,56.7457],[58.1222,56.6512],[58.0397,56.5524],[57.9624,56.4494],[57.8906,56.3426],[57.8243,56.2322],[57.7638,56.1186],[57.7092,56.002],[57.6607,55.8827],[57.6184,55.7611],[57.5824,55.6375],[57.5529,55.5122],[57.5298,55.3856],[57.5133,55.2579],[57.5033,55.1295],[57.5,55.0008]]
M73 P0 R6
;TYPE:Custom
START_PRINT T_BED=110 T_EXTRUDER=260
G90
G21
M83 ; use relative distances for extrusion
; Filament gcode

    PRESSURE_ADVANCE_SELECT FILAMENT=ABS
M106 S0
;LAYER_CHANGE
;Z:0.2
;HEIGHT:0.2
;BEFORE_LAYER_CHANGE
;0.2
G92 E0

;AFTER_LAYER_CHANGE
;0.2
;_SET_FAN_SPEED_CHANGING_LAYER
SET_VELOCITY_LIMIT ACCEL=1000 ACCEL_TO_DECEL=500
SET_VELOCITY_LIMIT SQUARE_CORNER_VELOCITY=9
G1 E-.5 F3000
G1 Z.2 F21000
G1 X56.176 Y51.169
G1 Z.2
G1 E.5 F1800
;TYPE:Skirt
;WIDTH:0.5
G1 F3000
G1 X57.04 Y50.468 E.03918
G1 X58.03 Y49.958 E.03917
G1 X59.103 Y49.662 E.0392
G1 X60.072 Y49.588 E.03417
G1 X60.897 Y49.662 E.02915
G1 X61.708 Y49.863 E.02941
G1 X62.478 Y50.187 E.02941
G1 X63.189 Y50.626 E.02941
G1 X63.824 Y51.169 E.0294
G1 X64.368 Y51.803 E.02941
G1 X64.809 Y52.514 E.02941
G1 X65.134 Y53.283 E.0294
G1 X65.337 Y54.094 E.02941
G1 X65.413 Y54.926 E.02941
G1 X65.414 Y64.999 E.35452
G1 X65.314 Y66.033 E.03656
G1 X64.99 Y67.098 E.03918
G1 X64.455 Y68.075 E.03918
G1 X63.824 Y68.831 E.03468
G1 X62.96 Y69.532 E.03918
G1 X61.97 Y70.042 E.03917
G1 X61.044 Y70.311 E.03393
G1 X59.936 Y70.412 E.03918
G1 X59.103 Y70.338 E.02941
G1 X58.293 Y70.137 E.0294
G1 X57.522 Y69.813 E.02942
G1 X56.811 Y69.374 E.02942
G1 X56.171 Y68.826 E.02965
G1 X55.632 Y68.197 E.02916
G1 X55.191 Y67.486 E.02941
G1 X54.866 Y66.717 E.0294
G1 X54.663 Y65.906 E.02941
G1 X54.587 Y65.074 E.02941
G1 X54.586 Y55.001 E.35452
G1 X54.686 Y53.967 E.03656
G1 X55.01 Y52.902 E.03918
G1 X55.545 Y51.925 E.03918
G1 X56.15 Y51.2 E.03327
G1 X56.495 Y51.496 F21000
G1 F3000
G1 X57.286 Y50.853 E.03587
G1 X58.191 Y50.386 E.03586
G1 X59.174 Y50.114 E.03589
G1 X60.071 Y50.045 E.03167
G1 X60.826 Y50.114 E.02669
G1 X61.569 Y50.299 E.02693
G1 X62.273 Y50.596 E.02692
G1 X62.924 Y50.999 E.02693
G1 X63.505 Y51.496 E.02692
G1 X64.003 Y52.077 E.02693
G1 X64.405 Y52.728 E.02693
G1 X64.702 Y53.433 E.02692
G1 X64.887 Y54.176 E.02693
G1 X64.956 Y54.938 E.02693
G1 X64.957 Y64.999 E.35411
G1 X64.864 Y65.951 E.03366
G1 X64.567 Y66.926 E.03587
G1 X64.076 Y67.819 E.03587
G1 X63.505 Y68.504 E.03137
G1 X62.714 Y69.147 E.03587
G1 X61.809 Y69.614 E.03586
G1 X60.951 Y69.864 E.03145
G1 X59.936 Y69.955 E.03587
G1 X59.174 Y69.886 E.02692
G1 X58.432 Y69.701 E.02692
G1 X57.727 Y69.404 E.02693
G1 X57.076 Y69.001 E.02693
G1 X56.49 Y68.499 E.02715
G1 X55.997 Y67.923 E.0267
G1 X55.595 Y67.272 E.02693
G1 X55.298 Y66.567 E.02692
G1 X55.113 Y65.824 E.02693
G1 X55.044 Y65.062 E.02693
G1 X55.043 Y55.001 E.35411
G1 X55.136 Y54.049 E.03366
G1 X55.433 Y53.074 E.03587
G1 X55.924 Y52.181 E.03588
G1 X56.469 Y51.527 E.02996
; printing object Under duct scalable brace spacer.stl id:0 copy 0
G1 E-.5
EXCLUDE_OBJECT_START NAME=Under_duct_scalable_brace_spacer.stl_id_0_copy_0
G1 Z.4 F21000
G1 X60.375 Y67.216 Z.4
G1 Z.2
G1 E.5 F1800
;TYPE:Outer wall
G1 F3000
G1 X60.174 Y67.242 E.00715
G1 X59.711 Y67.23 E.01628
G1 X59.261 Y67.124 E.01628
G1 X58.842 Y66.928 E.01628
G1 X58.652 Y66.8 E.00803
G1 X58.385 Y66.565 E.01256
G1 X58.236 Y66.395 E.00792
G1 X57.988 Y66.005 E.01628
G1 X57.825 Y65.572 E.01628
G1 X57.753 Y65.115 E.01628
G1 X57.777 Y64.653 E.01628
G1 X57.824 Y64.429 E.00804
G1 X57.94 Y64.095 E.01245
G1 X58.042 Y63.891 E.00804
G1 X58.31 Y63.514 E.01628
G1 X58.65 Y63.2 E.01628
G1 X59.046 Y62.962 E.01628
G1 X59.483 Y62.81 E.01628
G1 X59.708 Y62.769 E.00803
G1 X60.064 Y62.751 E.01256
G1 X60.289 Y62.768 E.00792
G1 X60.739 Y62.874 E.01628
G1 X61.158 Y63.07 E.01628
G1 X61.528 Y63.348 E.01628
G1 X61.834 Y63.696 E.01628
G1 X62.061 Y64.098 E.01628
G1 X62.202 Y64.539 E.01628
G1 X62.237 Y64.765 E.00804
G1 X62.246 Y65.118 E.01245
G1 X62.223 Y65.345 E.00804
G1 X62.176 Y65.569 E.00804
G1 X62.06 Y65.903 E.01245
G1 X61.958 Y66.107 E.00804
G1 X61.69 Y66.484 E.01628
G1 X61.35 Y66.799 E.01628
G1 X61.158 Y66.928 E.00815
G1 X60.742 Y67.123 E.01617
G1 X60.414 Y67.209 E.01192
G1 E-.5
G1 Z.4 F21000
G1 X58.552 Y66.23 Z.4
G1 Z.2
G1 E.5 F1800
G1 F3000
G1 X58.544 Y66.221 E.00043
G1 X58.341 Y65.927 E.01258
G1 X58.236 Y65.706 E.00862
G1 X58.16 Y65.476 E.00851
G1 X58.103 Y65.124 E.01255
G1 X58.103 Y64.879 E.00863
G1 X58.134 Y64.636 E.00862
G1 X58.235 Y64.293 E.01258
G1 X58.401 Y63.971 E.01272
G1 X58.624 Y63.687 E.01272
G1 X58.897 Y63.451 E.01272
G1 X59.21 Y63.27 E.01272
G1 X59.552 Y63.152 E.01272
G1 X59.91 Y63.1 E.01272
G1 X60.27 Y63.117 E.01272
G1 X60.618 Y63.202 E.0126
G1 X60.947 Y63.351 E.01272
G1 X61.245 Y63.562 E.01284
G1 X61.494 Y63.824 E.01273
G1 X61.688 Y64.125 E.01258
G1 X61.786 Y64.349 E.00863
G1 X61.855 Y64.584 E.00862
G1 X61.9 Y64.939 E.01258
G1 X61.877 Y65.3 E.01272
G1 X61.786 Y65.649 E.01272
G1 X61.631 Y65.976 E.01272
G1 X61.417 Y66.267 E.01272
G1 X61.151 Y66.512 E.01272
G1 X60.844 Y66.703 E.01272
G1 X60.507 Y66.832 E.01272
G1 X60.151 Y66.894 E.01272
G1 X59.793 Y66.889 E.0126
G1 X59.436 Y66.815 E.01283
G1 X59.102 Y66.675 E.01273
G1 X58.801 Y66.475 E.01272
G1 X58.581 Y66.258 E.01089
; stop printing object Under duct scalable brace spacer.stl id:0 copy 0
; printing object Under duct scalable brace spacer.stl id:1 copy 0
M73 P1 R6
G1 E-.5
EXCLUDE_OBJECT_END NAME=Under_duct_scalable_brace_spacer.stl_id_0_copy_0
EXCLUDE_OBJECT_START NAME=Under_duct_scalable_brace_spacer.stl_id_1_copy_0
G1 Z.4 F21000
G1 X58.419 Y66.015 Z.4
G1 X58.358 Y65.913
G1 X58.304 Y65.807
G1 X58.256 Y65.697
G1 X58.215 Y65.585
G1 X58.182 Y65.474
G1 X58.155 Y65.355
G1 X58.136 Y65.237
G1 X58.125 Y65.118
G1 X58.121 Y64.999
G1 X58.125 Y64.88
G1 X58.136 Y64.765
G1 X58.155 Y64.644
G1 X58.181 Y64.527
G1 X60.311 Y56.853
G1 X60.375 Y57.218
G1 Z.2
G1 E.5 F1800
G1 F3000
G1 X60.174 Y57.244 E.00715
G1 X59.711 Y57.232 E.01628
G1 X59.261 Y57.126 E.01628
G1 X58.842 Y56.93 E.01628
G1 X58.652 Y56.802 E.00803
G1 X58.385 Y56.566 E.01256
G1 X58.236 Y56.397 E.00792
G1 X57.988 Y56.007 E.01628
G1 X57.825 Y55.574 E.01628
G1 X57.753 Y55.117 E.01628
G1 X57.777 Y54.655 E.01628
G1 X57.824 Y54.431 E.00804
G1 X57.94 Y54.097 E.01245
G1 X58.042 Y53.893 E.00804
G1 X58.31 Y53.516 E.01628
G1 X58.65 Y53.201 E.01628
G1 X59.046 Y52.963 E.01628
G1 X59.483 Y52.811 E.01628
G1 X59.708 Y52.77 E.00803
G1 X60.064 Y52.752 E.01256
G1 X60.289 Y52.77 E.00792
G1 X60.739 Y52.876 E.01628
G1 X61.158 Y53.072 E.01628
G1 X61.528 Y53.35 E.01628
G1 X61.834 Y53.697 E.01628
G1 X62.061 Y54.1 E.01628
G1 X62.202 Y54.541 E.01628
G1 X62.237 Y54.766 E.00804
G1 X62.246 Y55.12 E.01245
G1 X62.223 Y55.347 E.00804
G1 X62.176 Y55.571 E.00804
G1 X62.06 Y55.905 E.01245
G1 X61.958 Y56.109 E.00804
G1 X61.69 Y56.486 E.01628
G1 X61.35 Y56.8 E.01628
G1 X61.158 Y56.93 E.00815
G1 X60.742 Y57.124 E.01617
G1 X60.414 Y57.211 E.01192
G1 E-.5
G1 Z.4 F21000
G1 X58.552 Y56.231 Z.4
G1 Z.2
G1 E.5 F1800
G1 F3000
G1 X58.544 Y56.223 E.00043
G1 X58.341 Y55.928 E.01258
G1 X58.236 Y55.707 E.00862
G1 X58.16 Y55.478 E.00851
G1 X58.103 Y55.126 E.01255
G1 X58.103 Y54.88 E.00863
G1 X58.134 Y54.637 E.00862
G1 X58.235 Y54.294 E.01258
G1 X58.401 Y53.973 E.01272
G1 X58.624 Y53.689 E.01272
G1 X58.897 Y53.452 E.01272
G1 X59.21 Y53.271 E.01272
G1 X59.552 Y53.153 E.01272
G1 X59.91 Y53.102 E.01272
G1 X60.27 Y53.119 E.01272
G1 X60.618 Y53.203 E.0126
G1 X60.947 Y53.353 E.01272
G1 X61.245 Y53.564 E.01284
G1 X61.494 Y53.826 E.01273
G1 X61.688 Y54.126 E.01258
G1 X61.786 Y54.351 E.00863
G1 X61.855 Y54.586 E.00862
G1 X61.9 Y54.941 E.01258
G1 X61.877 Y55.301 E.01272
G1 X61.786 Y55.651 E.01272
G1 X61.631 Y55.977 E.01272
G1 X61.417 Y56.268 E.01272
G1 X61.151 Y56.514 E.01272
G1 X60.844 Y56.704 E.01272
G1 X60.507 Y56.833 E.01272
G1 X60.151 Y56.896 E.01272
G1 X59.793 Y56.891 E.0126
G1 X59.436 Y56.816 E.01283
G1 X59.102 Y56.677 E.01273
G1 X58.801 Y56.476 E.01272
G1 X58.581 Y56.259 E.01089
; stop printing object Under duct scalable brace spacer.stl id:1 copy 0
;LAYER_CHANGE
;Z:0.4
;HEIGHT:0.2
;BEFORE_LAYER_CHANGE
;0.4
G92 E0

EXCLUDE_OBJECT_END NAME=Under_duct_scalable_brace_spacer.stl_id_1_copy_0
;AFTER_LAYER_CHANGE
;0.4
;_SET_FAN_SPEED_CHANGING_LAYER
SET_VELOCITY_LIMIT ACCEL=6000 ACCEL_TO_DECEL=3000
M140 S110 ; set bed temperature
; printing object Under duct scalable brace spacer.stl id:0 copy 0
SET_VELOCITY_LIMIT ACCEL=4000 ACCEL_TO_DECEL=2000
SET_VELOCITY_LIMIT SQUARE_CORNER_VELOCITY=12
G1 E-.5 F3000
EXCLUDE_OBJECT_START NAME=Under_duct_scalable_brace_spacer.stl_id_0_copy_0
G1 Z.4 F21000
G1 X58.145 Y64.881 Z.4
G1 X58.141 Y65
G1 X58.146 Y65.127
G1 X58.156 Y65.234
G1 X58.175 Y65.351
G1 X58.201 Y65.466
G1 X58.234 Y65.579
G1 X58.274 Y65.69
G1 X58.322 Y65.798
G1 X58.376 Y65.903
G1 X58.436 Y66.004
G1 X58.503 Y66.101
G1 X58.576 Y66.194
G1 X58.662 Y66.289
G1 X58.739 Y66.365
G1 X58.828 Y66.442
G1 X58.922 Y66.513
G1 X59.02 Y66.579
G1 X59.122 Y66.638
G1 X59.228 Y66.69
G1 X59.337 Y66.736
G1 X59.448 Y66.774
G1 X59.562 Y66.806
G1 X59.677 Y66.83
G1 X59.794 Y66.846
G1 X59.912 Y66.856
G1 X60.029 Y66.858
G1 X60.38 Y67.266
G1 E.5 F1800
SET_VELOCITY_LIMIT SQUARE_CORNER_VELOCITY=7
;WIDTH:0.4
G1 F1149
G1 X60.178 Y67.292 E.00561
G1 X59.941 Y67.298 E.00651
G1 X59.705 Y67.28 E.00651
G1 X59.472 Y67.237 E.00651
G1 X59.244 Y67.171 E.00651
G1 X59.025 Y67.082 E.00651
G1 X58.816 Y66.971 E.00651
G1 X58.622 Y66.84 E.00643
G1 X58.345 Y66.595 E.01017
G1 X58.197 Y66.426 E.00617
G1 X58.06 Y66.233 E.00651
G1 X57.943 Y66.027 E.00651
G1 X57.848 Y65.81 E.00651
G1 X57.776 Y65.585 E.00651
G1 X57.728 Y65.353 E.00651
G1 X57.703 Y65.118 E.00651
G1 X57.703 Y64.881 E.00651
G1 X57.728 Y64.645 E.00651
G1 X57.776 Y64.416 E.00644
G1 X57.894 Y64.076 E.0099
G1 X57.999 Y63.866 E.00644
G1 X58.126 Y63.667 E.00651
G1 X58.273 Y63.481 E.00651
G1 X58.438 Y63.311 E.00651
G1 X58.62 Y63.16 E.00651
G1 X58.816 Y63.028 E.00651
G1 X59.025 Y62.916 E.00651
G1 X59.244 Y62.827 E.00651
G1 X59.472 Y62.761 E.00651
G1 X59.702 Y62.719 E.00643
G1 X60.071 Y62.701 E.01017
G1 X60.295 Y62.718 E.00617
G1 X60.528 Y62.761 E.00651
G1 X60.756 Y62.827 E.00651
G1 X60.975 Y62.916 E.00651
G1 X61.184 Y63.028 E.00651
G1 X61.38 Y63.16 E.00651
G1 X61.562 Y63.311 E.00651
G1 X61.727 Y63.481 E.00651
G1 X61.874 Y63.667 E.00651
G1 X62.001 Y63.866 E.00651
G1 X62.107 Y64.078 E.00651
G1 X62.191 Y64.3 E.00651
G1 X62.251 Y64.529 E.00651
G1 X62.287 Y64.76 E.00644
G1 X62.296 Y65.12 E.0099
G1 X62.272 Y65.353 E.00644
G1 X62.224 Y65.582 E.00643
G1 X62.102 Y65.931 E.01017
G1 X62.001 Y66.132 E.00617
G1 X61.874 Y66.332 E.00651
G1 X61.727 Y66.517 E.00651
G1 X61.562 Y66.687 E.00651
G1 X61.38 Y66.839 E.00651
G1 X61.184 Y66.971 E.00651
G1 X60.975 Y67.082 E.00651
G1 X60.758 Y67.17 E.00643
G1 X60.419 Y67.259 E.00963
SET_VELOCITY_LIMIT SQUARE_CORNER_VELOCITY=12
G1 E-.5 F3000
G1 Z.6 F21000
G1 X58.588 Y66.195 Z.6
G1 Z.4
G1 E.5 F1800
SET_VELOCITY_LIMIT SQUARE_CORNER_VELOCITY=7
G1 F1149
G1 X58.582 Y66.189 E.00024
G1 X58.383 Y65.899 E.00967
G1 X58.243 Y65.58 E.00959
G1 X58.183 Y65.35 E.00654
G1 X58.154 Y65.124 E.00626
G1 X58.163 Y64.775 E.00958
G1 X58.241 Y64.422 E.00995
G1 X58.378 Y64.108 E.00941
G1 X58.582 Y63.81 E.00994
G1 X58.831 Y63.565 E.0096
