; HEADER_BLOCK_START
; generated by OrcaSlicer 1.6.3 on 2023-06-01 at 21:21:26
; total layer number: 30
; HEADER_BLOCK_END

; THUMBNAIL_BLOCK_START
; THUMBNAIL_BLOCK_END

; external perimeters extrusion width = 0.40mm
; perimeters extrusion width = 0.45mm
; infill extrusion width = 0.45mm
; solid infill extrusion width = 0.40mm
; top infill extrusion width = 0.40mm
; first layer extrusion width = 0.50mm

; external perimeters extrusion width = 0.40mm
; perimeters extrusion width = 0.45mm
; infill extrusion width = 0.45mm
; solid infill extrusion width = 0.40mm
; top infill extrusion width = 0.40mm
; first layer extrusion width = 0.50mm

; EXECUTABLE_BLOCK_START
EXCLUDE_OBJECT_DEFINE NAME=Under_duct_scalable_brace_spacer.stl_id_0_copy_0 CENTER=60,64.9992 POLYGON=[[57.5,64.9992],[57.5033,64.8705],[57.5132,64.7421],[57.5298,64.6144],[57.5529,64.4878],[57.5824,64.3625],[57.6184,64.2389],[57.6607,64.1173],[57.7092,63.998],[57.7638,63.8814],[57.8243,63.7678],[57.8906,63.6574],[57.9624,63.5506],[58.0397,63.4476],[58.1222,63.3488],[58.2096,63.2543],[58.3018,63.1645],[58.3985,63.0795],[58.4995,62.9996],[58.6044,62.925],[58.713,62.8559],[58.8251,62.7925],[58.9402,62.7349],[59.0582,62.6834],[59.1786,62.6379],[59.3013,62.5988],[59.4258,62.566],[59.5518,62.5397],[59.679,62.5199],[59.8071,62.5066],[59.9356,62.5],[60.0644,62.5],[60.1929,62.5066],[60.321,62.5199],[60.4482,62.5397],[60.5742,62.566],[60.6987,62.5988],[60.8214,62.6379],[60.9418,62.6834],[61.0598,62.7349],[61.1749,62.7925],[61.287,62.8559],[61.3956,62.925],[61.5005,62.9996],[61.6015,63.0795],[61.6982,63.1645],[61.7904,63.2543],[61.8778,63.3488],[61.9603,63.4476],[62.0376,63.5506],[62.1094,63.6574],[62.1757,63.7678],[62.2362,63.8814],[62.2908,63.998],[62.3393,64.1173],[62.3816,64.2389],[62.4176,64.3625],[62.4471,64.4878],[62.4702,64.6144],[62.4867,64.7421],[62.4967,64.8705],[62.5,64.9992],[62.4967,65.1279],[62.4867,65.2562],[62.4702,65.3839],[62.4471,65.5105],[62.4176,65.6358],[62.3816,65.7595],[62.3393,65.881],[62.2908,66.0003],[62.2362,66.1169],[62.1757,66.2305],[62.1094,66.3409],[62.0376,66.4477],[61.9603,66.5507],[61.8778,66.6496],[61.7904,66.744],[61.6982,66.8339],[61.6015,66.9189],[61.5005,66.9988],[61.3956,67.0734],[61.287,67.1425],[61.1749,67.2059],[61.0598,67.2634],[60.9418,67.315],[60.8214,67.3604],[60.6987,67.3995],[60.5742,67.4323],[60.4482,67.4587],[60.321,67.4785],[60.1929,67.4917],[60.0644,67.4983],[59.9356,67.4983],[59.8071,67.4917],[59.679,67.4785],[59.5518,67.4587],[59.4258,67.4323],[59.3013,67.3995],[59.1786,67.3604],[59.0582,67.315],[58.9402,67.2634],[58.8251,67.2059],[58.713,67.1425],[58.6044,67.0734],[58.4995,66.9988],[58.3985,66.9189],[58.3018,66.8339],[58.2096,66.744],[58.1222,66.6496],[58.0397,66.5507],[57.9624,66.4477],[57.8906,66.3409],[57.8243,66.2305],[57.7638,66.1169],[57.7092,66.0003],[57.6607,65.881],[57.6184,65.7595],[57.5824,65.6358],[57.5529,65.5105],[57.5298,65.3839],[57.5132,65.2562],[57.5033,65.1279],[57.5,64.9992]]
EXCLUDE_OBJECT_DEFINE NAME=Under_duct_scalable_brace_spacer.stl_id_1_copy_0 CENTER=60,55.0008 POLYGON=[[57.5,55.0008],[57.5033,54.8721],[57.5133,54.7438],[57.5298,54.6161],[57.5529,54.4895],[57.5824,54.3642],[57.6184,54.2405],[57.6607,54.119],[57.7092,53.9997],[57.7638,53.8831],[57.8243,53.7695],[57.8906,53.6591],[57.9624,53.5523],[58.0397,53.4493],[58.1222,53.3504],[58.2096,53.256],[58.3018,53.1661],[58.3985,53.0811],[58.4995,53.0012],[58.6044,52.9266],[58.713,52.8575],[58.8251,52.7941],[58.9402,52.7366],[59.0582,52.685],[59.1786,52.6396],[59.3013,52.6004],[59.4258,52.5677],[59.5518,52.5413],[59.679,52.5215],[59.8071,52.5083],[59.9356,52.5017],[60.0644,52.5017],[60.1929,52.5083],[60.321,52.5215],[60.4482,52.5413],[60.5742,52.5677],[60.6987,52.6004],[60.8214,52.6396],[60.9418,52.685],[61.0598,52.7366],[61.1749,52.7941],[61.287,52.8575],[61.3956,52.9266],[61.5005,53.0012],[61.6015,53.0811],[61.6982,53.1661],[61.7904,53.256],[61.8778,53.3504],[61.9603,53.4493],[62.0376,53.5523],[62.1094,53.6591],[62.1757,53.7695],[62.2362,53.8831],[62.2908,53.9997],[62.3393,54.119],[62.3816,54.2405],[62.4176,54.3642],[62.4471,54.4895],[62.4702,54.6161],[62.4868,54.7438],[62.4967,54.8721],[62.5,55.0008],[62.4967,55.1295],[62.4868,55.2579],[62.4702,55.3856],[62.4471,55.5122],[62.4176,55.6375],[62.3816,55.7611],[62.3393,55.8827],[62.2908,56.002],[62.2362,56.1186],[62.1757,56.2322],[62.1094,56.3426],[62.0376,56.4494],[61.9603,56.5524],[61.8778,56.6512],[61.7904,56.7457],[61.6982,56.8355],[61.6015,56.9205],[61.5005,57.0004],[61.3956,57.075],[61.287,57.1441],[61.1749,57.2075],[61.0598,57.2651],[60.9418,57.3166],[60.8214,57.3621],[60.6987,57.4012],[60.5742,57.434],[60.4482,57.4603],[60.321,57.4801],[60.1929,57.4934],[60.0644,57.5],[59.9356,57.5],[59.8071,57.4934],[59.679,57.4801],[59.5518,57.4603],[59.4258,57.434],[59.3013,57.4012],[59.1786,57.3621],[59.0582,57.3166],[58.9402,57.2651],[58.8251,57.2075],[58.713,57.1441],[58.6044,57.075],[58.4995,57.0004],[58.3985,56.9205],[58.3018,56.8355],[58.2096,56.7457],[58.1222,56.6512],[58.0397,56.5524],[57.9624,56.4494],[57.8906,56.3426],[57.8243,56.2322],[57.7638,56.1186],[57.7092,56.002],[57.6607,55.8827],[57.6184,55.7611],[57.5824,55.6375],[57.5529,55.5122],[57.5298,55.3856],[57.5133,55.2579],[57.5033,55.1295],[57.5,55.0008]]
M73 P0 R1
;TYPE:Custom
START_PRINT T_BED=110 T_EXTRUDER=260
G90
G21
M83 ; use relative distances for extrusion
; Filament gcode

    PRESSURE_ADVANCE_SELECT FILAMENT=ABS
M106 S0
;LAYER_CHANGE
;Z:0.2
;HEIGHT:0.2
;BEFORE_LAYER_CHANGE
;0.2
G92 E0

;AFTER_LAYER_CHANGE
;0.2
SET_VELOCITY_LIMIT ACCEL_TO_DECEL=500
M204 S1000
G1 E-.5 F3000
G1 Z.2 F21000
G1 X56.176 Y51.169
G1 E.5 F1800
;TYPE:Skirt
;WIDTH:0.5
G1 F3000
G1 X57.04 Y50.468 E.03918
G1 X58.03 Y49.958 E.03917
G1 X59.104 Y49.662 E.0392
G1 X60.091 Y49.588 E.03485
G1 X60.897 Y49.662 E.02847
G1 X61.708 Y49.863 E.02941
G1 X62.478 Y50.187 E.0294
G1 X63.189 Y50.626 E.02941
G1 X63.824 Y51.169 E.0294
G1 X64.368 Y51.803 E.02941
G1 X64.809 Y52.514 E.02942
G1 X65.134 Y53.283 E.0294
G1 X65.337 Y54.094 E.02941
G1 X65.413 Y54.926 E.02941
G1 X65.414 Y64.999 E.35452
M73 P1 R1
G1 X65.314 Y66.033 E.03656
G1 X64.99 Y67.098 E.03918
G1 X64.455 Y68.075 E.03918
G1 X63.824 Y68.831 E.03468
G1 X62.96 Y69.532 E.03918
G1 X61.97 Y70.042 E.03917
G1 X61.044 Y70.311 E.03393
G1 X59.936 Y70.412 E.03918
G1 X59.103 Y70.338 E.0294
G1 X58.293 Y70.137 E.0294
G1 X57.522 Y69.813 E.02942
G1 X56.811 Y69.374 E.02942
G1 X56.157 Y68.812 E.03033
G1 X55.632 Y68.197 E.02848
G1 X55.191 Y67.486 E.02942
G1 X54.866 Y66.717 E.0294
G1 X54.663 Y65.906 E.02941
G1 X54.587 Y65.074 E.02941
G1 X54.586 Y55.001 E.35452
G1 X54.686 Y53.967 E.03655
G1 X55.01 Y52.902 E.03918
G1 X55.473 Y52.032 E.03468
G1 X56.138 Y51.215 E.03707
G1 X56.49 Y51.502 F21000
G1 F3000
G1 X56.495 Y51.496 E.00025
G1 X57.286 Y50.853 E.03587
G1 X58.191 Y50.386 E.03586
G1 X59.174 Y50.114 E.03589
G1 X60.089 Y50.045 E.03229
G1 X60.826 Y50.114 E.02607
G1 X61.569 Y50.299 E.02693
G1 X62.273 Y50.596 E.02692
G1 X62.924 Y50.999 E.02693
G1 X63.505 Y51.496 E.02692
G1 X64.003 Y52.077 E.02693
G1 X64.405 Y52.728 E.02693
G1 X64.702 Y53.433 E.02692
G1 X64.887 Y54.176 E.02693
G1 X64.956 Y54.938 E.02693
M73 P2 R1
G1 X64.957 Y64.999 E.35411
G1 X64.864 Y65.951 E.03366
G1 X64.567 Y66.926 E.03587
G1 X64.076 Y67.819 E.03588
G1 X63.505 Y68.504 E.03137
G1 X62.714 Y69.147 E.03587
G1 X61.809 Y69.614 E.03587
G1 X60.951 Y69.864 E.03145
G1 X59.936 Y69.955 E.03588
G1 X59.174 Y69.886 E.02692
G1 X58.432 Y69.701 E.02692
G1 X57.727 Y69.404 E.02693
G1 X57.076 Y69.001 E.02693
G1 X56.478 Y68.486 E.02777
G1 X55.997 Y67.923 E.02607
G1 X55.595 Y67.272 E.02693
G1 X55.298 Y66.567 E.02692
G1 X55.113 Y65.824 E.02693
G1 X55.044 Y65.062 E.02693
G1 X55.043 Y55.001 E.35411
G1 X55.136 Y54.049 E.03366
G1 X55.433 Y53.074 E.03587
G1 X55.852 Y52.287 E.03137
G1 X56.452 Y51.548 E.03351
; printing object Under duct scalable brace spacer.stl id:0 copy 0
EXCLUDE_OBJECT_START NAME=Under_duct_scalable_brace_spacer.stl_id_0_copy_0
G1 E-.5
G1 Z.4 F21000
G1 X61.7 Y66.523
M73 P3 R1
G1 Z.2
G1 E.5 F1800
;TYPE:Outer wall
;WIDTH:0.490801
G1 F3000
G1 X61.575 Y66.667 E.00658
;WIDTH:0.48992
G1 X61.207 Y66.951 E.01601
;WIDTH:0.497759
G1 X60.78 Y67.152 E.01653
G1 X60.399 Y67.246 E.01373
;WIDTH:0.486314
G1 X59.835 Y67.282 E.01931
G1 X59.375 Y67.202 E.01593
;WIDTH:0.484813
G1 X58.951 Y67.034 E.01554
;WIDTH:0.483953
G1 X58.531 Y66.745 E.0173
;WIDTH:0.485201
G1 X58.199 Y66.41 E.01605
;WIDTH:0.485518
G1 X57.894 Y65.901 E.02022
;WIDTH:0.496096
G1 X57.74 Y65.375 E.01915
;WIDTH:0.497465
G1 X57.711 Y64.905 E.01649
G1 X57.787 Y64.393 E.01812
;WIDTH:0.49245
G1 X57.994 Y63.89 E.0188
G1 X58.262 Y63.502 E.01632
;WIDTH:0.490394
G1 X58.604 Y63.178 E.01626
;WIDTH:0.489386
G1 X59.048 Y62.911 E.01779
;WIDTH:0.488424
G1 X59.531 Y62.757 E.01739
;WIDTH:0.491426
G1 X60.048 Y62.707 E.01795
;WIDTH:0.491887
G1 X60.504 Y62.762 E.01588
G1 X60.951 Y62.912 E.0163
G1 X61.358 Y63.151 E.01631
;WIDTH:0.49161
G1 X61.708 Y63.468 E.0163
;WIDTH:0.491084
G1 X61.985 Y63.849 E.01628
;WIDTH:0.489953
G1 X62.179 Y64.279 E.01624
;WIDTH:0.489289
G1 X62.284 Y64.786 E.01779
;WIDTH:0.488177
G1 X62.284 Y64.85 E.00219
;WIDTH:0.490597
G1 X62.26 Y65.38 E.01829
;WIDTH:0.491053
G1 X62.11 Y65.896 E.01853
G1 X61.883 Y66.31 E.01628
;WIDTH:0.490801
G1 X61.739 Y66.477 E.00763
G1 X61.604 Y65.903 F21000
;WIDTH:0.485367
G1 F3000
G1 X61.44 Y66.158 E.01036
;WIDTH:0.484836
G1 X61.195 Y66.41 E.01196
;WIDTH:0.48634
G1 X60.893 Y66.617 E.01247
G1 X60.412 Y66.798 E.01757
G1 X59.83 Y66.839 E.01991
;WIDTH:0.489959
G1 X59.406 Y66.75 E.01493
;WIDTH:0.490345
G1 X59.063 Y66.592 E.01299
;WIDTH:0.491081
G1 X58.663 Y66.272 E.01769
;WIDTH:0.498089
G1 X58.454 Y65.99 E.01228
G1 X58.271 Y65.654 E.01344
;WIDTH:0.489053
G1 X58.159 Y65.151 E.01768
;WIDTH:0.487136
G1 X58.203 Y64.569 E.01997
;WIDTH:0.49245
G1 X58.408 Y64.065 E.01884
G1 X58.677 Y63.709 E.01545
;WIDTH:0.485273
G1 X58.945 Y63.481 E.01197
;WIDTH:0.486331
G1 X59.251 Y63.308 E.012
;WIDTH:0.48646
G1 X59.585 Y63.197 E.01201
;WIDTH:0.491426
G1 X60.06 Y63.155 E.01648
;WIDTH:0.491934
G1 X60.422 Y63.202 E.01263
G1 X60.906 Y63.388 E.01791
;WIDTH:0.484271
G1 X61.226 Y63.616 E.01336
;WIDTH:0.483927
G1 X61.465 Y63.873 E.01191
;WIDTH:0.485085
G1 X61.646 Y64.159 E.01154
;WIDTH:0.485364
G1 X61.78 Y64.499 E.01242
G1 X61.842 Y64.844 E.01197
;WIDTH:0.490597
G1 X61.826 Y65.275 E.01487
G1 X61.653 Y65.828 E.01995
;WIDTH:0.485367
G1 X61.637 Y65.852 E.00099
; stop printing object Under duct scalable brace spacer.stl id:0 copy 0
EXCLUDE_OBJECT_END NAME=Under_duct_scalable_brace_spacer.stl_id_0_copy_0
; printing object Under duct scalable brace spacer.stl id:1 copy 0
EXCLUDE_OBJECT_START NAME=Under_duct_scalable_brace_spacer.stl_id_1_copy_0
G1 E-.5
G1 Z.4 F21000
G1 X61.666 Y65.868
G1 X61.67 Y65.86
G1 X61.721 Y65.752
G1 X61.765 Y65.642
G1 X61.803 Y65.528
G1 X61.833 Y65.413
G1 X61.855 Y65.296
G1 X61.87 Y65.178
G1 X61.878 Y65.059
M73 P4 R1
G1 X61.878 Y64.94
G1 X61.7 Y56.524
G1 Z.2
G1 E.5 F1800
;WIDTH:0.490801
G1 F3000
G1 X61.575 Y56.669 E.00658
;WIDTH:0.48992
G1 X61.207 Y56.953 E.01601
;WIDTH:0.497759
G1 X60.78 Y57.154 E.01653
G1 X60.399 Y57.248 E.01373
;WIDTH:0.486314
G1 X59.835 Y57.284 E.01931
G1 X59.375 Y57.203 E.01593
;WIDTH:0.484813
G1 X58.951 Y57.035 E.01554
;WIDTH:0.483953
G1 X58.531 Y56.747 E.0173
;WIDTH:0.485201
G1 X58.199 Y56.412 E.01605
;WIDTH:0.485518
G1 X57.894 Y55.903 E.02022
;WIDTH:0.496096
G1 X57.74 Y55.376 E.01915
;WIDTH:0.497465
G1 X57.711 Y54.906 E.01649
G1 X57.787 Y54.394 E.01812
;WIDTH:0.49245
G1 X57.994 Y53.892 E.0188
G1 X58.262 Y53.504 E.01632
;WIDTH:0.490394
G1 X58.604 Y53.179 E.01626
;WIDTH:0.489386
G1 X59.048 Y52.912 E.01779
;WIDTH:0.488424
G1 X59.531 Y52.759 E.01739
;WIDTH:0.491426
G1 X60.048 Y52.709 E.01795
;WIDTH:0.491887
G1 X60.504 Y52.763 E.01588
G1 X60.951 Y52.914 E.0163
G1 X61.358 Y53.153 E.01631
;WIDTH:0.49161
G1 X61.708 Y53.469 E.0163
;WIDTH:0.491084
G1 X61.985 Y53.851 E.01628
;WIDTH:0.489953
G1 X62.179 Y54.281 E.01624
;WIDTH:0.489289
G1 X62.284 Y54.788 E.01779
;WIDTH:0.488177
G1 X62.284 Y54.852 E.00219
;WIDTH:0.490597
G1 X62.26 Y55.382 E.01829
;WIDTH:0.491053
G1 X62.11 Y55.898 E.01853
G1 X61.883 Y56.311 E.01628
;WIDTH:0.490801
G1 X61.739 Y56.479 E.00763
G1 X61.604 Y55.904 F21000
;WIDTH:0.485367
G1 F3000
G1 X61.44 Y56.16 E.01036
;WIDTH:0.484836
G1 X61.195 Y56.412 E.01196
;WIDTH:0.48634
G1 X60.893 Y56.618 E.01247
G1 X60.412 Y56.8 E.01757
G1 X59.83 Y56.841 E.01991
;WIDTH:0.489959
G1 X59.406 Y56.752 E.01493
;WIDTH:0.490345
G1 X59.063 Y56.593 E.01299
;WIDTH:0.491081
G1 X58.663 Y56.273 E.01769
;WIDTH:0.498089
G1 X58.454 Y55.992 E.01228
G1 X58.271 Y55.655 E.01344
;WIDTH:0.489053
G1 X58.159 Y55.153 E.01768
;WIDTH:0.487136
G1 X58.203 Y54.571 E.01997
;WIDTH:0.49245
G1 X58.408 Y54.067 E.01884
G1 X58.677 Y53.71 E.01545
;WIDTH:0.485273
G1 X58.945 Y53.483 E.01197
;WIDTH:0.486331
G1 X59.251 Y53.31 E.012
;WIDTH:0.48646
G1 X59.585 Y53.199 E.01201
;WIDTH:0.491426
G1 X60.06 Y53.156 E.01648
;WIDTH:0.491934
G1 X60.422 Y53.204 E.01263
G1 X60.906 Y53.39 E.01791
;WIDTH:0.484271
G1 X61.226 Y53.618 E.01336
;WIDTH:0.483927
G1 X61.465 Y53.875 E.01191
;WIDTH:0.485085
G1 X61.646 Y54.161 E.01154
;WIDTH:0.485364
G1 X61.78 Y54.5 E.01242
G1 X61.842 Y54.846 E.01197
;WIDTH:0.490597
G1 X61.826 Y55.277 E.01487
G1 X61.653 Y55.829 E.01995
;WIDTH:0.485367
G1 X61.637 Y55.854 E.00099
; stop printing object Under duct scalable brace spacer.stl id:1 copy 0
EXCLUDE_OBJECT_END NAME=Under_duct_scalable_brace_spacer.stl_id_1_copy_0
;LAYER_CHANGE
;Z:0.4
;HEIGHT:0.2
;BEFORE_LAYER_CHANGE
;0.4
G92 E0

;AFTER_LAYER_CHANGE
;0.4
SET_VELOCITY_LIMIT ACCEL_TO_DECEL=3000
M204 S6000
M140 S110 ; set bed temperature
; printing object Under duct scalable brace spacer.stl id:0 copy 0
EXCLUDE_OBJECT_START NAME=Under_duct_scalable_brace_spacer.stl_id_0_copy_0
SET_VELOCITY_LIMIT ACCEL_TO_DECEL=2000
M204 S4000
G1 E-.5 F3000
G1 Z.4 F21000
M73 P5 R1
G1 X61.644 Y55.857
G1 X61.853 Y64.94
G1 X61.853 Y65.058
G1 X61.845 Y65.175
G1 X61.673 Y66.537
G1 E.5 F1800
;WIDTH:0.483197
G1 F1122
G1 X61.515 Y66.715 E.00806
;WIDTH:0.486292
G1 X61.087 Y67.014 E.01784
G1 X60.534 Y67.222 E.02015
;WIDTH:0.495674
G1 X59.964 Y67.291 E.02002
G1 X59.496 Y67.237 E.01644
;WIDTH:0.491599
G1 X59.048 Y67.087 E.0163
;WIDTH:0.490571
G1 X58.638 Y66.846 E.0164
;WIDTH:0.491014
G1 X58.336 Y66.581 E.01385
G1 X58.038 Y66.164 E.01768
;WIDTH:0.483825
G1 X57.843 Y65.762 E.01518
;WIDTH:0.485309
G1 X57.726 Y65.26 E.01755
G1 X57.722 Y64.773 E.01658
;WIDTH:0.485206
G1 X57.806 Y64.372 E.01395
;WIDTH:0.482786
G1 X58.003 Y63.882 E.01788
;WIDTH:0.485005
G1 X58.297 Y63.472 E.01717
;WIDTH:0.485917
G1 X58.743 Y63.084 E.02017
;WIDTH:0.496477
G1 X59.225 Y62.843 E.01884
G1 X59.687 Y62.727 E.01662
;WIDTH:0.492
G1 X60.113 Y62.71 E.01475
;WIDTH:0.491374
G1 X60.678 Y62.814 E.01983
;WIDTH:0.485765
G1 X61.092 Y62.986 E.01529
G1 X61.464 Y63.238 E.01534
;WIDTH:0.486184
G1 X61.817 Y63.604 E.01734
;WIDTH:0.492873
G1 X62.092 Y64.06 E.01844
G1 X62.249 Y64.553 E.01792
;WIDTH:0.491461
G1 X62.291 Y65.094 E.01875
;WIDTH:0.490127
G1 X62.224 Y65.565 E.01639
;WIDTH:0.490641
G1 X62.101 Y65.92 E.01295
G1 X61.83 Y66.36 E.01779
;WIDTH:0.483197
G1 X61.713 Y66.492 E.00599
SET_VELOCITY_LIMIT ACCEL_TO_DECEL=3000
M204 S6000
SET_VELOCITY_LIMIT ACCEL_TO_DECEL=2000
M204 S4000
G1 X61.607 Y65.899 F21000
;WIDTH:0.490767
G1 F1122
G1 X61.386 Y66.219 E.01339
;WIDTH:0.491609
G1 X61.113 Y66.472 E.01289
;WIDTH:0.495205
M73 P6 R1
G1 X60.8 Y66.657 E.01262
G1 X60.344 Y66.816 E.01683
;WIDTH:0.489591
G1 X59.83 Y66.839 E.0177
;WIDTH:0.486318
G1 X59.433 Y66.758 E.01383
;WIDTH:0.48532
G1 X59.143 Y66.637 E.0107
;WIDTH:0.485931
G1 X58.818 Y66.421 E.01333
G1 X58.573 Y66.169 E.01197
;WIDTH:0.490328
G1 X58.348 Y65.826 E.01413
;WIDTH:0.492177
G1 X58.219 Y65.482 E.01273
G1 X58.155 Y65.11 E.01305
;WIDTH:0.490513
G1 X58.169 Y64.733 E.01299
;WIDTH:0.49263
G1 X58.314 Y64.253 E.01736
G1 X58.587 Y63.807 E.01811
;WIDTH:0.486464
G1 X58.996 Y63.448 E.01859
G1 X59.531 Y63.212 E.01994
;WIDTH:0.485772
G1 X59.933 Y63.151 E.01388
;WIDTH:0.485648
G1 X60.283 Y63.176 E.01196
;WIDTH:0.487217
G1 X60.625 Y63.258 E.01203
;WIDTH:0.488699
G1 X60.944 Y63.407 E.01207
;WIDTH:0.489919
