; generated by SuperSlicer 2.5.59 on 2023-08-05 at 03:02:13 UTC


;
;

;
;
; 

; external perimeters extrusion width = 0.40mm
; perimeters extrusion width = 0.46mm
; infill extrusion width = 0.64mm
; solid infill extrusion width = 0.56mm
; top infill extrusion width = 0.40mm
; support material extrusion width = 0.46mm
; first layer extrusion width = 0.50mm

; external perimeters extrusion width = 0.40mm
; perimeters extrusion width = 0.46mm
; infill extrusion width = 0.64mm
; solid infill extrusion width = 0.56mm
; top infill extrusion width = 0.40mm
; support material extrusion width = 0.46mm
; first layer extrusion width = 0.50mm

; object:{"name":"Under duct scalable brace spacer","id":"Under duct scalable brace spacer.stl id:0 copy 0","object_center":[59.153499,54.566375,0.000000],"boundingbox_center":[59.153499,54.566375,3.140000],"boundingbox_size":[5.000001,4.998337,6.280000]}
EXCLUDE_OBJECT_DEFINE NAME=Under_duct_scalable_brace_spacer_stl_id_0_copy_0 CENTER=59.153499,54.566375 POLYGON=[[56.653500,54.566368],[56.656816,54.437676],[56.666748,54.309320],[56.683280,54.181648],[56.706360,54.055000],[56.735932,53.929696],[56.771912,53.806084],[56.814208,53.684500],[56.862704,53.565240],[56.917284,53.448648],[56.977784,53.335000],[57.044060,53.224632],[57.115928,53.117820],[57.193200,53.014856],[57.275668,52.915992],[57.363120,52.821512],[57.455316,52.731668],[57.552016,52.646676],[57.652960,52.566780],[57.757888,52.492180],[57.866516,52.423088],[57.978556,52.359672],[58.093712,52.302116],[58.211676,52.250572],[58.332144,52.205148],[58.454784,52.165992],[58.579276,52.133216],[58.705300,52.106880],[58.832504,52.087076],[58.960560,52.073828],[59.089128,52.067208],[59.217868,52.067208],[59.346436,52.073828],[59.474496,52.087076],[59.601700,52.106880],[59.727720,52.133216],[59.852212,52.165992],[59.974852,52.205148],[60.095316,52.250572],[60.213288,52.302116],[60.328436,52.359672],[60.440484,52.423088],[60.549112,52.492180],[60.654032,52.566780],[60.754984,52.646676],[60.851684,52.731668],[60.943880,52.821512],[61.031328,52.915992],[61.113800,53.014856],[61.191072,53.117820],[61.262940,53.224632],[61.329212,53.335000],[61.389716,53.448648],[61.444292,53.565240],[61.492792,53.684500],[61.535088,53.806084],[61.571068,53.929696],[61.600640,54.055000],[61.623720,54.181648],[61.640252,54.309320],[61.650184,54.437676],[61.653500,54.566368],[61.650184,54.695076],[61.640252,54.823432],[61.623720,54.951104],[61.600640,55.077752],[61.571068,55.203056],[61.535088,55.326668],[61.492792,55.448248],[61.444292,55.567512],[61.389716,55.684104],[61.329212,55.797752],[61.262940,55.908120],[61.191072,56.014932],[61.113800,56.117896],[61.031328,56.216760],[60.943880,56.311240],[60.851684,56.401084],[60.754984,56.486076],[60.654032,56.565972],[60.549112,56.640572],[60.440484,56.709664],[60.328436,56.773080],[60.213288,56.830636],[60.095316,56.882180],[59.974852,56.927604],[59.852212,56.966744],[59.727720,56.999536],[59.601700,57.025872],[59.474496,57.045676],[59.346436,57.058920],[59.217868,57.065544],[59.089128,57.065544],[58.960560,57.058920],[58.832504,57.045676],[58.705300,57.025872],[58.579276,56.999536],[58.454784,56.966744],[58.332144,56.927604],[58.211676,56.882180],[58.093712,56.830636],[57.978556,56.773080],[57.866516,56.709664],[57.757888,56.640572],[57.652960,56.565972],[57.552016,56.486076],[57.455316,56.401084],[57.363120,56.311240],[57.275668,56.216760],[57.193200,56.117896],[57.115928,56.014932],[57.044060,55.908120],[56.977784,55.797752],[56.917284,55.684104],[56.862704,55.567512],[56.814208,55.448248],[56.771912,55.326668],[56.735932,55.203056],[56.706360,55.077752],[56.683280,54.951104],[56.666748,54.823432],[56.656816,54.695076],[56.653500,54.566368]]
; object:{"name":"Under duct scalable brace spacer","id":"Under duct scalable brace spacer.stl id:1 copy 0","object_center":[60.846502,65.433626,0.000000],"boundingbox_center":[60.846502,65.433626,3.140000],"boundingbox_size":[5.000001,4.998337,6.280000]}
EXCLUDE_OBJECT_DEFINE NAME=Under_duct_scalable_brace_spacer_stl_id_1_copy_0 CENTER=60.846502,65.433626 POLYGON=[[58.346504,65.433616],[58.349820,65.304924],[58.359752,65.176568],[58.376280,65.048896],[58.399364,64.922248],[58.428932,64.796944],[58.464916,64.673332],[58.507208,64.551752],[58.555708,64.432488],[58.610288,64.315896],[58.670792,64.202248],[58.737064,64.091880],[58.808932,63.985068],[58.886204,63.882104],[58.968672,63.783240],[59.056120,63.688760],[59.148320,63.598916],[59.245020,63.513924],[59.345972,63.434028],[59.450892,63.359428],[59.559520,63.290336],[59.671564,63.226920],[59.786720,63.169364],[59.904688,63.117820],[60.025148,63.072396],[60.147788,63.033240],[60.272284,63.000464],[60.398300,62.974128],[60.525504,62.954324],[60.653564,62.941080],[60.782136,62.934456],[60.910872,62.934456],[61.039444,62.941080],[61.167500,62.954324],[61.294704,62.974128],[61.420724,63.000464],[61.545220,63.033240],[61.667864,63.072396],[61.788324,63.117820],[61.906288,63.169364],[62.021448,63.226920],[62.133484,63.290336],[62.242112,63.359428],[62.347040,63.434028],[62.447988,63.513924],[62.544684,63.598916],[62.636888,63.688760],[62.724336,63.783240],[62.806800,63.882104],[62.884076,63.985068],[62.955940,64.091880],[63.022216,64.202248],[63.082720,64.315896],[63.137296,64.432488],[63.185796,64.551752],[63.228092,64.673332],[63.264072,64.796944],[63.293640,64.922248],[63.316724,65.048896],[63.333252,65.176568],[63.343188,65.304924],[63.346504,65.433616],[63.343188,65.562324],[63.333252,65.690680],[63.316724,65.818352],[63.293640,65.945000],[63.264072,66.070304],[63.228092,66.193916],[63.185796,66.315500],[63.137296,66.434760],[63.082720,66.551352],[63.022216,66.665000],[62.955940,66.775368],[62.884076,66.882180],[62.806800,66.985144],[62.724336,67.084008],[62.636888,67.178488],[62.544684,67.268336],[62.447988,67.353328],[62.347040,67.433224],[62.242112,67.507824],[62.133484,67.576912],[62.021448,67.640328],[61.906288,67.697880],[61.788324,67.749424],[61.667864,67.794856],[61.545220,67.833992],[61.420724,67.866784],[61.294704,67.893120],[61.167500,67.912928],[61.039444,67.926168],[60.910872,67.932792],[60.782136,67.932792],[60.653564,67.926168],[60.525504,67.912928],[60.398300,67.893120],[60.272284,67.866784],[60.147788,67.833992],[60.025148,67.794856],[59.904688,67.749424],[59.786720,67.697880],[59.671564,67.640328],[59.559520,67.576912],[59.450892,67.507824],[59.345972,67.433224],[59.245020,67.353328],[59.148320,67.268336],[59.056120,67.178488],[58.968672,67.084008],[58.886204,66.985144],[58.808932,66.882180],[58.737064,66.775368],[58.670792,66.665000],[58.610288,66.551352],[58.555708,66.434760],[58.507208,66.315500],[58.464916,66.193916],[58.428932,66.070304],[58.399364,65.945000],[58.376280,65.818352],[58.359752,65.690680],[58.349820,65.562324],[58.346504,65.433616]]
; plater:{"center":[60.000000,60.000000,0.000000],"boundingbox_center":[60.000000,60.000000,3.140000],"boundingbox_size":[6.693004,15.865588,6.280000]}

M73 P0 R2
;TYPE:Custom
; custom gcode: start_gcode
START_PRINT T_BED=110 T_EXTRUDER=260
; custom gcode end: start_gcode
M107
G21 ; set units to millimeters
G90 ; use absolute coordinates
M82 ; use absolute distances for extrusion
G92 E0
; custom gcode: start_filament_gcode
; filament start gcode

    PRESSURE_ADVANCE_SELECT FILAMENT=ABS
; custom gcode end: start_filament_gcode
;_TOOLCHANGE 0
M104 S260 ; set temperature
M109 S260 ; set temperature and wait for it to be reached
M190 S110 ; set bed temperature and wait for it to be reached
;LAYER_CHANGE
;Z:0.2
;HEIGHT:0.2
G1 Z0.2 F12000
M73 P0 R2
G1 E-0.5 F2400
M204 S2000
G1 X54.951 Y49.976 F12000
G1 E0 F1800
;TYPE:Skirt
;WIDTH:0.52
G1 X53.971 Y51.116 E0.05524
G1 X53.374 Y52.25 E0.10227
G1 X52.983 Y53.736 E0.15874
M73 P1 R2
G1 X52.944 Y55.016 E0.20578
G1 X54.716 Y66.52 E0.63333
G1 X54.976 Y67.508 E0.67089
G1 X55.221 Y68.101 E0.69444
G1 X55.664 Y68.884 E0.72748
G1 X56.366 Y69.753 E0.76854
G1 X57.007 Y70.335 E0.80033
G1 X57.753 Y70.837 E0.83336
G1 X58.679 Y71.27 E0.87093
G1 X59.543 Y71.522 E0.90396
G1 X60.175 Y71.624 E0.92751
G1 X61.198 Y71.65 E0.96508
G1 X62.462 Y71.447 E1.01211
G1 X63.515 Y71.056 E1.05338
G1 X64.686 Y70.335 E1.1039
G1 X65.647 Y69.398 E1.15319
G1 X66.168 Y68.665 E1.18622
G1 X66.717 Y67.508 E1.23325
G1 X67.017 Y66.264 E1.28028
M73 P2 R2
G1 X67.056 Y64.984 E1.32732
G1 X65.284 Y53.48 E1.75487
G1 X64.933 Y52.249 E1.8019
G1 X64.475 Y51.335 E1.83947
G1 X64.115 Y50.805 E1.86302
G1 X62.993 Y49.665 E1.92175
G1 X61.675 Y48.874 E1.97823
G1 X60.709 Y48.538 E2.0158
G1 X59.825 Y48.376 E2.04883
G1 X58.482 Y48.376 E2.09813
G1 X57.23 Y48.645 E2.14516
G1 X56.06 Y49.163 E2.19219
G1 X54.951 Y49.976 E2.24271
G1 X55.284 Y50.318 F12000
G1 F1800
G1 X54.373 Y51.372 E2.29389
G1 X53.821 Y52.418 E2.33732
M73 P3 R2
G1 X53.454 Y53.81 E2.39019
G1 X53.42 Y54.991 E2.43362
G1 X55.187 Y66.446 E2.85937
G1 X55.647 Y67.888 E2.91496
G1 X56.066 Y68.628 E2.94619
G1 X56.699 Y69.412 E2.9832
G1 X57.293 Y69.953 E3.01274
G1 X57.998 Y70.428 E3.04397
G1 X58.836 Y70.82 E3.07793
G1 X59.652 Y71.057 E3.10916
G1 X61.161 Y71.174 E3.16476
G1 X62.329 Y70.989 E3.20818
G1 X63.324 Y70.619 E3.24719
G1 X64.4 Y69.953 E3.29366
G1 X65.273 Y69.102 E3.33845
G1 X65.766 Y68.409 E3.36968
G1 X66.27 Y67.34 E3.41311
M73 P4 R1
G1 X66.546 Y66.19 E3.45654
G1 X66.58 Y65.009 E3.49997
G1 X64.813 Y53.554 E3.92572
G1 X64.486 Y52.418 E3.96915
G1 X63.741 Y51.101 E4.02474
G1 X62.707 Y50.047 E4.07897
G1 X62.002 Y49.572 E4.1102
G1 X61.164 Y49.18 E4.14416
G1 X59.763 Y48.85 E4.19704
G1 X58.544 Y48.85 E4.24184
G1 X57.387 Y49.095 E4.28527
G1 X56.305 Y49.572 E4.32869
G1 X55.284 Y50.318 E4.37516
G92 E0
G1 E-0.5 F2400
; printing object Under duct scalable brace spacer.stl id:0 copy 0
EXCLUDE_OBJECT_START NAME=Under_duct_scalable_brace_spacer_stl_id_0_copy_0
G1 X59.072 Y56.466 F12000
M73 P5 R1
G1 E0 F1800
;TYPE:Internal perimeter
;WIDTH:0.5
G1 X58.984 Y56.81 E0.0125
;TYPE:External perimeter
G1 X58.748 Y56.792 E0.02083
G1 X58.301 Y56.662 E0.03721
G1 X57.891 Y56.443 E0.05358
G1 X57.707 Y56.305 E0.06166
G1 X57.452 Y56.057 E0.07418
G1 X57.31 Y55.877 E0.08226
G1 X57.081 Y55.472 E0.09863
G1 X56.939 Y55.029 E0.115
G1 X56.891 Y54.566 E0.13138
G1 X56.939 Y54.104 E0.14775
G1 X57.081 Y53.66 E0.16412
G1 X57.31 Y53.256 E0.18049
G1 X57.452 Y53.075 E0.18858
G1 X57.707 Y52.827 E0.20109
G1 X57.891 Y52.689 E0.20918
G1 X58.301 Y52.471 E0.22555
G1 X58.748 Y52.341 E0.24192
G1 X58.976 Y52.311 E0.25
G1 X59.331 Y52.311 E0.26252
G1 X59.559 Y52.341 E0.2706
G1 X60.006 Y52.471 E0.28697
G1 X60.416 Y52.689 E0.30335
G1 X60.6 Y52.827 E0.31143
G1 X60.855 Y53.075 E0.32395
G1 X60.997 Y53.256 E0.33203
G1 X61.226 Y53.66 E0.3484
G1 X61.368 Y54.104 E0.36477
G1 X61.416 Y54.566 E0.38115
G1 X61.368 Y55.029 E0.39752
G1 X61.226 Y55.472 E0.41389
G1 X60.997 Y55.877 E0.43026
G1 X60.855 Y56.057 E0.43835
G1 X60.6 Y56.305 E0.45086
G1 X60.219 Y56.562 E0.46701
G1 X59.894 Y56.704 E0.47952
G1 X59.673 Y56.768 E0.4876
G1 X59.438 Y56.799 E0.49593
;TYPE:Internal perimeter
G1 X59.527 Y56.437 E0.50903
;TYPE:External perimeter
G1 X59.782 Y56.369 E0.5183
G1 X60.108 Y56.22 E0.53094
G1 X60.404 Y56.009 E0.54371
G1 X60.654 Y55.747 E0.55649
G1 X60.851 Y55.441 E0.56926
G1 X60.986 Y55.104 E0.58204
G1 X61.054 Y54.748 E0.59482
G1 X61.054 Y54.385 E0.60759
G1 X60.986 Y54.028 E0.62037
G1 X60.851 Y53.691 E0.63314
G1 X60.654 Y53.386 E0.64592
G1 X60.404 Y53.123 E0.65869
G1 X60.108 Y52.913 E0.67147
G1 X59.778 Y52.762 E0.68424
G1 X59.425 Y52.676 E0.69702
G1 X59.063 Y52.659 E0.7098
G1 X58.703 Y52.711 E0.72257
G1 X58.36 Y52.83 E0.73535
G1 X58.046 Y53.011 E0.74812
G1 X57.772 Y53.249 E0.7609
G1 X57.547 Y53.534 E0.77367
G1 X57.383 Y53.853 E0.78631
G1 X57.306 Y54.087 E0.79497
G1 X57.259 Y54.329 E0.80363
G1 X57.248 Y54.687 E0.81627
G1 X57.305 Y55.046 E0.82904
G1 X57.428 Y55.383 E0.84168
G1 X57.548 Y55.598 E0.85034
G1 X57.694 Y55.797 E0.859
G1 X57.95 Y56.048 E0.87163
G1 X58.252 Y56.249 E0.88441
G1 X58.587 Y56.39 E0.89719
G1 X58.942 Y56.464 E0.90996
M73 P6 R1
G1 X59.072 Y56.466 E0.91455
;WIPE_START
M204 S4000
G1 X58.816 Y56.773 F12000
;WIPE_END
G92 E0
G1 E-0.5 F2400
; stop printing object Under duct scalable brace spacer.stl id:0 copy 0
EXCLUDE_OBJECT_END NAME=Under_duct_scalable_brace_spacer_stl_id_0_copy_0
; printing object Under duct scalable brace spacer.stl id:1 copy 0
EXCLUDE_OBJECT_START NAME=Under_duct_scalable_brace_spacer_stl_id_1_copy_0
M204 S2000
G1 X60.765 Y67.333 F12000
G1 E0 F1800
;TYPE:Internal perimeter
G1 X60.677 Y67.677 E0.0125
;TYPE:External perimeter
G1 X60.441 Y67.659 E0.02083
G1 X59.994 Y67.529 E0.03721
G1 X59.584 Y67.311 E0.05358
G1 X59.4 Y67.173 E0.06166
G1 X59.145 Y66.925 E0.07418
G1 X59.003 Y66.744 E0.08226
G1 X58.774 Y66.34 E0.09863
G1 X58.632 Y65.896 E0.115
G1 X58.584 Y65.434 E0.13138
G1 X58.632 Y64.971 E0.14775
G1 X58.774 Y64.528 E0.16412
G1 X59.003 Y64.123 E0.18049
G1 X59.145 Y63.943 E0.18858
G1 X59.4 Y63.695 E0.20109
G1 X59.584 Y63.557 E0.20918
G1 X59.994 Y63.338 E0.22555
G1 X60.441 Y63.208 E0.24192
G1 X60.669 Y63.179 E0.25
G1 X61.024 Y63.179 E0.26252
G1 X61.252 Y63.208 E0.2706
G1 X61.699 Y63.338 E0.28697
G1 X62.109 Y63.557 E0.30335
G1 X62.293 Y63.695 E0.31143
G1 X62.548 Y63.943 E0.32395
G1 X62.69 Y64.123 E0.33203
G1 X62.919 Y64.528 E0.3484
G1 X63.061 Y64.971 E0.36477
G1 X63.109 Y65.434 E0.38115
G1 X63.061 Y65.896 E0.39752
G1 X62.919 Y66.34 E0.41389
G1 X62.69 Y66.744 E0.43026
G1 X62.548 Y66.925 E0.43835
G1 X62.293 Y67.173 E0.45086
G1 X61.912 Y67.429 E0.46701
G1 X61.587 Y67.571 E0.47952
G1 X61.366 Y67.635 E0.4876
G1 X61.131 Y67.666 E0.49593
;TYPE:Internal perimeter
G1 X61.22 Y67.304 E0.50903
;TYPE:External perimeter
G1 X61.475 Y67.236 E0.5183
G1 X61.801 Y67.087 E0.53094
G1 X62.097 Y66.877 E0.54371
G1 X62.347 Y66.614 E0.55649
G1 X62.544 Y66.309 E0.56926
G1 X62.679 Y65.972 E0.58204
G1 X62.747 Y65.615 E0.59482
G1 X62.747 Y65.252 E0.60759
G1 X62.679 Y64.896 E0.62037
G1 X62.544 Y64.559 E0.63314
G1 X62.347 Y64.253 E0.64592
G1 X62.097 Y63.991 E0.65869
G1 X61.801 Y63.78 E0.67147
G1 X61.471 Y63.629 E0.68424
G1 X61.118 Y63.544 E0.69702
G1 X60.756 Y63.526 E0.7098
G1 X60.396 Y63.578 E0.72257
G1 X60.053 Y63.697 E0.73535
G1 X59.739 Y63.878 E0.74812
M73 P7 R1
G1 X59.465 Y64.116 E0.7609
G1 X59.24 Y64.401 E0.77367
G1 X59.076 Y64.72 E0.78631
G1 X58.999 Y64.954 E0.79497
G1 X58.952 Y65.196 E0.80363
G1 X58.941 Y65.555 E0.81627
G1 X58.998 Y65.913 E0.82904
G1 X59.121 Y66.251 E0.84168
G1 X59.241 Y66.466 E0.85034
G1 X59.387 Y66.664 E0.859
G1 X59.643 Y66.916 E0.87163
G1 X59.945 Y67.117 E0.88441
G1 X60.28 Y67.257 E0.89719
G1 X60.635 Y67.331 E0.90996
G1 X60.765 Y67.333 E0.91455
;WIPE_START
M204 S4000
G1 X60.509 Y67.64 F12000
;WIPE_END
;LAYER_CHANGE
;Z:0.4
;HEIGHT:0.2
; stop printing object Under duct scalable brace spacer.stl id:1 copy 0
EXCLUDE_OBJECT_END NAME=Under_duct_scalable_brace_spacer_stl_id_1_copy_0
G1 Z0.4 F12000
G92 E0
G1 E-0.5 F2400
G1 Z0.6 F12000
; printing object Under duct scalable brace spacer.stl id:0 copy 0
EXCLUDE_OBJECT_START NAME=Under_duct_scalable_brace_spacer_stl_id_0_copy_0
G1 X59.121 Y56.464
G1 Z0.4
G1 E0 F1800
;WIDTH:0.4
G1 F6000
G1 X59.301 Y56.467 E0.00494
G1 X59.544 Y56.432 E0.0117
G1 X59.781 Y56.366 E0.01846
G1 X60.107 Y56.217 E0.02832
G1 X60.401 Y56.007 E0.03827
G1 X60.652 Y55.745 E0.04823
G1 X60.848 Y55.44 E0.0582
G1 X60.983 Y55.104 E0.06816
G1 X61.052 Y54.748 E0.07813
G1 X61.052 Y54.385 E0.0881
G1 X60.983 Y54.029 E0.09807
G1 X60.848 Y53.693 E0.10803
G1 X60.652 Y53.388 E0.118
G1 X60.401 Y53.126 E0.12796
G1 X60.107 Y52.916 E0.13792
G1 X59.777 Y52.765 E0.14788
G1 X59.424 Y52.68 E0.15785
G1 X59.063 Y52.663 E0.16781
G1 X58.704 Y52.714 E0.17776
G1 X58.362 Y52.833 E0.18773
G1 X58.048 Y53.014 E0.1977
G1 X57.775 Y53.252 E0.20765
G1 X57.55 Y53.536 E0.2176
G1 X57.386 Y53.854 E0.22746
G1 X57.309 Y54.088 E0.23422
G1 X57.262 Y54.329 E0.24098
G1 X57.251 Y54.687 E0.25083
G1 X57.308 Y55.045 E0.2608
G1 X57.431 Y55.382 E0.27065
G1 X57.55 Y55.597 E0.27741
G1 X57.696 Y55.795 E0.28416
G1 X57.951 Y56.046 E0.29402
G1 X58.253 Y56.247 E0.30399
G1 X58.587 Y56.387 E0.31396
G1 X58.768 Y56.425 E0.31902
;TYPE:Internal perimeter
G1 F9000
G1 X58.803 Y56.789 E0.32909
;TYPE:External perimeter
