; HEADER_BLOCK_START
; generated by OrcaSlicer 1.6.3 on 2023-06-17 at 20:12:35
; total layer number: 100
; HEADER_BLOCK_END

; THUMBNAIL_BLOCK_START
; THUMBNAIL_BLOCK_END

; external perimeters extrusion width = 0.40mm
; perimeters extrusion width = 0.45mm
; infill extrusion width = 0.45mm
; solid infill extrusion width = 0.40mm
; top infill extrusion width = 0.40mm
; first layer extrusion width = 0.50mm

; external perimeters extrusion width = 0.40mm
; perimeters extrusion width = 0.45mm
; infill extrusion width = 0.45mm
; solid infill extrusion width = 0.40mm
; top infill extrusion width = 0.40mm
; first layer extrusion width = 0.50mm

; external perimeters extrusion width = 0.40mm
; perimeters extrusion width = 0.45mm
; infill extrusion width = 0.45mm
; solid infill extrusion width = 0.40mm
; top infill extrusion width = 0.40mm
; first layer extrusion width = 0.50mm

; external perimeters extrusion width = 0.40mm
; perimeters extrusion width = 0.45mm
; infill extrusion width = 0.45mm
; solid infill extrusion width = 0.40mm
; top infill extrusion width = 0.40mm
; first layer extrusion width = 0.50mm

; external perimeters extrusion width = 0.40mm
; perimeters extrusion width = 0.45mm
; infill extrusion width = 0.45mm
; solid infill extrusion width = 0.40mm
; top infill extrusion width = 0.40mm
; first layer extrusion width = 0.50mm

; EXECUTABLE_BLOCK_START
EXCLUDE_OBJECT_DEFINE NAME=Under_duct_scalable_brace_spacer.stl_id_0_copy_0 CENTER=65,69.3285 POLYGON=[[62.5,69.3285],[62.5033,69.1998],[62.5133,69.0715],[62.5298,68.9438],[62.5529,68.8172],[62.5824,68.6919],[62.6184,68.5683],[62.6607,68.4467],[62.7092,68.3274],[62.7638,68.2108],[62.8243,68.0972],[62.8906,67.9868],[62.9624,67.88],[63.0397,67.777],[63.1222,67.6782],[63.2096,67.5837],[63.3018,67.4938],[63.3985,67.4088],[63.4995,67.329],[63.6044,67.2544],[63.713,67.1853],[63.8251,67.1218],[63.9402,67.0643],[64.0582,67.0127],[64.1786,66.9673],[64.3013,66.9282],[64.4258,66.8954],[64.5518,66.8691],[64.679,66.8492],[64.8071,66.836],[64.9356,66.8294],[65.0644,66.8294],[65.1929,66.836],[65.321,66.8492],[65.4482,66.8691],[65.5742,66.8954],[65.6987,66.9282],[65.8214,66.9673],[65.9418,67.0127],[66.0598,67.0643],[66.1749,67.1218],[66.287,67.1853],[66.3956,67.2544],[66.5005,67.329],[66.6015,67.4088],[66.6982,67.4938],[66.7904,67.5837],[66.8778,67.6782],[66.9603,67.777],[67.0376,67.88],[67.1094,67.9868],[67.1757,68.0972],[67.2362,68.2108],[67.2908,68.3274],[67.3393,68.4467],[67.3816,68.5683],[67.4176,68.6919],[67.4471,68.8172],[67.4702,68.9438],[67.4868,69.0715],[67.4967,69.1998],[67.5,69.3285],[67.4967,69.4572],[67.4868,69.5856],[67.4702,69.7133],[67.4471,69.8399],[67.4176,69.9652],[67.3816,70.0888],[67.3393,70.2104],[67.2908,70.3297],[67.2362,70.4463],[67.1757,70.5599],[67.1094,70.6703],[67.0376,70.7771],[66.9603,70.8801],[66.8778,70.9789],[66.7904,71.0734],[66.6982,71.1633],[66.6015,71.2482],[66.5005,71.3281],[66.3956,71.4027],[66.287,71.4718],[66.1749,71.5353],[66.0598,71.5928],[65.9418,71.6444],[65.8214,71.6898],[65.6987,71.7289],[65.5742,71.7617],[65.4482,71.788],[65.321,71.8078],[65.1929,71.8211],[65.0644,71.8277],[64.9356,71.8277],[64.8071,71.8211],[64.679,71.8078],[64.5518,71.788],[64.4258,71.7617],[64.3013,71.7289],[64.1786,71.6898],[64.0582,71.6444],[63.9402,71.5928],[63.8251,71.5353],[63.713,71.4718],[63.6044,71.4027],[63.4995,71.3281],[63.3985,71.2482],[63.3018,71.1633],[63.2096,71.0734],[63.1222,70.9789],[63.0397,70.8801],[62.9624,70.7771],[62.8906,70.6703],[62.8243,70.5599],[62.7638,70.4463],[62.7092,70.3297],[62.6607,70.2104],[62.6184,70.0888],[62.5824,69.9652],[62.5529,69.8399],[62.5298,69.7133],[62.5133,69.5856],[62.5033,69.4572],[62.5,69.3285]]
EXCLUDE_OBJECT_DEFINE NAME=Under_duct_scalable_brace_spacer.stl_id_1_copy_0 CENTER=55,69.3286 POLYGON=[[52.5,69.3286],[52.5033,69.1999],[52.5132,69.0715],[52.5298,68.9438],[52.5529,68.8172],[52.5824,68.6919],[52.6184,68.5683],[52.6607,68.4467],[52.7092,68.3274],[52.7638,68.2108],[52.8243,68.0972],[52.8906,67.9868],[52.9624,67.88],[53.0397,67.777],[53.1222,67.6782],[53.2096,67.5837],[53.3018,67.4938],[53.3985,67.4089],[53.4995,67.329],[53.6044,67.2544],[53.713,67.1853],[53.8251,67.1219],[53.9402,67.0643],[54.0582,67.0128],[54.1786,66.9673],[54.3013,66.9282],[54.4258,66.8954],[54.5518,66.8691],[54.679,66.8493],[54.8071,66.836],[54.9356,66.8294],[55.0644,66.8294],[55.1929,66.836],[55.321,66.8493],[55.4482,66.8691],[55.5742,66.8954],[55.6987,66.9282],[55.8214,66.9673],[55.9418,67.0128],[56.0598,67.0643],[56.1749,67.1219],[56.287,67.1853],[56.3956,67.2544],[56.5005,67.329],[56.6015,67.4089],[56.6982,67.4938],[56.7904,67.5837],[56.8778,67.6782],[56.9603,67.777],[57.0376,67.88],[57.1094,67.9868],[57.1757,68.0972],[57.2362,68.2108],[57.2908,68.3274],[57.3393,68.4467],[57.3816,68.5683],[57.4176,68.6919],[57.4471,68.8172],[57.4702,68.9438],[57.4867,69.0715],[57.4967,69.1999],[57.5,69.3286],[57.4967,69.4573],[57.4867,69.5856],[57.4702,69.7133],[57.4471,69.8399],[57.4176,69.9652],[57.3816,70.0888],[57.3393,70.2104],[57.2908,70.3297],[57.2362,70.4463],[57.1757,70.5599],[57.1094,70.6703],[57.0376,70.7771],[56.9603,70.8801],[56.8778,70.9789],[56.7904,71.0734],[56.6982,71.1633],[56.6015,71.2483],[56.5005,71.3282],[56.3956,71.4028],[56.287,71.4718],[56.1749,71.5353],[56.0598,71.5928],[55.9418,71.6444],[55.8214,71.6898],[55.6987,71.7289],[55.5742,71.7617],[55.4482,71.7881],[55.321,71.8079],[55.1929,71.8211],[55.0644,71.8277],[54.9356,71.8277],[54.8071,71.8211],[54.679,71.8079],[54.5518,71.7881],[54.4258,71.7617],[54.3013,71.7289],[54.1786,71.6898],[54.0582,71.6444],[53.9402,71.5928],[53.8251,71.5353],[53.713,71.4718],[53.6044,71.4028],[53.4995,71.3282],[53.3985,71.2483],[53.3018,71.1633],[53.2096,71.0734],[53.1222,70.9789],[53.0397,70.8801],[52.9624,70.7771],[52.8906,70.6703],[52.8243,70.5599],[52.7638,70.4463],[52.7092,70.3297],[52.6607,70.2104],[52.6184,70.0888],[52.5824,69.9652],[52.5529,69.8399],[52.5298,69.7133],[52.5132,69.5856],[52.5033,69.4573],[52.5,69.3286]]
EXCLUDE_OBJECT_DEFINE NAME=Under_duct_scalable_brace_spacer.stl_id_2_copy_0 CENTER=55,59.3302 POLYGON=[[52.5,59.3302],[52.5033,59.2015],[52.5132,59.0732],[52.5298,58.9455],[52.5529,58.8188],[52.5824,58.6935],[52.6184,58.5699],[52.6607,58.4483],[52.7092,58.3291],[52.7638,58.2125],[52.8243,58.0988],[52.8906,57.9885],[52.9624,57.8817],[53.0397,57.7787],[53.1222,57.6798],[53.2096,57.5854],[53.3018,57.4955],[53.3985,57.4105],[53.4995,57.3306],[53.6044,57.256],[53.713,57.1869],[53.8251,57.1235],[53.9402,57.066],[54.0582,57.0144],[54.1786,56.969],[54.3013,56.9298],[54.4258,56.8971],[54.5518,56.8707],[54.679,56.8509],[54.8071,56.8377],[54.9356,56.8311],[55.0644,56.8311],[55.1929,56.8377],[55.321,56.8509],[55.4482,56.8707],[55.5742,56.8971],[55.6987,56.9298],[55.8214,56.969],[55.9418,57.0144],[56.0598,57.066],[56.1749,57.1235],[56.287,57.1869],[56.3956,57.256],[56.5005,57.3306],[56.6015,57.4105],[56.6982,57.4955],[56.7904,57.5854],[56.8778,57.6798],[56.9603,57.7787],[57.0376,57.8817],[57.1094,57.9885],[57.1757,58.0988],[57.2362,58.2125],[57.2908,58.3291],[57.3393,58.4483],[57.3816,58.5699],[57.4176,58.6935],[57.4471,58.8188],[57.4702,58.9455],[57.4867,59.0732],[57.4967,59.2015],[57.5,59.3302],[57.4967,59.4589],[57.4867,59.5873],[57.4702,59.7149],[57.4471,59.8416],[57.4176,59.9669],[57.3816,60.0905],[57.3393,60.2121],[57.2908,60.3314],[57.2362,60.448],[57.1757,60.5616],[57.1094,60.672],[57.0376,60.7788],[56.9603,60.8817],[56.8778,60.9806],[56.7904,61.0751],[56.6982,61.1649],[56.6015,61.2499],[56.5005,61.3298],[56.3956,61.4044],[56.287,61.4735],[56.1749,61.5369],[56.0598,61.5945],[55.9418,61.646],[55.8214,61.6915],[55.6987,61.7306],[55.5742,61.7634],[55.4482,61.7897],[55.321,61.8095],[55.1929,61.8228],[55.0644,61.8294],[54.9356,61.8294],[54.8071,61.8228],[54.679,61.8095],[54.5518,61.7897],[54.4258,61.7634],[54.3013,61.7306],[54.1786,61.6915],[54.0582,61.646],[53.9402,61.5945],[53.8251,61.5369],[53.713,61.4735],[53.6044,61.4044],[53.4995,61.3298],[53.3985,61.2499],[53.3018,61.1649],[53.2096,61.0751],[53.1222,60.9806],[53.0397,60.8817],[52.9624,60.7788],[52.8906,60.672],[52.8243,60.5616],[52.7638,60.448],[52.7092,60.3314],[52.6607,60.2121],[52.6184,60.0905],[52.5824,59.9669],[52.5529,59.8416],[52.5298,59.7149],[52.5132,59.5873],[52.5033,59.4589],[52.5,59.3302]]
EXCLUDE_OBJECT_DEFINE NAME=Under_duct_scalable_brace_spacer.stl_id_3_copy_0 CENTER=65,59.3302 POLYGON=[[62.5,59.3302],[62.5033,59.2015],[62.5132,59.0732],[62.5298,58.9455],[62.5529,58.8188],[62.5824,58.6935],[62.6184,58.5699],[62.6607,58.4483],[62.7092,58.3291],[62.7638,58.2125],[62.8243,58.0988],[62.8906,57.9885],[62.9624,57.8817],[63.0397,57.7787],[63.1222,57.6798],[63.2096,57.5853],[63.3018,57.4955],[63.3985,57.4105],[63.4995,57.3306],[63.6044,57.256],[63.713,57.1869],[63.8251,57.1235],[63.9402,57.066],[64.0582,57.0144],[64.1786,56.969],[64.3013,56.9298],[64.4258,56.8971],[64.5518,56.8707],[64.679,56.8509],[64.8071,56.8377],[64.9356,56.831],[65.0644,56.831],[65.1929,56.8377],[65.321,56.8509],[65.4482,56.8707],[65.5742,56.8971],[65.6987,56.9298],[65.8214,56.969],[65.9418,57.0144],[66.0598,57.066],[66.1749,57.1235],[66.287,57.1869],[66.3956,57.256],[66.5005,57.3306],[66.6015,57.4105],[66.6982,57.4955],[66.7904,57.5853],[66.8778,57.6798],[66.9603,57.7787],[67.0376,57.8817],[67.1094,57.9885],[67.1757,58.0988],[67.2362,58.2125],[67.2908,58.3291],[67.3393,58.4483],[67.3816,58.5699],[67.4176,58.6935],[67.4471,58.8188],[67.4702,58.9455],[67.4867,59.0732],[67.4967,59.2015],[67.5,59.3302],[67.4967,59.4589],[67.4867,59.5873],[67.4702,59.7149],[67.4471,59.8416],[67.4176,59.9669],[67.3816,60.0905],[67.3393,60.2121],[67.2908,60.3313],[67.2362,60.4479],[67.1757,60.5616],[67.1094,60.672],[67.0376,60.7788],[66.9603,60.8817],[66.8778,60.9806],[66.7904,61.0751],[66.6982,61.1649],[66.6015,61.2499],[66.5005,61.3298],[66.3956,61.4044],[66.287,61.4735],[66.1749,61.5369],[66.0598,61.5945],[65.9418,61.646],[65.8214,61.6914],[65.6987,61.7306],[65.5742,61.7634],[65.4482,61.7897],[65.321,61.8095],[65.1929,61.8228],[65.0644,61.8294],[64.9356,61.8294],[64.8071,61.8228],[64.679,61.8095],[64.5518,61.7897],[64.4258,61.7634],[64.3013,61.7306],[64.1786,61.6914],[64.0582,61.646],[63.9402,61.5945],[63.8251,61.5369],[63.713,61.4735],[63.6044,61.4044],[63.4995,61.3298],[63.3985,61.2499],[63.3018,61.1649],[63.2096,61.0751],[63.1222,60.9806],[63.0397,60.8817],[62.9624,60.7788],[62.8906,60.672],[62.8243,60.5616],[62.7638,60.4479],[62.7092,60.3313],[62.6607,60.2121],[62.6184,60.0905],[62.5824,59.9669],[62.5529,59.8416],[62.5298,59.7149],[62.5132,59.5873],[62.5033,59.4589],[62.5,59.3302]]
EXCLUDE_OBJECT_DEFINE NAME=Under_duct_scalable_brace_spacer.stl_id_4_copy_0 CENTER=60,50.6714 POLYGON=[[57.5,50.6714],[57.5033,50.5427],[57.5132,50.4144],[57.5298,50.2867],[57.5529,50.1601],[57.5824,50.0348],[57.6184,49.9112],[57.6607,49.7896],[57.7092,49.6703],[57.7638,49.5537],[57.8243,49.4401],[57.8906,49.3297],[57.9624,49.2229],[58.0397,49.1199],[58.1222,49.0211],[58.2096,48.9266],[58.3018,48.8367],[58.3985,48.7517],[58.4995,48.6718],[58.6044,48.5972],[58.713,48.5282],[58.825,48.4647],[58.9402,48.4072],[59.0582,48.3556],[59.1786,48.3102],[59.3013,48.2711],[59.4258,48.2383],[59.5518,48.2119],[59.679,48.1921],[59.8071,48.1789],[59.9356,48.1723],[60.0644,48.1723],[60.1929,48.1789],[60.321,48.1921],[60.4482,48.2119],[60.5742,48.2383],[60.6987,48.2711],[60.8213,48.3102],[60.9418,48.3556],[61.0598,48.4072],[61.1749,48.4647],[61.287,48.5282],[61.3956,48.5972],[61.5005,48.6718],[61.6015,48.7517],[61.6982,48.8367],[61.7904,48.9266],[61.8778,49.0211],[61.9603,49.1199],[62.0376,49.2229],[62.1094,49.3297],[62.1757,49.4401],[62.2362,49.5537],[62.2908,49.6703],[62.3393,49.7896],[62.3816,49.9112],[62.4176,50.0348],[62.4471,50.1601],[62.4702,50.2867],[62.4867,50.4144],[62.4967,50.5427],[62.5,50.6714],[62.4967,50.8001],[62.4867,50.9285],[62.4702,51.0562],[62.4471,51.1828],[62.4176,51.3081],[62.3816,51.4317],[62.3393,51.5533],[62.2908,51.6726],[62.2362,51.7892],[62.1757,51.9028],[62.1094,52.0132],[62.0376,52.12],[61.9603,52.223],[61.8778,52.3218],[61.7904,52.4163],[61.6982,52.5062],[61.6015,52.5911],[61.5005,52.671],[61.3956,52.7456],[61.287,52.8147],[61.1749,52.8781],[61.0598,52.9357],[60.9418,52.9872],[60.8213,53.0327],[60.6987,53.0718],[60.5742,53.1046],[60.4482,53.1309],[60.321,53.1507],[60.1929,53.164],[60.0644,53.1706],[59.9356,53.1706],[59.8071,53.164],[59.679,53.1507],[59.5518,53.1309],[59.4258,53.1046],[59.3013,53.0718],[59.1786,53.0327],[59.0582,52.9872],[58.9402,52.9357],[58.825,52.8781],[58.713,52.8147],[58.6044,52.7456],[58.4995,52.671],[58.3985,52.5911],[58.3018,52.5062],[58.2096,52.4163],[58.1222,52.3218],[58.0397,52.223],[57.9624,52.12],[57.8906,52.0132],[57.8243,51.9028],[57.7638,51.7892],[57.7092,51.6726],[57.6607,51.5533],[57.6184,51.4317],[57.5824,51.3081],[57.5529,51.1828],[57.5298,51.0562],[57.5132,50.9285],[57.5033,50.8001],[57.5,50.6714]]
M73 P0 R7
;TYPE:Custom
START_PRINT T_BED=110 T_EXTRUDER=260
G90
G21
M83 ; use relative distances for extrusion
; Filament gcode

    PRESSURE_ADVANCE_SELECT FILAMENT=ABS
M106 S0
;LAYER_CHANGE
;Z:0.2
;HEIGHT:0.2
;BEFORE_LAYER_CHANGE
;0.2
G92 E0

;AFTER_LAYER_CHANGE
;0.2
SET_VELOCITY_LIMIT ACCEL_TO_DECEL=500
M204 S1000
G1 E-.5 F3000
G1 Z.2 F21000
G1 X55.802 Y47.253
G1 E.5 F1800
;TYPE:Skirt
;WIDTH:0.5
G1 F3000
G1 X56.691 Y46.387 E.04369
G1 X57.773 Y45.737 E.04444
G1 X58.956 Y45.359 E.04368
G1 X60.073 Y45.258 E.03947
G1 X61.316 Y45.42 E.04413
G1 X62.363 Y45.8 E.03919
G1 X63.41 Y46.467 E.04369
G1 X64.198 Y47.253 E.03919
G1 X64.699 Y47.983 E.03115
G1 X69.699 Y56.642 E.35189
G1 X70.039 Y57.351 E.02766
G1 X70.314 Y58.296 E.03467
G1 X70.413 Y59.255 E.03392
G1 X70.414 Y69.329 E.35452
G1 X70.283 Y70.509 E.04181
G1 X70.092 Y71.168 E.02415
G1 X69.748 Y71.929 E.0294
G1 X68.929 Y73.053 E.04893
G1 X68.41 Y73.533 E.02489
G1 X67.722 Y74.008 E.0294
G1 X67.109 Y74.315 E.02415
G1 X66.316 Y74.58 E.0294
G1 X65.064 Y74.742 E.04443
G1 X54.936 Y74.742 E.35647
G1 X53.83 Y74.614 E.03918
G1 X53.15 Y74.417 E.02489
G1 X52.39 Y74.071 E.0294
G1 X51.264 Y73.247 E.04911
G1 X50.709 Y72.629 E.02922
G1 X50.326 Y72.06 E.02414
G1 X50.01 Y71.427 E.02489
G1 X49.746 Y70.635 E.02941
G1 X49.586 Y69.329 E.04631
G1 X49.586 Y59.33 E.35188
G1 X49.717 Y58.15 E.04181
G1 X49.963 Y57.346 E.02958
G1 X50.301 Y56.642 E.02749
G1 X55.301 Y47.983 E.35189
G1 X55.768 Y47.303 E.02904
G1 X56.096 Y47.623 F21000
G1 F3000
G1 X56.874 Y46.825 E.0392
G1 X57.842 Y46.209 E.04038
G1 X58.923 Y45.833 E.0403
G1 X60.072 Y45.715 E.04064
G1 X61.2 Y45.862 E.04003
G1 X62.158 Y46.209 E.03588
G1 X63.126 Y46.825 E.04038
G1 X63.847 Y47.546 E.03588
G1 X64.304 Y48.211 E.0284
G1 X69.304 Y56.87 E.35189
G1 X69.615 Y57.523 E.02545
G1 X69.864 Y58.378 E.03136
G1 X69.956 Y59.267 E.03144
G1 X69.957 Y69.329 E.35411
G1 X69.839 Y70.404 E.03809
G1 X69.345 Y71.715 E.04929
G1 X68.594 Y72.742 E.0448
G1 X67.497 Y73.61 E.04921
G1 X66.2 Y74.138 E.04929
G1 X65.064 Y74.285 E.0403
G1 X54.936 Y74.285 E.35647
G1 X53.923 Y74.167 E.03588
G1 X52.615 Y73.674 E.04921
G1 X51.584 Y72.92 E.04495
G1 X50.718 Y71.825 E.04913
G1 X50.191 Y70.53 E.04921
G1 X50.043 Y69.329 E.04259
G1 X50.043 Y59.33 E.35188
G1 X50.161 Y58.255 E.03809
G1 X50.386 Y57.519 E.02707
G1 X50.696 Y56.87 E.02531
G1 X56.06 Y47.67 E.3748
; printing object Under duct scalable brace spacer.stl id:1 copy 0
EXCLUDE_OBJECT_START NAME=Under_duct_scalable_brace_spacer.stl_id_1_copy_0
G1 E-.5
G1 Z.4 F21000
G1 X56.882 Y69.56
G1 Z.2
G1 E.5 F1800
;TYPE:Outer wall
G1 F3000
G1 X56.877 Y69.629 E.00243
M73 P1 R7
G1 X56.786 Y69.979 E.01272
G1 X56.631 Y70.305 E.01272
G1 X56.417 Y70.596 E.01272
G1 X56.151 Y70.841 E.01272
G1 X55.844 Y71.032 E.01272
G1 X55.507 Y71.161 E.01272
G1 X55.151 Y71.224 E.01272
G1 X54.789 Y71.218 E.01272
G1 X54.436 Y71.144 E.01272
G1 X54.107 Y71.007 E.01255
G1 X53.801 Y70.804 E.01288
G1 X53.544 Y70.551 E.01273
G1 X53.341 Y70.256 E.01258
G1 X53.236 Y70.035 E.00862
G1 X53.159 Y69.802 E.00862
G1 X53.103 Y69.453 E.01244
G1 X53.103 Y69.208 E.00862
G1 X53.134 Y68.965 E.00862
G1 X53.235 Y68.622 E.01258
G1 X53.401 Y68.301 E.01272
G1 X53.624 Y68.017 E.01272
