; HEADER_BLOCK_START
; generated by OrcaSlicer 1.6.3 on 2023-07-20 at 08:43:26
; total layer number: 31
; HEADER_BLOCK_END

; THUMBNAIL_BLOCK_START
; THUMBNAIL_BLOCK_END

; external perimeters extrusion width = 0.40mm
; perimeters extrusion width = 0.45mm
; infill extrusion width = 0.45mm
; solid infill extrusion width = 0.40mm
; top infill extrusion width = 0.40mm
; support material extrusion width = 0.40mm
; first layer extrusion width = 0.50mm

; EXECUTABLE_BLOCK_START
EXCLUDE_OBJECT_DEFINE NAME=Universal_hotend_mounting_plate.stl_id_0_copy_0 CENTER=59.9998,60 POLYGON=[[39.3832,55.1531],[39.3933,54.9219],[39.4211,54.6921],[39.4665,54.4652],[39.5294,54.2424],[39.6092,54.0252],[39.7055,53.8147],[39.8177,53.6123],[39.9453,53.4192],[40.1298,53.1776],[40.3288,52.9478],[40.5413,52.7304],[40.7666,52.5264],[41.0039,52.3364],[41.2524,52.1612],[41.511,52.0014],[41.7788,51.8576],[42.0549,51.7304],[42.3382,51.6202],[42.6277,51.5274],[42.9223,51.4524],[43.2209,51.3954],[55.1975,49.6916],[55.4243,49.6707],[55.6521,49.667],[64.3648,49.667],[64.5926,49.6707],[64.8194,49.6916],[76.6291,51.3716],[76.9148,51.4158],[77.1975,51.4764],[77.4763,51.5533],[77.7501,51.6461],[78.0181,51.7546],[78.2794,51.8784],[78.533,52.0171],[78.7783,52.1703],[79.0143,52.3373],[79.2402,52.5177],[79.4553,52.7109],[79.6589,52.9162],[79.8503,53.1329],[80.0288,53.3603],[80.1601,53.5531],[80.276,53.7555],[80.3758,53.9662],[80.4589,54.1841],[80.5249,54.4078],[80.5733,54.6359],[80.6038,54.8671],[80.6163,55.1],[80.6106,55.3331],[80.5869,55.5651],[80.5452,55.7946],[80.4858,56.0201],[80.4091,56.2403],[80.3155,56.4539],[80.2056,56.6596],[80.0801,56.8561],[79.9396,57.0423],[79.7852,57.217],[76.8636,60.3532],[76.7073,60.5155],[76.5394,60.6655],[76.3606,60.8026],[66.578,68.1558],[66.3134,68.3467],[66.2199,68.4114],[65.9415,68.5958],[65.8518,68.6526],[65.5598,68.8294],[65.4745,68.8788],[65.1689,69.0474],[65.0883,69.0898],[64.7694,69.2493],[64.6941,69.2851],[64.3621,69.4348],[64.2923,69.4645],[63.9475,69.6035],[63.8837,69.6278],[63.5264,69.7553],[63.4689,69.7745],[63.0995,69.8897],[63.0486,69.9045],[62.6675,70.0067],[62.6234,70.0177],[62.2311,70.1061],[62.194,70.1137],[61.791,70.1876],[61.7611,70.1925],[61.348,70.2511],[61.3254,70.2539],[60.9027,70.2966],[60.8876,70.2978],[60.456,70.3239],[60.4484,70.3242],[60.0085,70.333],[59.5686,70.3242],[59.561,70.3239],[59.1294,70.2978],[59.1142,70.2966],[58.6916,70.2539],[58.669,70.2511],[58.2559,70.1925],[58.2259,70.1876],[57.823,70.1137],[57.7858,70.1061],[57.3936,70.0177],[57.3494,70.0067],[56.9684,69.9045],[56.9174,69.8897],[56.548,69.7745],[56.4905,69.7553],[56.1332,69.6278],[56.0694,69.6035],[55.7246,69.4645],[55.6549,69.4348],[55.3229,69.2851],[55.2475,69.2493],[54.9286,69.0898],[54.8481,69.0474],[54.5425,68.8788],[54.4572,68.8294],[54.1651,68.6526],[54.0754,68.5958],[53.7971,68.4114],[53.7035,68.3467],[53.439,68.1558],[43.6432,60.8067],[43.4648,60.6707],[43.2971,60.5217],[43.141,60.3607],[40.223,57.2492],[40.069,57.0765],[39.9287,56.8924],[39.803,56.698],[39.6927,56.4946],[39.5984,56.2832],[39.5207,56.0652],[39.46,55.8418],[39.4167,55.6145],[39.391,55.3844],[39.3832,55.1531]]
M73 P0 R9
;TYPE:Custom
START_PRINT T_BED=110 T_EXTRUDER=260
G90
G21
M83 ; use relative distances for extrusion
; Filament gcode

    PRESSURE_ADVANCE_SELECT FILAMENT=ABS
M106 S0
;LAYER_CHANGE
;Z:0.2
;HEIGHT:0.2
;BEFORE_LAYER_CHANGE
;0.2
G92 E0

;AFTER_LAYER_CHANGE
;0.2
SET_VELOCITY_LIMIT ACCEL_TO_DECEL=500
M204 S1000
G1 E-.5 F3000
G1 Z.2 F21000
G1 X39.183 Y50.061
G1 E.5 F1800
;TYPE:Skirt
;WIDTH:0.5
G1 F3000
G1 X39.979 Y49.522 E.03385
G1 X40.835 Y49.084 E.03385
G1 X42.376 Y48.59 E.05694
G1 X55.157 Y46.769 E.45434
G1 X64.369 Y46.753 E.32423
G1 X65.23 Y46.807 E.03034
G1 X77.36 Y48.536 E.43122
G1 X78.686 Y48.886 E.04826
G1 X80.077 Y49.545 E.05417
G1 X81.187 Y50.349 E.04826
G1 X82.035 Y51.204 E.04235
G1 X82.689 Y52.105 E.03919
G1 X83.182 Y53.145 E.0405
G1 X83.493 Y54.486 E.04843
G1 X83.51 Y55.63 E.04027
G1 X83.304 Y56.762 E.04051
G1 X82.884 Y57.831 E.04043
G1 X82.232 Y58.841 E.04228
G1 X70.005 Y74.478 E.69859
G1 X69.158 Y75.339 E.04249
G1 X68.109 Y76.023 E.04409
G1 X67.101 Y76.415 E.03806
G1 X66.035 Y76.607 E.03813
G1 X59.388 Y76.654 E.23393
G1 X58.266 Y76.415 E.04037
G1 X51.785 Y74.34 E.2395
G1 X51.028 Y74.033 E.02874
G1 X49.981 Y73.369 E.04367
G1 X49.213 Y72.625 E.0376
G1 X37.482 Y58.475 E.64691
G1 X37.131 Y57.884 E.02419
G1 X36.776 Y57.044 E.03209
G1 X36.495 Y55.707 E.04807
G1 X36.482 Y54.796 E.03209
G1 X36.564 Y54.12 E.02396
G1 X36.725 Y53.451 E.02419
G1 X37.056 Y52.602 E.03209
G1 X37.928 Y51.268 E.0561
G1 X39.14 Y50.103 E.05915
G1 X39.455 Y50.431 F21000
G1 F3000
G1 X39.468 Y50.418 E.00065
G1 X40.22 Y49.911 E.03189
G1 X41.027 Y49.499 E.03189
G1 X42.462 Y49.039 E.05304
G1 X55.199 Y47.224 E.45279
G1 X64.369 Y47.21 E.32276
G1 X65.166 Y47.259 E.02807
G1 X77.29 Y48.988 E.43103
G1 X78.539 Y49.319 E.04547
G1 X79.712 Y49.861 E.04547
G1 X80.773 Y50.598 E.04547
G1 X81.692 Y51.506 E.04547
G1 X82.292 Y52.332 E.03593
G1 X82.755 Y53.308 E.03801
G1 X83.04 Y54.545 E.04469
G1 X83.055 Y55.583 E.03653
G1 X82.862 Y56.646 E.03801
G1 X82.48 Y57.616 E.03669
G1 X81.872 Y58.559 E.0395
G1 X69.645 Y74.196 E.69859
G1 X68.874 Y74.981 E.03874
G1 X67.897 Y75.618 E.04103
G1 X66.97 Y75.977 E.03497
G1 X65.991 Y76.152 E.03503
G1 X59.431 Y76.199 E.23086
G1 X58.406 Y75.98 E.03691
G1 X51.236 Y73.626 E.26558
G1 X50.261 Y73.007 E.04064
G1 X49.556 Y72.323 E.03457
G1 X37.865 Y58.227 E.64452
G1 X37.533 Y57.666 E.02295
G1 X37.206 Y56.89 E.02961
G1 X36.949 Y55.657 E.04436
G1 X37.012 Y54.21 E.05097
G1 X37.165 Y53.576 E.02295
G1 X37.471 Y52.792 E.02961
G1 X38.274 Y51.568 E.05153
G1 X39.412 Y50.473 E.05559
; printing object Universal hotend mounting plate.stl id:0 copy 0
EXCLUDE_OBJECT_START NAME=Universal_hotend_mounting_plate.stl_id_0_copy_0
G1 E-.5
G1 Z.4 F21000
G1 X51.523 Y67.038
M73 P1 R9
G1 Z.2
G1 E.5 F1800
;TYPE:Support
G1 F3000
G1 X52.769 Y68.473 E.0669
G1 X56.256 Y68.515 E.12272
G3 X51.482 Y67.082 I-2.728 J.42 E.39147
G1 X51.533 Y67.747 F21000
G1 F3000
G1 X52.489 Y68.848 E.05134
G1 X52.76 Y68.972 E.01049
G1 X55.838 Y68.972 E.10834
G3 X51.503 Y67.798 I-2.313 J-.049 E.29546
G1 X51.923 Y68.894 F21000
G1 F3000
G1 X52.209 Y69.223 E.01532
G1 X52.661 Y69.429 E.01748
G1 X55.327 Y69.429 E.09384
G3 X51.678 Y68.999 I-1.791 J-.503 E.18513
G1 X51.868 Y68.918 E.00728
G1 X52.953 Y69.886 F21000
G1 F3000
G1 X54.102 Y69.886 E.04046
G1 X54.155 Y70.189 E.01082
G3 X52.9 Y70.189 I-.628 J-1.374 E.04556
G1 X52.942 Y69.945 E.00871
G1 E-.5
G1 Z.4 F21000
G1 X55.491 Y67.576
G1 X56.332 Y67.381
G1 X56.822 Y67.286
G1 X63.194 Y67.286
G1 X63.685 Y67.381
G1 X64.526 Y67.576
G1 X64.09 Y68.933
G1 X63.12 Y70.336
G1 X59.551 Y70.8
G1 Z.2
G1 E.5 F1800
G1 F3000
G1 X60.435 Y70.8 E.0311
G1 X60.52 Y70.997 E.00755
G3 X59.533 Y70.853 I-.502 J-.01 E.05999
G1 X59.133 Y70.777 F21000
G1 F3000
G1 X59.164 Y70.615 E.00579
G3 X59.356 Y70.343 I.93 J.45 E.01178
G1 X60.661 Y70.343 E.04594
G1 X60.727 Y70.418 E.00353
G3 X61.011 Y70.981 I-1.355 J1.035 E.02232
G3 X59.107 Y71.068 I-.955 J-.022 E.10102
G1 X59.128 Y70.837 E.00817
G1 X58.692 Y70.725 F21000
G1 F3000
G1 X58.792 Y70.344 E.01386
G3 X59.194 Y69.886 I1.224 J.669 E.02163
G1 X60.823 Y69.886 E.05733
G1 X60.895 Y69.941 E.0032
G3 X61.502 Y70.966 I-1.375 J1.508 E.04254
G3 X59.191 Y72.138 I-1.523 J-.14 E.10877
G3 X58.621 Y71.013 I.824 J-1.125 E.04606
G1 X58.678 Y70.783 E.00833
G1 X58.213 Y70.679 F21000
G1 F3000
G1 X58.29 Y70.333 E.0125
G3 X59.054 Y69.429 I1.72 J.679 E.04238
G1 X60.963 Y69.429 E.0672
G1 X61.094 Y69.518 E.00559
G3 X61.994 Y70.95 I-1.561 J1.978 E.0607
G3 X60.008 Y72.86 I-2.199 J-.299 E.1046
G3 X58.165 Y70.897 I.002 J-1.849 E.10619
G1 X58.2 Y70.738 E.00573
G1 X65.018 Y70.8 F21000
G1 F3000
G1 X66.101 Y70.801 E.0381
G3 X65.158 Y71.131 I-.501 J.082 E.04985
G1 X65.041 Y70.855 E.01055
G1 X64.64 Y70.714 F21000
G1 F3000
G1 X64.717 Y70.495 E.00817
G1 X64.781 Y70.343 E.00582
G1 X66.566 Y70.343 E.0628
G1 X66.504 Y71.01 E.02358
G3 X64.742 Y71.322 I-.917 J-.048 E.08684
G3 X64.57 Y70.914 I.444 J-.427 E.01592
G1 X64.62 Y70.771 E.00533
G1 X64.193 Y70.617 F21000
G1 F3000
G1 X64.325 Y70.245 E.01391
G3 X64.555 Y69.886 I2.262 J1.194 E.01503
G1 X67.361 Y69.886 E.09876
G1 X66.995 Y70.667 E.03037
G3 X64.326 Y71.512 I-1.392 J.241 E.14274
G1 X64.081 Y70.929 E.02226
G1 X64.172 Y70.674 E.00954
G1 X63.751 Y70.516 F21000
G1 F3000
G1 X63.963 Y69.947 E.02139
G3 X64.365 Y69.429 I2.429 J1.473 E.02313
G1 X67.356 Y69.429 E.10527
G2 X68.093 Y68.894 I-.4 J-1.326 E.03266
G1 X68.339 Y68.999 E.00939
G3 X67.613 Y70.426 I-1.983 J-.111 E.058
G2 X67.368 Y71.36 I2.533 J1.163 E.03416
G3 X63.91 Y71.702 I-1.784 J-.391 E.16152
G1 X63.591 Y70.944 E.02895
G1 X63.73 Y70.572 E.01396
G1 X63.3 Y70.406 F21000
G1 F3000
G1 X63.563 Y69.733 E.02543
G3 X64.127 Y68.972 I2.989 J1.623 E.03344
G1 X67.257 Y68.972 E.11017
G2 X67.647 Y68.711 I-.091 J-.558 E.01701
G1 X68.484 Y67.747 E.04497
G1 X68.633 Y68.089 E.01313
G3 X68.682 Y69.65 I-2.163 J.849 E.05605
G3 X67.89 Y70.91 I-8.095 J-4.203 E.05243
G3 X63.265 Y71.346 I-2.334 J-.01 E.24193
G1 X62.328 Y71.371 E.03297
G3 X58.934 Y68.972 I-2.291 J-.359 E.3315
G1 X61.083 Y68.972 E.07563
G3 X62.32 Y70.553 I-1.254 J2.255 E.07258
G1 X63.255 Y70.52 E.03295
G1 X63.278 Y70.462 E.00219
G1 X62.927 Y70.074 F21000
G1 F3000
G3 X63.736 Y68.727 I3.298 J1.063 E.05579
G3 X63.761 Y68.515 I1.7 J.092 E.00753
G1 X67.158 Y68.515 E.11954
G2 X67.302 Y68.412 I-.092 J-.281 E.00633
G1 X68.503 Y67.047 E.064
M73 P2 R9
G3 X68.618 Y70.698 I-2.019 J1.891 E.14044
G2 X68.255 Y71.582 I.824 J.855 E.0346
G3 X62.965 Y71.811 I-2.677 J-.625 E.2512
G1 X62.652 Y71.82 E.01099
G3 X58.83 Y68.515 I-2.642 J-.807 E.3864
G1 X61.187 Y68.515 E.08294
G3 X62.615 Y70.085 I-1.251 J2.573 E.07655
G1 X62.867 Y70.076 E.00887
G1 E-.5
G1 Z.4 F21000
G1 X62.877 Y70.344
G1 X63.12 Y70.336
G1 X64.09 Y68.933
G1 X64.526 Y67.576
G1 X63.685 Y67.381
G1 X63.194 Y67.286
G1 X52.046 Y66.525
G1 X49.73 Y60.98
G1 X49.485 Y61.031
G1 Z.2
G1 E.5 F1800
;TYPE:Outer wall
G1 F3000
G3 X45.132 Y60.994 I-1.194 J-114.387 E.15321
G3 X43.16 Y59.814 I.279 J-2.705 E.0835
G2 X40.78 Y57.277 I-5.925 J3.174 E.12385
G3 X40.401 Y53.399 I1.619 J-2.115 E.15381
G3 X43.838 Y51.686 I3.651 J3.022 E.13913
G1 X52.609 Y51.669 E.30868
G3 X54.473 Y50.262 I6.337 J6.457 E.08242
G3 X55.85 Y50.03 I1.122 J2.457 E.04971
G3 X57.83 Y51.256 I-.303 J2.702 E.08471
G2 X60.119 Y52.681 I2.222 J-1.019 E.10053
G2 X62.187 Y51.256 I-.163 J-2.449 E.09277
G3 X65.899 Y50.46 I2.245 J1.417 E.14883
G3 X67.378 Y51.64 I-6.381 J9.519 E.06666
G3 X76.318 Y51.693 I1.162 J549.829 E.31465
G3 X79.965 Y53.918 I-.298 J4.592 E.15636
G3 X79.226 Y57.249 I-2.382 J1.219 E.13021
G2 X76.844 Y59.805 I3.561 J5.708 E.12441
G3 X74.661 Y61.005 I-2.226 J-1.465 E.0912
G3 X70.532 Y61.031 I-2.897 J-131.187 E.14533
G3 X66.798 Y67.536 I-10.679 J-1.806 E.26956
G1 X53.219 Y67.536 E.47789
G3 X49.495 Y61.09 I6.945 J-8.311 E.26745
G1 X49.478 Y60.951
G1 E-.5
G1 Z.4 F21000
G1 X49.742 Y61.038
G1 X53.952 Y61.233
G1 X54.178 Y61.227
G1 X54.405 Y61.192
G1 X54.617 Y61.134
G1 X54.826 Y61.049
G1 X57.342 Y59.747
G1 X57.32 Y59.586
G1 X57.308 Y59.333
G1 X57.32 Y59.08
G1 X57.355 Y58.829
G1 X57.414 Y58.583
G1 X57.496 Y58.343
G1 X57.599 Y58.113
G1 X57.724 Y57.892
G1 X57.869 Y57.685
G1 X58.033 Y57.492
G1 X58.214 Y57.315
G1 X58.411 Y57.155
G1 X58.622 Y57.015
G1 X58.845 Y56.896
G1 X59.078 Y56.798
G1 X59.32 Y56.722
G1 X59.567 Y56.669
G1 X59.819 Y56.639
G1 X60.063 Y56.633
G1 X73.898 Y56.952
G1 X74.137 Y56.873
G1 Z.2
G1 E.5 F1800
G1 F3000
G1 X74.124 Y56.847 E.00101
G3 X75.75 Y54.4 I1.88 J-.514 E.11709
G1 X75.949 Y54.384 E.00704
G3 X74.276 Y57.233 I.056 J1.949 E.2923
G1 X74.159 Y56.929 E.01149
G1 X74.131 Y56.872
G1 E-.5
G1 Z.4 F21000
G1 X67.308 Y53.609
G1 Z.2
G1 E.5 F1800
G1 F3000
G1 X67.312 Y53.676 E.00237
G3 X65.519 Y52.032 I-1.65 J-.001 E.26848
G1 X65.709 Y52.026 E.00671
G3 X67.267 Y53.289 I-.046 J1.649 E.07584
G1 X67.3 Y53.549 E.00924
G1 X67.32 Y53.614
G1 E-.5
G1 Z.4 F21000
G1 X67.513 Y53.489
G1 X67.566 Y53.676
G1 X67.553 Y53.901
G1 X67.513 Y54.123
G1 X67.447 Y54.338
G1 X67.357 Y54.544
G1 X67.242 Y54.738
G1 X67.105 Y54.917
G1 X66.949 Y55.079
G1 X66.774 Y55.221
G1 X66.583 Y55.341
G1 X66.38 Y55.438
G1 X66.166 Y55.51
G1 X65.946 Y55.556
G1 X53.728 Y57.453
G1 X53.507 Y57.499
G1 X53.294 Y57.571
G1 X53.091 Y57.668
G1 X52.9 Y57.788
G1 X52.725 Y57.93
G1 X49.808 Y60.574
G1 Z.2
M73 P3 R9
G1 E.5 F1800
;TYPE:Inner wall
G1 F3000
G1 X47.025 Y60.573 E.09793
G3 X45.174 Y60.538 I1.446 J-124.992 E.06518
G3 X43.543 Y59.563 I.231 J-2.238 E.06903
G2 X42.863 Y58.499 I-10.895 J6.208 E.04444
G2 X43.689 Y58.72 I1.444 J-3.751 E.03013
G2 X41.752 Y57.168 I.32 J-2.385 E.44027
G1 X41.587 Y57.285 E.00713
G3 X40.927 Y56.806 I13.001 J-18.608 E.0287
G3 X40.756 Y53.688 I1.491 J-1.645 E.1219
G3 X43.854 Y52.143 I3.292 J2.724 E.12542
G1 X52.909 Y52.125 E.31871
G2 X56.46 Y53.676 I1.442 J1.539 E.29347
G2 X53.577 Y51.706 I-2.124 J.013 E.14426
G1 X53.476 Y51.506 E.00788
G3 X54.665 Y50.677 I4.535 J5.236 E.05109
G3 X55.805 Y50.485 I.928 J2.032 E.04114
G3 X57.443 Y51.5 I-.251 J2.235 E.07011
G2 X62.574 Y51.5 I2.565 J-1.194 E.22611
G3 X65.65 Y50.844 I1.858 J1.172 E.12337
G3 X66.55 Y51.518 I-8.458 J12.233 E.03958
G1 X66.438 Y51.716 E.00799
G2 X67.414 Y52.498 I-.771 J1.961 E.42125
G1 X67.108 Y52.097 E.01775
G3 X76.287 Y52.15 I1.39 J560.22 E.32305
G3 X79.56 Y54.129 I-.268 J4.138 E.13992
G3 X78.95 Y56.884 I-1.971 J1.008 E.10767
G1 X78.211 Y57.397 E.03165
G2 X78.417 Y56.333 I-3.234 J-1.177 E.0383
G2 X76.843 Y58.588 I-2.407 J-.002 E.42914
G1 X76.966 Y58.744 E.00697
G2 X76.46 Y59.556 I7.766 J5.401 E.03368
G3 X74.645 Y60.548 I-1.842 J-1.214 E.07575
G3 X70.161 Y60.574 I-3.069 J-142.473 E.15783
G3 X69.307 Y63.508 I-12.868 J-2.154 E.10778
G3 X67.83 Y65.869 I-9.489 J-4.293 E.0983
G1 X67.63 Y65.763 E.00797
G2 X64.722 Y66.873 I-1.961 J-.772 E.34268
G1 X64.669 Y67.079 E.00749
G1 X55.356 Y67.079 E.32775
G1 X55.299 Y66.881 E.00726
G2 X52.39 Y65.754 I-.942 J-1.886 E.34256
G1 X52.187 Y65.869 E.00822
G3 X50.076 Y61.621 I8.087 J-6.668 E.16842
G1 X49.859 Y60.586 E.03723
G1 X50.131 Y60.117 F21000
G1 F3000
G1 X47.029 Y60.116 E.10918
G3 X45.215 Y60.083 I1.628 J-136.829 E.06385
G3 X43.845 Y59.2 I.194 J-1.806 E.05946
G2 X41.179 Y55.877 I.163 J-2.862 E.46475
G1 X41.122 Y56.41 E.01886
G3 X40.653 Y55.293 I1.783 J-1.406 E.04316
G3 X41.263 Y53.8 I1.957 J-.071 E.0585
G3 X43.869 Y52.6 I2.754 J2.552 E.10361
G1 X52.024 Y52.584 E.28701
G2 X55.064 Y51.213 I2.322 J1.091 E.43945
G1 X55.073 Y51.008 E.00723
G3 X55.759 Y50.94 I.519 J1.76 E.02443
G3 X57.056 Y51.745 I-.199 J1.769 E.05551
G2 X62.961 Y51.745 I2.952 J-1.43 E.25852
G3 X64.939 Y51.006 I1.474 J.93 E.07984
G1 X64.941 Y51.218 E.00746
G2 X67.97 Y52.553 I.724 J2.46 E.44044
G3 X76.256 Y52.606 I.447 J574.693 E.29164
M73 P4 R9
G3 X79.155 Y54.341 I-.238 J3.685 E.12347
G3 X79.114 Y56.02 I-1.548 J.803 E.06168
G1 X78.909 Y56.342 E.01341
G2 X78.618 Y55.149 I-3.924 J.323 E.04338
G2 X75.628 Y59.174 I-2.608 J1.186 E.41855
G1 X76.163 Y59.216 E.0189
G3 X75.04 Y60.04 I-1.667 J-1.097 E.05007
G3 X74.63 Y60.091 I-.453 J-1.963 E.01459
G3 X69.79 Y60.117 I-3.241 J-153.759 E.17034
G3 X69.403 Y61.888 I-22.814 J-4.055 E.0638
G3 X68.219 Y64.582 I-9.958 J-2.767 E.10393
G2 X67.161 Y62.905 I-2.787 J.585 E.07129
G2 X63.676 Y66.622 I-1.493 J2.093 E.26003
G1 X56.363 Y66.622 E.25736
G2 X56.9 Y65.293 I-2.48 J-1.775 E.0509
G2 X51.809 Y64.603 I-2.552 J-.297 E.28065
G3 X50.521 Y61.518 I9.068 J-5.598 E.11814
G1 X50.227 Y60.117 E.05039
G1 X50.191 Y60.117 E.00127
G1 E-.5
G1 Z.4 F21000
G1 X53.508 Y61.167
G1 X53.733 Y61.214
G1 X53.952 Y61.233
G1 X54.178 Y61.227
G1 X54.405 Y61.192
G1 X54.617 Y61.134
G1 X54.826 Y61.049
G1 X55.023 Y60.941
G1 X55.206 Y60.809
G1 X57.32 Y59.08
G1 X57.355 Y58.829
G1 X57.414 Y58.583
G1 X57.496 Y58.343
G1 X57.599 Y58.113
G1 X57.724 Y57.892
G1 X57.869 Y57.685
G1 X58.033 Y57.492
G1 X58.214 Y57.315
G1 X58.411 Y57.155
G1 X58.622 Y57.015
G1 X58.845 Y56.896
G1 X59.078 Y56.798
G1 X59.32 Y56.722
G1 X59.567 Y56.669
G1 X59.819 Y56.639
G1 X60.063 Y56.633
G1 X72.823 Y57.273
G1 Z.2
G1 E.5 F1800
G1 F3000
G1 X72.917 Y57.542 E.01003
G2 X74.77 Y59.412 I3.091 J-1.209 E.09528
G1 X74.733 Y59.628 E.0077
G1 X74.614 Y59.634 E.0042
