; generated by SuperSlicer 2.5.59 on 2023-02-25 at 20:56:03 UTC


;
;

;
;
; 

; external perimeters extrusion width = 0.40mm
; perimeters extrusion width = 0.46mm
; infill extrusion width = 0.64mm
; solid infill extrusion width = 0.56mm
; top infill extrusion width = 0.40mm
; first layer extrusion width = 0.50mm

; object:{"name":"Universal Thread Mount","id":"Universal Thread Mount.stl id:0 copy 0","object_center":[60.000000,60.000000,0.000000],"boundingbox_center":[60.000000,60.000000,5.530000],"boundingbox_size":[19.049999,25.750002,11.060000]}
; plater:{"center":[60.000000,60.000000,0.000000],"boundingbox_center":[60.000000,60.000000,5.530000],"boundingbox_size":[19.049999,25.750002,11.060000]}

M73 P0 R12
;TYPE:Custom
; custom gcode: start_gcode
START_PRINT T_BED=60 T_EXTRUDER=200
; custom gcode end: start_gcode
M107
G21 ; set units to millimeters
G90 ; use absolute coordinates
M82 ; use absolute distances for extrusion
G92 E0
; custom gcode: start_filament_gcode
; Filament gcode

    PRESSURE_ADVANCE_SELECT FILAMENT=PLA
; custom gcode end: start_filament_gcode
;_TOOLCHANGE 0
M104 S200 ; set temperature
M109 S200 ; set temperature and wait for it to be reached
M190 S60 ; set bed temperature and wait for it to be reached
;LAYER_CHANGE
;Z:0.2
;HEIGHT:0.2
G1 Z0.2 F12000
M73 P0 R12
G1 E-0.8 F3000
M204 S2000
G1 X48.495 Y45.789 F12000
G1 E0 F1800
;TYPE:Skirt
;WIDTH:0.52
G1 X48.381 Y45.91 E0.00658
G1 X47.631 Y47.032 E0.06011
G1 X47.278 Y47.821 E0.09441
G1 X47.03 Y48.65 E0.12872
G1 X46.859 Y50.129 E0.18782
G1 X46.884 Y70.43 E0.99315
G1 X47.156 Y71.82 E1.04931
M73 P0 R12
G1 X47.464 Y72.628 E1.08362
G1 X47.874 Y73.389 E1.11792
G1 X48.381 Y74.09 E1.15223
G1 X48.975 Y74.719 E1.18654
G1 X49.645 Y75.265 E1.22085
G1 X50.382 Y75.719 E1.25516
G1 X51.171 Y76.072 E1.28947
G1 X52 Y76.32 E1.32378
G1 X53.235 Y76.483 E1.37322
G1 X67.266 Y76.448 E1.92981
G1 X68.829 Y76.072 E1.99358
G1 X69.618 Y75.719 E2.02789
G1 X70.355 Y75.265 E2.0622
G1 X71.025 Y74.719 E2.09651
G1 X71.619 Y74.09 E2.13082
G1 X72.369 Y72.968 E2.18434
G1 X72.722 Y72.179 E2.21865
G1 X72.97 Y71.35 E2.25296
G1 X73.141 Y69.872 E2.31201
G1 X73.141 Y50.128 E3.09522
G1 X73.044 Y49.022 E3.13928
G1 X72.844 Y48.18 E3.17359
G1 X72.403 Y47.091 E3.22022
G1 X71.915 Y46.295 E3.25724
G1 X71.114 Y45.361 E3.30604
G1 X70.097 Y44.558 E3.35748
G1 X69.277 Y44.113 E3.39449
G1 X68.42 Y43.791 E3.43078
G1 X67.2 Y43.548 E3.48016
G1 X53.285 Y43.516 E4.03213
G1 X52.424 Y43.597 E4.06644
G1 X51.058 Y43.968 E4.1226
G1 X49.645 Y44.735 E4.18637
G1 X48.975 Y45.281 E4.22068
G1 X48.495 Y45.789 E4.24841
G1 X48.842 Y46.116 F12000
G1 F1800
G1 X48.74 Y46.224 E4.25433
G1 X48.059 Y47.243 E4.30292
G1 X47.729 Y47.974 E4.33475
G1 X47.498 Y48.743 E4.36659
G1 X47.336 Y50.129 E4.42196
G1 X47.358 Y70.384 E5.22544
G1 X47.607 Y71.667 E5.27728
G1 X47.891 Y72.417 E5.30911
G1 X48.271 Y73.124 E5.34095
G1 X48.74 Y73.776 E5.37278
G1 X49.289 Y74.36 E5.40462
G1 X49.91 Y74.868 E5.43645
G1 X50.593 Y75.291 E5.46829
G1 X51.324 Y75.621 E5.50012
G1 X52.093 Y75.852 E5.53196
G1 X53.266 Y76.007 E5.57892
G1 X67.219 Y75.973 E6.13242
G1 X68.676 Y75.621 E6.19187
G1 X69.407 Y75.291 E6.2237
G1 X70.09 Y74.868 E6.25553
G1 X70.711 Y74.36 E6.28737
G1 X71.26 Y73.776 E6.3192
G1 X71.941 Y72.757 E6.36779
G1 X72.271 Y72.026 E6.39962
G1 X72.502 Y71.257 E6.43146
G1 X72.664 Y69.872 E6.4868
G1 X72.664 Y50.128 E7.27
G1 X72.576 Y49.115 E7.31036
G1 X72.393 Y48.333 E7.3422
G1 X71.982 Y47.316 E7.38573
G1 X71.518 Y46.56 E7.42089
G1 X70.788 Y45.71 E7.46537
G1 X69.845 Y44.963 E7.51309
G1 X69.066 Y44.541 E7.54825
G1 X68.297 Y44.251 E7.58083
G1 X67.137 Y44.021 E7.62773
G1 X53.285 Y43.993 E8.17724
G1 X52.487 Y44.07 E8.20907
G1 X51.226 Y44.414 E8.26091
G1 X49.91 Y45.132 E8.32035
G1 X49.289 Y45.64 E8.35218
G1 X48.842 Y46.116 E8.37809
G92 E0
G1 E-0.8 F3000
; printing object Universal Thread Mount.stl id:0 copy 0
; acceleration to travel
M204 S4000
G1 X55.241 Y61.783 F12000
; decel to extrusion
M204 S2000
G1 X58.441 Y69.617
; end travel
G1 E0 F1800
;TYPE:Internal perimeter
;WIDTH:0.5
G1 X58.434 Y64.621 E0.18988
G1 X58.858 Y64.731 E0.20653
G1 X59.519 Y64.832 E0.23195
G1 X60.174 Y64.866 E0.25687
G1 X60.817 Y64.833 E0.28135
G1 X61.177 Y64.788 E0.29511
G1 X62.092 Y64.599 E0.33065
G1 X61.975 Y65.011 E0.3469
G1 X61.905 Y65.725 E0.37418
G1 X61.975 Y66.439 E0.40146
G1 X62.153 Y67.062 E0.42608
G1 X62.344 Y67.481 E0.44357
G1 X62.559 Y67.843 E0.45957
G1 X62.998 Y68.371 E0.48566
G1 X63.368 Y68.686 E0.50414
G1 X63.143 Y69.158 E0.52403
G1 X63.021 Y69.693 E0.54489
G1 X63.018 Y70.231 E0.56534
G1 X63.119 Y70.749 E0.58538
G1 X63.32 Y71.234 E0.60533
G1 X63.569 Y71.606 E0.62234
G1 X53.516 Y71.611 E1.00441
M73 P1 R12
G1 X53.249 Y71.593 E1.01459
G1 X53.026 Y71.549 E1.02321
G1 X52.812 Y71.476 E1.03182
G1 X52.608 Y71.376 E1.04044
G1 X52.42 Y71.25 E1.04905
G1 X52.249 Y71.101 E1.05767
G1 X52.1 Y70.93 E1.06629
G1 X51.974 Y70.742 E1.0749
G1 X51.874 Y70.538 E1.08352
G1 X51.807 Y70.341 E1.09142
G1 X51.746 Y69.97 E1.10571
G1 X51.745 Y68.451 E1.16348
G1 X52.318 Y68.94 E1.19209
G1 X52.585 Y69.118 E1.20432
G1 X53.048 Y69.354 E1.22406
G1 X53.565 Y69.522 E1.24474
G1 X54.101 Y69.607 E1.26537
G1 X58.441 Y69.617 E1.43029
G1 X57.983 Y69.159 F12000
G1 F1800
G1 X57.977 Y64.534 E1.60605
G1 X57.944 Y63.976 E1.62732
G1 X58.36 Y64.13 E1.64421
G1 X58.95 Y64.283 E1.66736
G1 X59.566 Y64.377 E1.69103
G1 X60.174 Y64.408 E1.71418
G1 X60.777 Y64.378 E1.73712
G1 X61.102 Y64.336 E1.74956
G1 X61.683 Y64.217 E1.77211
G1 X61.998 Y64.127 E1.78455
G1 X62.971 Y63.767 E1.824
G1 X62.587 Y64.533 E1.85657
G1 X62.426 Y65.097 E1.87885
G1 X62.364 Y65.725 E1.90286
G1 X62.426 Y66.353 E1.92686
G1 X62.583 Y66.904 E1.9486
G1 X62.75 Y67.268 E1.96383
G1 X62.934 Y67.578 E1.97755
G1 X63.324 Y68.048 E2.00077
G1 X63.615 Y68.295 E2.01527
G1 X64.051 Y68.565 E2.03475
G1 X63.775 Y68.895 E2.0511
G1 X63.578 Y69.309 E2.06853
G1 X63.478 Y69.746 E2.08558
G1 X63.475 Y70.188 E2.10238
G1 X63.559 Y70.616 E2.11894
G1 X63.725 Y71.017 E2.13544
G1 X63.966 Y71.378 E2.15192
G1 X64.272 Y71.684 E2.16839
G1 X64.451 Y71.803 E2.17654
G1 X64.372 Y72.063 E2.18684
G1 X53.501 Y72.068 E2.6
G1 X53.189 Y72.047 E2.61189
G1 X52.908 Y71.992 E2.62278
G1 X52.636 Y71.899 E2.63368
G1 X52.379 Y71.773 E2.64457
G1 X52.141 Y71.613 E2.65546
G1 X51.926 Y71.424 E2.66636
G1 X51.737 Y71.209 E2.67725
G1 X51.577 Y70.971 E2.68814
G1 X51.451 Y70.714 E2.69904
G1 X51.362 Y70.453 E2.70949
G1 X51.288 Y70.008 E2.72663
G1 X51.288 Y67.317 E2.82891
G1 X51.568 Y67.25 E2.83987
G1 X51.802 Y67.708 E2.85944
G1 X51.951 Y67.931 E2.86962
G1 X52.247 Y68.278 E2.88697
G1 X52.594 Y68.574 E2.90431
G1 X52.817 Y68.723 E2.91449
G1 X53.223 Y68.93 E2.93184
G1 X53.672 Y69.076 E2.94978
G1 X54.138 Y69.15 E2.9677
G1 X57.983 Y69.159 E3.11384
G92 E0
G1 E-0.8 F3000
; acceleration to travel
M204 S4000
G1 X64.207 Y68.779 F12000
; decel to extrusion
M204 S2000
G1 X67.318 Y68.59
; end travel
G1 E0 F1800
G1 X68.014 Y68.059 E0.03326
G1 X68.264 Y67.781 E0.04748
G1 X68.463 Y67.5 E0.06054
G1 X68.718 Y67.581 E0.0707
G1 X68.718 Y69.849 E0.15687
G1 X68.697 Y70.161 E0.16877
G1 X68.642 Y70.442 E0.17966
G1 X68.549 Y70.714 E0.19056
G1 X68.423 Y70.971 E0.20145
G1 X68.263 Y71.209 E0.21234
G1 X68.074 Y71.424 E0.22324
G1 X67.859 Y71.613 E0.23413
G1 X67.621 Y71.773 E0.24502
G1 X67.364 Y71.899 E0.25592
G1 X67.21 Y71.952 E0.26209
G1 X67.057 Y71.705 E0.27311
G1 X67.384 Y71.378 E0.29072
G1 X67.625 Y71.017 E0.30719
G1 X67.791 Y70.616 E0.3237
G1 X67.875 Y70.188 E0.34026
G1 X67.872 Y69.746 E0.35707
G1 X67.772 Y69.309 E0.37411
G1 X67.574 Y68.894 E0.39157
G1 X67.318 Y68.59 E0.4067
G92 E0
G1 E-0.8 F3000
; acceleration to travel
M204 S4000
G1 X66.189 Y59.369 F12000
; decel to extrusion
M204 S2000
G1 X65.624 Y54.759
; end travel
G1 E0 F1800
G1 X66.457 Y54.661 E0.03187
G1 X67.077 Y54.472 E0.05648
G1 X67.491 Y54.273 E0.07395
G1 X67.845 Y54.054 E0.08978
G1 X68.261 Y53.702 E0.11049
G1 X68.261 Y62.987 E0.46337
G1 X67.955 Y62.728 E0.4786
G1 X67.574 Y62.471 E0.49607
G1 X66.989 Y62.193 E0.52067
G1 X66.321 Y62.013 E0.54696
G1 X65.626 Y61.937 E0.57352
G1 X66.025 Y61.22 E0.60472
G1 X66.283 Y60.617 E0.62963
G1 X66.484 Y59.979 E0.65506
G1 X66.616 Y59.337 E0.67998
G1 X66.681 Y58.696 E0.70445
G1 X66.69 Y58.35 E0.71761
G1 X66.681 Y58.004 E0.73076
G1 X66.616 Y57.363 E0.75524
G1 X66.483 Y56.717 E0.78033
G1 X66.29 Y56.102 E0.80481
G1 X66.162 Y55.781 E0.81796
G1 X66.017 Y55.466 E0.83112
G1 X65.624 Y54.759 E0.86187
; acceleration to travel
M204 S4000
G1 X64.902 Y54.351 F12000
; decel to extrusion
M204 S2000
G1 X64.541 Y54.147
; end travel
G1 F1800
G1 X65.348 Y54.265 E0.89287
G1 X65.75 Y54.284 E0.90816
G1 X66.363 Y54.212 E0.93164
G1 X66.91 Y54.045 E0.95337
G1 X67.271 Y53.872 E0.96859
G1 X67.576 Y53.684 E0.9822
G1 X68.033 Y53.296 E1.00498
G1 X68.269 Y53.027 E1.0186
G1 X68.462 Y52.752 E1.03136
G1 X68.718 Y52.833 E1.04155
G1 X68.718 Y63.864 E1.46082
G1 X68.455 Y63.941 E1.47122
G1 X68.348 Y63.775 E1.47875
G1 X67.952 Y63.325 E1.50153
G1 X67.679 Y63.093 E1.51515
G1 X67.347 Y62.869 E1.53038
G1 X66.83 Y62.624 E1.55211
G1 X66.236 Y62.464 E1.57548
G1 X65.881 Y62.425 E1.58907
G1 X65.479 Y62.421 E1.60436
G1 X65.022 Y62.492 E1.62194
G1 X64.528 Y62.568 E1.64094
G1 X64.963 Y62.062 E1.66631
G1 X65.318 Y61.551 E1.68997
G1 X65.614 Y61.018 E1.71313
G1 X65.854 Y60.458 E1.73629
G1 X66.041 Y59.864 E1.75995
G1 X66.163 Y59.267 E1.78311
G1 X66.224 Y58.667 E1.80604
G1 X66.232 Y58.35 E1.8181
G1 X66.224 Y58.033 E1.83015
G1 X66.163 Y57.433 E1.85309
G1 X66.04 Y56.831 E1.87641
G1 X65.859 Y56.256 E1.89935
G1 X65.741 Y55.961 E1.9114
G1 X65.609 Y55.673 E1.92346
G1 X65.316 Y55.145 E1.94639
G1 X64.965 Y54.642 E1.96972
G1 X64.541 Y54.147 E1.99449
G92 E0
G1 E-0.8 F3000
; acceleration to travel
M204 S4000
G1 X62.913 Y52.8 F12000
; decel to extrusion
M204 S2000
G1 X62.1 Y52.126
; end travel
G1 E0 F1800
G1 X61.496 Y51.97 E0.02371
G1 X60.823 Y51.867 E0.04957
G1 X60.174 Y51.834 E0.07427
G1 X59.515 Y51.868 E0.09936
G1 X58.878 Y51.965 E0.12384
G1 X58.434 Y52.069 E0.14118
G1 X58.439 Y48.396 E0.28077
G1 X62.919 Y48.396 E0.45103
G1 X62.479 Y48.978 E0.47877
G1 X62.159 Y49.616 E0.5059
G1 X61.975 Y50.261 E0.53138
G1 X61.905 Y50.975 E0.55865
G1 X61.975 Y51.689 E0.58593
G1 X62.1 Y52.126 E0.6032
; acceleration to travel
M204 S4000
G1 X62.655 Y52.655 F12000
; decel to extrusion
M204 S2000
G1 X62.933 Y52.92
; end travel
G1 F1800
G1 X61.988 Y52.57 E0.64152
G1 X61.404 Y52.418 E0.66445
G1 X61.091 Y52.362 E0.67651
G1 X60.777 Y52.322 E0.68856
G1 X60.174 Y52.292 E0.7115
G1 X59.561 Y52.323 E0.73482
G1 X58.965 Y52.415 E0.75776
G1 X58.646 Y52.489 E0.7702
G1 X57.945 Y52.709 E0.79813
G1 X57.977 Y52.166 E0.8188
G1 X57.983 Y47.939 E0.97946
G1 X63.807 Y47.939 E1.20081
G1 X63.885 Y48.198 E1.21111
G1 X63.676 Y48.338 E1.2207
G1 X63.222 Y48.752 E1.24405
G1 X62.869 Y49.22 E1.26633
G1 X62.587 Y49.783 E1.29024
G1 X62.426 Y50.347 E1.31253
G1 X62.364 Y50.975 E1.33653
G1 X62.426 Y51.603 E1.36053
G1 X62.583 Y52.154 E1.38227
G1 X62.933 Y52.92 E1.41429
G92 E0
G1 E-0.8 F3000
; acceleration to travel
M204 S4000
G1 X64.743 Y65.296 F12000
; decel to extrusion
M204 S1000
G1 X65.195 Y68.391
; end travel
G1 E0 F1800
;TYPE:Thin wall
;WIDTH:0.062817
G1 X65.179 Y68.391 E0.00003
;WIDTH:0.00698
G1 X65.195 Y68.391 E0.00003
;WIDTH:0.024212
G1 X65.319 Y68.389 E0.00024
;WIDTH:0.04
G1 X65.408 Y68.388 E0.0005
G1 X65.525 Y68.394 E0.00085
G1 X65.589 Y68.4 E0.00104
G1 X65.713 Y68.403 E0.00141
G1 X65.742 Y68.403 E0.0015
G1 X65.839 Y68.397 E0.00179
G1 X65.972 Y68.395 E0.00218
G1 X66.048 Y68.398 E0.00241
;WIDTH:0.01975
G1 X66.172 Y68.402 E0.00257
M204 S2000
G1 X66.221 Y68.423 F12000
;TYPE:External perimeter
;WIDTH:0.5
G1 F1800
G1 X66.698 Y68.277 E0.02152
G1 X67.265 Y68.055 E0.04465
G1 X67.703 Y67.721 E0.06558
G1 X67.907 Y67.495 E0.07718
G1 X68.105 Y67.215 E0.09021
G1 X68.327 Y66.77 E0.10909
G1 X68.477 Y66.253 E0.12955
G1 X68.515 Y65.956 E0.14093
G1 X68.524 Y65.614 E0.15393
G1 X68.451 Y65.08 E0.17443
G1 X68.298 Y64.608 E0.19329
G1 X68.145 Y64.303 E0.20627
G1 X67.982 Y64.051 E0.21765
G1 X67.631 Y63.652 E0.23785
G1 X67.402 Y63.458 E0.24924
G1 X67.119 Y63.267 E0.26222
G1 X66.671 Y63.054 E0.28108
G1 X66.152 Y62.914 E0.30153
G1 X65.854 Y62.882 E0.31291
G1 X65.512 Y62.879 E0.32592
G1 X65.091 Y62.944 E0.34209
G1 X64.979 Y62.961 E0.34642
G1 X64.51 Y63.123 E0.36527
G1 X64.208 Y63.282 E0.37825
G1 X63.959 Y63.449 E0.38964
G1 X63.561 Y63.811 E0.41009
G1 X63.259 Y64.212 E0.42918
G1 X63.015 Y64.699 E0.44987
G1 X62.877 Y65.182 E0.46897
G1 X62.823 Y65.725 E0.48969
G1 X62.877 Y66.268 E0.51042
G1 X63.013 Y66.745 E0.52928
G1 X63.155 Y67.056 E0.54226
G1 X63.309 Y67.314 E0.55369
G1 X63.651 Y67.726 E0.57403
G1 X63.885 Y67.925 E0.58571
G1 X64.187 Y68.112 E0.5992
G1 X65.129 Y68.423 E0.6369
M73 P2 R12
G1 X64.894 Y68.52 E0.64655
G1 X64.389 Y68.874 E0.67
G1 X64.163 Y69.144 E0.68339
G1 X64.012 Y69.46 E0.6967
G1 X63.935 Y69.799 E0.70992
G1 X63.932 Y70.145 E0.72308
G1 X63.999 Y70.483 E0.73616
G1 X64.13 Y70.801 E0.74922
G1 X64.321 Y71.086 E0.76227
G1 X64.564 Y71.329 E0.77533
G1 X64.849 Y71.52 E0.78838
G1 X65.166 Y71.651 E0.80143
G1 X65.503 Y71.718 E0.81448
G1 X65.847 Y71.718 E0.82753
G1 X66.183 Y71.651 E0.84058
G1 X66.501 Y71.52 E0.85363
G1 X66.786 Y71.329 E0.86668
G1 X67.029 Y71.086 E0.87973
G1 X67.22 Y70.801 E0.89279
G1 X67.351 Y70.483 E0.90585
G1 X67.418 Y70.145 E0.91893
G1 X67.415 Y69.799 E0.93209
G1 X67.338 Y69.46 E0.94531
G1 X67.187 Y69.144 E0.95863
G1 X66.96 Y68.874 E0.97201
G1 X66.456 Y68.52 E0.99544
G1 X66.221 Y68.423 E1.0051
M204 S1000
G1 X66.172 Y68.402 F12000
;TYPE:Thin wall
;WIDTH:0.177749
G1 F1800
G1 X66.048 Y68.398 E1.00654
;WIDTH:0.36
G1 X65.972 Y68.395 E1.00856
G1 X65.839 Y68.397 E1.01212
G1 X65.742 Y68.403 E1.01472
G1 X65.713 Y68.403 E1.01549
G1 X65.589 Y68.4 E1.01881
G1 X65.525 Y68.394 E1.02052
G1 X65.408 Y68.388 E1.02366
G1 X65.319 Y68.389 E1.02602
;WIDTH:0.217906
G1 X65.195 Y68.391 E1.02788
G92 E0
G1 E-0.8 F3000
; acceleration to travel
M204 S4000
G1 X65.554 Y58.681 F12000
; decel to extrusion
M204 S2000
G1 X65.733 Y53.826
; end travel
G1 E0 F1800
;TYPE:External perimeter
;WIDTH:0.5
G1 X66.269 Y53.763 E0.0205
G1 X66.744 Y53.618 E0.03935
G1 X67.052 Y53.47 E0.05233
G1 X67.306 Y53.313 E0.06372
G1 X67.712 Y52.969 E0.08392
G1 X67.91 Y52.744 E0.09531
G1 X68.106 Y52.464 E0.10829
G1 X68.327 Y52.02 E0.12714
G1 X68.477 Y51.503 E0.1476
G1 X68.515 Y51.206 E0.15898
G1 X68.524 Y50.864 E0.17199
G1 X68.451 Y50.33 E0.19249
G1 X68.298 Y49.858 E0.21134
G1 X68.145 Y49.553 E0.22432
G1 X67.982 Y49.301 E0.23571
G1 X67.631 Y48.902 E0.25591
G1 X67.403 Y48.708 E0.2673
G1 X67.119 Y48.517 E0.28028
G1 X66.671 Y48.304 E0.29913
G1 X66.152 Y48.164 E0.31959
G1 X65.854 Y48.132 E0.33096
G1 X65.512 Y48.129 E0.34397
G1 X64.979 Y48.211 E0.36447
G1 X64.51 Y48.373 E0.38333
G1 X64.208 Y48.532 E0.39631
G1 X63.959 Y48.699 E0.40769
G1 X63.561 Y49.061 E0.42814
G1 X63.259 Y49.462 E0.44724
G1 X63.015 Y49.949 E0.46792
G1 X62.877 Y50.432 E0.48702
G1 X62.823 Y50.975 E0.50775
G1 X62.877 Y51.518 E0.52848
G1 X63.013 Y51.995 E0.54733
G1 X63.155 Y52.305 E0.56031
G1 X63.308 Y52.563 E0.5717
G1 X63.644 Y52.975 E0.5919
G1 X63.865 Y53.177 E0.60329
G1 X64.141 Y53.378 E0.61627
G1 X64.581 Y53.607 E0.63512
G1 X65.095 Y53.766 E0.65558
G1 X65.392 Y53.81 E0.66696
G1 X65.733 Y53.826 E0.67997
;WIPE_START
M204 S4000
G1 X65.955 Y54.159 F12000
;WIPE_END
G92 E0
G1 E-0.8 F3000
; acceleration to travel
G1 X60.335 Y63.853 F12000
; decel to extrusion
M204 S2000
G1 X57.525 Y68.701
; end travel
G1 E0 F1800
G1 X57.52 Y64.548 E0.15783
G1 X57.491 Y64.057 E0.17654
G1 X57.427 Y63.607 E0.1938
G1 X57.478 Y63.245 E0.20768
G1 X57.702 Y63.375 E0.21748
G1 X57.97 Y63.498 E0.22869
G1 X58.498 Y63.693 E0.25008
G1 X59.042 Y63.835 E0.27148
G1 X59.612 Y63.922 E0.29338
G1 X60.174 Y63.95 E0.31477
G1 X60.736 Y63.922 E0.33617
G1 X61.027 Y63.885 E0.34729
G1 X61.574 Y63.773 E0.36851
G1 X61.855 Y63.692 E0.37964
G1 X62.383 Y63.497 E0.40103
G1 X62.888 Y63.249 E0.42243
G1 X63.141 Y63.101 E0.43355
G1 X63.599 Y62.782 E0.45477
G1 X63.826 Y62.597 E0.4659
G1 X64.234 Y62.209 E0.48729
G1 X64.601 Y61.782 E0.50869
G1 X64.93 Y61.309 E0.53058
G1 X65.203 Y60.817 E0.55198
G1 X65.425 Y60.299 E0.57337
G1 X65.598 Y59.75 E0.59527
G1 X65.711 Y59.198 E0.61667
G1 X65.768 Y58.638 E0.63806
