; HEADER_BLOCK_START
; generated by OrcaSlicer 1.6.3 on 2023-07-20 at 08:43:01
; total layer number: 31
; HEADER_BLOCK_END

; THUMBNAIL_BLOCK_START
; THUMBNAIL_BLOCK_END

; external perimeters extrusion width = 0.40mm
; perimeters extrusion width = 0.45mm
; infill extrusion width = 0.45mm
; solid infill extrusion width = 0.40mm
; top infill extrusion width = 0.40mm
; support material extrusion width = 0.40mm
; first layer extrusion width = 0.50mm

; EXECUTABLE_BLOCK_START
EXCLUDE_OBJECT_DEFINE NAME=Universal_hotend_mounting_plate.stl_id_0_copy_0 CENTER=59.9998,60 POLYGON=[[39.3832,55.1531],[39.3933,54.9219],[39.4211,54.6921],[39.4665,54.4652],[39.5294,54.2424],[39.6092,54.0252],[39.7055,53.8147],[39.8177,53.6123],[39.9453,53.4192],[40.1298,53.1776],[40.3288,52.9478],[40.5413,52.7304],[40.7666,52.5264],[41.0039,52.3364],[41.2524,52.1612],[41.511,52.0014],[41.7788,51.8576],[42.0549,51.7304],[42.3382,51.6202],[42.6277,51.5274],[42.9223,51.4524],[43.2209,51.3954],[55.1975,49.6916],[55.4243,49.6707],[55.6521,49.667],[64.3648,49.667],[64.5926,49.6707],[64.8194,49.6916],[76.6291,51.3716],[76.9148,51.4158],[77.1975,51.4764],[77.4763,51.5533],[77.7501,51.6461],[78.0181,51.7546],[78.2794,51.8784],[78.533,52.0171],[78.7783,52.1703],[79.0143,52.3373],[79.2402,52.5177],[79.4553,52.7109],[79.6589,52.9162],[79.8503,53.1329],[80.0288,53.3603],[80.1601,53.5531],[80.276,53.7555],[80.3758,53.9662],[80.4589,54.1841],[80.5249,54.4078],[80.5733,54.6359],[80.6038,54.8671],[80.6163,55.1],[80.6106,55.3331],[80.5869,55.5651],[80.5452,55.7946],[80.4858,56.0201],[80.4091,56.2403],[80.3155,56.4539],[80.2056,56.6596],[80.0801,56.8561],[79.9396,57.0423],[79.7852,57.217],[76.8636,60.3532],[76.7073,60.5155],[76.5394,60.6655],[76.3606,60.8026],[66.578,68.1558],[66.3134,68.3467],[66.2199,68.4114],[65.9415,68.5958],[65.8518,68.6526],[65.5598,68.8294],[65.4745,68.8788],[65.1689,69.0474],[65.0883,69.0898],[64.7694,69.2493],[64.6941,69.2851],[64.3621,69.4348],[64.2923,69.4645],[63.9475,69.6035],[63.8837,69.6278],[63.5264,69.7553],[63.4689,69.7745],[63.0995,69.8897],[63.0486,69.9045],[62.6675,70.0067],[62.6234,70.0177],[62.2311,70.1061],[62.194,70.1137],[61.791,70.1876],[61.7611,70.1925],[61.348,70.2511],[61.3254,70.2539],[60.9027,70.2966],[60.8876,70.2978],[60.456,70.3239],[60.4484,70.3242],[60.0085,70.333],[59.5686,70.3242],[59.561,70.3239],[59.1294,70.2978],[59.1142,70.2966],[58.6916,70.2539],[58.669,70.2511],[58.2559,70.1925],[58.2259,70.1876],[57.823,70.1137],[57.7858,70.1061],[57.3936,70.0177],[57.3494,70.0067],[56.9684,69.9045],[56.9174,69.8897],[56.548,69.7745],[56.4905,69.7553],[56.1332,69.6278],[56.0694,69.6035],[55.7246,69.4645],[55.6549,69.4348],[55.3229,69.2851],[55.2475,69.2493],[54.9286,69.0898],[54.8481,69.0474],[54.5425,68.8788],[54.4572,68.8294],[54.1651,68.6526],[54.0754,68.5958],[53.7971,68.4114],[53.7035,68.3467],[53.439,68.1558],[43.6432,60.8067],[43.4648,60.6707],[43.2971,60.5217],[43.141,60.3607],[40.223,57.2492],[40.069,57.0765],[39.9287,56.8924],[39.803,56.698],[39.6927,56.4946],[39.5984,56.2832],[39.5207,56.0652],[39.46,55.8418],[39.4167,55.6145],[39.391,55.3844],[39.3832,55.1531]]
M73 P0 R11
;TYPE:Custom
START_PRINT T_BED=110 T_EXTRUDER=260
G90
G21
M83 ; use relative distances for extrusion
; Filament gcode

    PRESSURE_ADVANCE_SELECT FILAMENT=ABS
M106 S0
;LAYER_CHANGE
;Z:0.2
;HEIGHT:0.2
;BEFORE_LAYER_CHANGE
;0.2
G92 E0

;AFTER_LAYER_CHANGE
;0.2
SET_VELOCITY_LIMIT ACCEL_TO_DECEL=500
M204 S1000
G1 E-.5 F3000
G1 Z.2 F21000
G1 X39.183 Y50.061
G1 E.5 F1800
;TYPE:Skirt
;WIDTH:0.5
G1 F3000
G1 X39.979 Y49.522 E.03385
G1 X40.835 Y49.084 E.03385
G1 X42.376 Y48.59 E.05694
G1 X55.157 Y46.769 E.45434
G1 X64.369 Y46.753 E.32423
G1 X65.23 Y46.807 E.03034
G1 X77.36 Y48.536 E.43122
G1 X78.686 Y48.886 E.04826
G1 X80.077 Y49.545 E.05417
G1 X81.187 Y50.349 E.04826
G1 X82.035 Y51.204 E.04235
G1 X82.689 Y52.105 E.03919
G1 X83.182 Y53.145 E.0405
G1 X83.493 Y54.486 E.04843
G1 X83.51 Y55.63 E.04027
G1 X83.304 Y56.762 E.04051
G1 X82.884 Y57.831 E.04043
G1 X82.231 Y58.842 E.04232
G1 X69.89 Y74.612 E.70478
G1 X69.085 Y75.395 E.0395
G1 X68.191 Y75.979 E.0376
G1 X67.178 Y76.39 E.03848
G1 X65.861 Y76.612 E.047
G1 X60.213 Y76.684 E.19878
G1 X59.116 Y76.616 E.03868
G1 X58.435 Y76.464 E.02457
G1 X51.787 Y74.341 E.2456
G1 X50.947 Y73.991 E.03201
G1 X49.85 Y73.254 E.04651
G1 X49.159 Y72.562 E.03444
G1 X37.482 Y58.475 E.64396
G1 X37.131 Y57.884 E.02419
G1 X36.776 Y57.044 E.03209
G1 X36.495 Y55.707 E.04807
G1 X36.482 Y54.796 E.03209
G1 X36.564 Y54.12 E.02396
G1 X36.725 Y53.451 E.02419
G1 X37.056 Y52.602 E.03209
G1 X37.928 Y51.268 E.0561
G1 X39.14 Y50.103 E.05915
G1 X39.455 Y50.431 F21000
G1 F3000
G1 X39.468 Y50.418 E.00065
G1 X40.22 Y49.911 E.03189
G1 X41.027 Y49.499 E.03189
G1 X42.462 Y49.039 E.05304
G1 X55.199 Y47.224 E.45279
G1 X64.369 Y47.21 E.32276
G1 X65.166 Y47.259 E.02807
G1 X77.29 Y48.988 E.43103
G1 X78.539 Y49.319 E.04547
G1 X79.712 Y49.861 E.04547
G1 X80.773 Y50.598 E.04547
G1 X81.692 Y51.506 E.04547
G1 X82.292 Y52.332 E.03593
G1 X82.755 Y53.308 E.03801
G1 X83.04 Y54.545 E.04469
G1 X83.055 Y55.583 E.03653
G1 X82.862 Y56.646 E.03801
G1 X82.48 Y57.616 E.03669
G1 X81.872 Y58.56 E.03954
G1 X69.53 Y74.33 E.70478
G1 X68.812 Y75.029 E.03524
G1 X67.966 Y75.581 E.03555
G1 X67.061 Y75.948 E.03437
G1 X65.817 Y76.157 E.04441
G1 X60.208 Y76.227 E.1974
G1 X59.202 Y76.167 E.03548
G1 X58.574 Y76.029 E.02263
G1 X51.926 Y73.905 E.2456
G1 X51.168 Y73.59 E.02891
G1 X50.131 Y72.893 E.04398
G1 X49.51 Y72.269 E.03095
G1 X37.865 Y58.227 E.64204
G1 X37.533 Y57.666 E.02295
G1 X37.206 Y56.89 E.02961
G1 X36.949 Y55.657 E.04436
G1 X37.012 Y54.21 E.05097
G1 X37.165 Y53.576 E.02295
G1 X37.471 Y52.792 E.02961
G1 X38.274 Y51.568 E.05153
G1 X39.412 Y50.473 E.05559
; printing object Universal hotend mounting plate.stl id:0 copy 0
EXCLUDE_OBJECT_START NAME=Universal_hotend_mounting_plate.stl_id_0_copy_0
G1 E-.5
G1 Z.4 F21000
G1 X51.523 Y67.038
G1 Z.2
G1 E.5 F1800
;TYPE:Support
G1 F3000
G1 X52.769 Y68.473 E.0669
G1 X52.859 Y68.515 E.0035
G1 X56.256 Y68.515 E.11954
G1 X56.29 Y68.938 E.01493
G1 X56.241 Y69.455 E.0183
G1 X56.096 Y69.954 E.0183
G1 X55.86 Y70.418 E.0183
G1 X55.541 Y70.828 E.0183
G1 X55.151 Y71.172 E.0183
G1 X54.704 Y71.437 E.0183
G1 X54.214 Y71.613 E.0183
G1 X53.701 Y71.694 E.0183
G1 X53.181 Y71.678 E.0183
G1 X52.674 Y71.565 E.0183
G1 X52.351 Y71.437 E.01221
G1 X52.047 Y71.27 E.01221
G1 X51.637 Y70.951 E.0183
G1 X51.399 Y70.698 E.01221
G1 X51.107 Y70.268 E.0183
G1 X50.959 Y69.954 E.01221
G1 X50.852 Y69.624 E.01221
G1 X50.771 Y69.111 E.0183
G1 X50.787 Y68.591 E.0183
G1 X50.852 Y68.251 E.01221
G1 X50.959 Y67.921 E.01221
G1 X51.107 Y67.607 E.01221
G1 X51.293 Y67.314 E.01221
G1 X51.484 Y67.084 E.01053
G1 X51.533 Y67.747 F21000
G1 F3000
G1 X52.489 Y68.848 E.05134
G1 X52.76 Y68.972 E.01049
G1 X55.838 Y68.972 E.10834
G1 X55.814 Y69.226 E.00901
G1 X55.76 Y69.511 E.01019
G1 X55.613 Y69.919 E.01527
G1 X55.392 Y70.292 E.01527
G1 X55.105 Y70.618 E.01527
G1 X54.763 Y70.884 E.01527
G1 X54.509 Y71.023 E.01019
G1 X54.24 Y71.13 E.01019
G1 X53.816 Y71.224 E.01527
G1 X53.383 Y71.238 E.01527
G1 X53.096 Y71.202 E.01019
G1 X52.815 Y71.13 E.01019
G1 X52.546 Y71.023 E.01019
G1 X52.292 Y70.884 E.01019
G1 X52.058 Y70.714 E.01019
G1 X51.847 Y70.515 E.01019
G1 X51.663 Y70.292 E.01019
G1 X51.508 Y70.048 E.01019
G1 X51.384 Y69.786 E.01019
G1 X51.295 Y69.511 E.01019
G1 X51.241 Y69.226 E.01019
G1 X51.222 Y68.938 E.01019
G1 X51.241 Y68.649 E.01019
G1 X51.295 Y68.364 E.01019
G1 X51.384 Y68.089 E.01019
G1 X51.509 Y67.802 E.01102
G1 X51.923 Y68.894 F21000
G1 F3000
G1 X52.209 Y69.223 E.01532
G1 X52.661 Y69.429 E.01748
G1 X55.327 Y69.429 E.09384
M73 P1 R11
G1 X55.147 Y69.828 E.01541
G1 X55.022 Y70.024 E.00816
G1 X54.874 Y70.202 E.00817
G1 X54.613 Y70.432 E.01224
G1 X54.314 Y70.609 E.01224
G1 X54.098 Y70.695 E.00817
G1 X53.759 Y70.771 E.01224
G1 X53.411 Y70.782 E.01224
G1 X53.181 Y70.752 E.00817
G1 X52.956 Y70.695 E.00817
G1 X52.637 Y70.557 E.01224
G1 X52.441 Y70.432 E.00816
G1 X52.263 Y70.284 E.00817
G1 X52.033 Y70.024 E.01224
G1 X51.856 Y69.724 E.01224
G1 X51.77 Y69.508 E.00817
G1 X51.713 Y69.284 E.00817
G1 X51.678 Y68.999 E.0101
G1 X51.868 Y68.918 E.00728
G1 X52.953 Y69.886 F21000
G1 F3000
G1 X54.102 Y69.886 E.04046
G1 X54.155 Y70.189 E.01082
G1 X53.788 Y70.303 E.01353
G1 X53.527 Y70.328 E.00921
G1 X53.267 Y70.303 E.00921
G1 X52.9 Y70.189 E.01353
G1 X52.942 Y69.945 E.00871
G1 E-.5
G1 Z.4 F21000
G1 X55.491 Y67.576
G1 X56.332 Y67.381
G1 X56.822 Y67.286
G1 X63.194 Y67.286
G1 X63.685 Y67.381
G1 X64.526 Y67.576
G1 X64.09 Y68.933
G1 X63.12 Y70.336
G1 X59.551 Y70.8
G1 Z.2
G1 E.5 F1800
G1 F3000
G1 X60.435 Y70.8 E.0311
G1 X60.52 Y70.997 E.00755
G1 X60.425 Y71.242 E.00925
G1 X60.312 Y71.379 E.00627
G1 X60.127 Y71.474 E.0073
G1 X59.919 Y71.48 E.00731
G1 X59.729 Y71.398 E.0073
G1 X59.592 Y71.242 E.00731
G1 X59.534 Y71.043 E.00731
G1 X59.547 Y70.86 E.00645
G1 X59.13 Y70.71 F21000
G1 F3000
G1 X59.164 Y70.615 E.00353
G1 X59.254 Y70.464 E.00618
G1 X59.356 Y70.343 E.00559
G1 X60.661 Y70.343 E.04594
G1 X60.727 Y70.418 E.00353
G1 X60.853 Y70.615 E.00823
G1 X61.011 Y70.981 E.01403
G1 X60.826 Y71.462 E.01814
G1 X60.727 Y71.607 E.00618
G1 X60.603 Y71.732 E.00618
G1 X60.458 Y71.83 E.00618
G1 X60.297 Y71.9 E.00618
G1 X60.125 Y71.938 E.00618
G1 X59.95 Y71.944 E.00618
G1 X59.72 Y71.9 E.00823
G1 X59.559 Y71.83 E.00618
G1 X59.414 Y71.732 E.00618
G1 X59.29 Y71.608 E.00618
G1 X59.191 Y71.462 E.00618
G1 X59.121 Y71.301 E.00618
G1 X59.083 Y71.13 E.00618
G1 X59.077 Y70.954 E.00618
G1 X59.105 Y70.781 E.00618
G1 X59.11 Y70.766 E.00054
G1 X58.667 Y70.667 F21000
G1 F3000
G1 X58.686 Y70.583 E.00304
G1 X58.79 Y70.343 E.00921
G1 X58.937 Y70.126 E.00921
G1 X59.194 Y69.886 E.01239
G1 X60.823 Y69.886 E.05733
G1 X60.895 Y69.941 E.0032
G1 X61.022 Y70.061 E.00614
G1 X61.182 Y70.268 E.00921
G1 X61.267 Y70.421 E.00615
G1 X61.502 Y70.966 E.0209
G1 X61.267 Y71.605 E.02397
G1 X61.08 Y71.899 E.01227
G1 X60.895 Y72.084 E.00921
G1 X60.678 Y72.231 E.00921
G1 X60.438 Y72.335 E.00921
G1 X60.096 Y72.4 E.01227
G1 X59.834 Y72.392 E.00921
G1 X59.579 Y72.335 E.00921
G1 X59.339 Y72.231 E.00921
G1 X59.122 Y72.084 E.00921
G1 X58.937 Y71.899 E.00921
G1 X58.79 Y71.683 E.00921
G1 X58.686 Y71.442 E.00921
G1 X58.621 Y71.1 E.01227
G1 X58.629 Y70.838 E.00921
G1 X58.654 Y70.726 E.00406
G1 X58.208 Y70.611 F21000
G1 F3000
G1 X58.251 Y70.442 E.00616
G1 X58.337 Y70.226 E.00817
G1 X58.514 Y69.927 E.01224
G1 X58.744 Y69.666 E.01224
G1 X59.054 Y69.429 E.01374
G1 X60.963 Y69.429 E.0672
G1 X61.094 Y69.518 E.00559
G1 X61.355 Y69.748 E.01224
G1 X61.569 Y70.023 E.01224
G1 X61.68 Y70.226 E.00817
G1 X61.994 Y70.95 E.02778
G1 X61.726 Y71.693 E.02778
G1 X61.628 Y71.903 E.00817
G1 X61.503 Y72.099 E.00816
G1 X61.273 Y72.36 E.01224
G1 X60.999 Y72.573 E.01224
G1 X60.689 Y72.731 E.01224
G1 X60.355 Y72.828 E.01224
G1 X60.008 Y72.86 E.01224
G1 X59.662 Y72.828 E.01224
G1 X59.438 Y72.77 E.00817
G1 X59.222 Y72.685 E.00817
G1 X58.922 Y72.508 E.01224
G1 X58.662 Y72.278 E.01224
G1 X58.448 Y72.003 E.01224
G1 X58.291 Y71.693 E.01224
G1 X58.194 Y71.359 E.01224
G1 X58.161 Y71.013 E.01224
G1 X58.193 Y70.669 E.01214
G1 X65.018 Y70.8 F21000
G1 F3000
G1 X66.101 Y70.801 E.0381
G1 X66.015 Y71.098 E.01089
G1 X65.928 Y71.249 E.00612
G1 X65.762 Y71.383 E.00752
G1 X65.579 Y71.425 E.0066
G1 X65.396 Y71.383 E.0066
G1 X65.252 Y71.274 E.00638
G1 X65.158 Y71.131 E.006
G1 X65.041 Y70.855 E.01055
G1 X64.646 Y70.709 F21000
G1 F3000
G1 X64.781 Y70.343 E.01373
G1 X66.566 Y70.343 E.0628
G1 X66.504 Y71.01 E.02358
G1 X66.463 Y71.201 E.00689
G1 X66.388 Y71.379 E.00678
G1 X66.284 Y71.535 E.00661
G1 X66.157 Y71.666 E.00642
G1 X66.012 Y71.768 E.00623
G1 X65.855 Y71.838 E.00606
G1 X65.691 Y71.875 E.00594
G1 X65.523 Y71.881 E.00589
G1 X65.358 Y71.854 E.00591
G1 X65.197 Y71.794 E.00601
G1 X64.956 Y71.626 E.01035
G1 X64.77 Y71.379 E.01089
G1 X64.57 Y70.914 E.01781
G1 X64.625 Y70.765 E.00558
G1 X64.195 Y70.611 F21000
G1 F3000
G1 X64.326 Y70.246 E.01365
G1 X64.413 Y70.084 E.00646
G1 X64.555 Y69.886 E.00858
G1 X67.361 Y69.886 E.09876
G1 X66.995 Y70.667 E.03037
G1 X66.958 Y71.066 E.0141
G1 X66.899 Y71.339 E.00984
G1 X66.791 Y71.594 E.00975
G1 X66.641 Y71.822 E.00961
G1 X66.453 Y72.015 E.00945
G1 X66.237 Y72.166 E.00928
G1 X66 Y72.271 E.00914
G1 X65.664 Y72.337 E.01203
G1 X65.409 Y72.329 E.009
G1 X65.159 Y72.271 E.00904
G1 X64.921 Y72.166 E.00914
G1 X64.705 Y72.015 E.00928
G1 X64.518 Y71.822 E.00945
G1 X64.367 Y71.594 E.00961
G1 X64.081 Y70.929 E.0255
G1 X64.175 Y70.667 E.00979
G1 X63.741 Y70.515 F21000
G1 F3000
G1 X63.864 Y70.166 E.01301
G1 X63.964 Y69.947 E.00848
G1 X64.162 Y69.648 E.01261
G1 X64.365 Y69.429 E.01054
G1 X67.356 Y69.429 E.10527
G1 X67.808 Y69.223 E.01748
G1 X68.093 Y68.894 E.01532
G1 X68.339 Y68.999 E.00939
G1 X68.279 Y69.397 E.01417
G1 X68.161 Y69.724 E.01224
G1 X68.05 Y69.928 E.00817
G1 X67.913 Y70.115 E.00817
G1 X67.613 Y70.426 E.01522
G1 X67.443 Y70.789 E.01409
G1 X67.393 Y71.242 E.01604
G1 X67.335 Y71.477 E.00853
G1 X67.248 Y71.702 E.0085
G1 X67.135 Y71.914 E.00845
G1 X66.997 Y72.109 E.0084
G1 X66.837 Y72.284 E.00834
G1 X66.658 Y72.436 E.00828
G1 X66.359 Y72.618 E.0123
G1 X66.034 Y72.738 E.0122
G1 X65.694 Y72.793 E.01213
G1 X65.464 Y72.793 E.00808
G1 X65.237 Y72.764 E.00809
G1 X64.905 Y72.665 E.01217
G1 X64.597 Y72.503 E.01226
G1 X64.321 Y72.284 E.01239
G1 X64.09 Y72.014 E.01252
G1 X63.91 Y71.702 E.01265
G1 X63.591 Y70.944 E.02895
G1 X63.722 Y70.572 E.01388
G1 X63.29 Y70.421 F21000
G1 F3000
G1 X63.437 Y70.002 E.01562
G1 X63.561 Y69.732 E.01046
G1 X63.716 Y69.48 E.01042
G1 X63.901 Y69.25 E.01038
G1 X64.085 Y69.061 E.0093
G1 X64.127 Y68.972 E.00345
G1 X67.257 Y68.972 E.11017
G1 X67.528 Y68.848 E.01049
G1 X68.484 Y67.747 E.05134
G1 X68.633 Y68.089 E.01313
G1 X68.722 Y68.364 E.01019
G1 X68.79 Y68.793 E.01527
G1 X68.79 Y69.082 E.01019
G1 X68.722 Y69.511 E.01527
G1 X68.575 Y69.919 E.01527
G1 X68.436 Y70.173 E.01019
G1 X68.266 Y70.407 E.01019
G1 X67.992 Y70.693 E.01391
G1 X67.89 Y70.91 E.00845
G1 X67.866 Y71.177 E.00944
G1 X67.811 Y71.471 E.01052
G1 X67.664 Y71.893 E.01572
G1 X67.442 Y72.278 E.01564
G1 X67.155 Y72.613 E.01554
G1 X66.812 Y72.886 E.01544
G1 X66.558 Y73.03 E.01024
G1 X66.289 Y73.139 E.01021
G1 X65.867 Y73.236 E.01525
G1 X65.579 Y73.254 E.01016
G1 X65.291 Y73.236 E.01016
G1 X64.869 Y73.139 E.01525
G1 X64.471 Y72.962 E.01531
G1 X64.227 Y72.803 E.01026
G1 X64.004 Y72.613 E.01031
G1 X63.716 Y72.278 E.01554
G1 X63.495 Y71.893 E.01564
G1 X63.265 Y71.346 E.02087
G1 X62.328 Y71.371 E.03297
G1 X62.152 Y71.861 E.01834
G1 X62.028 Y72.123 E.01019
G1 X61.784 Y72.482 E.01527
G1 X61.586 Y72.693 E.01019
G1 X61.244 Y72.959 E.01527
G1 X60.99 Y73.098 E.01019
G1 X60.582 Y73.245 E.01527
G1 X60.153 Y73.313 E.01527
G1 X59.864 Y73.313 E.01019
G1 X59.435 Y73.245 E.01527
G1 X59.027 Y73.098 E.01527
G1 X58.773 Y72.959 E.01019
G1 X58.431 Y72.693 E.01527
G1 X58.144 Y72.368 E.01527
G1 X57.989 Y72.123 E.01019
G1 X57.816 Y71.725 E.01527
G1 X57.722 Y71.302 E.01527
G1 X57.708 Y70.868 E.01527
G1 X57.776 Y70.44 E.01527
G1 X57.865 Y70.164 E.01019
G1 X58.062 Y69.778 E.01527
G1 X58.328 Y69.435 E.01527
G1 X58.654 Y69.148 E.01527
G1 X58.934 Y68.972 E.01166
G1 X61.083 Y68.972 E.07563
G1 X61.478 Y69.237 E.01674
G1 X61.784 Y69.544 E.01527
G1 X62.028 Y69.902 E.01527
G1 X62.32 Y70.553 E.0251
G1 X63.255 Y70.52 E.03295
G1 X63.27 Y70.477 E.00158
G1 X62.927 Y70.074 F21000
G1 F3000
G1 X63.079 Y69.674 E.01505
G1 X63.246 Y69.363 E.01244
G1 X63.449 Y69.075 E.01241
G1 X63.703 Y68.798 E.01324
G1 X63.736 Y68.727 E.00275
G1 X63.761 Y68.515 E.00752
G1 X67.158 Y68.515 E.11954
G1 X67.248 Y68.473 E.0035
G1 X68.494 Y67.038 E.0669
G1 X68.503 Y67.047 E.00043
G1 X68.724 Y67.314 E.01221
G1 X68.91 Y67.607 E.01221
G1 X69.058 Y67.921 E.01221
G1 X69.165 Y68.251 E.01221
G1 X69.23 Y68.591 E.01221
G1 X69.252 Y68.938 E.01221
G1 X69.23 Y69.284 E.01221
G1 X69.165 Y69.624 E.01221
G1 X69.058 Y69.954 E.01221
G1 X68.91 Y70.268 E.01221
G1 X68.724 Y70.561 E.01221
G1 X68.372 Y70.959 E.0187
G1 X68.338 Y71.032 E.00282
G1 X68.293 Y71.409 E.01336
G1 X68.207 Y71.753 E.01248
G1 X68.079 Y72.083 E.01246
G1 X67.913 Y72.395 E.01244
G1 X67.595 Y72.816 E.01858
G1 X67.342 Y73.06 E.01236
