; generated by SuperSlicer 2.5.59 on 2023-08-04 at 17:01:31 UTC


;
;

;
;
; 

; external perimeters extrusion width = 0.40mm
; perimeters extrusion width = 0.46mm
; infill extrusion width = 0.64mm
; solid infill extrusion width = 0.56mm
; top infill extrusion width = 0.40mm
; first layer extrusion width = 0.50mm

; object:{"name":"Universal hotend mounting plate","id":"Universal hotend mounting plate.stl id:0 copy 0","object_center":[60.000000,60.000000,0.000000],"boundingbox_center":[60.000000,60.000000,2.500002],"boundingbox_size":[41.233080,20.665945,5.000004]}
EXCLUDE_OBJECT_DEFINE NAME=Universal_hotend_mounting_plate_stl_id_0_copy_0 CENTER=60.000000,60.000000 POLYGON=[[39.383460,64.846880],[39.391280,64.615564],[39.416916,64.385536],[39.460204,64.158172],[39.520896,63.934824],[39.598620,63.716816],[39.692924,63.505452],[39.803240,63.301988],[39.928908,63.107628],[40.069192,62.923540],[40.223252,62.750808],[43.141260,59.639332],[43.297376,59.478272],[43.465088,59.329324],[43.643464,59.193320],[53.439200,51.844244],[53.703768,51.653284],[53.797296,51.588568],[54.075668,51.404252],[54.165328,51.347428],[54.457392,51.170560],[54.542712,51.121196],[54.848312,50.952592],[54.928840,50.910236],[55.247772,50.750704],[55.323096,50.714888],[55.655116,50.565236],[55.724848,50.535464],[56.069668,50.396488],[56.133456,50.372248],[56.490740,50.244748],[56.548264,50.225504],[56.917636,50.110264],[56.968608,50.095472],[57.349652,49.993256],[57.393820,49.982348],[57.786068,49.893916],[57.823212,49.886324],[58.226164,49.812420],[58.256100,49.807544],[58.669212,49.748892],[58.691796,49.746144],[59.114480,49.703436],[59.129592,49.702212],[59.561228,49.676132],[59.568804,49.675828],[60.008712,49.667028],[60.448624,49.675828],[60.456200,49.676132],[60.887828,49.702212],[60.902944,49.703436],[61.325632,49.746144],[61.348208,49.748892],[61.761324,49.807544],[61.791256,49.812420],[62.194212,49.886324],[62.231352,49.893916],[62.623604,49.982348],[62.667772,49.993256],[63.048812,50.095472],[63.099784,50.110264],[63.469156,50.225504],[63.526680,50.244748],[63.883964,50.372248],[63.947756,50.396488],[64.292572,50.535464],[64.362304,50.565236],[64.694320,50.714888],[64.769644,50.750704],[65.088576,50.910236],[65.169112,50.952592],[65.474708,51.121196],[65.560028,51.170560],[65.852088,51.347428],[65.941756,51.404252],[66.220124,51.588568],[66.313660,51.653284],[66.578224,51.844244],[76.360832,59.197404],[76.539600,59.334460],[76.707568,59.484544],[76.863808,59.646808],[79.785392,62.783044],[79.939864,62.957748],[80.080296,63.143924],[80.205848,63.340448],[80.315752,63.546128],[80.409344,63.759720],[80.486072,63.979944],[80.545456,64.205460],[80.587152,64.434900],[80.610888,64.666892],[80.616536,64.900024],[80.604064,65.132888],[80.573536,65.364092],[80.525144,65.592216],[80.459184,65.815896],[80.376040,66.033768],[80.276224,66.244528],[80.160336,66.446900],[80.029080,66.639664],[79.850544,66.867080],[79.659152,67.083792],[79.455552,67.289080],[79.240432,67.482256],[79.014496,67.662680],[78.778520,67.829736],[78.533280,67.982880],[78.279592,68.121584],[78.018312,68.245400],[77.750320,68.353904],[77.476496,68.446728],[77.197768,68.523584],[76.915064,68.584192],[76.629328,68.628360],[64.819688,70.308392],[64.592844,70.329312],[64.365068,70.332968],[55.652352,70.332968],[55.424576,70.329312],[55.197740,70.308392],[43.221144,68.604616],[42.922540,68.547624],[42.627952,68.472592],[42.338472,68.379808],[42.055160,68.269592],[41.779068,68.142376],[41.511224,67.998600],[41.252608,67.838824],[41.004180,67.663624],[40.766860,67.473656],[40.541520,67.269608],[40.329004,67.052248],[40.130080,66.822372],[39.945496,66.580840],[39.817976,66.387688],[39.705720,66.185288],[39.609404,65.974832],[39.529600,65.757576],[39.466780,65.534820],[39.421320,65.307876],[39.393492,65.078108],[39.383460,64.846880]]
; plater:{"center":[60.000000,60.000000,0.000000],"boundingbox_center":[60.000000,60.000000,2.500002],"boundingbox_size":[41.233080,20.665945,5.000004]}

M73 P0 R10
;TYPE:Custom
; custom gcode: start_gcode
START_PRINT T_BED=110 T_EXTRUDER=260
; custom gcode end: start_gcode
M107
G21 ; set units to millimeters
G90 ; use absolute coordinates
M82 ; use absolute distances for extrusion
G92 E0
; custom gcode: start_filament_gcode
; filament start gcode

    PRESSURE_ADVANCE_SELECT FILAMENT=ABS
; custom gcode end: start_filament_gcode
;_TOOLCHANGE 0
M104 S260 ; set temperature
M109 S260 ; set temperature and wait for it to be reached
M190 S110 ; set bed temperature and wait for it to be reached
;LAYER_CHANGE
;Z:0.2
;HEIGHT:0.2
G1 Z0.2 F12000
M73 P0 R10
G1 E-0.5 F2400
M204 S2000
G1 X42.342 Y55.573 F12000
G1 E0 F1800
;TYPE:Skirt
;WIDTH:0.52
G1 X41.194 Y56.448 E0.05304
G1 X40.416 Y57.168 E0.09195
G1 X37.006 Y60.866 E0.27673
G1 X36.257 Y62.129 E0.33069
G1 X35.763 Y63.726 E0.39208
G1 X35.674 Y64.602 E0.42444
G1 X35.714 Y65.623 E0.46197
G1 X36.086 Y67.17 E0.52044
G1 X36.516 Y68.097 E0.55796
G1 X36.975 Y68.814 E0.58922
G1 X38.104 Y70.063 E0.65107
G1 X39.071 Y70.83 E0.69642
G1 X40.449 Y71.594 E0.75429
G1 X41.832 Y72.064 E0.80796
G1 X42.926 Y72.266 E0.84879
G1 X55.006 Y73.975 E1.29699
M73 P0 R10
G1 X64.614 Y73.998 E1.64992
G1 X77.864 Y72.138 E2.14141
G1 X78.996 Y71.821 E2.1846
G1 X80.357 Y71.197 E2.23959
G1 X81.451 Y70.456 E2.28814
G1 X82.323 Y69.668 E2.33133
G1 X83.167 Y68.631 E2.38043
G1 X83.68 Y67.744 E2.41805
G1 X84.051 Y66.784 E2.45586
G1 X84.323 Y65.204 E2.51477
G1 X84.23 Y63.727 E2.56915
G1 X83.972 Y62.728 E2.60702
G1 X83.305 Y61.34 E2.6636
G1 X82.529 Y60.332 E2.71034
G1 X79.092 Y56.692 E2.89422
G1 X68.343 Y48.478 E3.39115
G1 X67.548 Y48.006 E3.42512
G1 X66.334 Y47.432 E3.47446
G1 X64.272 Y46.635 E3.55566
G1 X62.822 Y46.274 E3.61055
G1 X60.756 Y46.021 E3.68702
G1 X59.262 Y46.021 E3.7419
G1 X56.9 Y46.335 E3.82944
G1 X55.18 Y46.82 E3.89508
G1 X52.494 Y47.984 E4.0026
G1 X51.427 Y48.651 E4.04884
G1 X42.342 Y55.573 E4.46837
G1 X42.631 Y55.952 F12000
G1 F1800
G1 X41.483 Y56.827 E4.52141
G1 X40.765 Y57.494 E4.55739
G1 X37.397 Y61.14 E4.73973
G1 X36.685 Y62.34 E4.79099
G1 X36.273 Y63.598 E4.8396
G1 X36.152 Y65.136 E4.89628
G1 X36.374 Y66.514 E4.94754
G1 X36.924 Y67.85 E5.00062
G1 X37.534 Y68.759 E5.04083
G1 X38.13 Y69.427 E5.07371
G1 X39.104 Y70.27 E5.12102
G1 X40.378 Y71.036 E5.17565
G1 X41.387 Y71.44 E5.21558
G1 X42.941 Y71.785 E5.27405
G1 X55.029 Y73.498 E5.72253
G1 X64.614 Y73.521 E6.07461
G1 X77.751 Y71.675 E6.56192
G1 X78.843 Y71.37 E6.60358
G1 X80.128 Y70.779 E6.65554
G1 X81.143 Y70.092 E6.70055
G1 X81.984 Y69.332 E6.74221
G1 X82.783 Y68.348 E6.78876
G1 X83.257 Y67.524 E6.82369
M73 P1 R10
G1 X83.599 Y66.632 E6.85878
G1 X83.846 Y65.197 E6.91226
G1 X83.757 Y63.794 E6.96391
G1 X83.515 Y62.868 E6.99907
G1 X82.894 Y61.581 E7.05156
G1 X82.18 Y60.657 E7.09444
G1 X78.788 Y57.06 E7.27608
G1 X68.086 Y48.88 E7.77086
G1 X66.13 Y47.864 E7.85184
G1 X64.12 Y47.087 E7.93101
G1 X62.745 Y46.745 E7.98305
G1 X60.717 Y46.496 E8.05809
G1 X59.3 Y46.496 E8.11013
G1 X57.015 Y46.798 E8.19482
G1 X55.35 Y47.265 E8.25833
G1 X52.694 Y48.417 E8.36469
G1 X51.716 Y49.031 E8.40711
G1 X42.631 Y55.952 E8.82663
G92 E0
G1 E-0.5 F2400
; printing object Universal hotend mounting plate.stl id:0 copy 0
EXCLUDE_OBJECT_START NAME=Universal_hotend_mounting_plate_stl_id_0_copy_0
; acceleration to travel
M204 S1500
G1 X49.044 Y53.696 F12000
; decel to extrusion
M204 S1000
G1 X53.319 Y52.192
; end travel
G1 E0 F1800
;TYPE:Thin wall
;WIDTH:0.262398
G1 X53.408 Y52.123 E0.00193
;WIDTH:0.07002
G1 X53.43 Y52.106 E0.002
;WIDTH:0.00778
G1 X53.408 Y52.123 E0.002
;WIDTH:0.029155
G1 X53.319 Y52.192 E0.00222
;WIDTH:0.045163
G1 X53.234 Y52.258 E0.00256
;WIDTH:0.042582
G1 X53.138 Y52.308 E0.00288
;WIDTH:0.04
G1 X52.697 Y52.611 E0.00435
G1 X52.334 Y52.927 E0.00567
G1 X51.896 Y53.425 E0.0075
G1 X51.735 Y53.658 E0.00828
;WIDTH:0.045863
G1 X51.572 Y53.89 E0.00918
;WIDTH:0.052983
G1 X51.523 Y53.957 E0.0095
;WIDTH:0.050067
G1 X51.503 Y53.99 E0.00963
;WIDTH:0.022427
G1 X51.446 Y54.089 E0.00979
;WIDTH:0.224266
G1 X51.425 Y54.13
;TYPE:External perimeter
;WIDTH:0.5
M204 S2000
G1 X51.484 Y54.159 E0.01208
G1 X51.398 Y54.509 E0.02476
G1 X51.329 Y55.438 E0.05753
G1 X51.362 Y55.702 E0.0669
G1 X51.505 Y56.182 E0.08454
G1 X51.739 Y56.63 E0.10234
G1 X52.032 Y57.008 E0.11915
G1 X52.224 Y57.19 E0.12847
G1 X52.439 Y57.35 E0.1379
G1 X53.324 Y57.782 E0.17254
G1 X53.15 Y57.825 E0.17885
G1 X52.278 Y58.161 E0.21174
G1 X51.873 Y58.452 E0.22927
G1 X51.683 Y58.644 E0.2388
G1 X51.395 Y59.024 E0.25558
G1 X51.262 Y59.253 E0.2649
G1 X51.073 Y59.697 E0.28189
G1 X50.955 Y60.176 E0.29925
G1 X50.924 Y60.438 E0.30854
G1 X50.924 Y60.91 E0.32513
G1 X51.003 Y61.403 E0.34273
G1 X51.16 Y61.871 E0.36008
G1 X51.268 Y62.1 E0.369
G1 X51.527 Y62.508 E0.38601
G1 X51.865 Y62.884 E0.4038
G1 X52.271 Y63.185 E0.42161
G1 X53.233 Y63.546 E0.45777
;TYPE:Thin wall
;WIDTH:0.01975
M204 S1000
G1 X53.287 Y63.54
;WIDTH:0.17775
G1 X53.412 Y63.531 E0.4591
;WIDTH:0.36
G1 X54.087 Y63.52 E0.4758
G1 X54.851 Y63.462 E0.49477
;WIDTH:0.220797
G1 X54.974 Y63.447 E0.49651
;WIDTH:0.062817
G1 X54.99 Y63.445 E0.49654
;WIDTH:0.00698
G1 X54.974 Y63.447 E0.49655
;WIDTH:0.024533
G1 X54.851 Y63.462 E0.49674
;WIDTH:0.04
G1 X54.087 Y63.52 E0.49885
G1 X53.412 Y63.531 E0.5007
;WIDTH:0.01975
G1 X53.287 Y63.54 E0.50085
;WIDTH:0.1975
G1 X53.233 Y63.546
;TYPE:External perimeter
;WIDTH:0.5
M204 S2000
G1 X53.24 Y63.599 E0.50272
G1 X52.854 Y63.782 E0.51774
G1 X52.247 Y64.151 E0.54273
G1 X52.043 Y64.335 E0.55241
G1 X51.742 Y64.708 E0.56928
G1 X51.508 Y65.146 E0.58676
G1 X51.414 Y65.394 E0.59609
G1 X51.299 Y65.863 E0.61308
G1 X51.259 Y66.362 E0.6307
G1 X51.301 Y66.844 E0.64772
G1 X51.356 Y67.098 E0.65687
G1 X51.546 Y67.569 E0.67474
G1 X52.097 Y68.312 E0.70732
G1 X52.248 Y68.47 E0.715
G1 X51.487 Y68.452 E0.7418
G1 X50.739 Y68.386 E0.76822
;TYPE:Internal perimeter
G1 X50.751 Y67.929 E0.78431
G1 X51.206 Y67.951 E0.80037
G1 X50.918 Y67.233 E0.82759
G1 X50.848 Y66.913 E0.83912
G1 X50.8 Y66.364 E0.85852
G1 X50.846 Y65.79 E0.87878
G1 X50.977 Y65.258 E0.89805
G1 X51.091 Y64.957 E0.90939
G1 X51.359 Y64.455 E0.9294
G1 X51.71 Y64.019 E0.94908
G1 X52.126 Y63.646 E0.96877
G1 X51.556 Y63.224 E0.99371
G1 X51.161 Y62.785 E1.01449
G1 X50.867 Y62.321 E1.03383
G1 X50.735 Y62.042 E1.04469
G1 X50.557 Y61.513 E1.06433
G1 X50.466 Y60.946 E1.08454
G1 X50.466 Y60.411 E1.10335
G1 X50.504 Y60.094 E1.11459
G1 X50.638 Y59.552 E1.13425
G1 X50.852 Y59.048 E1.15352
G1 X51.013 Y58.77 E1.16482
G1 X51.337 Y58.344 E1.18365
G1 X51.575 Y58.103 E1.19559
G1 X52.14 Y57.698 E1.22006
G1 X51.929 Y57.541 E1.2293
G1 X51.692 Y57.316 E1.24081
G1 X51.353 Y56.878 E1.26029
G1 X51.079 Y56.355 E1.28107
G1 X50.94 Y55.886 E1.29828
G1 X50.625 Y56.569 E1.32476
G1 X50.759 Y56.78 E1.33356
;TYPE:Unknown
G1 X50.905 Y57.009
;TYPE:Internal perimeter
G1 X51.04 Y57.22 E1.34235
G1 X51.376 Y57.654 E1.36167
G1 X50.991 Y58.044 E1.38096
G1 X50.83 Y58.256 E1.39033
G1 X50.556 Y58.114 E1.40117
G1 X50.83 Y57.257 E1.43283
G1 X50.447 Y56.99 E1.44928
G1 X50.129 Y57.951 E1.48492
G1 X49.788 Y59.419 E1.53796
G1 X47.191 Y59.419 E1.62938
G1 X47.195 Y59.876 E1.64546
G1 X50.07 Y59.876 E1.74663
G1 X50.009 Y60.384 E1.76464
G1 X50.009 Y60.983 E1.78569
G1 X50.112 Y61.623 E1.80851
G1 X50.31 Y62.213 E1.83044
G1 X50.466 Y62.542 E1.84322
G1 X50.795 Y63.062 E1.8649
G1 X51.247 Y63.564 E1.88867
G1 X51.399 Y63.676 E1.89531
G1 X50.976 Y64.202 E1.91905
G1 X50.674 Y64.767 E1.94159
G1 X50.54 Y65.122 E1.95494
G1 X50.393 Y65.716 E1.97649
G1 X50.342 Y66.365 E1.9994
G1 X50.395 Y66.981 E2.02116
G1 X50.5 Y67.461 E2.03843
G1 X43.789 Y67.443 E2.27462
G1 X43.582 Y67.429 E2.28191
G1 X43.112 Y67.354 E2.29867
G1 X42.668 Y67.227 E2.31493
G1 X42.257 Y67.052 E2.33064
G1 X41.684 Y66.702 E2.35425
G1 X41.322 Y66.394 E2.37101
G1 X41 Y66.043 E2.38777
G1 X40.735 Y65.645 E2.4046
G1 X40.633 Y65.396 E2.41408
G1 X40.57 Y65.134 E2.42356
G1 X40.548 Y64.865 E2.43304
G1 X40.568 Y64.591 E2.44271
G1 X40.676 Y64.2 E2.45698
G1 X40.799 Y63.952 E2.46672
G1 X41.057 Y63.984 E2.47587
G1 X41.163 Y64.475 E2.49354
G1 X41.373 Y65.013 E2.51389
G1 X41.712 Y65.523 E2.53543
G1 X42.15 Y65.95 E2.55697
G1 X42.669 Y66.275 E2.57851
G1 X43.245 Y66.483 E2.60006
G1 X43.818 Y66.559 E2.62041
G1 X44.191 Y66.549 E2.63355
G1 X44.76 Y66.442 E2.6539
G1 X45.324 Y66.204 E2.67544
G1 X45.824 Y65.852 E2.69699
G1 X46.24 Y65.403 E2.71853
G1 X46.55 Y64.875 E2.74007
G1 X46.743 Y64.294 E2.76162
G1 X46.804 Y63.719 E2.78196
G1 X46.784 Y63.346 E2.79511
G1 X46.662 Y62.781 E2.81546
G1 X46.409 Y62.224 E2.837
G1 X46.044 Y61.732 E2.85854
G1 X45.583 Y61.329 E2.88009
G1 X45.078 Y61.049 E2.90043
G1 X44.726 Y60.922 E2.91358
G1 X44.158 Y60.815 E2.93393
G1 X43.711 Y60.827 E2.94968
G1 X43.982 Y60.502 E2.9646
G1 X44.188 Y60.305 E2.97463
G1 X44.401 Y60.154 E2.98382
G1 X44.635 Y60.037 E2.99301
G1 X44.883 Y59.956 E3.0022
G1 X45.143 Y59.913 E3.01148
G1 X46.281 Y59.89 E3.05154
;WIDTH:0.491185
G1 X46.514 Y60.343 E3.06913
;WIDTH:0.5
G1 X45.346 Y60.366 E3.11025
M73 P2 R9
G1 X45.279 Y60.638 E3.12011
G1 X45.848 Y60.953 E3.14299
G1 X46.382 Y61.421 E3.16797
G1 X46.805 Y61.99 E3.19296
G1 X47.098 Y62.637 E3.21794
G1 X47.239 Y63.285 E3.24129
G1 X47.263 Y63.731 E3.25701
G1 X47.192 Y64.391 E3.28037
G1 X46.969 Y65.065 E3.30535
G1 X46.609 Y65.677 E3.33033
G1 X46.127 Y66.198 E3.35532
G1 X45.546 Y66.606 E3.3803
G1 X45.33 Y66.697 E3.38855
G1 X45.389 Y66.99 E3.39906
G1 X49.938 Y67.002 E3.55915
G1 X49.883 Y66.367 E3.58159
G1 X49.941 Y65.643 E3.60715
G1 X50.103 Y64.986 E3.63099
G1 X50.257 Y64.578 E3.64633
G1 X50.593 Y63.949 E3.67142
G1 X50.775 Y63.723 E3.68163
G1 X50.43 Y63.339 E3.69979
G1 X50.065 Y62.763 E3.72381
G1 X49.886 Y62.385 E3.73853
G1 X49.667 Y61.732 E3.76274
G1 X49.552 Y61.019 E3.78817
G1 X49.552 Y60.333 E3.8123
G1 X46.971 Y60.333 E3.90314
;WIDTH:0.491184
G1 X46.738 Y59.881 E3.92074
;WIDTH:0.5
G1 X46.734 Y59.424 E3.93683
G1 X45.101 Y59.457 E3.9943
G1 X44.774 Y59.511 E4.00596
G1 X44.461 Y59.613 E4.01756
G1 X44.166 Y59.761 E4.02916
G1 X43.896 Y59.951 E4.04076
G1 X43.564 Y60.289 E4.05745
G1 X42.796 Y61.485 E4.10749
G1 X43.607 Y61.287 E4.13687
G1 X44.121 Y61.273 E4.15498
G1 X44.606 Y61.365 E4.17232
G1 X44.888 Y61.467 E4.18289
G1 X45.319 Y61.705 E4.20023
G1 X45.706 Y62.044 E4.21833
G1 X46.013 Y62.457 E4.23644
G1 X46.226 Y62.925 E4.25454
G1 X46.33 Y63.407 E4.27188
G1 X46.346 Y63.707 E4.28245
G1 X46.293 Y64.197 E4.29979
G1 X46.132 Y64.685 E4.3179
G1 X45.871 Y65.128 E4.336
G1 X45.522 Y65.506 E4.35411
G1 X45.101 Y65.802 E4.37221
G1 X44.627 Y66.002 E4.39031
G1 X44.071 Y66.095 E4.41015
G1 X44.095 Y65.637 E4.4263
;TYPE:External perimeter
G1 X44.494 Y65.562 E4.44058
G1 X44.878 Y65.4 E4.45525
G1 X45.219 Y65.161 E4.46991
G1 X45.502 Y64.854 E4.48458
G1 X45.713 Y64.495 E4.49924
G1 X45.844 Y64.1 E4.51391
G1 X45.887 Y63.695 E4.52824
G1 X45.875 Y63.468 E4.53624
G1 X45.789 Y63.07 E4.55057
G1 X45.617 Y62.69 E4.56523
G1 X45.369 Y62.356 E4.5799
G1 X45.055 Y62.082 E4.59456
G1 X44.699 Y61.884 E4.6089
G1 X44.485 Y61.807 E4.61689
G1 X44.085 Y61.732 E4.63123
G1 X43.668 Y61.743 E4.64589
G1 X43.273 Y61.839 E4.66023
G1 X43.063 Y61.928 E4.66822
G1 X42.718 Y62.144 E4.68255
G1 X42.419 Y62.434 E4.69722
G1 X42.189 Y62.782 E4.71188
G1 X42.037 Y63.17 E4.72655
G1 X41.971 Y63.581 E4.74121
G1 X41.993 Y63.988 E4.75555
G1 X42.041 Y64.21 E4.76354
G1 X42.189 Y64.589 E4.77788
G1 X42.419 Y64.936 E4.79254
G1 X42.718 Y65.227 E4.80721
G1 X43.071 Y65.448 E4.82187
G1 X43.463 Y65.589 E4.83653
G1 X43.64 Y65.613 E4.84282
;TYPE:Internal perimeter
G1 X43.616 Y66.071 E4.85896
G1 X43.354 Y66.036 E4.86826
G1 X42.87 Y65.862 E4.88636
G1 X42.434 Y65.589 E4.90447
G1 X42.066 Y65.23 E4.92257
G1 X41.781 Y64.801 E4.94068
G1 X41.602 Y64.342 E4.95802
G1 X41.538 Y64.049 E4.96859
G1 X41.512 Y63.557 E4.98593
G1 X41.668 Y62.59 E5.02038
G1 X40.826 Y63.212 E5.05722
G1 X40.593 Y63.453 E5.069
G1 X40.398 Y63.732 E5.08097
G1 X40.248 Y64.037 E5.09294
G1 X40.115 Y64.513 E5.11033
G1 X40.089 Y64.867 E5.12285
G1 X40.117 Y65.206 E5.13481
G1 X40.197 Y65.537 E5.14678
G1 X40.326 Y65.851 E5.15875
G1 X40.512 Y66.158 E5.17139
G1 X40.649 Y66.337 E5.17931
G1 X41.004 Y66.724 E5.19778
G1 X41.404 Y67.064 E5.21625
G1 X41.593 Y67.197 E5.22441
G1 X42.053 Y67.462 E5.24307
