; HEADER_BLOCK_START
; generated by OrcaSlicer 1.6.3 on 2023-06-01 at 16:00:29
; total layer number: 25
; HEADER_BLOCK_END

; THUMBNAIL_BLOCK_START
; THUMBNAIL_BLOCK_END

; external perimeters extrusion width = 0.40mm
; perimeters extrusion width = 0.45mm
; infill extrusion width = 0.45mm
; solid infill extrusion width = 0.40mm
; top infill extrusion width = 0.40mm
; first layer extrusion width = 0.50mm

; EXECUTABLE_BLOCK_START
EXCLUDE_OBJECT_DEFINE NAME=Universal_hotend_mounting_plate.stl_id_0_copy_0 CENTER=60,60 POLYGON=[[39.3835,64.8469],[39.3913,64.6156],[39.4169,64.3855],[39.4602,64.1582],[39.5209,63.9348],[39.5986,63.7168],[39.6929,63.5055],[39.8032,63.302],[39.9289,63.1076],[40.0692,62.9235],[40.2233,62.7508],[43.1413,59.6393],[43.2974,59.4783],[43.4651,59.3293],[43.6435,59.1933],[53.4392,51.8442],[53.7038,51.6533],[53.7973,51.5886],[54.0757,51.4043],[54.1653,51.3474],[54.4574,51.1706],[54.5427,51.1212],[54.8483,50.9526],[54.9288,50.9102],[55.2478,50.7507],[55.3231,50.7149],[55.6551,50.5652],[55.7249,50.5355],[56.0697,50.3965],[56.1335,50.3723],[56.4907,50.2447],[56.5483,50.2255],[56.9176,50.1103],[56.9686,50.0955],[57.3497,49.9933],[57.3938,49.9823],[57.7861,49.8939],[57.8232,49.8863],[58.2262,49.8124],[58.2561,49.8075],[58.6692,49.7489],[58.6918,49.7461],[59.1145,49.7034],[59.1296,49.7022],[59.5612,49.6761],[59.5688,49.6758],[60.0087,49.667],[60.4486,49.6758],[60.4562,49.6761],[60.8878,49.7022],[60.9029,49.7034],[61.3256,49.7461],[61.3482,49.7489],[61.7613,49.8075],[61.7913,49.8124],[62.1942,49.8863],[62.2314,49.8939],[62.6236,49.9823],[62.6678,49.9933],[63.0488,50.0955],[63.0998,50.1103],[63.4692,50.2255],[63.5267,50.2447],[63.884,50.3723],[63.9478,50.3965],[64.2926,50.5355],[64.3623,50.5652],[64.6943,50.7149],[64.7696,50.7507],[65.0886,50.9102],[65.1691,50.9526],[65.4747,51.1212],[65.56,51.1706],[65.8521,51.3474],[65.9418,51.4043],[66.2201,51.5886],[66.3137,51.6533],[66.5782,51.8442],[76.3608,59.1974],[76.5396,59.3345],[76.7076,59.4845],[76.8638,59.6468],[79.7854,62.783],[79.9399,62.9577],[80.0803,63.1439],[80.2058,63.3404],[80.3158,63.5461],[80.4094,63.7597],[80.4861,63.9799],[80.5455,64.2055],[80.5871,64.4349],[80.6109,64.6669],[80.6165,64.9],[80.6041,65.1329],[80.5735,65.3641],[80.5251,65.5922],[80.4592,65.8159],[80.376,66.0338],[80.2762,66.2445],[80.1603,66.4469],[80.0291,66.6397],[79.8505,66.8671],[79.6592,67.0838],[79.4556,67.2891],[79.2404,67.4823],[79.0145,67.6627],[78.7785,67.8297],[78.5333,67.9829],[78.2796,68.1216],[78.0183,68.2454],[77.7503,68.3539],[77.4765,68.4467],[77.1978,68.5236],[76.9151,68.5842],[76.6293,68.6284],[64.8197,70.3084],[64.5928,70.3293],[64.3651,70.333],[55.6524,70.333],[55.4246,70.3293],[55.1977,70.3084],[43.2211,68.6046],[42.9225,68.5476],[42.628,68.4726],[42.3385,68.3798],[42.0552,68.2696],[41.7791,68.1424],[41.5112,67.9986],[41.2526,67.8388],[41.0042,67.6636],[40.7669,67.4737],[40.5415,67.2696],[40.329,67.0522],[40.1301,66.8224],[39.9455,66.5808],[39.818,66.3877],[39.7057,66.1853],[39.6094,65.9748],[39.5296,65.7576],[39.4668,65.5348],[39.4213,65.3079],[39.3935,65.0781],[39.3835,64.8469]]
M73 P0 R9
;TYPE:Custom
START_PRINT T_BED=110 T_EXTRUDER=260
G90
G21
M83 ; use relative distances for extrusion
; Filament gcode

    PRESSURE_ADVANCE_SELECT FILAMENT=ABS
M106 S0
;LAYER_CHANGE
;Z:0.2
;HEIGHT:0.2
;BEFORE_LAYER_CHANGE
;0.2
G92 E0

;AFTER_LAYER_CHANGE
;0.2
SET_VELOCITY_LIMIT ACCEL_TO_DECEL=500
M204 S1000
G1 E-.5 F3000
G1 Z.2 F21000
G1 X42.384 Y56.495
G1 E.5 F1800
;TYPE:Skirt
;WIDTH:0.5
G1 F3000
G1 X51.598 Y49.583 E.40541
G1 X53.044 Y48.622 E.06107
G1 X54.975 Y47.696 E.07539
G1 X56.591 Y47.18 E.05969
G1 X58.375 Y46.85 E.06385
G1 X60.09 Y46.754 E.06046
G1 X62.203 Y46.927 E.07462
G1 X63.858 Y47.297 E.05969
G1 X65.457 Y47.864 E.05969
G1 X66.974 Y48.622 E.05969
G1 X68.421 Y49.584 E.06116
G1 X78.112 Y56.868 E.42665
G1 X78.81 Y57.467 E.03237
G1 X82.266 Y61.203 E.17913
G1 X82.985 Y62.376 E.04843
G1 X83.364 Y63.463 E.04051
G1 X83.486 Y64.138 E.02414
G1 X83.527 Y65.056 E.03233
G1 X83.32 Y66.417 E.04843
G1 X83.099 Y67.073 E.02437
G1 X82.689 Y67.895 E.03233
G1 X81.728 Y69.136 E.05524
G1 X80.833 Y69.94 E.04235
G1 X79.931 Y70.54 E.03812
G1 X78.835 Y71.058 E.04267
G1 X77.809 Y71.373 E.03779
G1 X65.23 Y73.194 E.4473
G1 X64.365 Y73.247 E.0305
G1 X55.157 Y73.231 E.32407
G1 X42.811 Y71.49 E.43881
G1 X41.738 Y71.248 E.03869
G1 X40.551 Y70.785 E.04486
G1 X39.573 Y70.22 E.03973
G1 X38.585 Y69.43 E.04452
G1 X37.514 Y68.186 E.05777
G1 X37.157 Y67.599 E.02419
G1 X36.794 Y66.762 E.03209
G1 X36.564 Y65.88 E.03209
G1 X36.482 Y65.204 E.02396
G1 X36.495 Y64.293 E.03209
G1 X36.597 Y63.613 E.02419
G1 X37.032 Y62.318 E.04807
G1 X37.611 Y61.341 E.03997
G1 X41.019 Y57.643 E.177
G1 X41.877 Y56.876 E.04049
G1 X42.336 Y56.531 E.0202
G1 X42.639 Y56.932 F21000
G1 F3000
G1 X51.873 Y49.948 E.40746
G1 X53.266 Y49.022 E.05889
G1 X55.147 Y48.119 E.07343
G1 X56.71 Y47.621 E.05773
G1 X58.421 Y47.304 E.06124
G1 X60.081 Y47.211 E.0585
G1 X62.138 Y47.38 E.07266
G1 X63.739 Y47.738 E.05773
G1 X65.284 Y48.288 E.05773
G1 X66.751 Y49.022 E.05773
G1 X68.147 Y49.949 E.05897
G1 X78.481 Y57.784 E.45639
G1 X81.901 Y61.478 E.1772
G1 X82.483 Y62.388 E.03801
G1 X82.862 Y63.354 E.03653
G1 X83.005 Y63.996 E.02313
G1 X83.073 Y64.84 E.02983
G1 X82.882 Y66.287 E.05136
G1 X82.672 Y66.91 E.02312
G1 X82.293 Y67.668 E.02983
G1 X81.404 Y68.814 E.05105
G1 X80.548 Y69.583 E.04049
G1 X79.712 Y70.139 E.03533
G1 X78.664 Y70.634 E.04079
G1 X77.713 Y70.926 E.03503
G1 X65.166 Y72.741 E.44618
G1 X64.365 Y72.79 E.02823
G1 X55.199 Y72.776 E.32259
G1 X42.875 Y71.037 E.43802
G1 X41.588 Y70.72 E.04664
G1 X40.612 Y70.304 E.03735
G1 X39.588 Y69.672 E.04235
G1 X38.785 Y68.987 E.03714
G1 X37.768 Y67.742 E.0566
G1 X37.165 Y66.424 E.05098
G1 X36.982 Y65.603 E.02961
G1 X36.929 Y64.953 E.02295
G1 X37.089 Y63.514 E.05097
G1 X37.449 Y62.504 E.03772
G1 X38.115 Y61.434 E.04435
G1 X41.533 Y57.768 E.17641
G1 X42.591 Y56.968 E.04667
; printing object Universal hotend mounting plate.stl id:0 copy 0
EXCLUDE_OBJECT_START NAME=Universal_hotend_mounting_plate.stl_id_0_copy_0
G1 E-.5
G1 Z.4 F21000
G1 X73.291 Y61.008
G1 Z.2
G1 E.5 F1800
;TYPE:Inner wall
;WIDTH:0.499999
G1 F3000
G1 X73.118 Y61.186 E.00876
G1 X72.8 Y61.614 E.01878
G1 X72.461 Y62.273 E.02608
G1 X72.294 Y62.776 E.01864
G1 X72.207 Y63.304 E.01884
G1 X72.212 Y64.048 E.02618
G1 X72.317 Y64.606 E.02
G1 X72.493 Y65.139 E.01974
G1 X72.734 Y65.625 E.0191
G1 X72.931 Y65.923 E.01257
G1 X73.42 Y66.466 E.02572
M73 P1 R9
G1 X71.281 Y66.483 E.07528
G1 X70.575 Y66.464 E.02483
G1 X70.527 Y65.561 E.03182
G1 X70.384 Y64.938 E.02249
G1 X70.13 Y64.303 E.02407
G1 X69.831 Y63.73 E.02275
G1 X70.255 Y63.146 E.02541
G1 X70.492 Y62.692 E.01801
G1 X70.682 Y62.149 E.02025
G1 X70.849 Y61.549 E.02193
G1 X70.923 Y60.84 E.02508
G1 X73.447 Y60.848 E.08882
G1 X73.333 Y60.964 E.00573
G1 X73.618 Y61.322 F21000
G1 F3000
G1 X73.485 Y61.459 E.00672
G1 X73.167 Y61.887 E.01878
G1 X72.949 Y62.279 E.01577
G1 X72.77 Y62.755 E.01791
G1 X72.661 Y63.362 E.02171
G1 X72.667 Y64.009 E.02274
G1 X72.751 Y64.463 E.01626
G1 X72.925 Y64.99 E.01953
G1 X73.312 Y65.67 E.02754
G1 X73.796 Y66.195 E.02513
G1 X74.155 Y66.462 E.01573
G1 X74.622 Y66.72 E.01877
G1 X75.039 Y66.88 E.01575
;WIDTH:0.4939
G1 X75.216 Y66.909 E.00622
;WIDTH:0.466323
G1 X75.393 Y66.938 E.00584
;WIDTH:0.469373
G1 X74.983 Y66.926 E.01349
;WIDTH:0.499999
G1 X74.572 Y66.914 E.01445
G1 X70.073 Y66.95 E.15835
G1 X70.119 Y66.483 E.01652
G1 X70.091 Y65.803 E.02392
G1 X69.992 Y65.258 E.01952
G1 X69.829 Y64.736 E.01924
G1 X69.542 Y64.129 E.02362
G1 X69.262 Y63.7 E.01803
G1 X69.819 Y62.991 E.03173
G1 X70.057 Y62.541 E.01793
G1 X70.243 Y62.022 E.0194
G1 X70.402 Y61.456 E.02067
G1 X70.467 Y60.81 E.02288
G1 X70.452 Y60.341 E.01651
G1 X70.752 Y60.383 E.01069
G1 X72.984 Y60.383 E.07855
G1 X74.577 Y60.408 E.05607
G1 X74.98 Y60.468 E.01431
G1 X74.838 Y60.513 E.00524
G1 X74.381 Y60.728 E.01776
G1 X73.797 Y61.139 E.02513
G1 X73.66 Y61.279 E.0069
G1 E-.5
G1 Z.4 F21000
G1 X68.651 Y57.67
G1 Z.2
G1 E.5 F1800
;WIDTH:0.501796
G1 F3000
G1 X69.032 Y57.148 E.02284
G1 X69.221 Y57.686 E.02012
G1 X69.497 Y58.657 E.03568
;WIDTH:0.472004
G1 X69.583 Y58.967 E.01062
;WIDTH:0.491431
G1 X69.465 Y58.659 E.01138
;WIDTH:0.501796
G1 X69.305 Y58.4 E.01077
G1 X68.871 Y57.877 E.02399
G1 X68.695 Y57.712 E.00856
G1 E-.5
G1 Z.4 F21000
G1 X66.149 Y57.817
G1 Z.2
G1 E.5 F1800
;TYPE:Outer wall
;WIDTH:0.426166
G1 F3000
G1 X65.452 Y57.853 E.02059
;WIDTH:0.426554
G1 X65.45 Y57.853 E.00007
G1 E-.5
G1 Z.4 F21000
G1 X66.416 Y57.604
G1 X66.615 Y57.537
G1 X66.818 Y57.452
G1 X67.014 Y57.349
G1 X67.201 Y57.231
G1 X68.185 Y56.607
G1 X68.258 Y56.37
G1 X68.357 Y55.231
G1 X68.366 Y55.01
G1 X68.357 Y54.79
G1 X68.329 Y54.571
G1 X68.287 Y54.364
G1 X68.229 Y54.162
G1 X68.151 Y53.956
G1 X68.057 Y53.756
G1 X67.946 Y53.565
G1 X67.827 Y53.392
G1 X67.306 Y52.662
G1 Z.2
G1 E.5 F1800
;WIDTH:0.41721
G1 F3000
G1 X67.882 Y53.224 E.02319
;WIDTH:0.429322
G1 X68.093 Y53.477 E.0098
G1 E-.5
G1 Z.4 F21000
G1 X67.369 Y52.915
G1 X67.201 Y52.789
G1 X67.023 Y52.676
G1 X66.828 Y52.573
G1 X66.625 Y52.486
G1 X66.416 Y52.416
G1 X66.201 Y52.364
G1 X65.983 Y52.329
G1 X65.773 Y52.312
G1 X65.563 Y52.312
G1 X65.343 Y52.329
G1 X64.43 Y52.406
G1 X64.187 Y52.434
G1 X63.927 Y52.484
G1 X63.664 Y52.558
G1 X63.399 Y52.656
G1 X63.136 Y52.779
G1 X59.052 Y56.457
G1 Z.2
G1 E.5 F1800
;TYPE:Inner wall
;WIDTH:0.499999
G1 F3000
G1 X59.232 Y55.602 E.03075
G1 X59.273 Y55.015 E.02072
G1 X59.23 Y54.395 E.02189
G1 X59.151 Y53.962 E.01549
G1 X58.962 Y53.309 E.02392
G1 X58.597 Y52.528 E.03034
G1 X58.278 Y52.07 E.01964
G1 X58.588 Y52.006 E.01112
G1 X59.274 Y51.922 E.02434
G1 X60.387 Y51.899 E.03919
G1 X61.077 Y51.955 E.02434
G1 X61.735 Y52.063 E.02348
G1 X61.387 Y52.597 E.02242
G1 X61.135 Y53.126 E.02062
G1 X60.949 Y53.619 E.01856
G1 X60.809 Y54.213 E.02148
G1 X60.752 Y54.832 E.02186
G1 X60.76 Y55.274 E.01554
G1 X60.839 Y55.927 E.02317
G1 X60.977 Y56.465 E.01953
G1 X60.313 Y56.361 E.02362
G1 X59.718 Y56.356 E.02095
G1 X59.111 Y56.448 E.02161
G1 E-.5
G1 Z.4 F21000
G1 X58.239 Y57.235
G1 Z.2
G1 E.5 F1800
G1 F3000
G1 X58.581 Y56.439 E.03046
G1 X58.721 Y55.902 E.01954
G1 X58.783 Y55.475 E.01519
G1 X58.81 Y54.872 E.02126
G1 X58.712 Y54.089 E.02777
G1 X58.529 Y53.456 E.02317
G1 X58.357 Y53.055 E.01538
G1 X58.004 Y52.456 E.02446
G1 X57.442 Y51.805 E.03027
G1 X57.779 Y51.706 E.01238
G1 X58.514 Y51.554 E.02638
G1 X59.241 Y51.465 E.02581
G1 X60.401 Y51.442 E.04083
G1 X61.132 Y51.501 E.02582
G1 X61.873 Y51.623 E.02642
G1 X62.588 Y51.801 E.02593
G1 X62.464 Y51.911 E.00586
G1 X62.129 Y52.3 E.01806
G1 X61.8 Y52.794 E.02088
G1 X61.548 Y53.323 E.02062
G1 X61.393 Y53.729 E.0153
G1 X61.243 Y54.429 E.0252
G1 X61.214 Y55.219 E.02781
G1 X61.278 Y55.744 E.01862
G1 X61.39 Y56.266 E.01881
G1 X61.584 Y56.778 E.01925
G1 X61.812 Y57.253 E.01856
G1 X61.439 Y57.087 E.01438
G1 X60.842 Y56.904 E.02197
G1 X60.303 Y56.818 E.01923
G1 X59.58 Y56.831 E.02543
G1 X58.859 Y56.983 E.02595
G1 X58.295 Y57.212 E.02143
G1 E-.5
G1 Z.4 F21000
G1 X57.042 Y58.011
G1 Z.2
G1 E.5 F1800
;WIDTH:0.569724
G1 F3000
G1 X57.083 Y57.979 E.00211
;WIDTH:0.599765
G1 X57.471 Y57.57 E.02417
G1 X57.561 Y57.428 E.00721
;WIDTH:0.557815
G1 X57.651 Y57.286 E.00666
;WIDTH:0.515864
G1 X57.931 Y56.765 E.02155
;WIDTH:0.499999
G1 X58.182 Y56.177 E.02247
G1 X58.328 Y55.438 E.02653
G1 X58.355 Y54.909 E.01862
G1 X58.273 Y54.216 E.02456
G1 X58.09 Y53.584 E.02317
G1 X57.952 Y53.267 E.01216
G1 X57.65 Y52.745 E.02121
G1 X57.013 Y52.023 E.03389
G1 X56.503 Y51.639 E.02245
G1 X56.892 Y51.49 E.01465
G1 X57.669 Y51.262 E.02848
G1 X58.439 Y51.103 E.0277
G1 X59.209 Y51.009 E.02728
G1 X60.415 Y50.984 E.04246
G1 X61.134 Y51.043 E.02538
G1 X62.171 Y51.226 E.03706
G1 X62.747 Y51.371 E.02092
G1 X63.519 Y51.633 E.02867
G1 X63.275 Y51.802 E.01043
G1 X62.767 Y52.253 E.02391
G1 X62.494 Y52.575 E.01483
G1 X62.213 Y52.99 E.01768
G1 X61.837 Y53.838 E.03264
G1 X61.699 Y54.465 E.0226
G1 X61.668 Y55.164 E.0246
G1 X61.747 Y55.817 E.02317
G1 X61.88 Y56.27 E.01661
G1 X62.17 Y56.963 E.02644
;WIDTH:0.547285
G1 X62.334 Y57.249 E.0128
;WIDTH:0.59457
G1 X62.498 Y57.535 E.014
G1 X62.974 Y58.011 E.0286
;WIDTH:0.572371
G1 X62.646 Y58.462 E.02272
G1 X62.554 Y58.353 E.00581
;WIDTH:0.578044
G1 X62.08 Y57.917 E.02656
G1 X61.797 Y57.766 E.01318
;WIDTH:0.539022
G1 X61.515 Y57.615 E.01222
;WIDTH:0.499999
G1 X60.92 Y57.388 E.02243
G1 X60.292 Y57.275 E.02244
G1 X59.655 Y57.282 E.02243
G1 X59.016 Y57.412 E.02294
G1 X58.439 Y57.647 E.02192
;WIDTH:0.549882
G1 X58.155 Y57.801 E.01263
;WIDTH:0.599765
G1 X57.87 Y57.955 E.01387
G1 X57.383 Y58.452 E.02985
;WIDTH:0.569724
G1 X57.079 Y58.058 E.02016
G1 X56.246 Y57.964 F21000
;WIDTH:0.499999
G1 F3000
G1 X56.369 Y57.893 E.005
G1 X56.874 Y57.496 E.0226
G1 X57.268 Y57.019 E.02177
G1 X57.518 Y56.569 E.01812
G1 X57.738 Y56.068 E.01926
G1 X57.862 Y55.526 E.01956
G1 X57.902 Y55.012 E.01814
G1 X57.863 Y54.507 E.01781
G1 X57.746 Y54.039 E.01699
G1 X57.547 Y53.479 E.02092
G1 X57.296 Y53.035 E.01796
G1 X56.739 Y52.388 E.03005
G1 X56.212 Y51.992 E.02319
G1 X55.992 Y51.875 E.00876
G1 X55.379 Y51.628 E.02326
G1 X55.99 Y51.347 E.02366
G1 X56.745 Y51.057 E.02849
G1 X57.558 Y50.818 E.0298
G1 X58.365 Y50.652 E.02902
G1 X59.176 Y50.552 E.02875
G1 X60.429 Y50.527 E.0441
G1 X61.244 Y50.593 E.02876
G1 X62.058 Y50.727 E.02904
G1 X62.858 Y50.926 E.02904
G1 X63.366 Y51.097 E.01886
G1 X64.071 Y51.367 E.02656
G1 X64.631 Y51.626 E.02172
G1 X64.049 Y51.856 E.02201
G1 X63.578 Y52.144 E.01944
G1 X62.965 Y52.709 E.02933
G1 X62.625 Y53.187 E.02065
G1 X62.28 Y53.947 E.02939
G1 X62.154 Y54.502 E.02
G1 X62.121 Y55.108 E.02139
G1 X62.201 Y55.762 E.02317
G1 X62.308 Y56.108 E.01274
G1 X62.556 Y56.718 E.02319
G1 X62.872 Y57.197 E.02019
G1 X63.29 Y57.633 E.02127
G1 X63.77 Y57.965 E.02052
G1 X63.304 Y58.386 E.02212
G1 X62.919 Y58.931 E.02348
G1 X62.691 Y59.462 E.02033
G1 X62.608 Y59.277 E.00714
G1 X62.303 Y58.816 E.01943
G1 X61.917 Y58.421 E.01943
G1 X61.465 Y58.105 E.01943
G1 X60.962 Y57.878 E.01943
G1 X60.37 Y57.739 E.02139
G1 X59.864 Y57.722 E.01783
G1 X59.327 Y57.799 E.01908
G1 X58.804 Y57.977 E.01943
G1 X58.324 Y58.249 E.01943
G1 X57.902 Y58.605 E.01943
G1 X57.555 Y59.034 E.01943
G1 X57.34 Y59.462 E.01686
G1 X57.236 Y59.196 E.01005
G1 X56.967 Y58.712 E.01946
G1 X56.657 Y58.317 E.01766
G1 X56.292 Y58.003 E.01697
G1 E-.5
G1 Z.4 F21000
G1 X59.813 Y57.887
G1 X60.065 Y57.882
G1 X60.333 Y57.899
G1 X60.592 Y57.942
G1 X60.845 Y58.009
G1 X61.09 Y58.099
G1 X61.302 Y58.257
G1 X61.468 Y58.469
G1 X61.608 Y58.689
G1 X63.506 Y62.24
M73 P2 R9
G1 X63.704 Y62.393
G1 X64.474 Y62.888
G1 X64.651 Y63.001
G1 X64.847 Y63.104
G1 X65.049 Y63.191
G1 X65.259 Y63.261
G1 X66.211 Y63.515
G1 Z.2
G1 E.5 F1800
;TYPE:Outer wall
;WIDTH:0.411804
G1 F3000
G1 X65.578 Y63.471 E.01803
;WIDTH:0.399918
G1 X65.561 Y63.469 E.00046
G1 E-.5
G1 Z.4 F21000
G1 X66.416 Y63.73
G1 X66.625 Y63.8
G1 X66.828 Y63.887
G1 X67.023 Y63.99
G1 X67.201 Y64.103
G1 X68.185 Y64.727
G1 X68.404 Y64.887
G1 X68.625 Y65.069
G1 X68.85 Y65.27
G1 X68.954 Y65.514
G1 X69.007 Y65.773
G1 X68.988 Y66.051
G1 X68.89 Y66.324
G1 X68.754 Y66.577
G1 X68.615 Y66.81
G1 X67.47 Y68.55
G1 Z.2
G1 E.5 F1800
;WIDTH:0.444208
G1 F3000
G1 X67.117 Y68.81 E.01354
G1 E-.5
G1 Z.4 F21000
G1 X66.211 Y68.968
G1 X65.993 Y69.004
G1 X65.773 Y69.022
G1 X65.553 Y69.022
G1 X65.333 Y69.003
G1 X65.125 Y68.969
G1 X64.466 Y68.852
G1 X64.239 Y68.788
G1 X64.028 Y68.703
G1 X63.817 Y68.589
G1 X63.621 Y68.447
G1 X59.075 Y64.887
G1 Z.2
G1 E.5 F1800
;TYPE:Inner wall
;WIDTH:0.542585
G1 F3000
G1 X59.404 Y64.957 E.01294
G1 X59.905 Y64.986 E.01932
;WIDTH:0.524253
G1 X60.427 Y64.979 E.01931
;WIDTH:0.542743
G1 X60.94 Y64.899 E.01999
G1 X60.8 Y65.503 E.02385
G1 X60.298 Y65.45 E.01941
;WIDTH:0.521301
G1 X59.614 Y65.458 E.02522
;WIDTH:0.542585
G1 X59.222 Y65.506 E.01519
G1 X59.089 Y64.945 E.0222
G1 E-.5
G1 Z.4 F21000
G1 X58.201 Y64.075
G1 Z.2
G1 E.5 F1800
;WIDTH:0.499999
G1 F3000
G1 X58.915 Y64.363 E.02708
G1 X59.677 Y64.516 E.02737
G1 X60.303 Y64.516 E.02202
G1 X60.769 Y64.446 E.01658
G1 X61.317 Y64.299 E.01996
G1 X61.841 Y64.061 E.02026
G1 X61.567 Y64.554 E.01983
G1 X61.371 Y65.119 E.02108
G1 X61.273 Y65.58 E.01657
G1 X61.208 Y66.107 E.01868
