; HEADER_BLOCK_START
; generated by OrcaSlicer 1.7.0-beta on 2023-09-29 at 10:55:30
; total layer number: 102
; HEADER_BLOCK_END

; THUMBNAIL_BLOCK_START
; THUMBNAIL_BLOCK_END

; external perimeters extrusion width = 0.40mm
; perimeters extrusion width = 0.46mm
; infill extrusion width = 0.64mm
; solid infill extrusion width = 0.56mm
; top infill extrusion width = 0.40mm
; first layer extrusion width = 0.50mm

; external perimeters extrusion width = 0.40mm
; perimeters extrusion width = 0.46mm
; infill extrusion width = 0.64mm
; solid infill extrusion width = 0.56mm
; top infill extrusion width = 0.40mm
; first layer extrusion width = 0.50mm

; EXECUTABLE_BLOCK_START
EXCLUDE_OBJECT_DEFINE NAME=Unklicky_SB_pin.stl_id_0_copy_0 CENTER=60.0715,66.0938 POLYGON=[[56.0938,65.0179],[56.1473,64.8397],[56.2088,64.6642],[56.2784,64.4917],[56.3558,64.3226],[56.4409,64.1572],[56.5335,63.9959],[56.6334,63.839],[56.7403,63.6869],[56.8542,63.5398],[56.9747,63.3981],[57.1016,63.2621],[57.2346,63.1321],[57.3734,63.0083],[57.5177,62.891],[57.6673,62.7805],[57.8218,62.6769],[57.9809,62.5806],[58.1443,62.4917],[58.3115,62.4103],[58.4823,62.3367],[58.6564,62.2711],[58.8332,62.2135],[59.0125,62.164],[59.1939,62.1229],[59.377,62.0901],[59.5614,62.0658],[59.7467,62.05],[59.9325,62.0427],[60.1185,62.0439],[60.3043,62.0537],[60.4894,62.072],[60.6734,62.0987],[60.856,62.1339],[61.0369,62.1774],[61.2155,62.2292],[61.3916,62.2892],[61.5647,62.3571],[61.7345,62.4329],[61.9007,62.5165],[62.0629,62.6076],[62.2207,62.706],[62.3738,62.8116],[62.5219,62.9241],[62.6647,63.0433],[62.7301,63.1023],[62.7381,63.1096],[62.7493,63.1198],[62.7635,63.133],[62.8018,63.1689],[62.8497,63.2161],[62.8779,63.2444],[62.9331,63.3007],[62.9741,63.3451],[63.0091,63.3834],[63.0582,63.4383],[63.0816,63.4661],[63.1192,63.5109],[63.1768,63.5816],[63.1984,63.6098],[63.2394,63.6636],[63.2887,63.7302],[63.3229,63.7791],[63.365,63.8406],[63.3937,63.8837],[63.4068,63.9044],[63.4482,63.9703],[63.4915,64.0419],[63.5286,64.1074],[63.5448,64.1365],[63.5819,64.2044],[63.6048,64.2494],[63.6279,64.2954],[63.6408,64.3214],[63.6648,64.3709],[63.6752,64.3937],[63.7078,64.4659],[63.74,64.5411],[63.7688,64.613],[63.7728,64.6233],[63.8072,64.7144],[63.8342,64.7918],[63.8502,64.8405],[63.8648,64.8857],[63.8665,64.8908],[63.8881,64.9628],[63.8966,64.9926],[63.9144,65.0576],[63.918,65.0715],[63.9343,65.1361],[63.9524,65.2142],[63.9563,65.2314],[63.9609,65.2524],[63.9729,65.3112],[63.9808,65.3539],[63.9905,65.407],[63.9953,65.4352],[64.0037,65.4878],[64.0118,65.5458],[64.017,65.5839],[64.0214,65.6194],[64.0266,65.6657],[64.0311,65.7134],[64.0355,65.7618],[64.0389,65.8046],[64.0419,65.8454],[64.0433,65.8741],[64.0462,65.9404],[64.0481,65.9909],[64.0491,66.0304],[64.0491,66.0838],[64.0491,66.099],[64.0491,66.1192],[64.0486,66.1769],[64.0478,66.2155],[64.0405,66.3627],[64.0381,66.4004],[64.024,66.548],[64.0199,66.5846],[63.9989,66.7323],[63.9933,66.7678],[63.9654,66.9152],[63.9584,66.9496],[63.9235,67.0965],[63.9153,67.1296],[63.8734,67.2756],[63.8639,67.3075],[63.8151,67.4522],[63.8044,67.4828],[63.7488,67.6259],[63.7371,67.6553],[63.6745,67.7965],[63.6619,67.8244],[63.5925,67.9634],[63.579,67.99],[63.5029,68.1264],[63.4887,68.1516],[63.4059,68.2851],[63.3911,68.3089],[63.3018,68.4392],[63.2864,68.4616],[63.1906,68.5883],[63.1748,68.6093],[63.0566,68.7518],[62.932,68.8887],[62.8013,69.0198],[62.6647,69.1448],[62.5225,69.2634],[62.3751,69.3754],[62.2227,69.4805],[62.0657,69.5786],[61.9044,69.6693],[61.739,69.7526],[61.5701,69.8283],[61.3978,69.8962],[61.2227,69.9561],[61.045,70.008],[60.8651,70.0517],[60.6834,70.0871],[60.5002,70.1142],[60.316,70.1328],[60.1312,70.1431],[59.9461,70.1449],[59.7611,70.1382],[59.5766,70.1231],[59.3929,70.0995],[59.2106,70.0676],[59.0299,70.0274],[58.8512,69.979],[58.6749,69.9224],[58.5014,69.8579],[58.331,69.7855],[58.1641,69.7054],[56.0947,65.021],[56.0938,65.0179]]
EXCLUDE_OBJECT_DEFINE NAME=Unklicky_z_6mm_pin.stl_id_1_copy_0 CENTER=60,53.449 POLYGON=[[55.9508,53.0748],[55.9514,52.8875],[55.9515,52.8816],[55.961,52.6942],[55.9615,52.6886],[55.9799,52.5016],[55.9806,52.4963],[56.008,52.3101],[56.0088,52.3052],[56.0452,52.1201],[56.0462,52.1156],[56.0914,51.9322],[56.0925,51.9281],[56.1465,51.7467],[56.1477,51.7429],[56.2104,51.564],[56.2117,51.5606],[56.283,51.3846],[56.2844,51.3816],[56.3641,51.2088],[56.3654,51.2062],[56.4535,51.0372],[56.4548,51.0349],[56.551,50.87],[56.5522,50.868],[56.6564,50.7076],[56.6575,50.706],[56.7693,50.5505],[56.7704,50.5492],[56.8899,50.3987],[56.8904,50.3981],[57.0173,50.2532],[57.0179,50.2526],[57.1515,50.1139],[57.152,50.1135],[57.2925,49.981],[57.4393,49.8552],[58.5823,49.8552],[61.6356,49.855],[62.5605,49.855],[62.7073,49.9808],[62.8478,50.1132],[62.848,50.1134],[62.8483,50.1137],[62.9819,50.2523],[62.9825,50.2529],[62.9826,50.2531],[63.1094,50.3979],[63.1099,50.3985],[63.1101,50.3987],[63.2297,50.5492],[63.2303,50.55],[63.2305,50.5502],[63.3423,50.7057],[63.3435,50.7074],[63.4476,50.8677],[63.4489,50.8697],[63.5451,51.0346],[63.5464,51.0369],[63.6344,51.2059],[63.6358,51.2086],[63.7155,51.3812],[63.7169,51.3843],[63.7882,51.5603],[63.7895,51.5637],[63.8522,51.7426],[63.8534,51.7464],[63.9074,51.9277],[63.9086,51.932],[63.9538,52.1153],[63.9548,52.1199],[63.9911,52.3049],[63.992,52.3098],[64.0194,52.496],[64.0201,52.5013],[64.0385,52.6883],[64.039,52.694],[64.0485,52.8812],[64.0486,52.8873],[64.0492,53.0744],[64.0491,53.0808],[64.0407,53.2675],[64.0402,53.2742],[64.023,53.4599],[64.0222,53.4669],[63.9962,53.6512],[63.9949,53.6585],[63.9602,53.841],[63.9586,53.8486],[63.9153,54.0289],[63.9132,54.0368],[63.8614,54.2145],[63.8588,54.2225],[63.7987,54.3973],[63.7957,54.4055],[63.7274,54.5768],[63.7239,54.5852],[63.6476,54.7528],[63.6435,54.7613],[63.5596,54.9248],[63.5549,54.9334],[63.4634,55.0924],[63.4581,55.101],[63.3593,55.2551],[63.3535,55.2638],[63.2476,55.4128],[63.2411,55.4214],[63.1285,55.5649],[63.1214,55.5735],[63.0023,55.7112],[62.9945,55.7197],[62.8692,55.8513],[62.8608,55.8596],[62.7296,55.9849],[62.7206,55.9931],[62.5838,56.1117],[62.5742,56.1196],[62.4321,56.2313],[62.4218,56.239],[62.2749,56.3437],[62.264,56.351],[62.1125,56.4483],[62.101,56.4554],[61.9453,56.5452],[61.9332,56.5518],[61.7736,56.6339],[61.7609,56.6401],[61.6402,56.6959],[61.6382,56.6969],[61.6322,56.6995],[61.6223,56.7039],[61.6084,56.71],[61.5905,56.7177],[61.5687,56.7268],[61.543,56.7375],[61.5133,56.7496],[61.4797,56.7629],[61.4658,56.7684],[61.4424,56.7773],[61.4187,56.7863],[61.4048,56.7915],[61.358,56.8084],[61.3114,56.8246],[61.2882,56.8326],[61.2622,56.8412],[61.2361,56.8497],[61.2239,56.8536],[61.2107,56.8577],[61.1572,56.8741],[61.1079,56.8884],[61.101,56.8904],[61.0508,56.9042],[61.0403,56.907],[60.9785,56.9228],[60.9251,56.9358],[60.8631,56.9499],[60.8543,56.9518],[60.7733,56.9683],[60.7404,56.9747],[60.7,56.9819],[60.6734,56.9865],[60.6664,56.9877],[60.6248,56.9944],[60.554,57.0049],[60.4821,57.0141],[60.4771,57.0147],[60.3664,57.0263],[60.2898,57.0325],[60.2867,57.0328],[60.2292,57.0362],[60.178,57.039],[60.1488,57.04],[60.0968,57.0418],[60.0956,57.0418],[60.0688,57.0423],[59.9896,57.0429],[59.9892,57.0429],[59.9103,57.0419],[59.9044,57.0418],[59.9036,57.0418],[59.8303,57.0392],[59.8005,57.038],[59.7133,57.0328],[59.7106,57.0326],[59.6695,57.0291],[59.6122,57.0243],[59.5229,57.0147],[59.5182,57.0142],[59.4315,57.0028],[59.4247,57.0018],[59.3546,56.9912],[59.3336,56.9877],[59.327,56.9866],[59.2794,56.9783],[59.2385,56.9707],[59.2062,56.9643],[59.1457,56.9518],[59.1373,56.95],[59.0539,56.9309],[59.0013,56.9177],[58.9598,56.907],[58.9496,56.9043],[58.9385,56.9013],[58.8789,56.8846],[58.8714,56.8825],[58.8228,56.868],[58.7762,56.8536],[58.7642,56.8498],[58.7179,56.8346],[58.6913,56.8257],[58.6687,56.8178],[58.6222,56.8012],[58.5952,56.7915],[58.5878,56.7887],[58.5817,56.7864],[58.5378,56.7697],[58.5142,56.7605],[58.5006,56.7551],[58.467,56.7416],[58.4373,56.7293],[58.4116,56.7185],[58.3898,56.7092],[58.3719,56.7014],[58.358,56.6953],[58.3481,56.6908],[58.3237,56.6797],[58.2813,56.6601],[58.2391,56.6401],[58.2267,56.634],[58.0669,56.5518],[58.0551,56.5453],[57.8991,56.4554],[57.8878,56.4485],[57.7361,56.351],[57.7254,56.3439],[57.5782,56.239],[57.5682,56.2316],[57.4259,56.1196],[57.4165,56.1119],[57.2794,55.9931],[57.2707,55.9851],[57.1392,55.8597],[57.1311,55.8515],[57.0055,55.7197],[56.998,55.7115],[56.8787,55.5736],[56.8718,55.5652],[56.7589,55.4215],[56.7527,55.4131],[56.6466,55.2639],[56.6409,55.2554],[56.542,55.1011],[56.5368,55.0927],[56.4452,54.9335],[56.4406,54.9251],[56.3565,54.7614],[56.3525,54.7531],[56.2762,54.5853],[56.2727,54.5772],[56.2044,54.4056],[56.2014,54.3976],[56.1412,54.2227],[56.1387,54.2148],[56.0869,54.0369],[56.0849,54.0293],[56.0415,53.8488],[56.0399,53.8414],[56.0051,53.6587],[56.0039,53.6515],[55.9779,53.4671],[55.977,53.4602],[55.9598,53.2744],[55.9594,53.2678],[55.951,53.081],[55.9508,53.0748]]
M73 P0 R7
;TYPE:Custom
START_PRINT T_BED=110 T_EXTRUDER=260
G90
G21
M83 ; use relative distances for extrusion
; Filament gcode

    PRESSURE_ADVANCE_SELECT FILAMENT=ABS
M106 S0
;LAYER_CHANGE
;Z:0.2
;HEIGHT:0.2
;BEFORE_LAYER_CHANGE
;0.2
G92 E0

;AFTER_LAYER_CHANGE
;0.2
;_SET_FAN_SPEED_CHANGING_LAYER
SET_VELOCITY_LIMIT ACCEL=1000 ACCEL_TO_DECEL=500
SET_VELOCITY_LIMIT SQUARE_CORNER_VELOCITY=9
G1 E-.5 F3000
G1 Z.2 F21000
G1 X55.316 Y48.395
G1 Z.2
G1 E.5 F1800
;TYPE:Skirt
;WIDTH:0.5
G1 F3000
G1 X55.596 Y48.126 E.01367
G1 X57.586 Y47.341 E.07529
G1 X62.413 Y47.341 E.16988
G1 X64.335 Y48.064 E.07226
G1 X65.123 Y48.89 E.04019
G1 X65.842 Y50.001 E.04656
G1 X66.302 Y51.157 E.04379
G1 X66.526 Y52.297 E.04088
G1 X66.561 Y66.186 E.4888
G1 X66.39 Y67.586 E.04964
G1 X65.956 Y68.848 E.04698
G1 X65.313 Y69.944 E.04471
G1 X64.472 Y70.895 E.0447
G1 X63.407 Y71.701 E.04699
G1 X62.263 Y72.253 E.04471
G1 X61.034 Y72.574 E.0447
G1 X59.766 Y72.652 E.04471
G1 X58.443 Y72.469 E.04699
G1 X57.323 Y72.085 E.04168
G1 X55.804 Y70.583 E.07518
G1 X53.854 Y66.168 E.16986
G1 X53.606 Y65.032 E.04093
G1 X53.437 Y52.956 E.42504
G1 X53.624 Y51.437 E.05387
G1 X53.864 Y50.661 E.02857
G1 X54.226 Y49.871 E.03058
G1 X54.763 Y49.036 E.03494
G1 X55.29 Y48.425 E.02838
G1 X55.612 Y48.752 F21000
G1 F3000
G1 X55.908 Y48.46 E.01465
G1 X57.586 Y47.798 E.06348
G1 X62.413 Y47.798 E.16988
G1 X64.033 Y48.408 E.06093
G1 X64.763 Y49.171 E.03714
G1 X65.432 Y50.204 E.04331
G1 X65.865 Y51.291 E.04119
G1 X66.071 Y52.337 E.03752
G1 X66.104 Y66.185 E.48738
G1 X65.946 Y67.476 E.04576
G1 X65.592 Y68.542 E.03954
G1 X65.016 Y69.573 E.04158
G1 X64.251 Y70.475 E.04159
G1 X63.286 Y71.238 E.04331
G1 X62.222 Y71.779 E.04201
G1 X61.085 Y72.101 E.04159
G1 X59.908 Y72.198 E.04158
G1 X58.674 Y72.053 E.04372
G1 X57.503 Y71.665 E.04343
G1 X56.222 Y70.398 E.06339
G1 X54.273 Y65.983 E.16986
G1 X54.063 Y65.025 E.03451
G1 X53.894 Y52.95 E.42501
G1 X54.067 Y51.549 E.04969
G1 X54.294 Y50.818 E.02692
G1 X54.625 Y50.094 E.02803
G1 X55.519 Y48.844 E.05409
G1 X55.584 Y48.781 E.00318
; printing object Unklicky_SB_pin.stl id:0 copy 0
G1 E-.5
EXCLUDE_OBJECT_START NAME=Unklicky_SB_pin.stl_id_0_copy_0
G1 Z.4 F21000
G1 X58.729 Y69.133 Z.4
G1 Z.2
G1 E.5 F1800
;TYPE:Outer wall
G1 F3000
G1 X58.373 Y68.379 E.02934
G1 X57.915 Y67.53 E.03397
G1 X57.338 Y66.224 E.05024
G1 X57.024 Y65.312 E.03396
G1 X56.894 Y64.99 E.01221
G1 X57.046 Y64.623 E.01397
G1 X57.312 Y64.18 E.01819
G1 X57.507 Y63.931 E.01113
G1 X57.7 Y63.727 E.00989
G1 X58.098 Y63.397 E.01819
G1 X58.542 Y63.133 E.01819
G1 X58.799 Y63.02 E.00989
G1 X59.099 Y62.919 E.01112
G1 X59.609 Y62.817 E.0183
G1 X59.888 Y62.796 E.00986
G1 X60.243 Y62.803 E.0125
G1 X60.559 Y62.842 E.01121
G1 X60.871 Y62.911 E.01124
G1 X61.174 Y63.01 E.01122
G1 X61.498 Y63.154 E.01247
G1 X61.774 Y63.312 E.01121
G1 X62.035 Y63.497 E.01124
G1 X62.277 Y63.706 E.01124
G1 X62.497 Y63.938 E.01124
G1 X62.693 Y64.189 E.01124
G1 X62.865 Y64.458 E.01122
G1 X63.023 Y64.775 E.01247
G1 X63.136 Y65.073 E.01121
G1 X63.22 Y65.381 E.01124
G1 X63.274 Y65.696 E.01124
G1 X63.297 Y66.015 E.01124
G1 X63.289 Y66.334 E.01124
G1 X63.25 Y66.651 E.01124
G1 X63.181 Y66.962 E.01121
G1 X63.069 Y67.299 E.01248
G1 X62.939 Y67.59 E.01122
G1 X62.78 Y67.867 E.01124
G1 X62.595 Y68.128 E.01124
G1 X62.386 Y68.369 E.01124
G1 X62.155 Y68.59 E.01124
G1 X61.904 Y68.786 E.01121
G1 X61.604 Y68.975 E.01248
G1 X61.318 Y69.116 E.01122
G1 X61.019 Y69.23 E.01124
G1 X60.711 Y69.314 E.01124
G1 X60.396 Y69.368 E.01124
G1 X60.078 Y69.391 E.01124
M73 P1 R7
G1 X59.762 Y69.383 E.01111
G1 X59.248 Y69.305 E.0183
G1 X58.944 Y69.219 E.01111
G1 X58.766 Y69.148 E.00675
G1 E-.5
G1 Z.4 F21000
G1 X59.209 Y68.083 Z.4
G1 Z.2
G1 E.5 F1800
G1 F3000
G1 X59.07 Y68.035 E.00518
G1 X58.852 Y67.923 E.00861
G1 X58.566 Y67.71 E.01255
G1 X58.191 Y67.292 E.01977
G1 X57.942 Y66.903 E.01628
G1 X57.805 Y66.565 E.01281
G1 X57.726 Y66.208 E.01288
G1 X57.689 Y65.728 E.01695
G1 X57.718 Y65.45 E.00982
G1 X57.783 Y65.215 E.00858
G1 X57.886 Y64.957 E.00977
G1 X58.076 Y64.65 E.01273
G1 X58.351 Y64.339 E.0146
G1 X58.686 Y64.077 E.01497
G1 X59.122 Y63.853 E.01726
G1 X59.526 Y63.735 E.01481
G1 X59.907 Y63.689 E.01349
G1 X60.33 Y63.709 E.0149
G1 X60.799 Y63.824 E.01702
G1 X61.229 Y64.028 E.01675
G1 X61.605 Y64.304 E.01643
G1 X61.913 Y64.636 E.01593
G1 X62.087 Y64.891 E.01086
G1 X62.21 Y65.127 E.00937
G1 X62.325 Y65.484 E.01321
G1 X62.363 Y65.915 E.01521
G1 X62.338 Y66.169 E.00898
G1 X62.29 Y66.38 E.00762
G1 X62.089 Y66.928 E.02054
G1 X61.898 Y67.243 E.01298
G1 X61.58 Y67.591 E.0166
G1 X61.199 Y67.859 E.01637
G1 X60.814 Y68.025 E.01476
G1 X60.553 Y68.091 E.00948
G1 X60.082 Y68.166 E.0168
G1 X59.747 Y68.182 E.01181
G1 X59.302 Y68.116 E.01583
G1 X59.247 Y68.096 E.00206
G1 X58.508 Y68.114 F21000
;TYPE:Gap infill
;WIDTH:0.69822
G1 F3000
G1 X59.143 Y68.669 E.04254
G1 X59.379 Y68.726 E.01223
G1 X59.751 Y68.779 E.01896
;WIDTH:0.758649
G1 X60.125 Y68.775 E.02062
G1 X60.578 Y68.711 E.02521
G1 X60.981 Y68.602 E.02302
G1 X61.313 Y68.456 E.01998
;WIDTH:0.712571
G1 X61.511 Y68.348 E.01166
G1 X61.779 Y68.154 E.01703
;WIDTH:0.673383
G1 X61.974 Y67.989 E.01241
G1 X62.157 Y67.784 E.01333
;WIDTH:0.636389
G1 X62.324 Y67.576 E.01219
G1 X62.461 Y67.347 E.01222
;WIDTH:0.598255
G1 X62.571 Y67.131 E.01036
G1 X62.68 Y66.824 E.01392
;WIDTH:0.573535
G1 X62.77 Y66.505 E.01352
;WIDTH:0.515286
G1 X62.81 Y66.26 E.00905
G1 X62.826 Y66.026 E.00852
;WIDTH:0.468533
G1 X62.814 Y65.752 E.00899
G1 X62.767 Y65.417 E.01108
;WIDTH:0.43915
G1 X62.618 Y64.953 E.01487
G1 X62.462 Y64.653 E.01032
G1 X62.27 Y64.37 E.01041
G1 X62.155 Y64.233 E.00549
G1 X61.916 Y63.984 E.01051
G1 X61.756 Y63.853 E.00632
G1 X61.442 Y63.635 E.01166
G1 X60.93 Y63.398 E.01722
G1 X60.412 Y63.271 E.01627
G1 X59.907 Y63.243 E.01543
G1 X59.422 Y63.305 E.01491
G1 X58.96 Y63.436 E.01464
G1 X58.75 Y63.536 E.00711
G1 X58.357 Y63.765 E.01387
G1 X58.006 Y64.054 E.01387
G1 X57.708 Y64.397 E.01385
G1 X57.479 Y64.771 E.01338
G1 X57.268 Y65.275 E.01668
; stop printing object Unklicky_SB_pin.stl id:0 copy 0
; printing object Unklicky_z_6mm_pin.stl id:1 copy 0
G1 E-.5
EXCLUDE_OBJECT_END NAME=Unklicky_SB_pin.stl_id_0_copy_0
EXCLUDE_OBJECT_START NAME=Unklicky_z_6mm_pin.stl_id_1_copy_0
G1 Z.4 F21000
G1 X57.317 Y53.411 Z.4
G1 X57.322 Y53.285
G1 X57.337 Y53.132
G1 X57.354 Y53.012
G1 X57.711 Y50.622
G1 Z.2
G1 E.5 F1800
;TYPE:Outer wall
;WIDTH:0.5
G1 F3000
G1 X57.734 Y50.599 E.00115
G1 X58.571 Y50.564 E.0295
G1 X59.049 Y50.509 E.01693
G1 X60.475 Y50.505 E.05018
G1 X60.945 Y50.535 E.01659
G1 X61.433 Y50.582 E.01724
G1 X62.266 Y50.602 E.02932
G1 X62.552 Y50.902 E.01458
G1 X62.84 Y51.313 E.01767
G1 X62.993 Y51.604 E.01158
G1 X63.13 Y51.948 E.01302
G1 X63.21 Y52.231 E.01036
G1 X63.276 Y52.596 E.01304
G1 X63.299 Y52.927 E.01169
G1 X63.289 Y53.259 E.01168
G1 X63.239 Y53.622 E.01289
G1 X63.105 Y54.108 E.01776
G1 X62.979 Y54.413 E.0116
G1 X62.82 Y54.705 E.01171
G1 X62.634 Y54.981 E.01172
G1 X62.42 Y55.237 E.01174
G1 X62.181 Y55.472 E.0118
G1 X61.89 Y55.71 E.01321
G1 X61.611 Y55.899 E.01186
G1 X61.319 Y56.061 E.01175
G1 X60.842 Y56.251 E.01806
G1 X60.517 Y56.334 E.01183
G1 X60.184 Y56.383 E.01185
G1 X59.809 Y56.387 E.0132
G1 X59.47 Y56.351 E.012
