; HEADER_BLOCK_START
; generated by OrcaSlicer 1.7.0-beta on 2023-09-29 at 13:23:43
; total layer number: 102
; HEADER_BLOCK_END

; THUMBNAIL_BLOCK_START
; THUMBNAIL_BLOCK_END

; external perimeters extrusion width = 0.40mm
; perimeters extrusion width = 0.46mm
; infill extrusion width = 0.64mm
; solid infill extrusion width = 0.56mm
; top infill extrusion width = 0.40mm
; first layer extrusion width = 0.50mm

; external perimeters extrusion width = 0.40mm
; perimeters extrusion width = 0.46mm
; infill extrusion width = 0.64mm
; solid infill extrusion width = 0.56mm
; top infill extrusion width = 0.40mm
; first layer extrusion width = 0.50mm

; external perimeters extrusion width = 0.40mm
; perimeters extrusion width = 0.46mm
; infill extrusion width = 0.64mm
; solid infill extrusion width = 0.56mm
; top infill extrusion width = 0.40mm
; first layer extrusion width = 0.50mm

; EXECUTABLE_BLOCK_START
EXCLUDE_OBJECT_DEFINE NAME=Unklicky_SB_pin.stl_id_0_copy_0 CENTER=68.7044,63.1994 POLYGON=[[64.7268,62.1235],[64.7802,61.9454],[64.8418,61.7699],[64.9113,61.5974],[64.9887,61.4283],[65.0738,61.2629],[65.1664,61.1016],[65.2663,60.9447],[65.3733,60.7926],[65.4872,60.6455],[65.6077,60.5038],[65.7345,60.3678],[65.8675,60.2378],[66.0063,60.114],[66.1507,59.9967],[66.3003,59.8862],[66.4548,59.7826],[66.6139,59.6863],[66.7772,59.5973],[66.9445,59.516],[67.1153,59.4424],[67.2893,59.3767],[67.4661,59.3192],[67.6455,59.2697],[67.8268,59.2286],[68.0099,59.1958],[68.1943,59.1715],[68.3796,59.1557],[68.5655,59.1483],[68.7515,59.1496],[68.9372,59.1594],[69.1223,59.1776],[69.3063,59.2044],[69.489,59.2396],[69.6698,59.2831],[69.8484,59.3349],[70.0245,59.3948],[70.1976,59.4628],[70.3675,59.5386],[70.5336,59.6222],[70.6958,59.7133],[70.8536,59.8117],[71.0067,59.9173],[71.1548,60.0298],[71.2976,60.149],[71.363,60.208],[71.3711,60.2152],[71.3822,60.2255],[71.3964,60.2387],[71.4348,60.2746],[71.4826,60.3218],[71.5108,60.35],[71.566,60.4064],[71.607,60.4507],[71.642,60.489],[71.6911,60.544],[71.7146,60.5718],[71.7522,60.6166],[71.8097,60.6873],[71.8313,60.7155],[71.8723,60.7693],[71.9216,60.8358],[71.9559,60.8848],[71.9979,60.9463],[72.0266,60.9894],[72.0397,61.0101],[72.0811,61.076],[72.1244,61.1476],[72.1616,61.2131],[72.1777,61.2422],[72.2149,61.3101],[72.2378,61.3551],[72.2609,61.4011],[72.2738,61.4271],[72.2978,61.4766],[72.3082,61.4993],[72.3407,61.5715],[72.3729,61.6467],[72.4017,61.7187],[72.4057,61.729],[72.4402,61.8201],[72.4671,61.8975],[72.4831,61.9462],[72.4978,61.9914],[72.4994,61.9964],[72.521,62.0685],[72.5295,62.0983],[72.5473,62.1632],[72.551,62.1771],[72.5673,62.2417],[72.5853,62.3199],[72.5893,62.3371],[72.5938,62.3581],[72.6058,62.4169],[72.6138,62.4596],[72.6235,62.5127],[72.6283,62.5409],[72.6366,62.5935],[72.6447,62.6515],[72.6499,62.6896],[72.6543,62.7251],[72.6595,62.7713],[72.664,62.8191],[72.6685,62.8675],[72.6718,62.9102],[72.6748,62.9511],[72.6762,62.9797],[72.6792,63.0461],[72.681,63.0966],[72.682,63.1361],[72.682,63.1895],[72.682,63.2047],[72.682,63.2249],[72.6815,63.2826],[72.6807,63.3212],[72.6735,63.4684],[72.671,63.5061],[72.6569,63.6537],[72.6528,63.6903],[72.6318,63.838],[72.6263,63.8735],[72.5983,64.0209],[72.5914,64.0553],[72.5565,64.2021],[72.5482,64.2353],[72.5063,64.3812],[72.4968,64.4132],[72.448,64.5579],[72.4374,64.5885],[72.3817,64.7316],[72.37,64.761],[72.3074,64.9021],[72.2948,64.9301],[72.2254,65.0691],[72.212,65.0957],[72.1358,65.2321],[72.1216,65.2573],[72.0389,65.3908],[72.024,65.4146],[71.9347,65.5449],[71.9193,65.5672],[71.8236,65.694],[71.8077,65.715],[71.6895,65.8575],[71.5649,65.9944],[71.4342,66.1255],[71.2976,66.2505],[71.1555,66.3691],[71.0081,66.481],[70.8557,66.5862],[70.6987,66.6842],[70.5373,66.775],[70.372,66.8583],[70.203,66.934],[70.0308,67.0019],[69.8556,67.0618],[69.6779,67.1137],[69.498,67.1573],[69.3163,67.1928],[69.1332,67.2198],[68.949,67.2385],[68.7641,67.2488],[68.579,67.2505],[68.394,67.2439],[68.2095,67.2287],[68.0259,67.2052],[67.8435,67.1733],[67.6628,67.1331],[67.4841,67.0847],[67.3078,67.0281],[67.1343,66.9636],[66.9639,66.8912],[66.797,66.8111],[64.7276,62.1266],[64.7268,62.1235]]
EXCLUDE_OBJECT_DEFINE NAME=Unklicky_z_6mm_pin.stl_id_1_copy_0 CENTER=50.95,68.5929 POLYGON=[[46.9008,68.2187],[46.9013,68.0314],[46.9015,68.0255],[46.911,67.8381],[46.9114,67.8325],[46.9299,67.6455],[46.9305,67.6403],[46.9579,67.454],[46.9588,67.4491],[46.9951,67.2641],[46.9961,67.2596],[47.0413,67.0761],[47.0424,67.072],[47.0965,66.8906],[47.0977,66.8868],[47.1604,66.7079],[47.1617,66.7045],[47.233,66.5285],[47.2343,66.5255],[47.3141,66.3528],[47.3154,66.3501],[47.4035,66.1811],[47.4048,66.1788],[47.5009,66.0139],[47.5022,66.012],[47.6063,65.8516],[47.6074,65.8499],[47.7193,65.6944],[47.7203,65.6931],[47.8398,65.5427],[47.8404,65.5421],[47.9673,65.3971],[47.9678,65.3965],[48.1015,65.2579],[48.1019,65.2574],[48.2424,65.1249],[48.3892,64.9992],[49.5322,64.9991],[52.5855,64.999],[53.5104,64.9989],[53.6573,65.1247],[53.7977,65.2572],[53.7979,65.2573],[53.7982,65.2576],[53.9319,65.3963],[53.9324,65.3969],[53.9325,65.397],[54.0593,65.5418],[54.0599,65.5424],[54.06,65.5426],[54.1796,65.6931],[54.1802,65.6939],[54.1804,65.6942],[54.2923,65.8496],[54.2934,65.8513],[54.3976,66.0116],[54.3988,66.0137],[54.495,66.1785],[54.4963,66.1809],[54.5844,66.3498],[54.5857,66.3525],[54.6655,66.5252],[54.6668,66.5283],[54.7381,66.7042],[54.7394,66.7077],[54.8021,66.8865],[54.8034,66.8904],[54.8574,67.0717],[54.8585,67.0759],[54.9037,67.2592],[54.9048,67.2638],[54.9411,67.4488],[54.9419,67.4538],[54.9694,67.6399],[54.97,67.6453],[54.9885,67.8322],[54.9889,67.8379],[54.9984,68.0251],[54.9986,68.0312],[54.9991,68.2184],[54.999,68.2248],[54.9906,68.4114],[54.9902,68.4181],[54.973,68.6038],[54.9721,68.6108],[54.9461,68.7951],[54.9449,68.8024],[54.9102,68.985],[54.9085,68.9925],[54.8652,69.1729],[54.8631,69.1807],[54.8113,69.3584],[54.8088,69.3665],[54.7487,69.5412],[54.7456,69.5494],[54.6774,69.7208],[54.6738,69.7292],[54.5976,69.8967],[54.5935,69.9052],[54.5095,70.0687],[54.5048,70.0773],[54.4133,70.2363],[54.4081,70.2449],[54.3092,70.3991],[54.3034,70.4077],[54.1975,70.5567],[54.1911,70.5654],[54.0784,70.7088],[54.0713,70.7174],[53.9522,70.8551],[53.9445,70.8636],[53.8191,70.9952],[53.8108,71.0036],[53.6795,71.1288],[53.6706,71.137],[53.5337,71.2556],[53.5241,71.2635],[53.382,71.3753],[53.3718,71.383],[53.2249,71.4876],[53.214,71.495],[53.0624,71.5923],[53.0509,71.5993],[52.8952,71.6891],[52.8831,71.6957],[52.7236,71.7778],[52.7109,71.784],[52.5901,71.8399],[52.5881,71.8408],[52.5822,71.8435],[52.5722,71.8479],[52.5583,71.8539],[52.5405,71.8616],[52.5187,71.8708],[52.4929,71.8814],[52.4632,71.8935],[52.4296,71.9069],[52.4157,71.9123],[52.3924,71.9212],[52.3686,71.9302],[52.3547,71.9354],[52.3079,71.9523],[52.2613,71.9686],[52.2382,71.9765],[52.2122,71.9851],[52.1861,71.9936],[52.1738,71.9975],[52.1606,72.0016],[52.1071,72.018],[52.0578,72.0324],[52.0509,72.0343],[52.0008,72.0482],[51.9902,72.051],[51.9285,72.0667],[51.8751,72.0798],[51.813,72.0938],[51.8042,72.0957],[51.7232,72.1123],[51.6903,72.1186],[51.65,72.1259],[51.6233,72.1305],[51.6164,72.1316],[51.5748,72.1384],[51.5039,72.1488],[51.4321,72.1581],[51.427,72.1587],[51.3163,72.1702],[51.2397,72.1765],[51.2366,72.1767],[51.1792,72.1801],[51.128,72.1829],[51.0987,72.184],[51.0467,72.1857],[51.0456,72.1857],[51.0187,72.1862],[50.9395,72.1868],[50.9392,72.1868],[50.8603,72.1858],[50.8543,72.1857],[50.8535,72.1857],[50.7803,72.1831],[50.7504,72.1819],[50.6633,72.1767],[50.6606,72.1765],[50.6194,72.173],[50.5621,72.1682],[50.4729,72.1587],[50.4682,72.1581],[50.3815,72.1467],[50.3747,72.1458],[50.3045,72.1351],[50.2835,72.1316],[50.277,72.1305],[50.2293,72.1222],[50.1884,72.1146],[50.1562,72.1082],[50.0957,72.0957],[50.0872,72.0939],[50.0039,72.0748],[49.9512,72.0616],[49.9097,72.051],[49.8995,72.0482],[49.8885,72.0452],[49.8289,72.0286],[49.8213,72.0264],[49.7727,72.012],[49.7261,71.9975],[49.7142,71.9937],[49.6678,71.9785],[49.6413,71.9696],[49.6187,71.9617],[49.5721,71.9452],[49.5452,71.9354],[49.5377,71.9327],[49.5316,71.9304],[49.4878,71.9136],[49.4641,71.9044],[49.4505,71.899],[49.417,71.8855],[49.3873,71.8732],[49.3615,71.8624],[49.3397,71.8531],[49.3219,71.8453],[49.308,71.8392],[49.2981,71.8347],[49.2737,71.8237],[49.2313,71.8041],[49.1891,71.784],[49.1766,71.778],[49.0168,71.6957],[49.005,71.6893],[48.849,71.5993],[48.8378,71.5925],[48.686,71.495],[48.6754,71.4878],[48.5282,71.383],[48.5182,71.3755],[48.3759,71.2636],[48.3665,71.2558],[48.2294,71.137],[48.2206,71.1291],[48.0892,71.0036],[48.081,70.9955],[47.9555,70.8637],[47.948,70.8554],[47.8286,70.7175],[47.8217,70.7091],[47.7089,70.5654],[47.7026,70.557],[47.5966,70.4078],[47.5909,70.3994],[47.4919,70.245],[47.4868,70.2366],[47.3951,70.0774],[47.3906,70.069],[47.3065,69.9054],[47.3025,69.8971],[47.2262,69.7293],[47.2227,69.7211],[47.1543,69.5496],[47.1514,69.5415],[47.0912,69.3666],[47.0887,69.3588],[47.0368,69.1809],[47.0348,69.1732],[46.9914,68.9927],[46.9898,68.9853],[46.955,68.8026],[46.9539,68.7955],[46.9278,68.611],[46.927,68.6041],[46.9098,68.4183],[46.9093,68.4117],[46.9009,68.225],[46.9008,68.2187]]
EXCLUDE_OBJECT_DEFINE NAME=Unklicky_z_6mm_pin.stl_id_2_copy_0 CENTER=51.2104,51.4071 POLYGON=[[47.1612,51.033],[47.1618,50.8457],[47.162,50.8397],[47.1714,50.6524],[47.1719,50.6468],[47.1903,50.4597],[47.191,50.4545],[47.2184,50.2682],[47.2192,50.2634],[47.2556,50.0783],[47.2566,50.0738],[47.3018,49.8904],[47.3029,49.8862],[47.3569,49.7048],[47.3581,49.7011],[47.4209,49.5222],[47.4221,49.5188],[47.4935,49.3428],[47.4948,49.3397],[47.5745,49.167],[47.5759,49.1644],[47.6639,48.9953],[47.6652,48.993],[47.7614,48.8281],[47.7626,48.8262],[47.8668,48.6658],[47.8679,48.6642],[47.9798,48.5087],[47.9808,48.5074],[48.1003,48.3569],[48.1008,48.3563],[48.2277,48.2113],[48.2283,48.2108],[48.3619,48.0721],[48.3624,48.0716],[48.5029,47.9391],[48.6497,47.8134],[49.7927,47.8133],[52.846,47.8132],[53.7709,47.8132],[53.9177,47.9389],[54.0582,48.0714],[54.0584,48.0716],[54.0587,48.0719],[54.1923,48.2105],[54.1929,48.2111],[54.193,48.2112],[54.3198,48.356],[54.3203,48.3567],[54.3205,48.3569],[54.4401,48.5073],[54.4407,48.5081],[54.4409,48.5084],[54.5528,48.6639],[54.5539,48.6655],[54.658,48.8259],[54.6593,48.8279],[54.7555,48.9927],[54.7568,48.9951],[54.8448,49.164],[54.8462,49.1668],[54.9259,49.3394],[54.9273,49.3425],[54.9986,49.5184],[54.9999,49.5219],[55.0626,49.7007],[55.0638,49.7046],[55.1178,49.8859],[55.119,49.8901],[55.1642,50.0735],[55.1652,50.0781],[55.2015,50.263],[55.2024,50.268],[55.2298,50.4542],[55.2305,50.4595],[55.249,50.6464],[55.2494,50.6521],[55.2589,50.8394],[55.259,50.8455],[55.2596,51.0326],[55.2595,51.039],[55.2511,51.2256],[55.2507,51.2324],[55.2334,51.418],[55.2326,51.4251],[55.2066,51.6094],[55.2054,51.6167],[55.1706,51.7992],[55.169,51.8068],[55.1257,51.9871],[55.1236,51.9949],[55.0718,52.1727],[55.0693,52.1807],[55.0091,52.3554],[55.0061,52.3637],[54.9378,52.535],[54.9343,52.5434],[54.8581,52.711],[54.854,52.7195],[54.77,52.883],[54.7653,52.8915],[54.6738,53.0505],[54.6685,53.0592],[54.5697,53.2133],[54.5639,53.222],[54.458,53.371],[54.4515,53.3796],[54.3389,53.5231],[54.3318,53.5317],[54.2127,53.6694],[54.2049,53.6779],[54.0796,53.8095],[54.0713,53.8178],[53.94,53.943],[53.931,53.9512],[53.7942,54.0698],[53.7846,54.0778],[53.6425,54.1895],[53.6323,54.1972],[53.4853,54.3018],[53.4744,54.3092],[53.3229,54.4065],[53.3114,54.4135],[53.1557,54.5033],[53.1436,54.5099],[52.9841,54.5921],[52.9713,54.5982],[52.8506,54.6541],[52.8486,54.655],[52.8426,54.6577],[52.8327,54.6621],[52.8188,54.6682],[52.801,54.6758],[52.7791,54.685],[52.7534,54.6957],[52.7237,54.7077],[52.6901,54.7211],[52.6762,54.7265],[52.6528,54.7355],[52.6291,54.7445],[52.6152,54.7497],[52.5684,54.7665],[52.5218,54.7828],[52.4987,54.7907],[52.4726,54.7993],[52.4466,54.8078],[52.4343,54.8117],[52.4211,54.8159],[52.3676,54.8323],[52.3183,54.8466],[52.3114,54.8485],[52.2612,54.8624],[52.2507,54.8652],[52.1889,54.881],[52.1356,54.894],[52.0735,54.9081],[52.0647,54.91],[51.9837,54.9265],[51.9508,54.9328],[51.9105,54.9401],[51.8838,54.9447],[51.8769,54.9459],[51.8352,54.9526],[51.7644,54.963],[51.6925,54.9723],[51.6875,54.9729],[51.5768,54.9845],[51.5002,54.9907],[51.4971,54.9909],[51.4396,54.9943],[51.3884,54.9972],[51.3592,54.9982],[51.3072,54.9999],[51.3061,55],[51.2792,55.0004],[51.2,55.0011],[51.1996,55.0011],[51.1208,55],[51.1148,55],[51.114,54.9999],[51.0407,54.9974],[51.0109,54.9962],[50.9238,54.9909],[50.921,54.9907],[50.8799,54.9873],[50.8226,54.9825],[50.7333,54.9729],[50.7287,54.9723],[50.6419,54.9609],[50.6351,54.96],[50.565,54.9493],[50.544,54.9459],[50.5374,54.9448],[50.4898,54.9364],[50.4489,54.9288],[50.4167,54.9225],[50.3561,54.91],[50.3477,54.9081],[50.2643,54.889],[50.2117,54.8759],[50.1702,54.8652],[50.16,54.8625],[50.1489,54.8594],[50.0893,54.8428],[50.0818,54.8407],[50.0332,54.8262],[49.9866,54.8117],[49.9746,54.8079],[49.9283,54.7927],[49.9018,54.7838],[49.8791,54.7759],[49.8326,54.7594],[49.8057,54.7497],[49.7982,54.7469],[49.7921,54.7446],[49.7482,54.7279],[49.7246,54.7187],[49.711,54.7133],[49.6774,54.6997],[49.6477,54.6875],[49.622,54.6767],[49.6002,54.6673],[49.5823,54.6596],[49.5684,54.6534],[49.5585,54.649],[49.5341,54.6379],[49.4917,54.6183],[49.4495,54.5982],[49.4371,54.5922],[49.2773,54.51],[49.2655,54.5035],[49.1095,54.4135],[49.0982,54.4067],[48.9465,54.3092],[48.9358,54.302],[48.7886,54.1972],[48.7786,54.1897],[48.6363,54.0778],[48.6269,54.0701],[48.4899,53.9513],[48.4811,53.9433],[48.3496,53.8179],[48.3415,53.8097],[48.2159,53.6779],[48.2084,53.6696],[48.0891,53.5317],[48.0822,53.5234],[47.9694,53.3797],[47.9631,53.3712],[47.8571,53.2221],[47.8513,53.2136],[47.7524,53.0593],[47.7472,53.0508],[47.6556,52.8916],[47.6511,52.8833],[47.5669,52.7196],[47.563,52.7113],[47.4866,52.5435],[47.4831,52.5353],[47.4148,52.3638],[47.4118,52.3558],[47.3516,52.1808],[47.3491,52.173],[47.2973,51.9951],[47.2953,51.9875],[47.2519,51.807],[47.2503,51.7996],[47.2155,51.6169],[47.2143,51.6097],[47.1883,51.4252],[47.1875,51.4184],[47.1702,51.2325],[47.1698,51.226],[47.1614,51.0392],[47.1612,51.033]]
M73 P0 R9
;TYPE:Custom
START_PRINT T_BED=110 T_EXTRUDER=260
G90
G21
M83 ; use relative distances for extrusion
; Filament gcode

    PRESSURE_ADVANCE_SELECT FILAMENT=ABS
M106 S0
;LAYER_CHANGE
;Z:0.2
;HEIGHT:0.2
;BEFORE_LAYER_CHANGE
;0.2
G92 E0

;AFTER_LAYER_CHANGE
;0.2
;_SET_FAN_SPEED_CHANGING_LAYER
SET_VELOCITY_LIMIT ACCEL=1000 ACCEL_TO_DECEL=500
SET_VELOCITY_LIMIT SQUARE_CORNER_VELOCITY=9
G1 E-.5 F3000
G1 Z.2 F21000
G1 X46.647 Y46.245
G1 Z.2
G1 E.5 F1800
;TYPE:Skirt
;WIDTH:0.5
G1 F3000
G1 X46.807 Y46.085 E.00797
G1 X48.797 Y45.299 E.07529
G1 X53.624 Y45.299 E.16988
G1 X55.297 Y45.827 E.06177
G1 X72.416 Y57.836 E.73592
G1 X73.112 Y58.402 E.03157
G1 X74.132 Y59.617 E.05583
G1 X74.522 Y60.305 E.02784
G1 X74.851 Y61.102 E.03035
G1 X75.172 Y62.656 E.05583
G1 X75.182 Y63.609 E.03354
G1 X75.088 Y64.38 E.02734
G1 X74.876 Y65.217 E.03037
G1 X74.588 Y65.954 E.02785
G1 X74.202 Y66.669 E.02859
G1 X73.641 Y67.439 E.03355
G1 X72.477 Y68.517 E.05583
G1 X71.764 Y68.965 E.02964
G1 X71.028 Y69.308 E.02859
G1 X52.551 Y74.502 E.67549
G1 X51.227 Y74.694 E.04709
G1 X49.673 Y74.575 E.05484
G1 X48.753 Y74.322 E.03357
G1 X47.956 Y73.977 E.03057
G1 X47.07 Y73.431 E.03662
G1 X46.316 Y72.785 E.03494
G1 X45.668 Y72.033 E.03495
G1 X45.21 Y71.321 E.02979
G1 X44.796 Y70.419 E.03495
G1 X44.522 Y69.464 E.03493
G1 X44.387 Y68.02 E.05105
G1 X44.647 Y50.834 E.6049
G1 X44.75 Y49.8 E.03657
G1 X44.981 Y48.884 E.03327
G1 X45.287 Y48.125 E.02879
G1 X45.781 Y47.263 E.03495
G1 X46.3 Y46.595 E.02978
G1 X46.619 Y46.274 E.01594
G1 X46.943 Y46.596 F21000
G1 F3000
G1 X47.119 Y46.418 E.00878
G1 X48.797 Y45.756 E.06348
G1 X53.624 Y45.756 E.16988
G1 X55.035 Y46.202 E.05208
G1 X72.154 Y58.21 E.73592
G1 X72.804 Y58.74 E.02954
G1 X73.752 Y59.872 E.05194
G1 X74.42 Y61.254 E.05404
G1 X74.717 Y62.7 E.05194
G1 X74.725 Y63.586 E.03121
G1 X74.639 Y64.292 E.02501
G1 X74.176 Y65.756 E.05406
G1 X73.811 Y66.432 E.02703
G1 X73.288 Y67.148 E.03121
