; generated by SuperSlicer 2.5.59 on 2023-06-30 at 21:16:47 UTC


;
;

;
;
; 

; external perimeters extrusion width = 0.15mm
; perimeters extrusion width = 0.17mm
; infill extrusion width = 0.24mm
; solid infill extrusion width = 0.21mm
; top infill extrusion width = 0.15mm
; first layer extrusion width = 0.19mm

; object:{"name":"Untitled","id":"Untitled.stl id:0 copy 0","object_center":[60.002471,60.000002,0.000000],"boundingbox_center":[60.002471,60.000002,1.379642],"boundingbox_size":[56.642202,85.852002,2.759284]}
EXCLUDE_OBJECT_DEFINE NAME=Untitled_stl_id_0_copy_0 CENTER=60.002471,60.000002 POLYGON=[[31.681372,81.589200],[31.787774,70.286784],[31.894372,58.984372],[49.715012,17.074002],[70.543128,17.074002],[88.323568,58.730252],[88.323568,81.589200],[70.543128,102.925992],[49.715012,102.925992],[31.681372,81.589200]]
; plater:{"center":[60.002471,60.000002,0.000000],"boundingbox_center":[60.002471,60.000002,1.379642],"boundingbox_size":[56.642202,85.852002,2.759284]}

M73 P0 R62
M73 P0 R62
;TYPE:Custom
; custom gcode: start_gcode
START_PRINT T_BED=60 T_EXTRUDER=210
; custom gcode end: start_gcode
M107
G21 ; set units to millimeters
G90 ; use absolute coordinates
M82 ; use absolute distances for extrusion
G92 E0
; custom gcode: start_filament_gcode
; Filament gcode

    PRESSURE_ADVANCE_SELECT FILAMENT=PLA
; custom gcode end: start_filament_gcode
;_TOOLCHANGE 0
M109 S210 ; set temperature and wait for it to be reached
M190 S60 ; set bed temperature and wait for it to be reached
;LAYER_CHANGE
;Z:0.1
;HEIGHT:0.1
G1 Z0.1 F12000
M73 P0 R62
M73 P0 R62
G1 E-0.8 F2400
M204 S2000
G1 X45.371 Y19.294 F12000
G1 E0 F1800
;TYPE:Skirt
;WIDTH:0.195
G1 X28.993 Y57.807 E0.30195
G1 X28.733 Y59.052 E0.31113
G1 X28.522 Y81.458 E0.4728
G1 X29.292 Y83.594 E0.48917
G1 X47.325 Y104.931 E0.69073
G1 X48.262 Y105.692 E0.69944
G1 X49.815 Y106.086 E0.71101
G1 X70.443 Y106.086 E0.85984
G1 X71.651 Y105.854 E0.86871
G1 X72.948 Y104.913 E0.88027
G1 X90.728 Y83.576 E1.08066
G1 X91.484 Y81.489 E1.09668
G1 X91.484 Y58.83 E1.26016
G1 X91.222 Y57.55 E1.26959
G1 X73.442 Y15.894 E1.59637
G1 X71.997 Y14.308 E1.61185
G1 X70.443 Y13.914 E1.62341
G1 X49.815 Y13.914 E1.77224
G1 X47.785 Y14.623 E1.78776
G1 X46.815 Y15.898 E1.79932
G1 X45.371 Y19.294 E1.82594
G1 X45.53 Y19.362 F12000
G1 F1800
G1 X29.153 Y57.875 E2.12789
G1 X28.907 Y59.054 E2.13658
G1 X28.696 Y81.46 E2.29825
G1 X29.425 Y83.482 E2.31376
G1 X47.457 Y104.818 E2.51531
G1 X48.307 Y105.519 E2.52326
G1 X49.815 Y105.913 E2.5345
G1 X70.443 Y105.913 E2.68334
G1 X71.547 Y105.709 E2.69143
G1 X72.814 Y104.802 E2.70268
G1 X90.595 Y83.465 E2.90307
G1 X91.31 Y81.489 E2.91823
G1 X91.31 Y58.83 E3.08171
G1 X91.063 Y57.618 E3.09064
G1 X73.282 Y15.962 E3.41742
G1 X71.951 Y14.481 E3.43179
G1 X70.443 Y14.087 E3.44303
G1 X49.815 Y14.087 E3.59186
M73 P0 R62
G1 X47.927 Y14.732 E3.60626
G1 X46.974 Y15.966 E3.6175
G1 X45.53 Y19.362 E3.64413
G92 E0
G1 E-0.8 F2400
; printing object Untitled.stl id:0 copy 0
EXCLUDE_OBJECT_START NAME=Untitled_stl_id_0_copy_0
G1 X70.349 Y58.924 F12000
G1 E0 F1800
;TYPE:External perimeter
;WIDTH:0.1875
G1 X88.13 Y58.924 E0.12274
G1 X88.13 Y81.395 E0.27786
G1 X70.349 Y81.395 E0.4006
G1 X70.349 Y102.649 E0.54732
;TYPE:Internal perimeter
;WIDTH:0.14972
G1 X70.183 Y102.483 E0.54862
;WIDTH:0.1875
G1 X70.183 Y81.229 E0.69533
G1 X87.964 Y81.229 E0.81808
G1 X87.964 Y59.09 E0.97091
G1 X70.183 Y59.09 E1.09365
G1 X70.183 Y17.434 E1.38121
G1 X50.075 Y17.434 E1.52002
G1 X50.075 Y59.061 E1.80738
G1 X32.251 Y59.339 E1.93043
G1 X32.045 Y81.229 E2.08155
G1 X50.075 Y81.229 E2.20602
G1 X50.075 Y102.566 E2.35331
G1 X69.934 Y102.566 E2.4904
G1 X69.851 Y102.4 E2.49168
G1 X50.241 Y102.4 E2.62706
G1 X50.241 Y81.063 E2.77435
G1 X32.212 Y81.063 E2.8988
G1 X32.415 Y59.502 E3.04765
G1 X50.241 Y59.224 E3.17071
G1 X50.241 Y17.683 E3.45748
;WIDTH:0.149719
G1 X50.407 Y17.849 E3.45878
;WIDTH:0.1875
G1 X50.407 Y59.388 E3.74552
G1 X32.58 Y59.666 E3.8686
G1 X32.38 Y80.897 E4.01517
G1 X50.407 Y80.897 E4.13962
G1 X50.407 Y102.234 E4.28691
G1 X69.851 Y102.234 E4.42113
G1 X69.851 Y80.897 E4.56843
G1 X87.632 Y80.897 E4.69117
G1 X87.632 Y59.422 E4.83941
G1 X69.851 Y59.422 E4.96215
G1 X69.851 Y17.766 E5.24971
G1 X50.49 Y17.766 E5.38337
;WIDTH:0.149719
G1 X50.324 Y17.6 E5.38466
;WIDTH:0.1875
G1 X70.017 Y17.6 E5.52061
G1 X70.017 Y59.256 E5.80817
G1 X87.798 Y59.256 E5.93091
G1 X87.798 Y81.063 E6.08145
G1 X70.017 Y81.063 E6.20419
G1 X70.017 Y102.4 E6.35148
G1 X70.1 Y102.566 E6.35276
;WIDTH:0.14972
G1 X70.266 Y102.732 E6.35405
;TYPE:External perimeter
;WIDTH:0.1875
G1 X49.909 Y102.732 E6.49458
G1 X49.909 Y81.395 E6.64187
G1 X31.877 Y81.395 E6.76635
G1 X32.086 Y59.175 E6.91975
G1 X49.909 Y58.897 E7.04279
M73 P1 R61
G1 X49.909 Y17.268 E7.33017
M73 P1 R61
G1 X70.349 Y17.268 E7.47127
G1 X70.349 Y58.924 E7.75883
;WIPE_START
M204 S4000
G1 X70.349 Y59.074 F12000
;WIPE_END
G92 E0
G1 E-0.8 F2400
M204 S2000
G1 X69.801 Y18.151 F12000
G1 E0 F1800
;TYPE:Solid infill
;WIDTH:0.189117
G1 F2400
G1 X69.466 Y17.816 E0.00331
G1 X69.231 Y17.816 F12000
G1 F2400
G1 X69.801 Y18.386 E0.00892
G1 X69.801 Y18.621 F12000
G1 F2400
G1 X68.996 Y17.816 E0.01685
G1 X68.761 Y17.816 F12000
G1 F2400
G1 X69.801 Y18.856 E0.02709
G1 X69.801 Y19.091 F12000
G1 F2400
G1 X68.527 Y17.816 E0.03965
G1 X68.292 Y17.816 F12000
G1 F2400
G1 X69.801 Y19.325 E0.05451
G1 X69.801 Y19.56 F12000
G1 F2400
G1 X68.057 Y17.816 E0.07169
G1 X67.822 Y17.816 F12000
G1 F2400
G1 X69.801 Y19.795 E0.09118
G1 X69.801 Y20.03 F12000
G1 F2400
G1 X67.587 Y17.816 E0.11299
G1 X67.352 Y17.816 F12000
G1 F2400
G1 X69.801 Y20.265 E0.1371
G1 X69.801 Y20.499 F12000
G1 F2400
G1 X67.118 Y17.816 E0.16353
G1 X66.883 Y17.816 F12000
G1 F2400
G1 X69.801 Y20.734 E0.19227
G1 X69.801 Y20.969 F12000
G1 F2400
G1 X66.648 Y17.816 E0.22332
G1 X66.413 Y17.816 F12000
G1 F2400
G1 X69.801 Y21.204 E0.25668
G1 X69.801 Y21.439 F12000
G1 F2400
G1 X66.178 Y17.816 E0.29236
G1 X65.944 Y17.816 F12000
G1 F2400
G1 X69.801 Y21.674 E0.33034
G1 X69.801 Y21.908 F12000
G1 F2400
G1 X65.709 Y17.816 E0.37064
G1 X65.474 Y17.816 F12000
G1 F2400
G1 X69.801 Y22.143 E0.41326
G1 X69.801 Y22.378 F12000
G1 F2400
G1 X65.239 Y17.816 E0.45818
G1 X65.004 Y17.816 F12000
G1 F2400
G1 X69.801 Y22.613 E0.50542
G1 X69.801 Y22.848 F12000
G1 F2400
G1 X64.769 Y17.816 E0.55497
G1 X64.535 Y17.816 F12000
G1 F2400
G1 X69.801 Y23.082 E0.60683
G1 X69.801 Y23.317 F12000
G1 F2400
G1 X64.3 Y17.816 E0.661
G1 X64.065 Y17.816 F12000
G1 F2400
G1 X69.801 Y23.552 E0.71748
G1 X69.801 Y23.787 F12000
G1 F2400
G1 X63.83 Y17.816 E0.77628
G1 X63.595 Y17.816 F12000
G1 F2400
G1 X69.801 Y24.022 E0.83739
G1 X69.801 Y24.257 F12000
G1 F2400
G1 X63.361 Y17.816 E0.90081
G1 X63.126 Y17.816 F12000
G1 F2400
G1 X69.801 Y24.491 E0.96654
G1 X69.801 Y24.726 F12000
G1 F2400
G1 X62.891 Y17.816 E1.03459
G1 X62.656 Y17.816 F12000
G1 F2400
G1 X69.801 Y24.961 E1.10495
G1 X69.801 Y25.196 F12000
G1 F2400
G1 X62.421 Y17.816 E1.17762
G1 X62.187 Y17.816 F12000
G1 F2400
G1 X69.801 Y25.431 E1.2526
G1 X69.801 Y25.665 F12000
G1 F2400
G1 X61.952 Y17.816 E1.32989
G1 X61.717 Y17.816 F12000
G1 F2400
G1 X69.801 Y25.9 E1.4095
G1 X69.801 Y26.135 F12000
G1 F2400
G1 X61.482 Y17.816 E1.49142
G1 X61.247 Y17.816 F12000
G1 F2400
G1 X69.801 Y26.37 E1.57565
G1 X69.801 Y26.605 F12000
G1 F2400
G1 X61.012 Y17.816 E1.66219
G1 X60.778 Y17.816 F12000
G1 F2400
G1 X69.801 Y26.839 E1.75105
G1 X69.801 Y27.074 F12000
G1 F2400
G1 X60.543 Y17.816 E1.84221
G1 X60.308 Y17.816 F12000
G1 F2400
G1 X69.801 Y27.309 E1.93569
G1 X69.801 Y27.544 F12000
G1 F2400
G1 X60.073 Y17.816 E2.03149
G1 X59.838 Y17.816 F12000
G1 F2400
G1 X69.801 Y27.779 E2.12959
G1 X69.801 Y28.014 F12000
G1 F2400
G1 X59.604 Y17.816 E2.23
G1 X59.369 Y17.816 F12000
G1 F2400
G1 X69.801 Y28.248 E2.33273
G1 X69.801 Y28.483 F12000
G1 F2400
G1 X59.134 Y17.816 E2.43777
G1 X58.899 Y17.816 F12000
G1 F2400
G1 X69.801 Y28.718 E2.54512
G1 X69.801 Y28.953 F12000
G1 F2400
G1 X58.664 Y17.816 E2.65479
G1 X58.429 Y17.816 F12000
G1 F2400
G1 X69.801 Y29.188 E2.76677
G1 X69.801 Y29.422 F12000
G1 F2400
G1 X58.195 Y17.816 E2.88105
G1 X57.96 Y17.816 F12000
G1 F2400
G1 X69.801 Y29.657 E2.99765
G1 X69.801 Y29.892 F12000
G1 F2400
G1 X57.725 Y17.816 E3.11657
G1 X57.49 Y17.816 F12000
G1 F2400
G1 X69.801 Y30.127 E3.23779
G1 X69.801 Y30.362 F12000
G1 F2400
G1 X57.255 Y17.816 E3.36133
G1 X57.021 Y17.816 F12000
G1 F2400
G1 X69.801 Y30.597 E3.48718
G1 X69.801 Y30.831 F12000
G1 F2400
G1 X56.786 Y17.816 E3.61534
G1 X56.551 Y17.816 F12000
G1 F2400
G1 X69.801 Y31.066 E3.74581
G1 X69.801 Y31.301 F12000
G1 F2400
G1 X56.316 Y17.816 E3.8786
G1 X56.081 Y17.816 F12000
G1 F2400
G1 X69.801 Y31.536 E4.0137
G1 X69.801 Y31.771 F12000
G1 F2400
G1 X55.847 Y17.816 E4.15111
G1 X55.612 Y17.816 F12000
G1 F2400
G1 X69.801 Y32.005 E4.29083
G1 X69.801 Y32.24 F12000
G1 F2400
G1 X55.377 Y17.816 E4.43286
G1 X55.142 Y17.816 F12000
G1 F2400
G1 X69.801 Y32.475 E4.57721
G1 X69.801 Y32.71 F12000
G1 F2400
G1 X54.907 Y17.816 E4.72387
G1 X54.672 Y17.816 F12000
G1 F2400
G1 X69.801 Y32.945 E4.87284
G1 X69.801 Y33.179 F12000
G1 F2400
G1 X54.438 Y17.816 E5.02412
G1 X54.203 Y17.816 F12000
G1 F2400
G1 X69.801 Y33.414 E5.17772
G1 X69.801 Y33.649 F12000
G1 F2400
G1 X53.968 Y17.816 E5.33363
G1 X53.733 Y17.816 F12000
G1 F2400
G1 X69.801 Y33.884 E5.49185
G1 X69.801 Y34.119 F12000
G1 F2400
G1 X53.498 Y17.816 E5.65238
G1 X53.264 Y17.816 F12000
G1 F2400
G1 X69.801 Y34.354 E5.81522
G1 X69.801 Y34.588 F12000
G1 F2400
G1 X53.029 Y17.816 E5.98038
G1 X52.794 Y17.816 F12000
G1 F2400
G1 X69.801 Y34.823 E6.14784
G1 X69.801 Y35.058 F12000
G1 F2400
G1 X52.559 Y17.816 E6.31763
G1 X52.324 Y17.816 F12000
G1 F2400
G1 X69.801 Y35.293 E6.48972
G1 X69.801 Y35.528 F12000
G1 F2400
G1 X52.09 Y17.816 E6.66412
G1 X51.855 Y17.816 F12000
G1 F2400
G1 X69.801 Y35.762 E6.84084
G1 X69.801 Y35.997 F12000
G1 F2400
G1 X51.62 Y17.816 E7.01987
G1 X51.385 Y17.816 F12000
G1 F2400
G1 X69.801 Y36.232 E7.20121
G1 X69.801 Y36.467 F12000
G1 F2400
G1 X51.15 Y17.816 E7.38486
G1 X50.915 Y17.816 F12000
G1 F2400
G1 X69.801 Y36.702 E7.57083
G1 X69.801 Y36.937 F12000
G1 F2400
G1 X50.681 Y17.816 E7.7591
G1 X50.457 Y17.827 F12000
G1 F2400
G1 X69.801 Y37.171 E7.94959
G1 X69.801 Y37.406 F12000
G1 F2400
G1 X50.457 Y18.061 E8.14007
G1 X50.457 Y18.296 F12000
G1 F2400
G1 X69.801 Y37.641 E8.33055
G1 X69.801 Y37.876 F12000
G1 F2400
G1 X50.457 Y18.531 E8.52103
G1 X50.457 Y18.766 F12000
G1 F2400
G1 X69.801 Y38.111 E8.71152
G1 X69.801 Y38.345 F12000
G1 F2400
G1 X50.457 Y19.001 E8.902
M73 P2 R61
G1 X50.457 Y19.235 F12000
G1 F2400
G1 X69.801 Y38.58 E9.09248
G1 X69.801 Y38.815 F12000
G1 F2400
G1 X50.457 Y19.47 E9.28296
G1 X50.457 Y19.705 F12000
G1 F2400
G1 X69.801 Y39.05 E9.47345
G1 X69.801 Y39.285 F12000
G1 F2400
G1 X50.457 Y19.94 E9.66393
G1 X50.457 Y20.175 F12000
G1 F2400
G1 X69.801 Y39.519 E9.85441
G1 X69.801 Y39.754 F12000
G1 F2400
G1 X50.457 Y20.409 E10.04489
G1 X50.457 Y20.644 F12000
G1 F2400
G1 X69.801 Y39.989 E10.23538
G1 X69.801 Y40.224 F12000
G1 F2400
G1 X50.457 Y20.879 E10.42586
G1 X50.457 Y21.114 F12000
G1 F2400
G1 X69.801 Y40.459 E10.61634
G1 X69.801 Y40.694 F12000
G1 F2400
G1 X50.457 Y21.349 E10.80682
G1 X50.457 Y21.584 F12000
G1 F2400
G1 X69.801 Y40.928 E10.99731
G1 X69.801 Y41.163 F12000
G1 F2400
G1 X50.457 Y21.818 E11.18779
G1 X50.457 Y22.053 F12000
G1 F2400
G1 X69.801 Y41.398 E11.37827
G1 X69.801 Y41.633 F12000
G1 F2400
G1 X50.457 Y22.288 E11.56875
G1 X50.457 Y22.523 F12000
G1 F2400
G1 X69.801 Y41.868 E11.75924
G1 X69.801 Y42.102 F12000
G1 F2400
G1 X50.457 Y22.758 E11.94972
G1 X50.457 Y22.992 F12000
G1 F2400
G1 X69.801 Y42.337 E12.1402
G1 X69.801 Y42.572 F12000
G1 F2400
G1 X50.457 Y23.227 E12.33068
G1 X50.457 Y23.462 F12000
G1 F2400
G1 X69.801 Y42.807 E12.52117
G1 X69.801 Y43.042 F12000
G1 F2400
G1 X50.457 Y23.697 E12.71165
G1 X50.457 Y23.932 F12000
G1 F2400
G1 X69.801 Y43.277 E12.90213
G1 X69.801 Y43.511 F12000
G1 F2400
G1 X50.457 Y24.167 E13.09261
G1 X50.457 Y24.401 F12000
G1 F2400
G1 X69.801 Y43.746 E13.2831
G1 X69.801 Y43.981 F12000
G1 F2400
G1 X50.457 Y24.636 E13.47358
G1 X50.457 Y24.871 F12000
G1 F2400
G1 X69.801 Y44.216 E13.66406
G1 X69.801 Y44.451 F12000
G1 F2400
G1 X50.457 Y25.106 E13.85454
G1 X50.457 Y25.341 F12000
G1 F2400
G1 X69.801 Y44.685 E14.04503
G1 X69.801 Y44.92 F12000
G1 F2400
G1 X50.457 Y25.575 E14.23551
G1 X50.457 Y25.81 F12000
G1 F2400
G1 X69.801 Y45.155 E14.42599
G1 X69.801 Y45.39 F12000
G1 F2400
G1 X50.457 Y26.045 E14.61648
G1 X50.457 Y26.28 F12000
G1 F2400
G1 X69.801 Y45.625 E14.80696
M73 P3 R60
G1 X69.801 Y45.859 F12000
G1 F2400
G1 X50.457 Y26.515 E14.99744
G1 X50.457 Y26.749 F12000
G1 F2400
G1 X69.801 Y46.094 E15.18792
G1 X69.801 Y46.329 F12000
G1 F2400
G1 X50.457 Y26.984 E15.37841
G1 X50.457 Y27.219 F12000
G1 F2400
G1 X69.801 Y46.564 E15.56889
G1 X69.801 Y46.799 F12000
G1 F2400
G1 X50.457 Y27.454 E15.75937
G1 X50.457 Y27.689 F12000
G1 F2400
G1 X69.801 Y47.034 E15.94985
G1 X69.801 Y47.268 F12000
G1 F2400
G1 X50.457 Y27.924 E16.14034
G1 X50.457 Y28.158 F12000
G1 F2400
G1 X69.801 Y47.503 E16.33082
G1 X69.801 Y47.738 F12000
G1 F2400
G1 X50.457 Y28.393 E16.5213
G1 X50.457 Y28.628 F12000
G1 F2400
G1 X69.801 Y47.973 E16.71178
G1 X69.801 Y48.208 F12000
G1 F2400
G1 X50.457 Y28.863 E16.90227
G1 X50.457 Y29.098 F12000
G1 F2400
G1 X69.801 Y48.442 E17.09275
G1 X69.801 Y48.677 F12000
G1 F2400
G1 X50.457 Y29.332 E17.28323
G1 X50.457 Y29.567 F12000
G1 F2400
G1 X69.801 Y48.912 E17.47371
G1 X69.801 Y49.147 F12000
G1 F2400
G1 X50.457 Y29.802 E17.6642
G1 X50.457 Y30.037 F12000
G1 F2400
G1 X69.801 Y49.382 E17.85468
G1 X69.801 Y49.617 F12000
G1 F2400
G1 X50.457 Y30.272 E18.04516
G1 X50.457 Y30.507 F12000
G1 F2400
G1 X69.801 Y49.851 E18.23564
G1 X69.801 Y50.086 F12000
G1 F2400
G1 X50.457 Y30.741 E18.42613
G1 X50.457 Y30.976 F12000
G1 F2400
G1 X69.801 Y50.321 E18.61661
G1 X69.801 Y50.556 F12000
G1 F2400
G1 X50.457 Y31.211 E18.80709
M73 P3 R60
G1 X50.457 Y31.446 F12000
G1 F2400
G1 X69.801 Y50.791 E18.99757
G1 X69.801 Y51.025 F12000
G1 F2400
G1 X50.457 Y31.681 E19.18806
G1 X50.457 Y31.915 F12000
G1 F2400
G1 X69.801 Y51.26 E19.37854
G1 X69.801 Y51.495 F12000
G1 F2400
G1 X50.457 Y32.15 E19.56902
G1 X50.457 Y32.385 F12000
G1 F2400
G1 X69.801 Y51.73 E19.7595
G1 X69.801 Y51.965 F12000
G1 F2400
G1 X50.457 Y32.62 E19.94999
G1 X50.457 Y32.855 F12000
G1 F2400
G1 X69.801 Y52.199 E20.14047
G1 X69.801 Y52.434 F12000
G1 F2400
G1 X50.457 Y33.089 E20.33095
G1 X50.457 Y33.324 F12000
G1 F2400
G1 X69.801 Y52.669 E20.52143
G1 X69.801 Y52.904 F12000
G1 F2400
G1 X50.457 Y33.559 E20.71192
G1 X50.457 Y33.794 F12000
G1 F2400
G1 X69.801 Y53.139 E20.9024
G1 X69.801 Y53.374 F12000
G1 F2400
G1 X50.457 Y34.029 E21.09288
G1 X50.457 Y34.264 F12000
G1 F2400
G1 X69.801 Y53.608 E21.28336
G1 X69.801 Y53.843 F12000
G1 F2400
G1 X50.457 Y34.498 E21.47385
G1 X50.457 Y34.733 F12000
G1 F2400
G1 X69.801 Y54.078 E21.66433
G1 X69.801 Y54.313 F12000
G1 F2400
G1 X50.457 Y34.968 E21.85481
G1 X50.457 Y35.203 F12000
G1 F2400
G1 X69.801 Y54.548 E22.04529
G1 X69.801 Y54.782 F12000
G1 F2400
G1 X50.457 Y35.438 E22.23578
G1 X50.457 Y35.672 F12000
G1 F2400
G1 X69.801 Y55.017 E22.42626
G1 X69.801 Y55.252 F12000
G1 F2400
G1 X50.457 Y35.907 E22.61674
G1 X50.457 Y36.142 F12000
G1 F2400
G1 X69.801 Y55.487 E22.80722
G1 X69.801 Y55.722 F12000
G1 F2400
G1 X50.457 Y36.377 E22.99771
G1 X50.457 Y36.612 F12000
G1 F2400
G1 X69.801 Y55.956 E23.18819
G1 X69.801 Y56.191 F12000
G1 F2400
G1 X50.457 Y36.847 E23.37867
G1 X50.457 Y37.081 F12000
G1 F2400
G1 X69.801 Y56.426 E23.56915
G1 X69.801 Y56.661 F12000
G1 F2400
G1 X50.457 Y37.316 E23.75964
G1 X50.457 Y37.551 F12000
G1 F2400
G1 X69.801 Y56.896 E23.95012
G1 X69.801 Y57.131 F12000
G1 F2400
G1 X50.457 Y37.786 E24.1406
G1 X50.457 Y38.021 F12000
G1 F2400
G1 X69.801 Y57.365 E24.33108
G1 X69.801 Y57.6 F12000
G1 F2400
G1 X50.457 Y38.255 E24.52157
G1 X50.457 Y38.49 F12000
G1 F2400
G1 X69.801 Y57.835 E24.71205
G1 X69.801 Y58.07 F12000
G1 F2400
G1 X50.457 Y38.725 E24.90253
G1 X50.457 Y38.96 F12000
G1 F2400
G1 X69.801 Y58.305 E25.09301
G1 X69.801 Y58.539 F12000
G1 F2400
G1 X50.457 Y39.195 E25.2835
G1 X50.457 Y39.429 F12000
G1 F2400
G1 X69.801 Y58.774 E25.47398
G1 X69.801 Y59.009 F12000
G1 F2400
