; HEADER_BLOCK_START
; generated by OrcaSlicer 1.7.0-beta on 2023-09-10 at 20:34:14
; total layer number: 37
; HEADER_BLOCK_END

; THUMBNAIL_BLOCK_START
; THUMBNAIL_BLOCK_END

; external perimeters extrusion width = 0.15mm
; perimeters extrusion width = 0.17mm
; infill extrusion width = 0.24mm
; solid infill extrusion width = 0.21mm
; top infill extrusion width = 0.15mm
; first layer extrusion width = 0.19mm

; EXECUTABLE_BLOCK_START
EXCLUDE_OBJECT_DEFINE NAME=Untitled.stl_id_0_copy_0 CENTER=62.1696,60.6843 POLYGON=[[37.6696,65.4325],[37.6712,65.413],[37.6776,65.371],[37.6808,65.3515],[38.244,62.875],[38.26,62.8375],[54.9656,30.7015],[55.0136,30.637],[55.0712,30.58],[55.14,30.532],[55.2216,30.493],[55.316,30.46],[55.4232,30.433],[55.5448,30.4135],[55.6264,30.4045],[55.7096,30.397],[55.876,30.385],[55.9608,30.379],[56.0456,30.3745],[56.212,30.367],[65.308,30.109],[65.4168,30.109],[65.4728,30.1105],[68.6904,30.202],[68.8184,30.208],[68.868,30.2125],[68.9176,30.2185],[68.9672,30.2245],[69.0184,30.232],[69.068,30.2395],[69.1176,30.247],[69.2184,30.265],[69.3176,30.286],[69.3672,30.298],[69.4744,30.325],[69.5256,30.3445],[69.5752,30.3685],[69.6184,30.3955],[69.6568,30.427],[69.6904,30.4615],[69.7192,30.502],[69.7448,30.544],[85.3576,63.1285],[86.6648,67.171],[86.6696,67.207],[86.6664,67.2445],[85.508,75.331],[85.5016,75.358],[85.4952,75.382],[82.9096,82.99],[82.8952,83.026],[82.8744,83.0605],[82.8488,83.0905],[82.8168,83.116],[82.78,83.137],[66.1448,91.24],[66.108,91.2535],[66.0776,91.2595],[66.0392,91.2595],[51.4392,89.626],[51.404,89.62],[51.3688,89.608],[51.3336,89.59],[42.5784,84.4075],[42.5448,84.382],[42.5176,84.3535],[42.4952,84.3205],[38.6968,77.1385],[38.6888,77.1175],[38.6824,77.095],[37.6696,65.4715],[37.6696,65.4325]]
M73 P0 R36
M73 C28
;TYPE:Custom
START_PRINT T_BED=60 T_EXTRUDER=220
G90
G21
M83 ; use relative distances for extrusion
; filament start gcode

    PRESSURE_ADVANCE_SELECT FILAMENT=PLA
M106 S0
;LAYER_CHANGE
;Z:0.1
;HEIGHT:0.1
;BEFORE_LAYER_CHANGE
;0.1
G92 E0

;AFTER_LAYER_CHANGE
;0.1
;_SET_FAN_SPEED_CHANGING_LAYER
SET_VELOCITY_LIMIT ACCEL=500 ACCEL_TO_DECEL=250
G1 E-.8 F3000
G1 Z.2 F21000
G1 X36.468 Y77.828
G1 Z.2
G1 Z.1
G1 E.8 F1800
;TYPE:Skirt
;WIDTH:0.1875
G1 F3000
G1 X36.359 Y77.297 E.00366
G1 X35.338 Y65.408 E.08073
G1 X35.97 Y62.358 E.02107
G1 X36.191 Y61.762 E.0043
G1 X53.143 Y29.245 E.24808
G1 X53.737 Y28.667 E.0056
G1 X54.14 Y28.425 E.00318
G1 X54.746 Y28.199 E.00438
G1 X55.312 Y28.093 E.0039
G1 X65.485 Y27.778 E.06885
G1 X68.984 Y27.883 E.02368
G1 X70.007 Y28.054 E.00702
G1 X70.854 Y28.418 E.00624
G1 X71.328 Y28.8 E.00411
G1 X71.692 Y29.26 E.00397
G1 X87.461 Y62.121 E.24658
G1 X88.884 Y66.453 E.03085
G1 X88.993 Y67.405 E.00648
G1 X87.743 Y75.998 E.05874
G1 X85.118 Y83.74 E.0553
G1 X84.623 Y84.604 E.00674
G1 X84.27 Y84.94 E.00329
G1 X83.801 Y85.234 E.00374
G1 X67.166 Y93.337 E.12518
G1 X66.559 Y93.542 E.00433
G1 X66.078 Y93.592 E.00328
G1 X51.18 Y91.944 E.1014
G1 X50.652 Y91.827 E.00366
G1 X50.131 Y91.586 E.00388
G1 X41.391 Y86.415 E.0687
G1 X40.858 Y85.992 E.0046
G1 X40.434 Y85.411 E.00487
G1 X36.475 Y77.841 E.05779
G1 X36.626 Y77.776 F21000
G1 F3000
G1 X36.525 Y77.283 E.0034
G1 X35.504 Y65.412 E.0806
G1 X36.132 Y62.395 E.02085
G1 X36.338 Y61.838 E.00401
G1 X53.276 Y29.344 E.2479
G1 X53.832 Y28.804 E.00524
G1 X54.211 Y28.575 E.003
G1 X54.787 Y28.36 E.00416
G1 X55.329 Y28.258 E.00373
G1 X65.48 Y27.944 E.0687
G1 X68.975 Y28.049 E.02366
G1 X69.713 Y28.156 E.00504
G1 X70.333 Y28.336 E.00437
G1 X70.766 Y28.559 E.0033
G1 X71.209 Y28.916 E.00384
G1 X71.553 Y29.352 E.00376
G1 X87.311 Y62.193 E.24642
G1 X88.726 Y66.505 E.0307
G1 X88.828 Y67.391 E.00604
G1 X87.583 Y75.951 E.05851
G1 X84.961 Y83.687 E.05526
G1 X84.497 Y84.496 E.00631
G1 X83.729 Y85.084 E.00654
G1 X67.093 Y93.187 E.12518
G1 X66.527 Y93.379 E.00404
G1 X66.078 Y93.426 E.00306
G1 X51.198 Y91.779 E.10127
G1 X50.705 Y91.67 E.00342
G1 X50.214 Y91.442 E.00366
G1 X41.475 Y86.272 E.06869
G1 X40.978 Y85.877 E.00429
G1 X40.58 Y85.333 E.00456
G1 X36.633 Y77.789 E.0576
; printing object Untitled.stl id:0 copy 0
G1 E-.8
EXCLUDE_OBJECT_START NAME=Untitled.stl_id_0_copy_0
G1 Z.3 F21000
G1 X62.244 Y37.124 Z.3
G1 Z.1
G1 E.8 F1800
;TYPE:Outer wall
G1 F3000
G2 X62.478 Y36.673 I-3.757 J-2.235 E.00344
G3 X64.181 Y32.604 I48.22 J17.795 E.02985
G2 X64.354 Y31.461 I-2.878 J-1.019 E.00787
G1 X64.411 Y30.781 E.00461
G3 X65.022 Y30.234 I.671 J.135 E.00595
G3 X65.633 Y30.213 I.39 J2.407 E.00415
G2 X68.86 Y30.306 I6.757 J-178.911 E.02184
G3 X69.564 Y30.472 I-.124 J2.104 E.00492
G3 X69.705 Y30.759 I-.233 J.294 E.00224
G3 X69.608 Y32.269 I-17.638 J-.384 E.01024
G2 X69.813 Y33.084 I2.409 J-.171 E.00572
G3 X70.191 Y34.831 I-9.764 J3.032 E.0121
G3 X70.705 Y40.184 I-42.342 J6.767 E.03641
G2 X70.717 Y41.434 I31.842 J.322 E.00845
G1 X70.754 Y41.653 E.0015
G3 X72.126 Y42.088 I-1.154 J6.026 E.00976
G3 X72.942 Y43.57 I-.788 J1.4 E.01206
G3 X72.6 Y45.022 I-3.968 J-.17 E.01015
G1 X72.379 Y45.592 E.00414
G3 X72.583 Y46.27 I-.291 J.457 E.00522
G3 X71.77 Y47.809 I-5.394 J-1.863 E.01182
G3 X71.393 Y48.058 I-.534 J-.397 E.00313
G3 X68.44 Y51.77 I-17.091 J-10.568 E.03216
G2 X68.374 Y51.885 I.271 J.23 E.0009
G1 X68.338 Y52.107 E.00152
G3 X73.398 Y52.693 I-5.522 J69.752 E.03447
G3 X77.208 Y54.929 I-1.298 J6.576 E.03046
G3 X77.502 Y56.65 I-1.317 J1.11 E.01238
G1 X77.418 Y56.957 E.00216
G3 X78.717 Y57.775 I-7.103 J12.723 E.01039
G3 X79.528 Y58.718 I-2.532 J2.999 E.00845
G3 X80.08 Y59.547 I-36.12 J24.624 E.00673
G3 X81.149 Y59.006 I3.807 J6.2 E.00811
G3 X81.426 Y59.236 I.008 J.272 E.00266
G3 X81.135 Y59.787 I-2.246 J-.833 E.00423
G2 X80.839 Y61.014 I2.907 J1.349 E.00859
G2 X81.024 Y61.178 I.262 J-.108 E.00173
G3 X82.807 Y60.41 I3.064 J4.659 E.0132
G3 X83.138 Y60.693 I.085 J.235 E.00357
G3 X82.677 Y63.01 I-141.007 J-26.825 E.01598
G2 X83.644 Y62.83 I-2.371 J-15.442 E.00665
G3 X85.238 Y63.112 I.427 J2.23 E.0112
G3 X85.196 Y63.301 I-.072 J.083 E.0016
G2 X84.747 Y63.606 I.193 J.767 E.00375
G2 X83.467 Y66.975 I5.614 J4.06 E.02466
G2 X83.529 Y67.403 I1.68 J-.025 E.00294
G3 X86.125 Y67.062 I2.688 J10.42 E.01775
G3 X86.511 Y67.113 I.046 J1.145 E.00265
G1 X86.567 Y67.172 E.00055
G1 X86.567 Y67.254 E.00055
G3 X86.351 Y67.509 I-1.003 J-.632 E.00227
G2 X82.858 Y74.226 I9.461 J9.186 E.05195
G2 X82.812 Y74.833 I4.16 J.621 E.00413
G2 X83.889 Y74.921 I1.269 J-8.983 E.00731
G3 X85.35 Y75.191 I-.231 J5.334 E.01009
G3 X85.342 Y75.421 I-.068 J.112 E.00189
G2 X83.376 Y76.635 I2.323 J5.961 E.01572
G2 X80.365 Y79.468 I62.234 J69.15 E.02797
G1 X79.711 Y80.168 E.00648
G2 X79.498 Y80.492 I2.264 J1.722 E.00262
G3 X81.415 Y81.479 I-3.336 J8.83 E.01462
G3 X82.819 Y82.903 I-3.007 J4.368 E.01361
G1 X82.824 Y82.943 E.00027
G1 X82.798 Y83.006 E.00046
G3 X82.664 Y83.065 I-.129 J-.111 E.00102
G2 X78.656 Y83.215 I-1.696 J8.296 E.0274
G2 X76.703 Y84.019 I2.599 J9.086 E.01432
G3 X69.005 Y87.145 I-15.59 J-27.344 E.05637
G3 X65.363 Y87.411 I-2.593 J-10.453 E.02482
G1 X65.07 Y87.432 E.00199
G2 X65.1 Y87.755 I.274 J.137 E.00231
G3 X66.189 Y90.69 I-4.82 J3.457 E.02143
G3 X66.18 Y91.077 I-3.598 J.115 E.00262
G3 X65.901 Y91.077 I-.14 J-.064 E.00237
G2 X62.925 Y88.627 I-5.029 J3.075 E.02657
G2 X59.796 Y87.669 I-6.122 J14.412 E.02218
G2 X51.571 Y89.489 I-1.841 J11.177 E.05839
G3 X51.306 Y89.427 I-.11 J-.125 E.00215
G3 X51.639 Y88.697 I2.017 J.479 E.00546
G3 X53.055 Y87.113 I4.986 J3.031 E.01445
G1 X53.757 Y86.602 E.00588
G2 X53.233 Y86.337 I-.659 J.653 E.00404
G3 X50.675 Y85.272 I5.814 J-17.567 E.01876
G2 X48.484 Y84.328 I-16.518 J35.348 E.01614
G2 X45.589 Y83.88 I-2.549 J6.892 E.01995
G2 X44.043 Y83.947 I.013 J18.235 E.01047
G2 X42.858 Y84.356 I.459 J3.25 E.00853
G3 X42.565 Y84.234 I-.08 J-.222 E.00236
G3 X42.567 Y84.181 I.148 J-.019 E.00036
G3 X45.191 Y81.175 I5.334 J2.007 E.02758
G2 X45.349 Y80.98 I-.446 J-.523 E.00171
G3 X43.66 Y79.424 I6.911 J-9.192 E.01556
G2 X39.608 Y77.121 I-6.098 J6.014 E.03193
G2 X38.978 Y77.196 I-.175 J1.208 E.00434
G3 X38.775 Y77.056 I-.001 J-.216 E.00177
G3 X38.801 Y76.997 I.09 J.004 E.00045
G3 X40.283 Y75.966 I2.65 J2.228 E.01235
G3 X41.972 Y75.456 I3.052 J7.048 E.01197
G1 X41.719 Y74.935 E.00392
G2 X39.673 Y71.396 I-108.153 J60.176 E.02766
G2 X38.838 Y70.559 I-2.025 J1.184 E.00808
G3 X38.808 Y70.328 I.067 J-.126 E.00184
G3 X39.716 Y70.043 I.875 J1.198 E.00655
G3 X40.525 Y70.067 I.025 J12.42 E.00547
G2 X40.708 Y69.909 I-.098 J-.297 E.00168
G2 X39.488 Y67.481 I-32.441 J14.78 E.01839
G2 X37.842 Y65.578 I-5.74 J3.3 E.01713
G3 X37.985 Y65.263 I.087 J-.15 E.00346
G3 X40.303 Y66.198 I-2.195 J8.785 E.01696
G2 X40.42 Y66.201 I.063 J-.19 E.00081
G1 X40.561 Y66.122 E.00109
G2 X40.482 Y65.851 I-.693 J.054 E.00192
G2 X39.223 Y64.038 I-7.659 J3.979 E.01498
G3 X38.346 Y62.995 I10.04 J-9.326 E.00922
G3 X38.496 Y62.801 I.125 J-.058 E.00204
G3 X38.783 Y62.841 I-.018 J1.179 E.00197
G3 X41.441 Y63.786 I-6.226 J21.721 E.01909
G1 X41.741 Y63.856 E.00208
G2 X41.834 Y63.213 I-1.016 J-.475 E.00446
G2 X41.232 Y60.58 I-7.435 J.316 E.01837
G3 X41.176 Y60.394 I.922 J-.375 E.00131
G3 X41.402 Y60.31 I.152 J.062 E.00183
G3 X43.615 Y61.573 I-1.757 J5.649 E.01737
G2 X43.837 Y61.692 I.631 J-.908 E.0017
G2 X43.947 Y61.232 I-.366 J-.331 E.00334
G2 X43.666 Y59.552 I-4.773 J-.066 E.01159
G2 X43.363 Y59.025 I-6.036 J3.127 E.00412
G3 X43.563 Y58.808 I.154 J-.059 E.00247
G3 X43.897 Y58.919 I-.129 J.948 E.0024
G2 X44.621 Y59.298 I3.24 J-5.303 E.00553
G1 X44.767 Y59.314 E.001
G3 X45.317 Y58.551 I45.864 J32.498 E.00636
G3 X47.15 Y57.304 I3.354 J2.959 E.01515
G1 X47.395 Y57.164 E.00191
G3 X47.261 Y56.4 I3.666 J-1.038 E.00525
G3 X48.126 Y54.505 I2.685 J.082 E.01447
G3 X51.785 Y52.679 I4.712 J4.861 E.0281
G3 X54.013 Y52.39 I4.914 J29.189 E.0152
G1 X56.161 Y52.166 E.01461
G2 X56.358 Y52.012 I-.081 J-.308 E.00174
G2 X55.604 Y51.149 I-5.441 J3.994 E.00776
G3 X53.689 Y48.703 I14.082 J-13.003 E.02104
G3 X53.416 Y48.225 I5.536 J-3.473 E.00373
G3 X53.052 Y47.994 I2.699 J-4.668 E.00292
G3 X52.171 Y46.353 I3.855 J-3.125 E.01268
G3 X52.381 Y45.651 I.628 J-.195 E.00526
G3 X51.841 Y43.979 I5.855 J-2.812 E.01192
G3 X52.166 Y42.549 I1.858 J-.329 E.01018
G3 X53.288 Y41.914 I1.539 J1.409 E.00886
G3 X53.984 Y41.759 I1.84 J6.636 E.00483
G2 X54.042 Y41.382 I-1.179 J-.375 E.00259
G3 X54.284 Y37.065 I31.054 J-.421 E.02928
G3 X54.707 Y33.998 I59.029 J6.573 E.02095
G3 X55.065 Y32.819 I7.191 J1.539 E.00835
G2 X55.101 Y32.479 I-.903 J-.267 E.00233
G1 X54.984 Y31.174 E.00886
G3 X55.187 Y30.613 I.529 J-.125 E.00427
G3 X55.966 Y30.473 I.726 J1.792 E.00539
G3 X59.579 Y30.392 I9.397 J338.449 E.02444
G3 X60.318 Y31.067 I0 J.743 E.00744
G2 X60.378 Y32.335 I16.051 J-.124 E.00859
G2 X60.49 Y32.753 I1.84 J-.268 E.00294
G3 X62.048 Y36.675 I-44.74 J20.045 E.02855
G1 X62.238 Y37.111 E.00322
G1 X62.229 Y37.507 F21000
;TYPE:Inner wall
G1 F3000
G2 X62.885 Y36.05 I-5.47 J-3.339 E.01084
G3 X64.336 Y32.664 I67.298 J26.833 E.02493
G2 X64.519 Y31.472 I-3.04 J-1.077 E.00821
G1 X64.575 Y30.805 E.00453
G3 X65.051 Y30.398 I.504 J.108 E.00455
G3 X65.627 Y30.379 I.363 J2.246 E.00391
G2 X68.845 Y30.471 I6.519 J-171.086 E.02178
G3 X69.481 Y30.619 I-.149 J2.092 E.00443
G1 X69.487 Y30.625 E.00006
G3 X69.539 Y30.768 I-.183 J.148 E.00105
G3 X69.441 Y32.27 I-18.13 J-.428 E.01019
G2 X69.655 Y33.137 I2.595 J-.18 E.00607
G3 X70.027 Y34.857 I-9.606 J2.981 E.01192
G3 X70.539 Y40.187 I-42.173 J6.74 E.03625
M73 C27
G2 X70.553 Y41.455 I29.356 J.331 E.00858
G1 X70.608 Y41.788 E.00228
G3 X71.879 Y42.151 I-1.374 J7.204 E.00895
G3 X72.776 Y43.569 I-.505 J1.313 E.01216
G3 X72.444 Y44.963 I-3.808 J-.17 E.00975
G1 X72.181 Y45.643 E.00493
G3 X72.437 Y45.89 I-.356 J.624 E.00243
G3 X72.401 Y46.28 I-.551 J.146 E.00271
G3 X71.558 Y47.791 I-4.632 J-1.594 E.01177
G3 X71.284 Y47.918 I-.364 J-.426 E.00206
G3 X68.31 Y51.665 I-17.031 J-10.466 E.03244
G2 X68.214 Y51.838 I.408 J.34 E.00135
G1 X68.145 Y52.257 E.00287
G3 X73.364 Y52.856 I-5.442 J70.454 E.03555
G3 X77.074 Y55.027 I-1.266 J6.417 E.02963
G3 X77.345 Y56.596 I-1.181 J1.012 E.0113
G1 X77.225 Y57.034 E.00308
G3 X78.615 Y57.906 I-7.618 J13.688 E.01111
G3 X79.392 Y58.812 I-2.434 J2.872 E.00811
G3 X80.029 Y59.771 I-41.788 J28.448 E.00779
G3 X81.163 Y59.17 I4.783 J7.666 E.00869
G3 X81.254 Y59.232 I-.035 J.148 E.00076
G3 X80.934 Y59.824 I-66.246 J-35.471 E.00455
G2 X80.665 Y60.954 I3.71 J1.481 E.00789
G2 X80.85 Y61.28 I.403 J-.013 E.00264
G1 X81.034 Y61.366 E.00138
G3 X82.831 Y60.575 I3.096 J4.59 E.01336
G3 X82.976 Y60.599 I.052 J.133 E.00104
G3 X82.952 Y60.824 I-1.264 J-.017 E.00154
G3 X82.464 Y63.208 I-472.132 J-95.416 E.01646
G2 X83.666 Y62.995 I-2.043 J-14.968 E.00826
G3 X85.048 Y63.173 I.38 J2.491 E.00955
G2 X84.614 Y63.506 I.504 J1.107 E.00373
G2 X83.301 Y66.97 I5.748 J4.16 E.02536
G2 X83.406 Y67.604 I2.238 J-.046 E.00436
G3 X86.119 Y67.229 I2.825 J10.424 E.01858
G1 X86.375 Y67.253 E.00174
G2 X82.694 Y74.203 I9.396 J9.427 E.05401
G2 X82.643 Y74.97 I5.018 J.719 E.00521
G2 X83.465 Y75.063 I.773 J-3.173 E.00561
G3 X85.084 Y75.28 I-.102 J6.899 E.01108
G1 X85.089 Y75.353 E.00049
G2 X83.266 Y76.51 I2.493 J5.943 E.01468
G2 X80.245 Y79.353 I62.277 J69.201 E.02807
G1 X79.583 Y80.062 E.00656
G2 X79.253 Y80.567 I3.537 J2.672 E.00408
G3 X80.894 Y81.336 I-4.377 J11.473 E.01227
G3 X82.619 Y82.887 I-3.025 J5.1 E.01579
G2 X78.612 Y83.055 I-1.653 J8.465 E.02739
G2 X76.624 Y83.872 I2.65 J9.264 E.01457
G3 X68.967 Y86.984 I-15.512 J-27.201 E.05608
G3 X65.364 Y87.244 I-2.556 J-10.296 E.02456
G1 X64.94 Y87.275 E.00288
G1 X64.867 Y87.549 E.00192
G2 X64.958 Y87.842 I.428 J.027 E.00212
M73 P1 R36
G3 X66.023 Y90.834 I-4.484 J3.28 E.02179
G1 X65.951 Y90.855 E.00051
G2 X62.985 Y88.472 I-4.966 J3.143 E.02621
G2 X59.824 Y87.505 I-6.186 J14.578 E.0224
G2 X51.595 Y89.281 I-1.863 J11.322 E.05831
G1 X51.537 Y89.229 E.00053
G3 X53.156 Y87.245 I5.081 J2.492 E.01748
G1 X54.037 Y86.603 E.00737
G2 X53.557 Y86.258 I-1.786 J1.975 E.00401
G3 X50.744 Y85.121 I4.987 J-16.383 E.02055
G2 X48.54 Y84.172 I-16.559 J35.435 E.01624
G2 X45.587 Y83.714 I-2.605 J7.049 E.02035
G2 X44.021 Y83.782 I.016 J18.387 E.01061
G2 X42.835 Y84.191 I.37 J2.998 E.00855
G1 X42.738 Y84.198 E.00066
G3 X45.295 Y81.306 I5.18 J2.003 E.02667
G2 X45.574 Y80.95 I-.817 J-.929 E.00308
G3 X43.776 Y79.305 I8.143 J-10.704 E.01651
G2 X39.632 Y76.956 I-6.208 J6.124 E.03264
G2 X39.154 Y76.964 I-.208 J1.884 E.00324
G1 X39.122 Y76.9 E.00049
G3 X40.349 Y76.119 I2.332 J2.308 E.00992
G3 X42.216 Y75.577 I3.107 J7.23 E.01319
G1 X41.866 Y74.857 E.00542
G2 X39.811 Y71.304 I-107.93 J60.046 E.02777
G2 X38.94 Y70.426 I-2.163 J1.275 E.00845
G3 X39.821 Y70.206 I.815 J1.387 E.00623
G3 X40.486 Y70.241 I-.017 J6.692 E.00451
G2 X40.775 Y70.101 I-.031 J-.432 E.00222
G1 X40.899 Y69.926 E.00145
G2 X39.63 Y67.396 I-33.32 J15.133 E.01915
G2 X38.036 Y65.531 I-5.552 J3.132 E.0167
G1 X38.072 Y65.459 E.00055
G3 X40.254 Y66.358 I-2.301 J8.676 E.01601
G2 X40.475 Y66.361 I.114 J-.359 E.00152
G1 X40.751 Y66.205 E.00214
G1 X40.672 Y65.865 E.00236
G1 X40.63 Y65.774 E.00068
G2 X39.349 Y63.93 I-7.819 J4.065 E.01523
G3 X38.51 Y62.955 I40.608 J-35.742 E.0087
G1 X38.741 Y63.002 E.0016
G3 X41.388 Y63.944 I-6.138 J21.43 E.01902
G1 X41.835 Y64.048 E.00311
G2 X42 Y63.208 I-1.164 J-.664 E.0059
G2 X41.368 Y60.473 I-7.658 J.328 E.01909
G3 X43.519 Y61.709 I-1.841 J5.693 E.0169
G2 X43.899 Y61.908 I1.059 J-1.56 E.00291
G2 X44.1 Y61.562 I-1.043 J-.838 E.00272
G2 X44.113 Y61.22 I-.687 J-.197 E.00234
G2 X43.819 Y59.487 I-4.928 J-.057 E.01196
G2 X43.566 Y59.034 I-2.37 J1.03 E.00351
G1 X43.611 Y58.976 E.0005
G3 X44.468 Y59.422 I-3.594 J7.946 E.00654
G2 X44.841 Y59.488 I.338 J-.822 E.00258
G2 X45.443 Y58.659 I-310.703 J-226.381 E.00694
G3 X47.223 Y57.453 I3.235 J2.858 E.0147
G1 X47.581 Y57.249 E.00279
G3 X47.433 Y56.496 I17.372 J-3.814 E.00519
G3 X48.095 Y54.782 I2.338 J-.082 E.01278
G3 X51.633 Y52.877 I4.663 J4.421 E.02765
G3 X54.031 Y52.555 I5.134 J29.176 E.01637
G1 X56.19 Y52.33 E.01469
G2 X56.361 Y52.249 I-.016 J-.254 E.00131
G1 X56.576 Y52.026 E.0021
G2 X55.727 Y51.037 I-5.872 J4.182 E.00882
G3 X53.83 Y48.616 I13.961 J-12.893 E.02083
G3 X53.542 Y48.109 I5.871 J-3.671 E.00395
G3 X53.173 Y47.879 I8.349 J-13.825 E.00294
G3 X52.333 Y46.317 I3.719 J-3.006 E.01207
