; generated by SuperSlicer 2.5.59 on 2023-01-05 at 18:09:01 UTC


;
;

;
;
; 

; external perimeters extrusion width = 0.15mm
; perimeters extrusion width = 0.17mm
; infill extrusion width = 0.24mm
; solid infill extrusion width = 0.21mm
; top infill extrusion width = 0.15mm
; first layer extrusion width = 0.19mm

; external perimeters extrusion width = 0.15mm
; perimeters extrusion width = 0.17mm
; infill extrusion width = 0.24mm
; solid infill extrusion width = 0.21mm
; top infill extrusion width = 0.17mm
; first layer extrusion width = 0.19mm

; external perimeters extrusion width = 0.15mm
; perimeters extrusion width = 0.17mm
; infill extrusion width = 0.24mm
; solid infill extrusion width = 0.21mm
; top infill extrusion width = 0.15mm
; first layer extrusion width = 0.19mm

; external perimeters extrusion width = 0.15mm
; perimeters extrusion width = 0.17mm
; infill extrusion width = 0.24mm
; solid infill extrusion width = 0.21mm
; top infill extrusion width = 0.17mm
; first layer extrusion width = 0.19mm

; external perimeters extrusion width = 0.15mm
; perimeters extrusion width = 0.17mm
; infill extrusion width = 0.24mm
; solid infill extrusion width = 0.21mm
; top infill extrusion width = 0.15mm
; first layer extrusion width = 0.19mm

; external perimeters extrusion width = 0.15mm
; perimeters extrusion width = 0.17mm
; infill extrusion width = 0.24mm
; solid infill extrusion width = 0.21mm
; top infill extrusion width = 0.17mm
; first layer extrusion width = 0.19mm

; external perimeters extrusion width = 0.15mm
; perimeters extrusion width = 0.17mm
; infill extrusion width = 0.24mm
; solid infill extrusion width = 0.21mm
; top infill extrusion width = 0.15mm
; first layer extrusion width = 0.19mm

; external perimeters extrusion width = 0.15mm
; perimeters extrusion width = 0.17mm
; infill extrusion width = 0.24mm
; solid infill extrusion width = 0.21mm
; top infill extrusion width = 0.17mm
; first layer extrusion width = 0.19mm

; external perimeters extrusion width = 0.15mm
; perimeters extrusion width = 0.17mm
; infill extrusion width = 0.24mm
; solid infill extrusion width = 0.21mm
; top infill extrusion width = 0.15mm
; first layer extrusion width = 0.19mm

; external perimeters extrusion width = 0.15mm
; perimeters extrusion width = 0.17mm
; infill extrusion width = 0.24mm
; solid infill extrusion width = 0.21mm
; top infill extrusion width = 0.17mm
; first layer extrusion width = 0.19mm

; external perimeters extrusion width = 0.15mm
; perimeters extrusion width = 0.17mm
; infill extrusion width = 0.24mm
; solid infill extrusion width = 0.21mm
; top infill extrusion width = 0.15mm
; first layer extrusion width = 0.19mm

; external perimeters extrusion width = 0.15mm
; perimeters extrusion width = 0.17mm
; infill extrusion width = 0.24mm
; solid infill extrusion width = 0.21mm
; top infill extrusion width = 0.17mm
; first layer extrusion width = 0.19mm

; object:{"name":"LogoVancouver","id":"LogoVancouver.STL id:0 copy 0","object_center":[42.742050,59.999575,0.000000],"boundingbox_center":[42.742050,59.999575,2.224427],"boundingbox_size":[28.515906,11.500000,4.448854]}
; object:{"name":"LogoVancouver","id":"LogoVancouver.STL id:1 copy 0","object_center":[42.742050,77.500426,0.000000],"boundingbox_center":[42.742050,77.500426,2.224427],"boundingbox_size":[28.515906,11.500000,4.448854]}
; object:{"name":"LogoVancouver","id":"LogoVancouver.STL id:2 copy 0","object_center":[77.257952,59.999575,0.000000],"boundingbox_center":[77.257952,59.999575,2.224427],"boundingbox_size":[28.515906,11.500000,4.448854]}
; object:{"name":"LogoVancouver","id":"LogoVancouver.STL id:3 copy 0","object_center":[77.257952,77.500426,0.000000],"boundingbox_center":[77.257952,77.500426,2.224427],"boundingbox_size":[28.515906,11.500000,4.448854]}
; object:{"name":"LogoVancouver","id":"LogoVancouver.STL id:4 copy 0","object_center":[42.742050,42.498724,0.000000],"boundingbox_center":[42.742050,42.498724,2.224427],"boundingbox_size":[28.515906,11.500000,4.448854]}
; object:{"name":"LogoVancouver","id":"LogoVancouver.STL id:5 copy 0","object_center":[77.257952,42.498724,0.000000],"boundingbox_center":[77.257952,42.498724,2.224427],"boundingbox_size":[28.515906,11.500000,4.448854]}
; plater:{"center":[60.000001,59.999575,0.000000],"boundingbox_center":[60.000001,59.999575,2.224427],"boundingbox_size":[63.031808,46.501702,4.448854]}

M73 P0 R73
M73 P0 R73
;TYPE:Custom
; custom gcode: start_gcode
START_PRINT T_BED=60 T_EXTRUDER=200
; custom gcode end: start_gcode
M107
G21 ; set units to millimeters
G90 ; use absolute coordinates
M83 ; use relative distances for extrusion
; custom gcode: start_filament_gcode
; Filament gcode


; custom gcode end: start_filament_gcode
;_TOOLCHANGE 0
M109 S200 ; set temperature and wait for it to be reached
M190 S60 ; set bed temperature and wait for it to be reached
;LAYER_CHANGE
;Z:0.1
;HEIGHT:0.1
G1 Z0.1 F12000
G92 E0
M73 P0 R73
M73 P0 R73
G1 E-0.8 F1800
M204 S2000
G1 X26.804 Y34.117 F12000
G1 E0.8 F1800
;TYPE:Skirt
;WIDTH:0.195
G1 X25.718 Y35.295 E0.0111
G1 X25.324 Y36.849 E0.0111
G1 X25.324 Y83.15 E0.3207
G1 X25.853 Y84.93 E0.01286
G1 X27.031 Y86.017 E0.0111
G1 X28.584 Y86.411 E0.0111
G1 X91.418 Y86.391 E0.43521
G1 X93.196 Y85.862 E0.01285
G1 X94.282 Y84.684 E0.0111
G1 X94.676 Y83.131 E0.0111
G1 X94.676 Y37.582 E0.31549
G1 X94.193 Y35.874 E0.0123
G1 X93.043 Y34.757 E0.0111
G1 X91.501 Y34.323 E0.0111
G1 X63.256 Y33.59 E0.1957
G1 X28.584 Y33.588 E0.24015
G1 X26.804 Y34.117 E0.01286
G1 X26.941 Y34.249 F12000
G1 F1800
G1 X25.891 Y35.341 E0.01049
G1 X25.497 Y36.849 E0.0108
G1 X25.497 Y83.15 E0.3207
G1 X25.952 Y84.763 E0.01161
G1 X27.076 Y85.844 E0.0108
G1 X28.584 Y86.237 E0.0108
G1 X91.418 Y86.218 E0.43521
G1 X93.029 Y85.763 E0.01159
G1 X94.109 Y84.639 E0.0108
G1 X94.503 Y83.131 E0.0108
G1 X94.503 Y37.582 E0.31549
G1 X94.089 Y36.038 E0.01107
G1 X92.993 Y34.929 E0.0108
G1 X91.496 Y34.497 E0.0108
G1 X63.251 Y33.763 E0.1957
G1 X28.584 Y33.762 E0.24012
G1 X26.971 Y34.217 E0.01161
G1 X26.941 Y34.249 E0.0003
G1 E-0.8
; printing object LogoVancouver.STL id:0 copy 0
; acceleration to travel
M204 S4000
G1 X28.29 Y47.878 F12000
; decel to extrusion
M204 S2000
G1 X28.964 Y54.693
; end travel
G1 E0.8 F1800
;TYPE:Internal perimeter
;WIDTH:0.1875
G1 X28.844 Y54.81 E0.00112
G1 X28.844 Y65.39 E0.07011
G1 X56.64 Y65.37 E0.18421
G1 X56.64 Y55.287 E0.06683
G1 X53.112 Y57.845 E0.02888
G1 X49.371 Y60.67 E0.03107
G1 X48.041 Y59.385 E0.01225
G1 X47.697 Y61.16 E0.01198
G1 X46.999 Y61.176 E0.00463
G1 X46.624 Y59.625 E0.01058
G1 X45.469 Y60.353 E0.00905
G1 X45.079 Y61.519 E0.00815
G1 X44.445 Y61.508 E0.00421
G1 X44.389 Y61.323 E0.00128
G1 X43.809 Y61.912 E0.00548
G1 X40.899 Y59.462 E0.02521
G1 X38.501 Y61.897 E0.02265
G1 X29.112 Y55.007 E0.07718
;WIDTH:0.151658
G1 X29.144 Y55.236 E0.00124
;WIDTH:0.1875
G1 X38.518 Y62.116 E0.07706
G1 X40.909 Y59.687 E0.02258
G1 X43.82 Y62.138 E0.02521
G1 X44.279 Y61.672 E0.00434
G1 X45.198 Y61.687 E0.00609
G1 X45.608 Y60.462 E0.00856
G1 X46.517 Y59.888 E0.00712
G1 X46.869 Y61.345 E0.00993
G1 X47.835 Y61.323 E0.0064
G1 X48.146 Y59.717 E0.01084
G1 X49.358 Y60.888 E0.01116
G1 X53.211 Y57.978 E0.032
G1 X56.474 Y55.612 E0.02671
G1 X56.474 Y65.205 E0.06357
G1 X29.01 Y65.223 E0.18201
M73 P1 R73
G1 X29.01 Y55.138 E0.06684
;WIDTH:0.151658
G1 X28.978 Y54.908 E0.00124
;WIDTH:0.1875
G1 X29.098 Y54.791 E0.00112
;TYPE:External perimeter
G1 X38.483 Y61.678 E0.07714
G1 X40.888 Y59.236 E0.02272
G1 X43.798 Y61.686 E0.02521
G1 X44.468 Y61.006 E0.00632
G1 X44.569 Y61.344 E0.00234
G1 X44.96 Y61.351 E0.00259
G1 X45.33 Y60.244 E0.00773
G1 X46.731 Y59.361 E0.01097
G1 X47.129 Y61.007 E0.01122
G1 X47.56 Y60.997 E0.00285
G1 X47.937 Y59.053 E0.01312
G1 X49.384 Y60.452 E0.01334
G1 X53.013 Y57.711 E0.03014
G1 X56.508 Y55.177 E0.02861
G1 X56.806 Y55.177 E0.00197
G1 X56.806 Y65.536 E0.06865
G1 X28.678 Y65.556 E0.18641
G1 X28.678 Y54.482 E0.07338
G1 X28.964 Y54.693 E0.00236
G1 E-0.8
; acceleration to travel
M204 S4000
G1 X47.036 Y55.46 F12000
; decel to extrusion
M204 S2000
G1 X56.236 Y55.85
; end travel
G1 E0.8 F1800
;TYPE:Solid infill
;WIDTH:0.195182
G1 F2400
G1 X56.424 Y56.038 E0.00183
G1 X56.424 Y56.273 F12000
G1 F2400
G1 X56.101 Y55.95 E0.00315
G1 X55.967 Y56.05 F12000
G1 F2400
G1 X56.424 Y56.508 E0.00447
G1 X56.424 Y56.743 F12000
G1 F2400
G1 X55.832 Y56.15 E0.00578
G1 X55.697 Y56.25 F12000
G1 F2400
G1 X56.424 Y56.978 E0.0071
G1 X56.424 Y57.212 F12000
G1 F2400
G1 X55.562 Y56.35 E0.00841
G1 X55.427 Y56.45 F12000
G1 F2400
G1 X56.424 Y57.447 E0.00973
G1 X56.424 Y57.682 F12000
G1 F2400
G1 X55.292 Y56.55 E0.01104
G1 X55.158 Y56.65 F12000
G1 F2400
G1 X56.424 Y57.917 E0.01236
G1 X56.424 Y58.152 F12000
G1 F2400
G1 X55.023 Y56.75 E0.01367
G1 X54.888 Y56.85 F12000
G1 F2400
G1 X56.424 Y58.387 E0.01499
G1 X56.424 Y58.621 F12000
G1 F2400
G1 X54.753 Y56.95 E0.01631
G1 X54.618 Y57.05 F12000
G1 F2400
G1 X56.424 Y58.856 E0.01762
G1 X56.424 Y59.091 F12000
G1 F2400
G1 X54.483 Y57.15 E0.01894
G1 X54.349 Y57.25 F12000
G1 F2400
G1 X56.424 Y59.326 E0.02025
G1 X56.424 Y59.561 F12000
G1 F2400
G1 X54.214 Y57.35 E0.02157
G1 X54.079 Y57.45 F12000
G1 F2400
G1 X56.424 Y59.795 E0.02288
G1 X56.424 Y60.03 F12000
G1 F2400
G1 X53.944 Y57.55 E0.0242
G1 X53.809 Y57.65 F12000
G1 F2400
G1 X56.424 Y60.265 E0.02551
G1 X56.424 Y60.5 F12000
G1 F2400
G1 X53.674 Y57.75 E0.02683
G1 X53.539 Y57.85 F12000
G1 F2400
G1 X56.424 Y60.735 E0.02815
G1 X56.424 Y60.969 F12000
G1 F2400
G1 X53.405 Y57.95 E0.02946
G1 X53.27 Y58.05 F12000
G1 F2400
G1 X56.424 Y61.204 E0.03078
G1 X56.424 Y61.439 F12000
G1 F2400
G1 X53.135 Y58.15 E0.03209
G1 X53 Y58.25 F12000
G1 F2400
G1 X56.424 Y61.674 E0.03341
G1 X56.424 Y61.909 F12000
G1 F2400
G1 X52.865 Y58.35 E0.03472
G1 X52.73 Y58.45 F12000
G1 F2400
G1 X56.424 Y62.144 E0.03604
G1 X56.424 Y62.378 F12000
G1 F2400
G1 X52.596 Y58.55 E0.03735
G1 X52.461 Y58.65 F12000
G1 F2400
G1 X56.424 Y62.613 E0.03867
G1 X56.424 Y62.848 F12000
G1 F2400
G1 X52.326 Y58.75 E0.03999
G1 X52.191 Y58.849 F12000
G1 F2400
G1 X56.424 Y63.083 E0.0413
G1 X56.424 Y63.318 F12000
G1 F2400
G1 X52.056 Y58.949 E0.04262
G1 X51.921 Y59.049 F12000
G1 F2400
G1 X56.424 Y63.552 E0.04393
G1 X56.424 Y63.787 F12000
G1 F2400
G1 X51.786 Y59.149 E0.04525
G1 X51.652 Y59.249 F12000
G1 F2400
G1 X56.424 Y64.022 E0.04656
G1 X56.424 Y64.257 F12000
G1 F2400
G1 X51.517 Y59.349 E0.04788
G1 X51.382 Y59.449 F12000
G1 F2400
G1 X56.424 Y64.492 E0.04919
G1 X56.424 Y64.727 F12000
G1 F2400
G1 X51.247 Y59.549 E0.05051
G1 X51.112 Y59.649 F12000
G1 F2400
G1 X56.424 Y64.961 E0.05182
G1 X56.383 Y65.155 F12000
G1 F2400
G1 X50.977 Y59.749 E0.05274
G1 X50.843 Y59.849 F12000
G1 F2400
G1 X56.148 Y65.155 E0.05176
G1 X55.914 Y65.155 F12000
G1 F2400
G1 X50.708 Y59.949 E0.05079
G1 X50.573 Y60.049 F12000
G1 F2400
G1 X55.679 Y65.155 E0.04982
G1 X55.444 Y65.155 F12000
G1 F2400
G1 X50.438 Y60.149 E0.04884
G1 X50.303 Y60.249 F12000
G1 F2400
G1 X55.21 Y65.156 E0.04787
G1 X54.975 Y65.156 F12000
G1 F2400
G1 X50.168 Y60.349 E0.04689
G1 X50.034 Y60.449 F12000
G1 F2400
G1 X54.74 Y65.156 E0.04592
G1 X54.506 Y65.156 F12000
G1 F2400
G1 X49.899 Y60.549 E0.04495
G1 X49.764 Y60.649 F12000
G1 F2400
G1 X54.271 Y65.156 E0.04397
G1 X54.036 Y65.156 F12000
G1 F2400
G1 X49.629 Y60.749 E0.043
G1 X49.494 Y60.849 F12000
G1 F2400
G1 X53.802 Y65.157 E0.04203
G1 X53.567 Y65.157 F12000
G1 F2400
G1 X49.359 Y60.949 E0.04105
; acceleration to travel
M204 S4000
G1 X48.551 Y60.298 F12000
; decel to extrusion
M204 S2000
G1 X48.148 Y59.972
; end travel
G1 F2400
G1 X53.333 Y65.157 E0.05058
G1 X53.098 Y65.157 F12000
G1 F2400
G1 X48.109 Y60.169 E0.04867
G1 X48.071 Y60.365 F12000
G1 F2400
G1 X52.863 Y65.157 E0.04675
G1 X52.629 Y65.157 F12000
G1 F2400
G1 X48.033 Y60.562 E0.04483
G1 X47.995 Y60.759 F12000
G1 F2400
G1 X52.394 Y65.158 E0.04292
G1 X52.159 Y65.158 F12000
G1 F2400
G1 X47.957 Y60.955 E0.041
G1 X47.919 Y61.152 F12000
G1 F2400
G1 X51.925 Y65.158 E0.03908
G1 X51.69 Y65.158 F12000
G1 F2400
G1 X47.881 Y61.349 E0.03716
G1 X47.674 Y61.377 F12000
G1 F2400
G1 X51.455 Y65.158 E0.03689
G1 X51.221 Y65.158 F12000
G1 F2400
G1 X47.444 Y61.382 E0.03684
G1 X47.215 Y61.387 F12000
G1 F2400
G1 X50.986 Y65.159 E0.03679
G1 X50.751 Y65.159 F12000
G1 F2400
G1 X46.985 Y61.393 E0.03674
; acceleration to travel
M204 S4000
G1 X46.699 Y60.636 F12000
; decel to extrusion
M204 S2000
G1 X46.555 Y60.258
; end travel
G1 F2400
G1 X46.35 Y60.053 E0.002
G1 X46.206 Y60.144 F12000
G1 F2400
G1 X46.63 Y60.568 E0.00414
G1 X46.705 Y60.877 F12000
G1 F2400
G1 X46.062 Y60.234 E0.00627
G1 X45.918 Y60.325 F12000
G1 F2400
G1 X46.78 Y61.187 E0.00841
; acceleration to travel
M204 S4000
G1 X46.109 Y60.673 F12000
; decel to extrusion
M204 S2000
G1 X45.774 Y60.416
; end travel
G1 F2400
G1 X50.517 Y65.159 E0.04627
G1 X50.282 Y65.159 F12000
G1 F2400
G1 X45.641 Y60.518 E0.04527
G1 X45.582 Y60.694 F12000
G1 F2400
G1 X50.047 Y65.159 E0.04356
G1 X49.813 Y65.159 F12000
G1 F2400
G1 X45.524 Y60.87 E0.04184
G1 X45.465 Y61.046 F12000
G1 F2400
G1 X49.578 Y65.159 E0.04013
G1 X49.343 Y65.16 F12000
G1 F2400
G1 X45.406 Y61.222 E0.03841
G1 X45.347 Y61.398 F12000
G1 F2400
G1 X49.109 Y65.16 E0.0367
G1 X48.874 Y65.16 F12000
G1 F2400
G1 X45.288 Y61.574 E0.03498
G1 X45.216 Y61.737 F12000
G1 F2400
G1 X48.639 Y65.16 E0.0334
G1 X48.405 Y65.16 F12000
G1 F2400
G1 X44.977 Y61.733 E0.03344
G1 X44.739 Y61.729 F12000
G1 F2400
G1 X48.17 Y65.16 E0.03348
G1 X47.935 Y65.161 F12000
G1 F2400
G1 X44.5 Y61.725 E0.03352
G1 X44.281 Y61.741 F12000
G1 F2400
G1 X47.701 Y65.161 E0.03337
G1 X47.466 Y65.161 F12000
G1 F2400
G1 X44.164 Y61.859 E0.03221
G1 X44.048 Y61.977 F12000
G1 F2400
G1 X47.232 Y65.161 E0.03106
G1 X46.997 Y65.161 F12000
G1 F2400
G1 X43.931 Y62.096 E0.02991
G1 X43.723 Y62.122 F12000
G1 F2400
G1 X46.762 Y65.161 E0.02966
G1 X46.528 Y65.162 F12000
G1 F2400
G1 X42.235 Y60.869 E0.04188
; acceleration to travel
M204 S4000
G1 X41.345 Y60.135 F12000
; decel to extrusion
M204 S2000
G1 X40.9 Y59.768
; end travel
G1 F2400
G1 X46.293 Y65.162 E0.05262
G1 X46.058 Y65.162 F12000
G1 F2400
G1 X40.783 Y59.887 E0.05147
G1 X40.667 Y60.005 F12000
G1 F2400
G1 X45.824 Y65.162 E0.05031
G1 X45.589 Y65.162 F12000
G1 F2400
G1 X40.55 Y60.123 E0.04916
G1 X40.434 Y60.242 F12000
G1 F2400
G1 X45.354 Y65.162 E0.04801
G1 X45.12 Y65.163 F12000
G1 F2400
G1 X40.317 Y60.36 E0.04685
G1 X40.201 Y60.478 F12000
G1 F2400
G1 X44.885 Y65.163 E0.0457
G1 X44.65 Y65.163 F12000
G1 F2400
G1 X40.084 Y60.597 E0.04455
G1 X39.968 Y60.715 F12000
G1 F2400
G1 X44.416 Y65.163 E0.0434
G1 X44.181 Y65.163 F12000
G1 F2400
G1 X39.851 Y60.833 E0.04224
G1 X39.735 Y60.951 F12000
G1 F2400
G1 X43.946 Y65.163 E0.04109
G1 X43.712 Y65.163 F12000
G1 F2400
G1 X39.618 Y61.07 E0.03994
G1 X39.502 Y61.188 F12000
G1 F2400
G1 X43.477 Y65.164 E0.03879
G1 X43.242 Y65.164 F12000
G1 F2400
G1 X39.385 Y61.306 E0.03763
G1 X39.269 Y61.425 F12000
G1 F2400
G1 X43.008 Y65.164 E0.03648
G1 X42.773 Y65.164 F12000
G1 F2400
G1 X39.152 Y61.543 E0.03533
G1 X39.036 Y61.661 F12000
G1 F2400
G1 X42.538 Y65.164 E0.03417
G1 X42.304 Y65.164 F12000
G1 F2400
G1 X38.919 Y61.78 E0.03302
M73 P1 R73
G1 X38.803 Y61.898 F12000
G1 F2400
G1 X42.069 Y65.165 E0.03187
G1 X41.835 Y65.165 F12000
G1 F2400
G1 X38.686 Y62.016 E0.03072
G1 X38.57 Y62.135 F12000
G1 F2400
G1 X41.6 Y65.165 E0.02956
G1 X41.365 Y65.165 F12000
G1 F2400
G1 X37.99 Y61.79 E0.03293
; acceleration to travel
M204 S4000
G1 X37.402 Y61.358 F12000
; decel to extrusion
M204 S2000
G1 X37.108 Y61.143
; end travel
G1 F2400
G1 X41.131 Y65.165 E0.03925
G1 X40.896 Y65.165 F12000
G1 F2400
G1 X36.226 Y60.495 E0.04556
; acceleration to travel
M204 S4000
G1 X35.637 Y60.063 F12000
; decel to extrusion
M204 S2000
G1 X35.343 Y59.848
; end travel
G1 F2400
G1 X40.661 Y65.166 E0.05188
G1 X40.427 Y65.166 F12000
G1 F2400
G1 X34.461 Y59.2 E0.0582
; acceleration to travel
M204 S4000
G1 X33.873 Y58.768 F12000
; decel to extrusion
M204 S2000
G1 X33.579 Y58.553
; end travel
G1 F2400
G1 X40.192 Y65.166 E0.06452
G1 X39.957 Y65.166 F12000
G1 F2400
G1 X32.696 Y57.905 E0.07084
; acceleration to travel
M204 S4000
G1 X32.108 Y57.473 F12000
; decel to extrusion
M204 S2000
G1 X31.814 Y57.258
