
; ### Ellis' Pressure Advance / Linear Advance Calibration Tool ###
;
; Original Marlin linear advance calibration tool by Sineos [https://github.com/Sineos]
; Heavily modified/rewritten by Andrew Ellis [https://github.com/AndrewEllis93]
;
; -------------------------------------------
; Generated: Fri Dec 30 2022 12:35:40 GMT-0800 (Pacific Standard Time)
; -------------------------------------------
;
; Advanced mode: false
;
; Printer:
;  - Firmware: klipper
;  - Bed Shape: Rect
;  - Bed Size X: 118 mm
;  - Bed Size Y: 118 mm
;  - Origin Bed Center: false
;  - Travel Speed: 200 mm/s
;  - Nozzle Diameter: 0.15 mm
;  - Filament Diameter: 1.75 mm
;  - Extrusion Multiplier: 1
;
; Retraction / Z Hop:
;  - Retraction Distance: 0.5 mm
;  - Retract Speed: 30 mm/s
;  - Unretract Speed: 30 mm/s
;  - Z Hop Enable: true
;  - Z Hop Height: 0.1mm
;
; First Layer Settings:
;  - First Layer Height: 0.2 mm
;  - First Layer Printing Speed: 30 mm/s
;  - First Layer Fan Speed: 0%
;  - Anchor Option: anchor_frame
;
; Print Settings:
;  - Layer Height: 0.1 mm
;  - Print Speed: 100 mm/s
;  - Acceleration: 6000 mm/s^2
;  - Fan Speed: 100%
;
; Pressure Advance Stepping:
;  - PA Start Value: 0
;  - PA End Value: 0.08
;  - PA Increment: 0.005
;
; Start / End G-code:
;  - Start G-code Type: standalone
;  - Hotend Temp: 200C
;  - Bed Temp: 60C
;
; Calculated Values:
;  - Print Size X: 66.56 mm
;  - Print Size Y: 53.64 mm
;  - Number of Patterns to Print: 17
;  - PA Values: 0, 0.005, 0.01, 0.015, 0.02, 0.025, 0.03, 0.035, 0.04, 0.045, 0.05, 0.055, 0.06, 0.065, 0.07, 0.075, 0.08
;
; Prepare printing
;
M190 S60    ; Set & wait for bed temp. !Don't modify/delete, only move!
M109 S200 ; Set & wait for hotend temp. !Don't modify/delete, only move!
START_PRINT T_BED=60 T_EXTRUDER=200
;
; Make sure this macro name matches your own!
; (For example, some may use START_PRINT instead.)
G21 ; Millimeter units
G90 ; Absolute XYZ
M83 ; Relative E
G92 E0 ; Reset extruder distance
;
;  Begin printing
;
M106 S0 ; Set fan speed
SET_VELOCITY_LIMIT ACCEL=6000 ; Set printing acceleration
G1 E-0.5 F1800 ; Retract
G0 Z5 F12000 ; Z raise
G0 X25.7198 Y32.1818 F12000 ; Move to start position
G0 Z0.2 F12000 ; Move to start layer height
G1 E0.5 F1800 ; Un-retract
SET_PRESSURE_ADVANCE ADVANCE=0 ; Set pressure advance to start value
M117 PA 0
G1 X25.7198 Y74.6082 E0.58942 F1800 ; Draw perimeter (up)
G1 X92.2802 Y74.6082 E0.92471 F1800 ; Draw perimeter (right)
G1 X92.2802 Y32.1818 E0.58942 F1800 ; Draw perimeter (down)
G1 X25.7198 Y32.1818 E0.92471 F1800 ; Draw perimeter (left)
G0 X25.8869 Y32.3489 F12000 ; Step inwards to print next perimeter
G1 X25.8869 Y74.4411 E0.58478 F1800 ; Draw perimeter (up)
G1 X92.1131 Y74.4411 E0.92006 F1800 ; Draw perimeter (right)
G1 X92.1131 Y32.3489 E0.58478 F1800 ; Draw perimeter (down)
G1 X25.8869 Y32.3489 E0.92006 F1800 ; Draw perimeter (left)
G0 X26.0539 Y32.516 F12000 ; Step inwards to print next perimeter
G1 X26.0539 Y74.274 E0.58013 F1800 ; Draw perimeter (up)
G1 X91.9461 Y74.274 E0.91542 F1800 ; Draw perimeter (right)
G1 X91.9461 Y32.516 E0.58013 F1800 ; Draw perimeter (down)
G1 X26.0539 Y32.516 E0.91542 F1800 ; Draw perimeter (left)
G0 X26.221 Y32.683 F12000 ; Step inwards to print next perimeter
G1 X26.221 Y74.107 E0.57549 F1800 ; Draw perimeter (up)
G1 X91.779 Y74.107 E0.91078 F1800 ; Draw perimeter (right)
G1 X91.779 Y32.683 E0.57549 F1800 ; Draw perimeter (down)
G1 X26.221 Y32.683 E0.91078 F1800 ; Draw perimeter (left)
G1 E-0.5 F1800 ; Retract
G1 Z0.3 F12000 ; Z hop
G0 X25.7198 Y74.7753 F12000 ; Move to box start
G1 Z0.2 F12000 ; Z hop return
G1 E0.5 F1800 ; Un-retract
G1 X25.7198 Y85.9424 E0.15514 F1800 ; Draw perimeter (up)
G1 X73.6387 Y85.9424 E0.66572 F1800 ; Draw perimeter (right)
G1 X73.6387 Y74.7753 E0.15514 F1800 ; Draw perimeter (down)
G1 X25.7198 Y74.7753 E0.66572 F1800 ; Draw perimeter (left)
G0 X25.8869 Y74.9424 F12000 ; Step inwards to print next perimeter
G1 X25.8869 Y85.7753 E0.1505 F1800 ; Draw perimeter (up)
G1 X73.4716 Y85.7753 E0.66108 F1800 ; Draw perimeter (right)
G1 X73.4716 Y74.9424 E0.1505 F1800 ; Draw perimeter (down)
G1 X25.8869 Y74.9424 E0.66108 F1800 ; Draw perimeter (left)
G0 X26.0539 Y75.1094 F12000 ; Step inwards to print next perimeter
G1 X26.0539 Y85.6082 E0.14586 F1800 ; Draw perimeter (up)
G1 X73.3046 Y85.6082 E0.65644 F1800 ; Draw perimeter (right)
G1 X73.3046 Y75.1094 E0.14586 F1800 ; Draw perimeter (down)
G1 X26.0539 Y75.1094 E0.65644 F1800 ; Draw perimeter (left)
G0 X26.221 Y75.2765 F12000 ; Step inwards to print next perimeter
G1 X26.221 Y85.4411 E0.14121 F1800 ; Draw perimeter (up)
G1 X73.1375 Y85.4411 E0.6518 F1800 ; Draw perimeter (right)
G1 X73.1375 Y75.2765 E0.14121 F1800 ; Draw perimeter (down)
G1 X26.221 Y75.2765 E0.6518 F1800 ; Draw perimeter (left)
G0 X26.361 Y75.4165 F12000 ; Move to fill start
G0 X26.5973 Y75.4165 F12000 ; Move
G1 X26.361 Y75.6528 E0.00464 F1800 ; Fill
G0 X26.361 Y75.8891 F12000 ; Move
G1 X26.8336 Y75.4165 E0.00928 F1800 ; Fill
G0 X27.0699 Y75.4165 F12000 ; Move
G1 X26.361 Y76.1254 E0.01393 F1800 ; Fill
G0 X26.361 Y76.3617 F12000 ; Move
G1 X27.3062 Y75.4165 E0.01857 F1800 ; Fill
G0 X27.5425 Y75.4165 F12000 ; Move
G1 X26.361 Y76.598 E0.02321 F1800 ; Fill
G0 X26.361 Y76.8342 F12000 ; Move
G1 X27.7787 Y75.4165 E0.02785 F1800 ; Fill
G0 X28.015 Y75.4165 F12000 ; Move
G1 X26.361 Y77.0705 E0.0325 F1800 ; Fill
G0 X26.361 Y77.3068 F12000 ; Move
G1 X28.2513 Y75.4165 E0.03714 F1800 ; Fill
G0 X28.4876 Y75.4165 F12000 ; Move
G1 X26.361 Y77.5431 E0.04178 F1800 ; Fill
G0 X26.361 Y77.7794 F12000 ; Move
G1 X28.7239 Y75.4165 E0.04642 F1800 ; Fill
G0 X28.9602 Y75.4165 F12000 ; Move
G1 X26.361 Y78.0157 E0.05107 F1800 ; Fill
G0 X26.361 Y78.252 F12000 ; Move
G1 X29.1965 Y75.4165 E0.05571 F1800 ; Fill
G0 X29.4328 Y75.4165 F12000 ; Move
G1 X26.361 Y78.4882 E0.06035 F1800 ; Fill
G0 X26.361 Y78.7245 F12000 ; Move
G1 X29.669 Y75.4165 E0.06499 F1800 ; Fill
G0 X29.9053 Y75.4165 F12000 ; Move
G1 X26.361 Y78.9608 E0.06964 F1800 ; Fill
G0 X26.361 Y79.1971 F12000 ; Move
G1 X30.1416 Y75.4165 E0.07428 F1800 ; Fill
G0 X30.3779 Y75.4165 F12000 ; Move
G1 X26.361 Y79.4334 E0.07892 F1800 ; Fill
G0 X26.361 Y79.6697 F12000 ; Move
G1 X30.6142 Y75.4165 E0.08356 F1800 ; Fill
G0 X30.8505 Y75.4165 F12000 ; Move
G1 X26.361 Y79.906 E0.08821 F1800 ; Fill
G0 X26.361 Y80.1423 F12000 ; Move
G1 X31.0868 Y75.4165 E0.09285 F1800 ; Fill
G0 X31.323 Y75.4165 F12000 ; Move
G1 X26.361 Y80.3785 E0.09749 F1800 ; Fill
G0 X26.361 Y80.6148 F12000 ; Move
G1 X31.5593 Y75.4165 E0.10213 F1800 ; Fill
G0 X31.7956 Y75.4165 F12000 ; Move
G1 X26.361 Y80.8511 E0.10677 F1800 ; Fill
G0 X26.361 Y81.0874 F12000 ; Move
G1 X32.0319 Y75.4165 E0.11142 F1800 ; Fill
G0 X32.2682 Y75.4165 F12000 ; Move
G1 X26.361 Y81.3237 E0.11606 F1800 ; Fill
G0 X26.361 Y81.56 F12000 ; Move
G1 X32.5045 Y75.4165 E0.1207 F1800 ; Fill
G0 X32.7408 Y75.4165 F12000 ; Move
G1 X26.361 Y81.7963 E0.12534 F1800 ; Fill
G0 X26.361 Y82.0325 F12000 ; Move
G1 X32.977 Y75.4165 E0.12999 F1800 ; Fill
G0 X33.2133 Y75.4165 F12000 ; Move
G1 X26.361 Y82.2688 E0.13463 F1800 ; Fill
G0 X26.361 Y82.5051 F12000 ; Move
G1 X33.4496 Y75.4165 E0.13927 F1800 ; Fill
G0 X33.6859 Y75.4165 F12000 ; Move
G1 X26.361 Y82.7414 E0.14391 F1800 ; Fill
G0 X26.361 Y82.9777 F12000 ; Move
G1 X33.9222 Y75.4165 E0.14856 F1800 ; Fill
G0 X34.1585 Y75.4165 F12000 ; Move
G1 X26.361 Y83.214 E0.1532 F1800 ; Fill
G0 X26.361 Y83.4503 F12000 ; Move
G1 X34.3948 Y75.4165 E0.15784 F1800 ; Fill
G0 X34.631 Y75.4165 F12000 ; Move
G1 X26.361 Y83.6865 E0.16248 F1800 ; Fill
G0 X26.361 Y83.9228 F12000 ; Move
G1 X34.8673 Y75.4165 E0.16713 F1800 ; Fill
G0 X35.1036 Y75.4165 F12000 ; Move
G1 X26.361 Y84.1591 E0.17177 F1800 ; Fill
G0 X26.361 Y84.3954 F12000 ; Move
G1 X35.3399 Y75.4165 E0.17641 F1800 ; Fill
G0 X35.5762 Y75.4165 F12000 ; Move
G1 X26.361 Y84.6317 E0.18105 F1800 ; Fill
G0 X26.361 Y84.868 F12000 ; Move
G1 X35.8125 Y75.4165 E0.1857 F1800 ; Fill
G0 X36.0488 Y75.4165 F12000 ; Move
G1 X26.361 Y85.1043 E0.19034 F1800 ; Fill
G0 X26.4005 Y85.3011 F12000 ; Move
G1 X36.2851 Y75.4165 E0.19421 F1800 ; Fill
G0 X36.5213 Y75.4165 F12000 ; Move
G1 X26.6367 Y85.3011 E0.19421 F1800 ; Fill
G0 X26.873 Y85.3011 F12000 ; Move
G1 X36.7576 Y75.4165 E0.19421 F1800 ; Fill
G0 X36.9939 Y75.4165 F12000 ; Move
G1 X27.1093 Y85.3011 E0.19421 F1800 ; Fill
G0 X27.3456 Y85.3011 F12000 ; Move
G1 X37.2302 Y75.4165 E0.19421 F1800 ; Fill
G0 X37.4665 Y75.4165 F12000 ; Move
G1 X27.5819 Y85.3011 E0.19421 F1800 ; Fill
G0 X27.8182 Y85.3011 F12000 ; Move
G1 X37.7028 Y75.4165 E0.19421 F1800 ; Fill
G0 X37.9391 Y75.4165 F12000 ; Move
G1 X28.0545 Y85.3011 E0.19421 F1800 ; Fill
G0 X28.2907 Y85.3011 F12000 ; Move
G1 X38.1753 Y75.4165 E0.19421 F1800 ; Fill
G0 X38.4116 Y75.4165 F12000 ; Move
G1 X28.527 Y85.3011 E0.19421 F1800 ; Fill
G0 X28.7633 Y85.3011 F12000 ; Move
G1 X38.6479 Y75.4165 E0.19421 F1800 ; Fill
G0 X38.8842 Y75.4165 F12000 ; Move
G1 X28.9996 Y85.3011 E0.19421 F1800 ; Fill
G0 X29.2359 Y85.3011 F12000 ; Move
G1 X39.1205 Y75.4165 E0.19421 F1800 ; Fill
G0 X39.3568 Y75.4165 F12000 ; Move
G1 X29.4722 Y85.3011 E0.19421 F1800 ; Fill
G0 X29.7085 Y85.3011 F12000 ; Move
G1 X39.5931 Y75.4165 E0.19421 F1800 ; Fill
G0 X39.8293 Y75.4165 F12000 ; Move
G1 X29.9447 Y85.3011 E0.19421 F1800 ; Fill
G0 X30.181 Y85.3011 F12000 ; Move
G1 X40.0656 Y75.4165 E0.19421 F1800 ; Fill
G0 X40.3019 Y75.4165 F12000 ; Move
G1 X30.4173 Y85.3011 E0.19421 F1800 ; Fill
G0 X30.6536 Y85.3011 F12000 ; Move
G1 X40.5382 Y75.4165 E0.19421 F1800 ; Fill
G0 X40.7745 Y75.4165 F12000 ; Move
G1 X30.8899 Y85.3011 E0.19421 F1800 ; Fill
G0 X31.1262 Y85.3011 F12000 ; Move
G1 X41.0108 Y75.4165 E0.19421 F1800 ; Fill
G0 X41.2471 Y75.4165 F12000 ; Move
G1 X31.3625 Y85.3011 E0.19421 F1800 ; Fill
G0 X31.5987 Y85.3011 F12000 ; Move
G1 X41.4834 Y75.4165 E0.19421 F1800 ; Fill
G0 X41.7196 Y75.4165 F12000 ; Move
G1 X31.835 Y85.3011 E0.19421 F1800 ; Fill
G0 X32.0713 Y85.3011 F12000 ; Move
G1 X41.9559 Y75.4165 E0.19421 F1800 ; Fill
G0 X42.1922 Y75.4165 F12000 ; Move
G1 X32.3076 Y85.3011 E0.19421 F1800 ; Fill
G0 X32.5439 Y85.3011 F12000 ; Move
G1 X42.4285 Y75.4165 E0.19421 F1800 ; Fill
G0 X42.6648 Y75.4165 F12000 ; Move
G1 X32.7802 Y85.3011 E0.19421 F1800 ; Fill
G0 X33.0165 Y85.3011 F12000 ; Move
G1 X42.9011 Y75.4165 E0.19421 F1800 ; Fill
G0 X43.1374 Y75.4165 F12000 ; Move
G1 X33.2528 Y85.3011 E0.19421 F1800 ; Fill
G0 X33.489 Y85.3011 F12000 ; Move
G1 X43.3736 Y75.4165 E0.19421 F1800 ; Fill
G0 X43.6099 Y75.4165 F12000 ; Move
G1 X33.7253 Y85.3011 E0.19421 F1800 ; Fill
G0 X33.9616 Y85.3011 F12000 ; Move
G1 X43.8462 Y75.4165 E0.19421 F1800 ; Fill
G0 X44.0825 Y75.4165 F12000 ; Move
G1 X34.1979 Y85.3011 E0.19421 F1800 ; Fill
G0 X34.4342 Y85.3011 F12000 ; Move
G1 X44.3188 Y75.4165 E0.19421 F1800 ; Fill
G0 X44.5551 Y75.4165 F12000 ; Move
G1 X34.6705 Y85.3011 E0.19421 F1800 ; Fill
G0 X34.9068 Y85.3011 F12000 ; Move
G1 X44.7914 Y75.4165 E0.19421 F1800 ; Fill
G0 X45.0276 Y75.4165 F12000 ; Move
G1 X35.143 Y85.3011 E0.19421 F1800 ; Fill
G0 X35.3793 Y85.3011 F12000 ; Move
G1 X45.2639 Y75.4165 E0.19421 F1800 ; Fill
G0 X45.5002 Y75.4165 F12000 ; Move
G1 X35.6156 Y85.3011 E0.19421 F1800 ; Fill
G0 X35.8519 Y85.3011 F12000 ; Move
G1 X45.7365 Y75.4165 E0.19421 F1800 ; Fill
G0 X45.9728 Y75.4165 F12000 ; Move
G1 X36.0882 Y85.3011 E0.19421 F1800 ; Fill
G0 X36.3245 Y85.3011 F12000 ; Move
G1 X46.2091 Y75.4165 E0.19421 F1800 ; Fill
G0 X46.4454 Y75.4165 F12000 ; Move
G1 X36.5608 Y85.3011 E0.19421 F1800 ; Fill
G0 X36.797 Y85.3011 F12000 ; Move
G1 X46.6816 Y75.4165 E0.19421 F1800 ; Fill
G0 X46.9179 Y75.4165 F12000 ; Move
G1 X37.0333 Y85.3011 E0.19421 F1800 ; Fill
G0 X37.2696 Y85.3011 F12000 ; Move
G1 X47.1542 Y75.4165 E0.19421 F1800 ; Fill
G0 X47.3905 Y75.4165 F12000 ; Move
G1 X37.5059 Y85.3011 E0.19421 F1800 ; Fill
G0 X37.7422 Y85.3011 F12000 ; Move
G1 X47.6268 Y75.4165 E0.19421 F1800 ; Fill
G0 X47.8631 Y75.4165 F12000 ; Move
G1 X37.9785 Y85.3011 E0.19421 F1800 ; Fill
G0 X38.2148 Y85.3011 F12000 ; Move
G1 X48.0994 Y75.4165 E0.19421 F1800 ; Fill
G0 X48.3357 Y75.4165 F12000 ; Move
G1 X38.4511 Y85.3011 E0.19421 F1800 ; Fill
G0 X38.6873 Y85.3011 F12000 ; Move
G1 X48.5719 Y75.4165 E0.19421 F1800 ; Fill
G0 X48.8082 Y75.4165 F12000 ; Move
G1 X38.9236 Y85.3011 E0.19421 F1800 ; Fill
G0 X39.1599 Y85.3011 F12000 ; Move
G1 X49.0445 Y75.4165 E0.19421 F1800 ; Fill
G0 X49.2808 Y75.4165 F12000 ; Move
G1 X39.3962 Y85.3011 E0.19421 F1800 ; Fill
G0 X39.6325 Y85.3011 F12000 ; Move
G1 X49.5171 Y75.4165 E0.19421 F1800 ; Fill
G0 X49.7534 Y75.4165 F12000 ; Move
G1 X39.8688 Y85.3011 E0.19421 F1800 ; Fill
G0 X40.1051 Y85.3011 F12000 ; Move
G1 X49.9897 Y75.4165 E0.19421 F1800 ; Fill
G0 X50.2259 Y75.4165 F12000 ; Move
G1 X40.3413 Y85.3011 E0.19421 F1800 ; Fill
G0 X40.5776 Y85.3011 F12000 ; Move
G1 X50.4622 Y75.4165 E0.19421 F1800 ; Fill
G0 X50.6985 Y75.4165 F12000 ; Move
G1 X40.8139 Y85.3011 E0.19421 F1800 ; Fill
G0 X41.0502 Y85.3011 F12000 ; Move
G1 X50.9348 Y75.4165 E0.19421 F1800 ; Fill
G0 X51.1711 Y75.4165 F12000 ; Move
G1 X41.2865 Y85.3011 E0.19421 F1800 ; Fill
G0 X41.5228 Y85.3011 F12000 ; Move
G1 X51.4074 Y75.4165 E0.19421 F1800 ; Fill
G0 X51.6437 Y75.4165 F12000 ; Move
G1 X41.7591 Y85.3011 E0.19421 F1800 ; Fill
G0 X41.9953 Y85.3011 F12000 ; Move
G1 X51.8799 Y75.4165 E0.19421 F1800 ; Fill
G0 X52.1162 Y75.4165 F12000 ; Move
G1 X42.2316 Y85.3011 E0.19421 F1800 ; Fill
G0 X42.4679 Y85.3011 F12000 ; Move
G1 X52.3525 Y75.4165 E0.19421 F1800 ; Fill
G0 X52.5888 Y75.4165 F12000 ; Move
G1 X42.7042 Y85.3011 E0.19421 F1800 ; Fill
G0 X42.9405 Y85.3011 F12000 ; Move
G1 X52.8251 Y75.4165 E0.19421 F1800 ; Fill
G0 X53.0614 Y75.4165 F12000 ; Move
G1 X43.1768 Y85.3011 E0.19421 F1800 ; Fill
G0 X43.4131 Y85.3011 F12000 ; Move
G1 X53.2977 Y75.4165 E0.19421 F1800 ; Fill
G0 X53.534 Y75.4165 F12000 ; Move
G1 X43.6493 Y85.3011 E0.19421 F1800 ; Fill
G0 X43.8856 Y85.3011 F12000 ; Move
G1 X53.7702 Y75.4165 E0.19421 F1800 ; Fill
G0 X54.0065 Y75.4165 F12000 ; Move
G1 X44.1219 Y85.3011 E0.19421 F1800 ; Fill
G0 X44.3582 Y85.3011 F12000 ; Move
G1 X54.2428 Y75.4165 E0.19421 F1800 ; Fill
G0 X54.4791 Y75.4165 F12000 ; Move
G1 X44.5945 Y85.3011 E0.19421 F1800 ; Fill
G0 X44.8308 Y85.3011 F12000 ; Move
G1 X54.7154 Y75.4165 E0.19421 F1800 ; Fill
G0 X54.9517 Y75.4165 F12000 ; Move
G1 X45.0671 Y85.3011 E0.19421 F1800 ; Fill
G0 X45.3034 Y85.3011 F12000 ; Move
G1 X55.188 Y75.4165 E0.19421 F1800 ; Fill
G0 X55.4242 Y75.4165 F12000 ; Move
G1 X45.5396 Y85.3011 E0.19421 F1800 ; Fill
G0 X45.7759 Y85.3011 F12000 ; Move
G1 X55.6605 Y75.4165 E0.19421 F1800 ; Fill
G0 X55.8968 Y75.4165 F12000 ; Move
G1 X46.0122 Y85.3011 E0.19421 F1800 ; Fill
G0 X46.2485 Y85.3011 F12000 ; Move
G1 X56.1331 Y75.4165 E0.19421 F1800 ; Fill
G0 X56.3694 Y75.4165 F12000 ; Move
G1 X46.4848 Y85.3011 E0.19421 F1800 ; Fill
G0 X46.7211 Y85.3011 F12000 ; Move
G1 X56.6057 Y75.4165 E0.19421 F1800 ; Fill
G0 X56.842 Y75.4165 F12000 ; Move
G1 X46.9574 Y85.3011 E0.19421 F1800 ; Fill
G0 X47.1936 Y85.3011 F12000 ; Move
G1 X57.0782 Y75.4165 E0.19421 F1800 ; Fill
G0 X57.3145 Y75.4165 F12000 ; Move
G1 X47.4299 Y85.3011 E0.19421 F1800 ; Fill
G0 X47.6662 Y85.3011 F12000 ; Move
G1 X57.5508 Y75.4165 E0.19421 F1800 ; Fill
G0 X57.7871 Y75.4165 F12000 ; Move
G1 X47.9025 Y85.3011 E0.19421 F1800 ; Fill
G0 X48.1388 Y85.3011 F12000 ; Move
G1 X58.0234 Y75.4165 E0.19421 F1800 ; Fill
G0 X58.2597 Y75.4165 F12000 ; Move
G1 X48.3751 Y85.3011 E0.19421 F1800 ; Fill
G0 X48.6114 Y85.3011 F12000 ; Move
G1 X58.496 Y75.4165 E0.19421 F1800 ; Fill
G0 X58.7322 Y75.4165 F12000 ; Move
G1 X48.8476 Y85.3011 E0.19421 F1800 ; Fill
G0 X49.0839 Y85.3011 F12000 ; Move
G1 X58.9685 Y75.4165 E0.19421 F1800 ; Fill
G0 X59.2048 Y75.4165 F12000 ; Move
G1 X49.3202 Y85.3011 E0.19421 F1800 ; Fill
G0 X49.5565 Y85.3011 F12000 ; Move
G1 X59.4411 Y75.4165 E0.19421 F1800 ; Fill
G0 X59.6774 Y75.4165 F12000 ; Move
G1 X49.7928 Y85.3011 E0.19421 F1800 ; Fill
G0 X50.0291 Y85.3011 F12000 ; Move
G1 X59.9137 Y75.4165 E0.19421 F1800 ; Fill
G0 X60.15 Y75.4165 F12000 ; Move
G1 X50.2654 Y85.3011 E0.19421 F1800 ; Fill
G0 X50.5017 Y85.3011 F12000 ; Move
G1 X60.3863 Y75.4165 E0.19421 F1800 ; Fill
G0 X60.6225 Y75.4165 F12000 ; Move
G1 X50.7379 Y85.3011 E0.19421 F1800 ; Fill
G0 X50.9742 Y85.3011 F12000 ; Move
G1 X60.8588 Y75.4165 E0.19421 F1800 ; Fill
G0 X61.0951 Y75.4165 F12000 ; Move
G1 X51.2105 Y85.3011 E0.19421 F1800 ; Fill
G0 X51.4468 Y85.3011 F12000 ; Move
G1 X61.3314 Y75.4165 E0.19421 F1800 ; Fill
G0 X61.5677 Y75.4165 F12000 ; Move
G1 X51.6831 Y85.3011 E0.19421 F1800 ; Fill
G0 X51.9194 Y85.3011 F12000 ; Move
G1 X61.804 Y75.4165 E0.19421 F1800 ; Fill
G0 X62.0403 Y75.4165 F12000 ; Move
G1 X52.1557 Y85.3011 E0.19421 F1800 ; Fill
G0 X52.3919 Y85.3011 F12000 ; Move
G1 X62.2765 Y75.4165 E0.19421 F1800 ; Fill
G0 X62.5128 Y75.4165 F12000 ; Move
G1 X52.6282 Y85.3011 E0.19421 F1800 ; Fill
G0 X52.8645 Y85.3011 F12000 ; Move
G1 X62.7491 Y75.4165 E0.19421 F1800 ; Fill
G0 X62.9854 Y75.4165 F12000 ; Move
G1 X53.1008 Y85.3011 E0.19421 F1800 ; Fill
G0 X53.3371 Y85.3011 F12000 ; Move
G1 X63.2217 Y75.4165 E0.19421 F1800 ; Fill
G0 X63.458 Y75.4165 F12000 ; Move
G1 X53.5734 Y85.3011 E0.19421 F1800 ; Fill
G0 X53.8097 Y85.3011 F12000 ; Move
G1 X63.6943 Y75.4165 E0.19421 F1800 ; Fill
G0 X63.9305 Y75.4165 F12000 ; Move
G1 X54.0459 Y85.3011 E0.19421 F1800 ; Fill
G0 X54.2822 Y85.3011 F12000 ; Move
G1 X64.1668 Y75.4165 E0.19421 F1800 ; Fill
G0 X64.4031 Y75.4165 F12000 ; Move
G1 X54.5185 Y85.3011 E0.19421 F1800 ; Fill
G0 X54.7548 Y85.3011 F12000 ; Move
G1 X64.6394 Y75.4165 E0.19421 F1800 ; Fill
G0 X64.8757 Y75.4165 F12000 ; Move
G1 X54.9911 Y85.3011 E0.19421 F1800 ; Fill
G0 X55.2274 Y85.3011 F12000 ; Move
G1 X65.112 Y75.4165 E0.19421 F1800 ; Fill
G0 X65.3483 Y75.4165 F12000 ; Move
G1 X55.4637 Y85.3011 E0.19421 F1800 ; Fill
G0 X55.7 Y85.3011 F12000 ; Move
G1 X65.5846 Y75.4165 E0.19421 F1800 ; Fill
G0 X65.8208 Y75.4165 F12000 ; Move
G1 X55.9362 Y85.3011 E0.19421 F1800 ; Fill
G0 X56.1725 Y85.3011 F12000 ; Move
G1 X66.0571 Y75.4165 E0.19421 F1800 ; Fill
G0 X66.2934 Y75.4165 F12000 ; Move
G1 X56.4088 Y85.3011 E0.19421 F1800 ; Fill
G0 X56.6451 Y85.3011 F12000 ; Move
G1 X66.5297 Y75.4165 E0.19421 F1800 ; Fill
G0 X66.766 Y75.4165 F12000 ; Move
G1 X56.8814 Y85.3011 E0.19421 F1800 ; Fill
G0 X57.1177 Y85.3011 F12000 ; Move
G1 X67.0023 Y75.4165 E0.19421 F1800 ; Fill
G0 X67.2386 Y75.4165 F12000 ; Move
G1 X57.354 Y85.3011 E0.19421 F1800 ; Fill
G0 X57.5902 Y85.3011 F12000 ; Move
G1 X67.4748 Y75.4165 E0.19421 F1800 ; Fill
G0 X67.7111 Y75.4165 F12000 ; Move
G1 X57.8265 Y85.3011 E0.19421 F1800 ; Fill
G0 X58.0628 Y85.3011 F12000 ; Move
G1 X67.9474 Y75.4165 E0.19421 F1800 ; Fill
G0 X68.1837 Y75.4165 F12000 ; Move
G1 X58.2991 Y85.3011 E0.19421 F1800 ; Fill
G0 X58.5354 Y85.3011 F12000 ; Move
G1 X68.42 Y75.4165 E0.19421 F1800 ; Fill
G0 X68.6563 Y75.4165 F12000 ; Move
G1 X58.7717 Y85.3011 E0.19421 F1800 ; Fill
G0 X59.008 Y85.3011 F12000 ; Move
G1 X68.8926 Y75.4165 E0.19421 F1800 ; Fill
G0 X69.1288 Y75.4165 F12000 ; Move
G1 X59.2442 Y85.3011 E0.19421 F1800 ; Fill
G0 X59.4805 Y85.3011 F12000 ; Move
G1 X69.3651 Y75.4165 E0.19421 F1800 ; Fill
G0 X69.6014 Y75.4165 F12000 ; Move
G1 X59.7168 Y85.3011 E0.19421 F1800 ; Fill
G0 X59.9531 Y85.3011 F12000 ; Move
G1 X69.8377 Y75.4165 E0.19421 F1800 ; Fill
G0 X70.074 Y75.4165 F12000 ; Move
G1 X60.1894 Y85.3011 E0.19421 F1800 ; Fill
G0 X60.4257 Y85.3011 F12000 ; Move
G1 X70.3103 Y75.4165 E0.19421 F1800 ; Fill
G0 X70.5466 Y75.4165 F12000 ; Move
G1 X60.662 Y85.3011 E0.19421 F1800 ; Fill
G0 X60.8982 Y85.3011 F12000 ; Move
G1 X70.7829 Y75.4165 E0.19421 F1800 ; Fill
G0 X71.0191 Y75.4165 F12000 ; Move
G1 X61.1345 Y85.3011 E0.19421 F1800 ; Fill
G0 X61.3708 Y85.3011 F12000 ; Move
G1 X71.2554 Y75.4165 E0.19421 F1800 ; Fill
G0 X71.4917 Y75.4165 F12000 ; Move
G1 X61.6071 Y85.3011 E0.19421 F1800 ; Fill
G0 X61.8434 Y85.3011 F12000 ; Move
G1 X71.728 Y75.4165 E0.19421 F1800 ; Fill
G0 X71.9643 Y75.4165 F12000 ; Move
G1 X62.0797 Y85.3011 E0.19421 F1800 ; Fill
G0 X62.316 Y85.3011 F12000 ; Move
G1 X72.2006 Y75.4165 E0.19421 F1800 ; Fill
G0 X72.4369 Y75.4165 F12000 ; Move
G1 X62.5523 Y85.3011 E0.19421 F1800 ; Fill
G0 X62.7885 Y85.3011 F12000 ; Move
G1 X72.6731 Y75.4165 E0.19421 F1800 ; Fill
G0 X72.9094 Y75.4165 F12000 ; Move
G1 X63.0248 Y85.3011 E0.19421 F1800 ; Fill
G0 X63.2611 Y85.3011 F12000 ; Move
G1 X72.9975 Y75.5648 E0.19129 F1800 ; Fill
G0 X72.9975 Y75.801 F12000 ; Move
G1 X63.4974 Y85.3011 E0.18665 F1800 ; Fill
G0 X63.7337 Y85.3011 F12000 ; Move
G1 X72.9975 Y76.0373 E0.18201 F1800 ; Fill
G0 X72.9975 Y76.2736 F12000 ; Move
G1 X63.97 Y85.3011 E0.17737 F1800 ; Fill
G0 X64.2063 Y85.3011 F12000 ; Move
G1 X72.9975 Y76.5099 E0.17272 F1800 ; Fill
G0 X72.9975 Y76.7462 F12000 ; Move
G1 X64.4425 Y85.3011 E0.16808 F1800 ; Fill
G0 X64.6788 Y85.3011 F12000 ; Move
G1 X72.9975 Y76.9825 E0.16344 F1800 ; Fill
G0 X72.9975 Y77.2188 F12000 ; Move
G1 X64.9151 Y85.3011 E0.1588 F1800 ; Fill
G0 X65.1514 Y85.3011 F12000 ; Move
G1 X72.9975 Y77.4551 E0.15415 F1800 ; Fill
G0 X72.9975 Y77.6913 F12000 ; Move
G1 X65.3877 Y85.3011 E0.14951 F1800 ; Fill
G0 X65.624 Y85.3011 F12000 ; Move
G1 X72.9975 Y77.9276 E0.14487 F1800 ; Fill
G0 X72.9975 Y78.1639 F12000 ; Move
G1 X65.8603 Y85.3011 E0.14023 F1800 ; Fill
G0 X66.0965 Y85.3011 F12000 ; Move
G1 X72.9975 Y78.4002 E0.13558 F1800 ; Fill
G0 X72.9975 Y78.6365 F12000 ; Move
G1 X66.3328 Y85.3011 E0.13094 F1800 ; Fill
G0 X66.5691 Y85.3011 F12000 ; Move
G1 X72.9975 Y78.8728 E0.1263 F1800 ; Fill
G0 X72.9975 Y79.1091 F12000 ; Move
G1 X66.8054 Y85.3011 E0.12166 F1800 ; Fill
G0 X67.0417 Y85.3011 F12000 ; Move
G1 X72.9975 Y79.3453 E0.11702 F1800 ; Fill
G0 X72.9975 Y79.5816 F12000 ; Move
G1 X67.278 Y85.3011 E0.11237 F1800 ; Fill
G0 X67.5143 Y85.3011 F12000 ; Move
G1 X72.9975 Y79.8179 E0.10773 F1800 ; Fill
G0 X72.9975 Y80.0542 F12000 ; Move
G1 X67.7506 Y85.3011 E0.10309 F1800 ; Fill
G0 X67.9868 Y85.3011 F12000 ; Move
G1 X72.9975 Y80.2905 E0.09845 F1800 ; Fill
G0 X72.9975 Y80.5268 F12000 ; Move
G1 X68.2231 Y85.3011 E0.0938 F1800 ; Fill
G0 X68.4594 Y85.3011 F12000 ; Move
G1 X72.9975 Y80.7631 E0.08916 F1800 ; Fill
G0 X72.9975 Y80.9993 F12000 ; Move
G1 X68.6957 Y85.3011 E0.08452 F1800 ; Fill
G0 X68.932 Y85.3011 F12000 ; Move
G1 X72.9975 Y81.2356 E0.07988 F1800 ; Fill
G0 X72.9975 Y81.4719 F12000 ; Move
G1 X69.1683 Y85.3011 E0.07523 F1800 ; Fill
G0 X69.4046 Y85.3011 F12000 ; Move
G1 X72.9975 Y81.7082 E0.07059 F1800 ; Fill
G0 X72.9975 Y81.9445 F12000 ; Move
G1 X69.6408 Y85.3011 E0.06595 F1800 ; Fill
G0 X69.8771 Y85.3011 F12000 ; Move
G1 X72.9975 Y82.1808 E0.06131 F1800 ; Fill
G0 X72.9975 Y82.4171 F12000 ; Move
G1 X70.1134 Y85.3011 E0.05666 F1800 ; Fill
G0 X70.3497 Y85.3011 F12000 ; Move
G1 X72.9975 Y82.6533 E0.05202 F1800 ; Fill
G0 X72.9975 Y82.8896 F12000 ; Move
G1 X70.586 Y85.3011 E0.04738 F1800 ; Fill
G0 X70.8223 Y85.3011 F12000 ; Move
G1 X72.9975 Y83.1259 E0.04274 F1800 ; Fill
G0 X72.9975 Y83.3622 F12000 ; Move
G1 X71.0586 Y85.3011 E0.03809 F1800 ; Fill
G0 X71.2948 Y85.3011 F12000 ; Move
G1 X72.9975 Y83.5985 E0.03345 F1800 ; Fill
G0 X72.9975 Y83.8348 F12000 ; Move
G1 X71.5311 Y85.3011 E0.02881 F1800 ; Fill
G0 X71.7674 Y85.3011 F12000 ; Move
G1 X72.9975 Y84.0711 E0.02417 F1800 ; Fill
G0 X72.9975 Y84.3074 F12000 ; Move
G1 X72.0037 Y85.3011 E0.01952 F1800 ; Fill
G0 X72.24 Y85.3011 F12000 ; Move
G1 X72.9975 Y84.5436 E0.01488 F1800 ; Fill
G0 X72.9975 Y84.7799 F12000 ; Move
G1 X72.4763 Y85.3011 E0.01024 F1800 ; Fill
G0 X72.7126 Y85.3011 F12000 ; Move
G1 X72.9975 Y85.0162 E0.0056 F1800 ; Fill
G0 Z0.2 F12000 ; Move to layer height
G1 E-0.5 F1800 ; Retract
G1 Z0.3 F12000 ; Z hop
G0 X29.2577 Y32.823 F12000 ; Move to pattern start

G1 Z0.2 F12000 ; Z hop return
G1 E0.5 F1800 ; Un-retract
SET_PRESSURE_ADVANCE ADVANCE=0 ; Set pressure advance
M117 PA 0
G1 X49.8297 Y53.395 E0.3044 F1800 ; Print pattern wall
G1 X29.2577 Y73.967 E0.3044 F1800 ; Print pattern wall
G1 E-0.5 F1800 ; Retract
G1 Z0.3 F12000 ; Z hop
G0 X29.466 Y32.823 F12000 ; Move to start next pattern wall
G1 Z0.2 F12000 ; Z hop return
G1 E0.5 F1800 ; Un-retract
G1 X50.038 Y53.395 E0.3044 F1800 ; Print pattern wall
G1 X29.466 Y73.967 E0.3044 F1800 ; Print pattern wall
G1 E-0.5 F1800 ; Retract
G1 Z0.3 F12000 ; Z hop
G0 X29.6743 Y32.823 F12000 ; Move to start next pattern wall
G1 Z0.2 F12000 ; Z hop return
G1 E0.5 F1800 ; Un-retract
G1 X50.2463 Y53.395 E0.3044 F1800 ; Print pattern wall
G1 X29.6743 Y73.967 E0.3044 F1800 ; Print pattern wall
G1 E-0.5 F1800 ; Retract
G1 Z0.3 F12000 ; Z hop
G0 X31.8431 Y32.823 F12000 ; Move to next pattern
G1 Z0.2 F12000 ; Z hop return
G1 E0.5 F1800 ; Un-retract
SET_PRESSURE_ADVANCE ADVANCE=0.005 ; Set pressure advance
M117 PA 0.005
G1 X52.415 Y53.395 E0.3044 F1800 ; Print pattern wall
G1 X31.8431 Y73.967 E0.3044 F1800 ; Print pattern wall
G1 E-0.5 F1800 ; Retract
G1 Z0.3 F12000 ; Z hop
G0 X32.0514 Y32.823 F12000 ; Move to start next pattern wall
G1 Z0.2 F12000 ; Z hop return
G1 E0.5 F1800 ; Un-retract
G1 X52.6233 Y53.395 E0.3044 F1800 ; Print pattern wall
G1 X32.0514 Y73.967 E0.3044 F1800 ; Print pattern wall
G1 E-0.5 F1800 ; Retract
G1 Z0.3 F12000 ; Z hop
G0 X32.2597 Y32.823 F12000 ; Move to start next pattern wall
G1 Z0.2 F12000 ; Z hop return
G1 E0.5 F1800 ; Un-retract
G1 X52.8316 Y53.395 E0.3044 F1800 ; Print pattern wall
G1 X32.2597 Y73.967 E0.3044 F1800 ; Print pattern wall
G1 E-0.5 F1800 ; Retract
G1 Z0.3 F12000 ; Z hop
G0 X34.4284 Y32.823 F12000 ; Move to next pattern
G1 Z0.2 F12000 ; Z hop return
G1 E0.5 F1800 ; Un-retract
SET_PRESSURE_ADVANCE ADVANCE=0.01 ; Set pressure advance
M117 PA 0.01
G1 X55.0004 Y53.395 E0.3044 F1800 ; Print pattern wall
G1 X34.4284 Y73.967 E0.3044 F1800 ; Print pattern wall
G1 E-0.5 F1800 ; Retract
G1 Z0.3 F12000 ; Z hop
G0 X34.6367 Y32.823 F12000 ; Move to start next pattern wall
G1 Z0.2 F12000 ; Z hop return
G1 E0.5 F1800 ; Un-retract
G1 X55.2087 Y53.395 E0.3044 F1800 ; Print pattern wall
G1 X34.6367 Y73.967 E0.3044 F1800 ; Print pattern wall
G1 E-0.5 F1800 ; Retract
G1 Z0.3 F12000 ; Z hop
G0 X34.845 Y32.823 F12000 ; Move to start next pattern wall
G1 Z0.2 F12000 ; Z hop return
G1 E0.5 F1800 ; Un-retract
G1 X55.417 Y53.395 E0.3044 F1800 ; Print pattern wall
G1 X34.845 Y73.967 E0.3044 F1800 ; Print pattern wall
G1 E-0.5 F1800 ; Retract
G1 Z0.3 F12000 ; Z hop
G0 X37.0138 Y32.823 F12000 ; Move to next pattern
G1 Z0.2 F12000 ; Z hop return
G1 E0.5 F1800 ; Un-retract
SET_PRESSURE_ADVANCE ADVANCE=0.015 ; Set pressure advance
M117 PA 0.015
G1 X57.5857 Y53.395 E0.3044 F1800 ; Print pattern wall
G1 X37.0138 Y73.967 E0.3044 F1800 ; Print pattern wall
G1 E-0.5 F1800 ; Retract
G1 Z0.3 F12000 ; Z hop
G0 X37.2221 Y32.823 F12000 ; Move to start next pattern wall
G1 Z0.2 F12000 ; Z hop return
G1 E0.5 F1800 ; Un-retract
G1 X57.794 Y53.395 E0.3044 F1800 ; Print pattern wall
G1 X37.2221 Y73.967 E0.3044 F1800 ; Print pattern wall
G1 E-0.5 F1800 ; Retract
G1 Z0.3 F12000 ; Z hop
G0 X37.4304 Y32.823 F12000 ; Move to start next pattern wall
G1 Z0.2 F12000 ; Z hop return
G1 E0.5 F1800 ; Un-retract
G1 X58.0023 Y53.395 E0.3044 F1800 ; Print pattern wall
G1 X37.4304 Y73.967 E0.3044 F1800 ; Print pattern wall
G1 E-0.5 F1800 ; Retract
G1 Z0.3 F12000 ; Z hop
G0 X39.5991 Y32.823 F12000 ; Move to next pattern
G1 Z0.2 F12000 ; Z hop return
G1 E0.5 F1800 ; Un-retract
SET_PRESSURE_ADVANCE ADVANCE=0.02 ; Set pressure advance
M117 PA 0.02
G1 X60.1711 Y53.395 E0.3044 F1800 ; Print pattern wall
G1 X39.5991 Y73.967 E0.3044 F1800 ; Print pattern wall
G1 E-0.5 F1800 ; Retract
G1 Z0.3 F12000 ; Z hop
G0 X39.8074 Y32.823 F12000 ; Move to start next pattern wall
G1 Z0.2 F12000 ; Z hop return
G1 E0.5 F1800 ; Un-retract
G1 X60.3794 Y53.395 E0.3044 F1800 ; Print pattern wall
G1 X39.8074 Y73.967 E0.3044 F1800 ; Print pattern wall
G1 E-0.5 F1800 ; Retract
G1 Z0.3 F12000 ; Z hop
G0 X40.0157 Y32.823 F12000 ; Move to start next pattern wall
G1 Z0.2 F12000 ; Z hop return
G1 E0.5 F1800 ; Un-retract
G1 X60.5877 Y53.395 E0.3044 F1800 ; Print pattern wall
G1 X40.0157 Y73.967 E0.3044 F1800 ; Print pattern wall
G1 E-0.5 F1800 ; Retract
G1 Z0.3 F12000 ; Z hop
G0 X42.1845 Y32.823 F12000 ; Move to next pattern
G1 Z0.2 F12000 ; Z hop return
G1 E0.5 F1800 ; Un-retract
SET_PRESSURE_ADVANCE ADVANCE=0.025 ; Set pressure advance
M117 PA 0.025
G1 X62.7564 Y53.395 E0.3044 F1800 ; Print pattern wall
G1 X42.1845 Y73.967 E0.3044 F1800 ; Print pattern wall
G1 E-0.5 F1800 ; Retract
G1 Z0.3 F12000 ; Z hop
G0 X42.3928 Y32.823 F12000 ; Move to start next pattern wall
G1 Z0.2 F12000 ; Z hop return
G1 E0.5 F1800 ; Un-retract
G1 X62.9647 Y53.395 E0.3044 F1800 ; Print pattern wall
G1 X42.3928 Y73.967 E0.3044 F1800 ; Print pattern wall
G1 E-0.5 F1800 ; Retract
G1 Z0.3 F12000 ; Z hop
G0 X42.6011 Y32.823 F12000 ; Move to start next pattern wall
G1 Z0.2 F12000 ; Z hop return
G1 E0.5 F1800 ; Un-retract
G1 X63.173 Y53.395 E0.3044 F1800 ; Print pattern wall
G1 X42.6011 Y73.967 E0.3044 F1800 ; Print pattern wall
G1 E-0.5 F1800 ; Retract
G1 Z0.3 F12000 ; Z hop
G0 X44.7698 Y32.823 F12000 ; Move to next pattern
G1 Z0.2 F12000 ; Z hop return
G1 E0.5 F1800 ; Un-retract
SET_PRESSURE_ADVANCE ADVANCE=0.03 ; Set pressure advance
M117 PA 0.03
G1 X65.3418 Y53.395 E0.3044 F1800 ; Print pattern wall
G1 X44.7698 Y73.967 E0.3044 F1800 ; Print pattern wall
G1 E-0.5 F1800 ; Retract
G1 Z0.3 F12000 ; Z hop
G0 X44.9781 Y32.823 F12000 ; Move to start next pattern wall
G1 Z0.2 F12000 ; Z hop return
G1 E0.5 F1800 ; Un-retract
G1 X65.5501 Y53.395 E0.3044 F1800 ; Print pattern wall
G1 X44.9781 Y73.967 E0.3044 F1800 ; Print pattern wall
G1 E-0.5 F1800 ; Retract
G1 Z0.3 F12000 ; Z hop
G0 X45.1864 Y32.823 F12000 ; Move to start next pattern wall
G1 Z0.2 F12000 ; Z hop return
G1 E0.5 F1800 ; Un-retract
G1 X65.7584 Y53.395 E0.3044 F1800 ; Print pattern wall
G1 X45.1864 Y73.967 E0.3044 F1800 ; Print pattern wall
G1 E-0.5 F1800 ; Retract
G1 Z0.3 F12000 ; Z hop
G0 X47.3552 Y32.823 F12000 ; Move to next pattern
G1 Z0.2 F12000 ; Z hop return
G1 E0.5 F1800 ; Un-retract
SET_PRESSURE_ADVANCE ADVANCE=0.035 ; Set pressure advance
M117 PA 0.035
G1 X67.9271 Y53.395 E0.3044 F1800 ; Print pattern wall
G1 X47.3552 Y73.967 E0.3044 F1800 ; Print pattern wall
G1 E-0.5 F1800 ; Retract
G1 Z0.3 F12000 ; Z hop
G0 X47.5635 Y32.823 F12000 ; Move to start next pattern wall
G1 Z0.2 F12000 ; Z hop return
G1 E0.5 F1800 ; Un-retract
G1 X68.1354 Y53.395 E0.3044 F1800 ; Print pattern wall
G1 X47.5635 Y73.967 E0.3044 F1800 ; Print pattern wall
G1 E-0.5 F1800 ; Retract
G1 Z0.3 F12000 ; Z hop
G0 X47.7718 Y32.823 F12000 ; Move to start next pattern wall
G1 Z0.2 F12000 ; Z hop return
G1 E0.5 F1800 ; Un-retract
G1 X68.3437 Y53.395 E0.3044 F1800 ; Print pattern wall
G1 X47.7718 Y73.967 E0.3044 F1800 ; Print pattern wall
G1 E-0.5 F1800 ; Retract
G1 Z0.3 F12000 ; Z hop
G0 X49.9405 Y32.823 F12000 ; Move to next pattern
G1 Z0.2 F12000 ; Z hop return
G1 E0.5 F1800 ; Un-retract
SET_PRESSURE_ADVANCE ADVANCE=0.04 ; Set pressure advance
M117 PA 0.04
G1 X70.5125 Y53.395 E0.3044 F1800 ; Print pattern wall
G1 X49.9405 Y73.967 E0.3044 F1800 ; Print pattern wall
G1 E-0.5 F1800 ; Retract
G1 Z0.3 F12000 ; Z hop
G0 X50.1488 Y32.823 F12000 ; Move to start next pattern wall
G1 Z0.2 F12000 ; Z hop return
G1 E0.5 F1800 ; Un-retract
G1 X70.7208 Y53.395 E0.3044 F1800 ; Print pattern wall
G1 X50.1488 Y73.967 E0.3044 F1800 ; Print pattern wall
G1 E-0.5 F1800 ; Retract
G1 Z0.3 F12000 ; Z hop
G0 X50.3571 Y32.823 F12000 ; Move to start next pattern wall
G1 Z0.2 F12000 ; Z hop return
G1 E0.5 F1800 ; Un-retract
G1 X70.9291 Y53.395 E0.3044 F1800 ; Print pattern wall
G1 X50.3571 Y73.967 E0.3044 F1800 ; Print pattern wall
G1 E-0.5 F1800 ; Retract
G1 Z0.3 F12000 ; Z hop
G0 X52.5259 Y32.823 F12000 ; Move to next pattern
G1 Z0.2 F12000 ; Z hop return
G1 E0.5 F1800 ; Un-retract
SET_PRESSURE_ADVANCE ADVANCE=0.045 ; Set pressure advance
M117 PA 0.045
G1 X73.0978 Y53.395 E0.3044 F1800 ; Print pattern wall
G1 X52.5259 Y73.967 E0.3044 F1800 ; Print pattern wall
G1 E-0.5 F1800 ; Retract
G1 Z0.3 F12000 ; Z hop
G0 X52.7342 Y32.823 F12000 ; Move to start next pattern wall
G1 Z0.2 F12000 ; Z hop return
G1 E0.5 F1800 ; Un-retract
G1 X73.3061 Y53.395 E0.3044 F1800 ; Print pattern wall
G1 X52.7342 Y73.967 E0.3044 F1800 ; Print pattern wall
G1 E-0.5 F1800 ; Retract
G1 Z0.3 F12000 ; Z hop
G0 X52.9425 Y32.823 F12000 ; Move to start next pattern wall
G1 Z0.2 F12000 ; Z hop return
G1 E0.5 F1800 ; Un-retract
G1 X73.5144 Y53.395 E0.3044 F1800 ; Print pattern wall
G1 X52.9425 Y73.967 E0.3044 F1800 ; Print pattern wall
G1 E-0.5 F1800 ; Retract
G1 Z0.3 F12000 ; Z hop
G0 X55.1112 Y32.823 F12000 ; Move to next pattern
G1 Z0.2 F12000 ; Z hop return
G1 E0.5 F1800 ; Un-retract
SET_PRESSURE_ADVANCE ADVANCE=0.05 ; Set pressure advance
M117 PA 0.05
G1 X75.6832 Y53.395 E0.3044 F1800 ; Print pattern wall
G1 X55.1112 Y73.967 E0.3044 F1800 ; Print pattern wall
G1 E-0.5 F1800 ; Retract
G1 Z0.3 F12000 ; Z hop
G0 X55.3195 Y32.823 F12000 ; Move to start next pattern wall
G1 Z0.2 F12000 ; Z hop return
G1 E0.5 F1800 ; Un-retract
G1 X75.8915 Y53.395 E0.3044 F1800 ; Print pattern wall
G1 X55.3195 Y73.967 E0.3044 F1800 ; Print pattern wall
G1 E-0.5 F1800 ; Retract
G1 Z0.3 F12000 ; Z hop
G0 X55.5278 Y32.823 F12000 ; Move to start next pattern wall
G1 Z0.2 F12000 ; Z hop return
G1 E0.5 F1800 ; Un-retract
G1 X76.0998 Y53.395 E0.3044 F1800 ; Print pattern wall
G1 X55.5278 Y73.967 E0.3044 F1800 ; Print pattern wall
G1 E-0.5 F1800 ; Retract
G1 Z0.3 F12000 ; Z hop
G0 X57.6966 Y32.823 F12000 ; Move to next pattern
G1 Z0.2 F12000 ; Z hop return
G1 E0.5 F1800 ; Un-retract
SET_PRESSURE_ADVANCE ADVANCE=0.055 ; Set pressure advance
M117 PA 0.055
G1 X78.2685 Y53.395 E0.3044 F1800 ; Print pattern wall
G1 X57.6966 Y73.967 E0.3044 F1800 ; Print pattern wall
G1 E-0.5 F1800 ; Retract
G1 Z0.3 F12000 ; Z hop
G0 X57.9049 Y32.823 F12000 ; Move to start next pattern wall
G1 Z0.2 F12000 ; Z hop return
G1 E0.5 F1800 ; Un-retract
G1 X78.4768 Y53.395 E0.3044 F1800 ; Print pattern wall
G1 X57.9049 Y73.967 E0.3044 F1800 ; Print pattern wall
G1 E-0.5 F1800 ; Retract
G1 Z0.3 F12000 ; Z hop
G0 X58.1132 Y32.823 F12000 ; Move to start next pattern wall
G1 Z0.2 F12000 ; Z hop return
G1 E0.5 F1800 ; Un-retract
G1 X78.6851 Y53.395 E0.3044 F1800 ; Print pattern wall
G1 X58.1132 Y73.967 E0.3044 F1800 ; Print pattern wall
G1 E-0.5 F1800 ; Retract
G1 Z0.3 F12000 ; Z hop
G0 X60.2819 Y32.823 F12000 ; Move to next pattern
G1 Z0.2 F12000 ; Z hop return
G1 E0.5 F1800 ; Un-retract
SET_PRESSURE_ADVANCE ADVANCE=0.06 ; Set pressure advance
M117 PA 0.06
G1 X80.8539 Y53.395 E0.3044 F1800 ; Print pattern wall
G1 X60.2819 Y73.967 E0.3044 F1800 ; Print pattern wall
G1 E-0.5 F1800 ; Retract
G1 Z0.3 F12000 ; Z hop
G0 X60.4902 Y32.823 F12000 ; Move to start next pattern wall
G1 Z0.2 F12000 ; Z hop return
G1 E0.5 F1800 ; Un-retract
G1 X81.0622 Y53.395 E0.3044 F1800 ; Print pattern wall
G1 X60.4902 Y73.967 E0.3044 F1800 ; Print pattern wall
G1 E-0.5 F1800 ; Retract
G1 Z0.3 F12000 ; Z hop
G0 X60.6985 Y32.823 F12000 ; Move to start next pattern wall
G1 Z0.2 F12000 ; Z hop return
G1 E0.5 F1800 ; Un-retract
G1 X81.2705 Y53.395 E0.3044 F1800 ; Print pattern wall
G1 X60.6985 Y73.967 E0.3044 F1800 ; Print pattern wall
G1 E-0.5 F1800 ; Retract
G1 Z0.3 F12000 ; Z hop
G0 X62.8673 Y32.823 F12000 ; Move to next pattern
G1 Z0.2 F12000 ; Z hop return
G1 E0.5 F1800 ; Un-retract
SET_PRESSURE_ADVANCE ADVANCE=0.065 ; Set pressure advance
M117 PA 0.065
G1 X83.4392 Y53.395 E0.3044 F1800 ; Print pattern wall
G1 X62.8673 Y73.967 E0.3044 F1800 ; Print pattern wall
G1 E-0.5 F1800 ; Retract
G1 Z0.3 F12000 ; Z hop
G0 X63.0756 Y32.823 F12000 ; Move to start next pattern wall
G1 Z0.2 F12000 ; Z hop return
G1 E0.5 F1800 ; Un-retract
G1 X83.6475 Y53.395 E0.3044 F1800 ; Print pattern wall
G1 X63.0756 Y73.967 E0.3044 F1800 ; Print pattern wall
G1 E-0.5 F1800 ; Retract
G1 Z0.3 F12000 ; Z hop
G0 X63.2839 Y32.823 F12000 ; Move to start next pattern wall
G1 Z0.2 F12000 ; Z hop return
G1 E0.5 F1800 ; Un-retract
G1 X83.8558 Y53.395 E0.3044 F1800 ; Print pattern wall
G1 X63.2839 Y73.967 E0.3044 F1800 ; Print pattern wall
G1 E-0.5 F1800 ; Retract
G1 Z0.3 F12000 ; Z hop
G0 X65.4526 Y32.823 F12000 ; Move to next pattern
G1 Z0.2 F12000 ; Z hop return
G1 E0.5 F1800 ; Un-retract
SET_PRESSURE_ADVANCE ADVANCE=0.07 ; Set pressure advance
M117 PA 0.07
G1 X86.0246 Y53.395 E0.3044 F1800 ; Print pattern wall
G1 X65.4526 Y73.967 E0.3044 F1800 ; Print pattern wall
G1 E-0.5 F1800 ; Retract
G1 Z0.3 F12000 ; Z hop
G0 X65.6609 Y32.823 F12000 ; Move to start next pattern wall
G1 Z0.2 F12000 ; Z hop return
G1 E0.5 F1800 ; Un-retract
G1 X86.2329 Y53.395 E0.3044 F1800 ; Print pattern wall
G1 X65.6609 Y73.967 E0.3044 F1800 ; Print pattern wall
G1 E-0.5 F1800 ; Retract
G1 Z0.3 F12000 ; Z hop
G0 X65.8692 Y32.823 F12000 ; Move to start next pattern wall
G1 Z0.2 F12000 ; Z hop return
G1 E0.5 F1800 ; Un-retract
G1 X86.4412 Y53.395 E0.3044 F1800 ; Print pattern wall
G1 X65.8692 Y73.967 E0.3044 F1800 ; Print pattern wall
G1 E-0.5 F1800 ; Retract
G1 Z0.3 F12000 ; Z hop
G0 X68.038 Y32.823 F12000 ; Move to next pattern
G1 Z0.2 F12000 ; Z hop return
G1 E0.5 F1800 ; Un-retract
SET_PRESSURE_ADVANCE ADVANCE=0.075 ; Set pressure advance
M117 PA 0.075
G1 X88.6099 Y53.395 E0.3044 F1800 ; Print pattern wall
G1 X68.038 Y73.967 E0.3044 F1800 ; Print pattern wall
G1 E-0.5 F1800 ; Retract
G1 Z0.3 F12000 ; Z hop
G0 X68.2463 Y32.823 F12000 ; Move to start next pattern wall
G1 Z0.2 F12000 ; Z hop return
G1 E0.5 F1800 ; Un-retract
G1 X88.8182 Y53.395 E0.3044 F1800 ; Print pattern wall
G1 X68.2463 Y73.967 E0.3044 F1800 ; Print pattern wall
G1 E-0.5 F1800 ; Retract
G1 Z0.3 F12000 ; Z hop
G0 X68.4546 Y32.823 F12000 ; Move to start next pattern wall
G1 Z0.2 F12000 ; Z hop return
G1 E0.5 F1800 ; Un-retract
G1 X89.0265 Y53.395 E0.3044 F1800 ; Print pattern wall
G1 X68.4546 Y73.967 E0.3044 F1800 ; Print pattern wall
G1 E-0.5 F1800 ; Retract
G1 Z0.3 F12000 ; Z hop
G0 X70.6233 Y32.823 F12000 ; Move to next pattern
G1 Z0.2 F12000 ; Z hop return
G1 E0.5 F1800 ; Un-retract
SET_PRESSURE_ADVANCE ADVANCE=0.08 ; Set pressure advance
M117 PA 0.08
G1 X91.1953 Y53.395 E0.3044 F1800 ; Print pattern wall
G1 X70.6233 Y73.967 E0.3044 F1800 ; Print pattern wall
G1 E-0.5 F1800 ; Retract
G1 Z0.3 F12000 ; Z hop
G0 X70.8316 Y32.823 F12000 ; Move to start next pattern wall
G1 Z0.2 F12000 ; Z hop return
G1 E0.5 F1800 ; Un-retract
G1 X91.4036 Y53.395 E0.3044 F1800 ; Print pattern wall
G1 X70.8316 Y73.967 E0.3044 F1800 ; Print pattern wall
G1 E-0.5 F1800 ; Retract
G1 Z0.3 F12000 ; Z hop
G0 X71.0399 Y32.823 F12000 ; Move to start next pattern wall
G1 Z0.2 F12000 ; Z hop return
G1 E0.5 F1800 ; Un-retract
G1 X91.6119 Y53.395 E0.3044 F1800 ; Print pattern wall
G1 X71.0399 Y73.967 E0.3044 F1800 ; Print pattern wall
G1 E-0.5 F1800 ; Retract
G1 Z0.3 F12000 ; Z hop
G0 X29.2577 Y32.823 F12000 ; Move back to start position
G1 Z0.2 F12000 ; Z hop return
G1 E0.5 F1800 ; Un-retract
M106 S255 ; Set fan speed
G0 Z0.3 F12000 ; Move to layer height
G1 E-0.5 F1800 ; Retract
G1 Z0.4 F12000 ; Z hop
G0 X26.8248 Y75.777 F12000 ; Move
G1 Z0.3 F12000 ; Z hop return
G1 E0.5 F1800 ; Un-retract
G1 X28.8248 Y75.777 E0.01225 F1800 ; Glyph: 0
G1 X30.8248 Y75.777 E0.01225 F1800 ; Glyph: 0
G1 X30.8248 Y77.777 E0.01225 F1800 ; Glyph: 0
G1 X28.8248 Y77.777 E0.01225 F1800 ; Glyph: 0
G1 X26.8248 Y77.777 E0.01225 F1800 ; Glyph: 0
G1 X26.8248 Y75.777 E0.01225 F1800 ; Glyph: 0
G1 E-0.5 F1800 ; Retract
G1 Z0.4 F12000 ; Z hop
G0 X31.9955 Y75.777 F12000 ; Move
G1 Z0.3 F12000 ; Z hop return
G1 E0.5 F1800 ; Un-retract
G1 X33.9955 Y75.777 E0.01225 F1800 ; Glyph: 0
G1 X35.9955 Y75.777 E0.01225 F1800 ; Glyph: 0
G1 X35.9955 Y77.777 E0.01225 F1800 ; Glyph: 0
G1 X33.9955 Y77.777 E0.01225 F1800 ; Glyph: 0
G1 X31.9955 Y77.777 E0.01225 F1800 ; Glyph: 0
G1 X31.9955 Y75.777 E0.01225 F1800 ; Glyph: 0
G1 E-0.5 F1800 ; Retract
G1 Z0.4 F12000 ; Z hop
G0 X35.9955 Y78.777 F12000 ; Move
G1 Z0.3 F12000 ; Z hop return
G1 E0.5 F1800 ; Un-retract
G1 X35.2455 Y78.777 E0.00459 F1800 ; Glyph: .
G1 E-0.5 F1800 ; Retract
G1 Z0.4 F12000 ; Z hop
G0 X31.9955 Y79.777 F12000 ; Move
G1 Z0.3 F12000 ; Z hop return
G1 E0.5 F1800 ; Un-retract
G1 X33.9955 Y79.777 E0.01225 F1800 ; Glyph: 0
G1 X35.9955 Y79.777 E0.01225 F1800 ; Glyph: 0
G1 X35.9955 Y81.777 E0.01225 F1800 ; Glyph: 0
G1 X33.9955 Y81.777 E0.01225 F1800 ; Glyph: 0
G1 X31.9955 Y81.777 E0.01225 F1800 ; Glyph: 0
G1 X31.9955 Y79.777 E0.01225 F1800 ; Glyph: 0
G1 E-0.5 F1800 ; Retract
G1 Z0.4 F12000 ; Z hop
G0 X31.9955 Y82.777 F12000 ; Move
G1 Z0.3 F12000 ; Z hop return
G1 E0.5 F1800 ; Un-retract
G1 X33.9955 Y82.777 E0.01225 F1800 ; Glyph: 1
G1 X35.9955 Y82.777 E0.01225 F1800 ; Glyph: 1
G1 E-0.5 F1800 ; Retract
G1 Z0.4 F12000 ; Z hop
G0 X37.1662 Y75.777 F12000 ; Move
G1 Z0.3 F12000 ; Z hop return
G1 E0.5 F1800 ; Un-retract
G1 X39.1662 Y75.777 E0.01225 F1800 ; Glyph: 0
G1 X41.1662 Y75.777 E0.01225 F1800 ; Glyph: 0
G1 X41.1662 Y77.777 E0.01225 F1800 ; Glyph: 0
G1 X39.1662 Y77.777 E0.01225 F1800 ; Glyph: 0
G1 X37.1662 Y77.777 E0.01225 F1800 ; Glyph: 0
G1 X37.1662 Y75.777 E0.01225 F1800 ; Glyph: 0
G1 E-0.5 F1800 ; Retract
G1 Z0.4 F12000 ; Z hop
G0 X41.1662 Y78.777 F12000 ; Move
G1 Z0.3 F12000 ; Z hop return
G1 E0.5 F1800 ; Un-retract
G1 X40.4162 Y78.777 E0.00459 F1800 ; Glyph: .
G1 E-0.5 F1800 ; Retract
G1 Z0.4 F12000 ; Z hop
G0 X37.1662 Y79.777 F12000 ; Move
G1 Z0.3 F12000 ; Z hop return
G1 E0.5 F1800 ; Un-retract
G1 X39.1662 Y79.777 E0.01225 F1800 ; Glyph: 0
G1 X41.1662 Y79.777 E0.01225 F1800 ; Glyph: 0
G1 X41.1662 Y81.777 E0.01225 F1800 ; Glyph: 0
G1 X39.1662 Y81.777 E0.01225 F1800 ; Glyph: 0
G1 X37.1662 Y81.777 E0.01225 F1800 ; Glyph: 0
G1 X37.1662 Y79.777 E0.01225 F1800 ; Glyph: 0
G1 E-0.5 F1800 ; Retract
G1 Z0.4 F12000 ; Z hop
G0 X37.1662 Y82.777 F12000 ; Move
G1 Z0.3 F12000 ; Z hop return
G1 E0.5 F1800 ; Un-retract
G1 X37.1662 Y84.777 E0.01225 F1800 ; Glyph: 2
G1 X39.1662 Y84.777 E0.01225 F1800 ; Glyph: 2
G1 X39.1662 Y82.777 E0.01225 F1800 ; Glyph: 2
G1 X41.1662 Y82.777 E0.01225 F1800 ; Glyph: 2
G1 X41.1662 Y84.777 E0.01225 F1800 ; Glyph: 2
G1 E-0.5 F1800 ; Retract
G1 Z0.4 F12000 ; Z hop
G0 X42.3369 Y75.777 F12000 ; Move
G1 Z0.3 F12000 ; Z hop return
G1 E0.5 F1800 ; Un-retract
G1 X44.3369 Y75.777 E0.01225 F1800 ; Glyph: 0
G1 X46.3369 Y75.777 E0.01225 F1800 ; Glyph: 0
G1 X46.3369 Y77.777 E0.01225 F1800 ; Glyph: 0
G1 X44.3369 Y77.777 E0.01225 F1800 ; Glyph: 0
G1 X42.3369 Y77.777 E0.01225 F1800 ; Glyph: 0
G1 X42.3369 Y75.777 E0.01225 F1800 ; Glyph: 0
G1 E-0.5 F1800 ; Retract
G1 Z0.4 F12000 ; Z hop
G0 X46.3369 Y78.777 F12000 ; Move
G1 Z0.3 F12000 ; Z hop return
G1 E0.5 F1800 ; Un-retract
G1 X45.5869 Y78.777 E0.00459 F1800 ; Glyph: .
G1 E-0.5 F1800 ; Retract
G1 Z0.4 F12000 ; Z hop
G0 X42.3369 Y79.777 F12000 ; Move
G1 Z0.3 F12000 ; Z hop return
G1 E0.5 F1800 ; Un-retract
G1 X44.3369 Y79.777 E0.01225 F1800 ; Glyph: 0
G1 X46.3369 Y79.777 E0.01225 F1800 ; Glyph: 0
G1 X46.3369 Y81.777 E0.01225 F1800 ; Glyph: 0
G1 X44.3369 Y81.777 E0.01225 F1800 ; Glyph: 0
G1 X42.3369 Y81.777 E0.01225 F1800 ; Glyph: 0
G1 X42.3369 Y79.777 E0.01225 F1800 ; Glyph: 0
G1 E-0.5 F1800 ; Retract
G1 Z0.4 F12000 ; Z hop
G0 X42.3369 Y82.777 F12000 ; Move
G1 Z0.3 F12000 ; Z hop return
G1 E0.5 F1800 ; Un-retract
G1 X42.3369 Y84.777 E0.01225 F1800 ; Glyph: 3
G1 X44.3369 Y84.777 E0.01225 F1800 ; Glyph: 3
G1 X44.3369 Y82.777 E0.01225 F1800 ; Glyph: 3
G0 X44.3369 Y84.777 F12000 ; Move
G1 X46.3369 Y84.777 E0.01225 F1800 ; Glyph: 3
G1 X46.3369 Y82.777 E0.01225 F1800 ; Glyph: 3
G1 E-0.5 F1800 ; Retract
G1 Z0.4 F12000 ; Z hop
G0 X47.5076 Y75.777 F12000 ; Move
G1 Z0.3 F12000 ; Z hop return
G1 E0.5 F1800 ; Un-retract
G1 X49.5076 Y75.777 E0.01225 F1800 ; Glyph: 0
G1 X51.5076 Y75.777 E0.01225 F1800 ; Glyph: 0
G1 X51.5076 Y77.777 E0.01225 F1800 ; Glyph: 0
G1 X49.5076 Y77.777 E0.01225 F1800 ; Glyph: 0
G1 X47.5076 Y77.777 E0.01225 F1800 ; Glyph: 0
G1 X47.5076 Y75.777 E0.01225 F1800 ; Glyph: 0
G1 E-0.5 F1800 ; Retract
G1 Z0.4 F12000 ; Z hop
G0 X51.5076 Y78.777 F12000 ; Move
G1 Z0.3 F12000 ; Z hop return
G1 E0.5 F1800 ; Un-retract
G1 X50.7576 Y78.777 E0.00459 F1800 ; Glyph: .
G1 E-0.5 F1800 ; Retract
G1 Z0.4 F12000 ; Z hop
G0 X47.5076 Y79.777 F12000 ; Move
G1 Z0.3 F12000 ; Z hop return
G1 E0.5 F1800 ; Un-retract
G1 X49.5076 Y79.777 E0.01225 F1800 ; Glyph: 0
G1 X51.5076 Y79.777 E0.01225 F1800 ; Glyph: 0
G1 X51.5076 Y81.777 E0.01225 F1800 ; Glyph: 0
G1 X49.5076 Y81.777 E0.01225 F1800 ; Glyph: 0
G1 X47.5076 Y81.777 E0.01225 F1800 ; Glyph: 0
G1 X47.5076 Y79.777 E0.01225 F1800 ; Glyph: 0
G1 E-0.5 F1800 ; Retract
G1 Z0.4 F12000 ; Z hop
G0 X47.5076 Y84.777 F12000 ; Move
G1 Z0.3 F12000 ; Z hop return
G1 E0.5 F1800 ; Un-retract
G1 X49.5076 Y84.777 E0.01225 F1800 ; Glyph: 4
G1 X51.5076 Y84.777 E0.01225 F1800 ; Glyph: 4
G0 X49.5076 Y84.777 F12000 ; Move
G1 X49.5076 Y82.777 E0.01225 F1800 ; Glyph: 4
G1 X47.5076 Y82.777 E0.01225 F1800 ; Glyph: 4
G1 E-0.5 F1800 ; Retract
G1 Z0.4 F12000 ; Z hop
G0 X52.6783 Y75.777 F12000 ; Move
G1 Z0.3 F12000 ; Z hop return
G1 E0.5 F1800 ; Un-retract
G1 X54.6783 Y75.777 E0.01225 F1800 ; Glyph: 0
G1 X56.6783 Y75.777 E0.01225 F1800 ; Glyph: 0
G1 X56.6783 Y77.777 E0.01225 F1800 ; Glyph: 0
G1 X54.6783 Y77.777 E0.01225 F1800 ; Glyph: 0
G1 X52.6783 Y77.777 E0.01225 F1800 ; Glyph: 0
G1 X52.6783 Y75.777 E0.01225 F1800 ; Glyph: 0
G1 E-0.5 F1800 ; Retract
G1 Z0.4 F12000 ; Z hop
G0 X56.6783 Y78.777 F12000 ; Move
G1 Z0.3 F12000 ; Z hop return
G1 E0.5 F1800 ; Un-retract
G1 X55.9283 Y78.777 E0.00459 F1800 ; Glyph: .
G1 E-0.5 F1800 ; Retract
G1 Z0.4 F12000 ; Z hop
G0 X52.6783 Y79.777 F12000 ; Move
G1 Z0.3 F12000 ; Z hop return
G1 E0.5 F1800 ; Un-retract
G1 X54.6783 Y79.777 E0.01225 F1800 ; Glyph: 0
G1 X56.6783 Y79.777 E0.01225 F1800 ; Glyph: 0
G1 X56.6783 Y81.777 E0.01225 F1800 ; Glyph: 0
G1 X54.6783 Y81.777 E0.01225 F1800 ; Glyph: 0
G1 X52.6783 Y81.777 E0.01225 F1800 ; Glyph: 0
G1 X52.6783 Y79.777 E0.01225 F1800 ; Glyph: 0
G1 E-0.5 F1800 ; Retract
G1 Z0.4 F12000 ; Z hop
G0 X52.6783 Y84.777 F12000 ; Move
G1 Z0.3 F12000 ; Z hop return
G1 E0.5 F1800 ; Un-retract
G1 X52.6783 Y82.777 E0.01225 F1800 ; Glyph: 5
G1 X54.6783 Y82.777 E0.01225 F1800 ; Glyph: 5
G1 X54.6783 Y84.777 E0.01225 F1800 ; Glyph: 5
G1 X56.6783 Y84.777 E0.01225 F1800 ; Glyph: 5
G1 X56.6783 Y82.777 E0.01225 F1800 ; Glyph: 5
G1 E-0.5 F1800 ; Retract
G1 Z0.4 F12000 ; Z hop
G0 X57.849 Y75.777 F12000 ; Move
G1 Z0.3 F12000 ; Z hop return
G1 E0.5 F1800 ; Un-retract
G1 X59.849 Y75.777 E0.01225 F1800 ; Glyph: 0
G1 X61.849 Y75.777 E0.01225 F1800 ; Glyph: 0
G1 X61.849 Y77.777 E0.01225 F1800 ; Glyph: 0
G1 X59.849 Y77.777 E0.01225 F1800 ; Glyph: 0
G1 X57.849 Y77.777 E0.01225 F1800 ; Glyph: 0
G1 X57.849 Y75.777 E0.01225 F1800 ; Glyph: 0
G1 E-0.5 F1800 ; Retract
G1 Z0.4 F12000 ; Z hop
G0 X61.849 Y78.777 F12000 ; Move
G1 Z0.3 F12000 ; Z hop return
G1 E0.5 F1800 ; Un-retract
G1 X61.099 Y78.777 E0.00459 F1800 ; Glyph: .
G1 E-0.5 F1800 ; Retract
G1 Z0.4 F12000 ; Z hop
G0 X57.849 Y79.777 F12000 ; Move
G1 Z0.3 F12000 ; Z hop return
G1 E0.5 F1800 ; Un-retract
G1 X59.849 Y79.777 E0.01225 F1800 ; Glyph: 0
G1 X61.849 Y79.777 E0.01225 F1800 ; Glyph: 0
G1 X61.849 Y81.777 E0.01225 F1800 ; Glyph: 0
G1 X59.849 Y81.777 E0.01225 F1800 ; Glyph: 0
G1 X57.849 Y81.777 E0.01225 F1800 ; Glyph: 0
G1 X57.849 Y79.777 E0.01225 F1800 ; Glyph: 0
G1 E-0.5 F1800 ; Retract
G1 Z0.4 F12000 ; Z hop
G0 X57.849 Y84.777 F12000 ; Move
G1 Z0.3 F12000 ; Z hop return
G1 E0.5 F1800 ; Un-retract
G1 X57.849 Y82.777 E0.01225 F1800 ; Glyph: 6
G1 X59.849 Y82.777 E0.01225 F1800 ; Glyph: 6
G1 X61.849 Y82.777 E0.01225 F1800 ; Glyph: 6
G1 X61.849 Y84.777 E0.01225 F1800 ; Glyph: 6
G1 X59.849 Y84.777 E0.01225 F1800 ; Glyph: 6
G1 X59.849 Y82.777 E0.01225 F1800 ; Glyph: 6
G1 E-0.5 F1800 ; Retract
G1 Z0.4 F12000 ; Z hop
G0 X63.0197 Y75.777 F12000 ; Move
G1 Z0.3 F12000 ; Z hop return
G1 E0.5 F1800 ; Un-retract
G1 X65.0197 Y75.777 E0.01225 F1800 ; Glyph: 0
G1 X67.0197 Y75.777 E0.01225 F1800 ; Glyph: 0
G1 X67.0197 Y77.777 E0.01225 F1800 ; Glyph: 0
G1 X65.0197 Y77.777 E0.01225 F1800 ; Glyph: 0
G1 X63.0197 Y77.777 E0.01225 F1800 ; Glyph: 0
G1 X63.0197 Y75.777 E0.01225 F1800 ; Glyph: 0
G1 E-0.5 F1800 ; Retract
G1 Z0.4 F12000 ; Z hop
G0 X67.0197 Y78.777 F12000 ; Move
G1 Z0.3 F12000 ; Z hop return
G1 E0.5 F1800 ; Un-retract
G1 X66.2697 Y78.777 E0.00459 F1800 ; Glyph: .
G1 E-0.5 F1800 ; Retract
G1 Z0.4 F12000 ; Z hop
G0 X63.0197 Y79.777 F12000 ; Move
G1 Z0.3 F12000 ; Z hop return
G1 E0.5 F1800 ; Un-retract
G1 X65.0197 Y79.777 E0.01225 F1800 ; Glyph: 0
G1 X67.0197 Y79.777 E0.01225 F1800 ; Glyph: 0
G1 X67.0197 Y81.777 E0.01225 F1800 ; Glyph: 0
G1 X65.0197 Y81.777 E0.01225 F1800 ; Glyph: 0
G1 X63.0197 Y81.777 E0.01225 F1800 ; Glyph: 0
G1 X63.0197 Y79.777 E0.01225 F1800 ; Glyph: 0
G1 E-0.5 F1800 ; Retract
G1 Z0.4 F12000 ; Z hop
G0 X63.0197 Y82.777 F12000 ; Move
G1 Z0.3 F12000 ; Z hop return
G1 E0.5 F1800 ; Un-retract
G1 X63.0197 Y84.777 E0.01225 F1800 ; Glyph: 7
G1 X65.0197 Y84.777 E0.01225 F1800 ; Glyph: 7
G1 X67.0197 Y84.777 E0.01225 F1800 ; Glyph: 7
G1 E-0.5 F1800 ; Retract
G1 Z0.4 F12000 ; Z hop
G0 X68.1904 Y75.777 F12000 ; Move
G1 Z0.3 F12000 ; Z hop return
G1 E0.5 F1800 ; Un-retract
G1 X70.1904 Y75.777 E0.01225 F1800 ; Glyph: 0
G1 X72.1904 Y75.777 E0.01225 F1800 ; Glyph: 0
G1 X72.1904 Y77.777 E0.01225 F1800 ; Glyph: 0
G1 X70.1904 Y77.777 E0.01225 F1800 ; Glyph: 0
G1 X68.1904 Y77.777 E0.01225 F1800 ; Glyph: 0
G1 X68.1904 Y75.777 E0.01225 F1800 ; Glyph: 0
G1 E-0.5 F1800 ; Retract
G1 Z0.4 F12000 ; Z hop
G0 X72.1904 Y78.777 F12000 ; Move
G1 Z0.3 F12000 ; Z hop return
G1 E0.5 F1800 ; Un-retract
G1 X71.4404 Y78.777 E0.00459 F1800 ; Glyph: .
G1 E-0.5 F1800 ; Retract
G1 Z0.4 F12000 ; Z hop
G0 X68.1904 Y79.777 F12000 ; Move
G1 Z0.3 F12000 ; Z hop return
G1 E0.5 F1800 ; Un-retract
G1 X70.1904 Y79.777 E0.01225 F1800 ; Glyph: 0
G1 X72.1904 Y79.777 E0.01225 F1800 ; Glyph: 0
G1 X72.1904 Y81.777 E0.01225 F1800 ; Glyph: 0
G1 X70.1904 Y81.777 E0.01225 F1800 ; Glyph: 0
G1 X68.1904 Y81.777 E0.01225 F1800 ; Glyph: 0
G1 X68.1904 Y79.777 E0.01225 F1800 ; Glyph: 0
G1 E-0.5 F1800 ; Retract
G1 Z0.4 F12000 ; Z hop
G0 X68.1904 Y82.777 F12000 ; Move
G1 Z0.3 F12000 ; Z hop return
G1 E0.5 F1800 ; Un-retract
G1 X70.1904 Y82.777 E0.01225 F1800 ; Glyph: 8
G1 X72.1904 Y82.777 E0.01225 F1800 ; Glyph: 8
G1 X72.1904 Y84.777 E0.01225 F1800 ; Glyph: 8
G1 X70.1904 Y84.777 E0.01225 F1800 ; Glyph: 8
G1 X68.1904 Y84.777 E0.01225 F1800 ; Glyph: 8
G1 X68.1904 Y82.777 E0.01225 F1800 ; Glyph: 8
G0 X70.1904 Y82.777 F12000 ; Move
G1 X70.1904 Y84.777 E0.01225 F1800 ; Glyph: 8
G1 E-0.5 F1800 ; Retract
G1 Z0.4 F12000 ; Z hop
G0 X28.6165 Y32.1818 F12000 ; Move to pattern start

G1 Z0.3 F12000 ; Z hop return
G1 E0.5 F1800 ; Un-retract
SET_PRESSURE_ADVANCE ADVANCE=0 ; Set pressure advance
M117 PA 0
G1 X49.8297 Y53.395 E0.18371 F6000 ; Print pattern wall
G1 X28.6165 Y74.6082 E0.18371 F6000 ; Print pattern wall
G1 E-0.5 F1800 ; Retract
G1 Z0.4 F12000 ; Z hop
G0 X28.8248 Y32.1818 F12000 ; Move to start next pattern wall
G1 Z0.3 F12000 ; Z hop return
G1 E0.5 F1800 ; Un-retract
G1 X50.038 Y53.395 E0.18371 F6000 ; Print pattern wall
G1 X28.8248 Y74.6082 E0.18371 F6000 ; Print pattern wall
G1 E-0.5 F1800 ; Retract
G1 Z0.4 F12000 ; Z hop
G0 X29.0331 Y32.1818 F12000 ; Move to start next pattern wall
G1 Z0.3 F12000 ; Z hop return
G1 E0.5 F1800 ; Un-retract
G1 X50.2463 Y53.395 E0.18371 F6000 ; Print pattern wall
G1 X29.0331 Y74.6082 E0.18371 F6000 ; Print pattern wall
G1 E-0.5 F1800 ; Retract
G1 Z0.4 F12000 ; Z hop
G0 X31.2018 Y32.1818 F12000 ; Move to next pattern
G1 Z0.3 F12000 ; Z hop return
G1 E0.5 F1800 ; Un-retract
SET_PRESSURE_ADVANCE ADVANCE=0.005 ; Set pressure advance
M117 PA 0.005
G1 X52.415 Y53.395 E0.18371 F6000 ; Print pattern wall
G1 X31.2018 Y74.6082 E0.18371 F6000 ; Print pattern wall
G1 E-0.5 F1800 ; Retract
G1 Z0.4 F12000 ; Z hop
G0 X31.4101 Y32.1818 F12000 ; Move to start next pattern wall
G1 Z0.3 F12000 ; Z hop return
G1 E0.5 F1800 ; Un-retract
G1 X52.6233 Y53.395 E0.18371 F6000 ; Print pattern wall
G1 X31.4101 Y74.6082 E0.18371 F6000 ; Print pattern wall
G1 E-0.5 F1800 ; Retract
G1 Z0.4 F12000 ; Z hop
G0 X31.6184 Y32.1818 F12000 ; Move to start next pattern wall
G1 Z0.3 F12000 ; Z hop return
G1 E0.5 F1800 ; Un-retract
G1 X52.8316 Y53.395 E0.18371 F6000 ; Print pattern wall
G1 X31.6184 Y74.6082 E0.18371 F6000 ; Print pattern wall
G1 E-0.5 F1800 ; Retract
G1 Z0.4 F12000 ; Z hop
G0 X33.7872 Y32.1818 F12000 ; Move to next pattern
G1 Z0.3 F12000 ; Z hop return
G1 E0.5 F1800 ; Un-retract
SET_PRESSURE_ADVANCE ADVANCE=0.01 ; Set pressure advance
M117 PA 0.01
G1 X55.0004 Y53.395 E0.18371 F6000 ; Print pattern wall
G1 X33.7872 Y74.6082 E0.18371 F6000 ; Print pattern wall
G1 E-0.5 F1800 ; Retract
G1 Z0.4 F12000 ; Z hop
G0 X33.9955 Y32.1818 F12000 ; Move to start next pattern wall
G1 Z0.3 F12000 ; Z hop return
G1 E0.5 F1800 ; Un-retract
G1 X55.2087 Y53.395 E0.18371 F6000 ; Print pattern wall
G1 X33.9955 Y74.6082 E0.18371 F6000 ; Print pattern wall
G1 E-0.5 F1800 ; Retract
G1 Z0.4 F12000 ; Z hop
G0 X34.2038 Y32.1818 F12000 ; Move to start next pattern wall
G1 Z0.3 F12000 ; Z hop return
G1 E0.5 F1800 ; Un-retract
G1 X55.417 Y53.395 E0.18371 F6000 ; Print pattern wall
G1 X34.2038 Y74.6082 E0.18371 F6000 ; Print pattern wall
G1 E-0.5 F1800 ; Retract
G1 Z0.4 F12000 ; Z hop
G0 X36.3725 Y32.1818 F12000 ; Move to next pattern
G1 Z0.3 F12000 ; Z hop return
G1 E0.5 F1800 ; Un-retract
SET_PRESSURE_ADVANCE ADVANCE=0.015 ; Set pressure advance
M117 PA 0.015
G1 X57.5857 Y53.395 E0.18371 F6000 ; Print pattern wall
G1 X36.3725 Y74.6082 E0.18371 F6000 ; Print pattern wall
G1 E-0.5 F1800 ; Retract
G1 Z0.4 F12000 ; Z hop
G0 X36.5808 Y32.1818 F12000 ; Move to start next pattern wall
G1 Z0.3 F12000 ; Z hop return
G1 E0.5 F1800 ; Un-retract
G1 X57.794 Y53.395 E0.18371 F6000 ; Print pattern wall
G1 X36.5808 Y74.6082 E0.18371 F6000 ; Print pattern wall
G1 E-0.5 F1800 ; Retract
G1 Z0.4 F12000 ; Z hop
G0 X36.7891 Y32.1818 F12000 ; Move to start next pattern wall
G1 Z0.3 F12000 ; Z hop return
G1 E0.5 F1800 ; Un-retract
G1 X58.0023 Y53.395 E0.18371 F6000 ; Print pattern wall
G1 X36.7891 Y74.6082 E0.18371 F6000 ; Print pattern wall
G1 E-0.5 F1800 ; Retract
G1 Z0.4 F12000 ; Z hop
G0 X38.9579 Y32.1818 F12000 ; Move to next pattern
G1 Z0.3 F12000 ; Z hop return
G1 E0.5 F1800 ; Un-retract
SET_PRESSURE_ADVANCE ADVANCE=0.02 ; Set pressure advance
M117 PA 0.02
G1 X60.1711 Y53.395 E0.18371 F6000 ; Print pattern wall
G1 X38.9579 Y74.6082 E0.18371 F6000 ; Print pattern wall
G1 E-0.5 F1800 ; Retract
G1 Z0.4 F12000 ; Z hop
G0 X39.1662 Y32.1818 F12000 ; Move to start next pattern wall
G1 Z0.3 F12000 ; Z hop return
G1 E0.5 F1800 ; Un-retract
G1 X60.3794 Y53.395 E0.18371 F6000 ; Print pattern wall
G1 X39.1662 Y74.6082 E0.18371 F6000 ; Print pattern wall
G1 E-0.5 F1800 ; Retract
G1 Z0.4 F12000 ; Z hop
G0 X39.3745 Y32.1818 F12000 ; Move to start next pattern wall
G1 Z0.3 F12000 ; Z hop return
G1 E0.5 F1800 ; Un-retract
G1 X60.5877 Y53.395 E0.18371 F6000 ; Print pattern wall
G1 X39.3745 Y74.6082 E0.18371 F6000 ; Print pattern wall
G1 E-0.5 F1800 ; Retract
G1 Z0.4 F12000 ; Z hop
G0 X41.5432 Y32.1818 F12000 ; Move to next pattern
G1 Z0.3 F12000 ; Z hop return
G1 E0.5 F1800 ; Un-retract
SET_PRESSURE_ADVANCE ADVANCE=0.025 ; Set pressure advance
M117 PA 0.025
G1 X62.7564 Y53.395 E0.18371 F6000 ; Print pattern wall
G1 X41.5432 Y74.6082 E0.18371 F6000 ; Print pattern wall
G1 E-0.5 F1800 ; Retract
G1 Z0.4 F12000 ; Z hop
G0 X41.7515 Y32.1818 F12000 ; Move to start next pattern wall
G1 Z0.3 F12000 ; Z hop return
G1 E0.5 F1800 ; Un-retract
G1 X62.9647 Y53.395 E0.18371 F6000 ; Print pattern wall
G1 X41.7515 Y74.6082 E0.18371 F6000 ; Print pattern wall
G1 E-0.5 F1800 ; Retract
G1 Z0.4 F12000 ; Z hop
G0 X41.9598 Y32.1818 F12000 ; Move to start next pattern wall
G1 Z0.3 F12000 ; Z hop return
G1 E0.5 F1800 ; Un-retract
G1 X63.173 Y53.395 E0.18371 F6000 ; Print pattern wall
G1 X41.9598 Y74.6082 E0.18371 F6000 ; Print pattern wall
G1 E-0.5 F1800 ; Retract
G1 Z0.4 F12000 ; Z hop
G0 X44.1286 Y32.1818 F12000 ; Move to next pattern
G1 Z0.3 F12000 ; Z hop return
G1 E0.5 F1800 ; Un-retract
SET_PRESSURE_ADVANCE ADVANCE=0.03 ; Set pressure advance
M117 PA 0.03
G1 X65.3418 Y53.395 E0.18371 F6000 ; Print pattern wall
G1 X44.1286 Y74.6082 E0.18371 F6000 ; Print pattern wall
G1 E-0.5 F1800 ; Retract
G1 Z0.4 F12000 ; Z hop
G0 X44.3369 Y32.1818 F12000 ; Move to start next pattern wall
G1 Z0.3 F12000 ; Z hop return
G1 E0.5 F1800 ; Un-retract
G1 X65.5501 Y53.395 E0.18371 F6000 ; Print pattern wall
G1 X44.3369 Y74.6082 E0.18371 F6000 ; Print pattern wall
G1 E-0.5 F1800 ; Retract
G1 Z0.4 F12000 ; Z hop
G0 X44.5452 Y32.1818 F12000 ; Move to start next pattern wall
G1 Z0.3 F12000 ; Z hop return
G1 E0.5 F1800 ; Un-retract
G1 X65.7584 Y53.395 E0.18371 F6000 ; Print pattern wall
G1 X44.5452 Y74.6082 E0.18371 F6000 ; Print pattern wall
G1 E-0.5 F1800 ; Retract
G1 Z0.4 F12000 ; Z hop
G0 X46.7139 Y32.1818 F12000 ; Move to next pattern
G1 Z0.3 F12000 ; Z hop return
G1 E0.5 F1800 ; Un-retract
SET_PRESSURE_ADVANCE ADVANCE=0.035 ; Set pressure advance
M117 PA 0.035
G1 X67.9271 Y53.395 E0.18371 F6000 ; Print pattern wall
G1 X46.7139 Y74.6082 E0.18371 F6000 ; Print pattern wall
G1 E-0.5 F1800 ; Retract
G1 Z0.4 F12000 ; Z hop
G0 X46.9222 Y32.1818 F12000 ; Move to start next pattern wall
G1 Z0.3 F12000 ; Z hop return
G1 E0.5 F1800 ; Un-retract
G1 X68.1354 Y53.395 E0.18371 F6000 ; Print pattern wall
G1 X46.9222 Y74.6082 E0.18371 F6000 ; Print pattern wall
G1 E-0.5 F1800 ; Retract
G1 Z0.4 F12000 ; Z hop
G0 X47.1305 Y32.1818 F12000 ; Move to start next pattern wall
G1 Z0.3 F12000 ; Z hop return
G1 E0.5 F1800 ; Un-retract
G1 X68.3437 Y53.395 E0.18371 F6000 ; Print pattern wall
G1 X47.1305 Y74.6082 E0.18371 F6000 ; Print pattern wall
G1 E-0.5 F1800 ; Retract
G1 Z0.4 F12000 ; Z hop
G0 X49.2993 Y32.1818 F12000 ; Move to next pattern
G1 Z0.3 F12000 ; Z hop return
G1 E0.5 F1800 ; Un-retract
SET_PRESSURE_ADVANCE ADVANCE=0.04 ; Set pressure advance
M117 PA 0.04
G1 X70.5125 Y53.395 E0.18371 F6000 ; Print pattern wall
G1 X49.2993 Y74.6082 E0.18371 F6000 ; Print pattern wall
G1 E-0.5 F1800 ; Retract
G1 Z0.4 F12000 ; Z hop
G0 X49.5076 Y32.1818 F12000 ; Move to start next pattern wall
G1 Z0.3 F12000 ; Z hop return
G1 E0.5 F1800 ; Un-retract
G1 X70.7208 Y53.395 E0.18371 F6000 ; Print pattern wall
G1 X49.5076 Y74.6082 E0.18371 F6000 ; Print pattern wall
G1 E-0.5 F1800 ; Retract
G1 Z0.4 F12000 ; Z hop
G0 X49.7159 Y32.1818 F12000 ; Move to start next pattern wall
G1 Z0.3 F12000 ; Z hop return
G1 E0.5 F1800 ; Un-retract
G1 X70.9291 Y53.395 E0.18371 F6000 ; Print pattern wall
G1 X49.7159 Y74.6082 E0.18371 F6000 ; Print pattern wall
G1 E-0.5 F1800 ; Retract
G1 Z0.4 F12000 ; Z hop
G0 X51.8846 Y32.1818 F12000 ; Move to next pattern
G1 Z0.3 F12000 ; Z hop return
G1 E0.5 F1800 ; Un-retract
SET_PRESSURE_ADVANCE ADVANCE=0.045 ; Set pressure advance
M117 PA 0.045
G1 X73.0978 Y53.395 E0.18371 F6000 ; Print pattern wall
G1 X51.8846 Y74.6082 E0.18371 F6000 ; Print pattern wall
G1 E-0.5 F1800 ; Retract
G1 Z0.4 F12000 ; Z hop
G0 X52.0929 Y32.1818 F12000 ; Move to start next pattern wall
G1 Z0.3 F12000 ; Z hop return
G1 E0.5 F1800 ; Un-retract
G1 X73.3061 Y53.395 E0.18371 F6000 ; Print pattern wall
G1 X52.0929 Y74.6082 E0.18371 F6000 ; Print pattern wall
G1 E-0.5 F1800 ; Retract
G1 Z0.4 F12000 ; Z hop
G0 X52.3012 Y32.1818 F12000 ; Move to start next pattern wall
G1 Z0.3 F12000 ; Z hop return
G1 E0.5 F1800 ; Un-retract
G1 X73.5144 Y53.395 E0.18371 F6000 ; Print pattern wall
G1 X52.3012 Y74.6082 E0.18371 F6000 ; Print pattern wall
G1 E-0.5 F1800 ; Retract
G1 Z0.4 F12000 ; Z hop
G0 X54.47 Y32.1818 F12000 ; Move to next pattern
G1 Z0.3 F12000 ; Z hop return
G1 E0.5 F1800 ; Un-retract
SET_PRESSURE_ADVANCE ADVANCE=0.05 ; Set pressure advance
M117 PA 0.05
G1 X75.6832 Y53.395 E0.18371 F6000 ; Print pattern wall
G1 X54.47 Y74.6082 E0.18371 F6000 ; Print pattern wall
G1 E-0.5 F1800 ; Retract
G1 Z0.4 F12000 ; Z hop
G0 X54.6783 Y32.1818 F12000 ; Move to start next pattern wall
G1 Z0.3 F12000 ; Z hop return
G1 E0.5 F1800 ; Un-retract
G1 X75.8915 Y53.395 E0.18371 F6000 ; Print pattern wall
G1 X54.6783 Y74.6082 E0.18371 F6000 ; Print pattern wall
G1 E-0.5 F1800 ; Retract
G1 Z0.4 F12000 ; Z hop
G0 X54.8866 Y32.1818 F12000 ; Move to start next pattern wall
G1 Z0.3 F12000 ; Z hop return
G1 E0.5 F1800 ; Un-retract
G1 X76.0998 Y53.395 E0.18371 F6000 ; Print pattern wall
G1 X54.8866 Y74.6082 E0.18371 F6000 ; Print pattern wall
G1 E-0.5 F1800 ; Retract
G1 Z0.4 F12000 ; Z hop
G0 X57.0553 Y32.1818 F12000 ; Move to next pattern
G1 Z0.3 F12000 ; Z hop return
G1 E0.5 F1800 ; Un-retract
SET_PRESSURE_ADVANCE ADVANCE=0.055 ; Set pressure advance
M117 PA 0.055
G1 X78.2685 Y53.395 E0.18371 F6000 ; Print pattern wall
G1 X57.0553 Y74.6082 E0.18371 F6000 ; Print pattern wall
G1 E-0.5 F1800 ; Retract
G1 Z0.4 F12000 ; Z hop
G0 X57.2636 Y32.1818 F12000 ; Move to start next pattern wall
G1 Z0.3 F12000 ; Z hop return
G1 E0.5 F1800 ; Un-retract
G1 X78.4768 Y53.395 E0.18371 F6000 ; Print pattern wall
G1 X57.2636 Y74.6082 E0.18371 F6000 ; Print pattern wall
G1 E-0.5 F1800 ; Retract
G1 Z0.4 F12000 ; Z hop
G0 X57.4719 Y32.1818 F12000 ; Move to start next pattern wall
G1 Z0.3 F12000 ; Z hop return
G1 E0.5 F1800 ; Un-retract
G1 X78.6851 Y53.395 E0.18371 F6000 ; Print pattern wall
G1 X57.4719 Y74.6082 E0.18371 F6000 ; Print pattern wall
G1 E-0.5 F1800 ; Retract
G1 Z0.4 F12000 ; Z hop
G0 X59.6407 Y32.1818 F12000 ; Move to next pattern
G1 Z0.3 F12000 ; Z hop return
G1 E0.5 F1800 ; Un-retract
SET_PRESSURE_ADVANCE ADVANCE=0.06 ; Set pressure advance
M117 PA 0.06
G1 X80.8539 Y53.395 E0.18371 F6000 ; Print pattern wall
G1 X59.6407 Y74.6082 E0.18371 F6000 ; Print pattern wall
G1 E-0.5 F1800 ; Retract
G1 Z0.4 F12000 ; Z hop
G0 X59.849 Y32.1818 F12000 ; Move to start next pattern wall
G1 Z0.3 F12000 ; Z hop return
G1 E0.5 F1800 ; Un-retract
G1 X81.0622 Y53.395 E0.18371 F6000 ; Print pattern wall
G1 X59.849 Y74.6082 E0.18371 F6000 ; Print pattern wall
G1 E-0.5 F1800 ; Retract
G1 Z0.4 F12000 ; Z hop
G0 X60.0573 Y32.1818 F12000 ; Move to start next pattern wall
G1 Z0.3 F12000 ; Z hop return
G1 E0.5 F1800 ; Un-retract
G1 X81.2705 Y53.395 E0.18371 F6000 ; Print pattern wall
G1 X60.0573 Y74.6082 E0.18371 F6000 ; Print pattern wall
G1 E-0.5 F1800 ; Retract
G1 Z0.4 F12000 ; Z hop
G0 X62.226 Y32.1818 F12000 ; Move to next pattern
G1 Z0.3 F12000 ; Z hop return
G1 E0.5 F1800 ; Un-retract
SET_PRESSURE_ADVANCE ADVANCE=0.065 ; Set pressure advance
M117 PA 0.065
G1 X83.4392 Y53.395 E0.18371 F6000 ; Print pattern wall
G1 X62.226 Y74.6082 E0.18371 F6000 ; Print pattern wall
G1 E-0.5 F1800 ; Retract
G1 Z0.4 F12000 ; Z hop
G0 X62.4343 Y32.1818 F12000 ; Move to start next pattern wall
G1 Z0.3 F12000 ; Z hop return
G1 E0.5 F1800 ; Un-retract
G1 X83.6475 Y53.395 E0.18371 F6000 ; Print pattern wall
G1 X62.4343 Y74.6082 E0.18371 F6000 ; Print pattern wall
G1 E-0.5 F1800 ; Retract
G1 Z0.4 F12000 ; Z hop
G0 X62.6426 Y32.1818 F12000 ; Move to start next pattern wall
G1 Z0.3 F12000 ; Z hop return
G1 E0.5 F1800 ; Un-retract
G1 X83.8558 Y53.395 E0.18371 F6000 ; Print pattern wall
G1 X62.6426 Y74.6082 E0.18371 F6000 ; Print pattern wall
G1 E-0.5 F1800 ; Retract
G1 Z0.4 F12000 ; Z hop
G0 X64.8114 Y32.1818 F12000 ; Move to next pattern
G1 Z0.3 F12000 ; Z hop return
G1 E0.5 F1800 ; Un-retract
SET_PRESSURE_ADVANCE ADVANCE=0.07 ; Set pressure advance
M117 PA 0.07
G1 X86.0246 Y53.395 E0.18371 F6000 ; Print pattern wall
G1 X64.8114 Y74.6082 E0.18371 F6000 ; Print pattern wall
G1 E-0.5 F1800 ; Retract
G1 Z0.4 F12000 ; Z hop
G0 X65.0197 Y32.1818 F12000 ; Move to start next pattern wall
G1 Z0.3 F12000 ; Z hop return
G1 E0.5 F1800 ; Un-retract
G1 X86.2329 Y53.395 E0.18371 F6000 ; Print pattern wall
G1 X65.0197 Y74.6082 E0.18371 F6000 ; Print pattern wall
G1 E-0.5 F1800 ; Retract
G1 Z0.4 F12000 ; Z hop
G0 X65.228 Y32.1818 F12000 ; Move to start next pattern wall
G1 Z0.3 F12000 ; Z hop return
G1 E0.5 F1800 ; Un-retract
G1 X86.4412 Y53.395 E0.18371 F6000 ; Print pattern wall
G1 X65.228 Y74.6082 E0.18371 F6000 ; Print pattern wall
G1 E-0.5 F1800 ; Retract
G1 Z0.4 F12000 ; Z hop
G0 X67.3967 Y32.1818 F12000 ; Move to next pattern
G1 Z0.3 F12000 ; Z hop return
G1 E0.5 F1800 ; Un-retract
SET_PRESSURE_ADVANCE ADVANCE=0.075 ; Set pressure advance
M117 PA 0.075
G1 X88.6099 Y53.395 E0.18371 F6000 ; Print pattern wall
G1 X67.3967 Y74.6082 E0.18371 F6000 ; Print pattern wall
G1 E-0.5 F1800 ; Retract
G1 Z0.4 F12000 ; Z hop
G0 X67.605 Y32.1818 F12000 ; Move to start next pattern wall
G1 Z0.3 F12000 ; Z hop return
G1 E0.5 F1800 ; Un-retract
G1 X88.8182 Y53.395 E0.18371 F6000 ; Print pattern wall
G1 X67.605 Y74.6082 E0.18371 F6000 ; Print pattern wall
G1 E-0.5 F1800 ; Retract
G1 Z0.4 F12000 ; Z hop
G0 X67.8133 Y32.1818 F12000 ; Move to start next pattern wall
G1 Z0.3 F12000 ; Z hop return
G1 E0.5 F1800 ; Un-retract
G1 X89.0265 Y53.395 E0.18371 F6000 ; Print pattern wall
G1 X67.8133 Y74.6082 E0.18371 F6000 ; Print pattern wall
G1 E-0.5 F1800 ; Retract
G1 Z0.4 F12000 ; Z hop
G0 X69.9821 Y32.1818 F12000 ; Move to next pattern
G1 Z0.3 F12000 ; Z hop return
G1 E0.5 F1800 ; Un-retract
SET_PRESSURE_ADVANCE ADVANCE=0.08 ; Set pressure advance
M117 PA 0.08
G1 X91.1953 Y53.395 E0.18371 F6000 ; Print pattern wall
G1 X69.9821 Y74.6082 E0.18371 F6000 ; Print pattern wall
G1 E-0.5 F1800 ; Retract
G1 Z0.4 F12000 ; Z hop
G0 X70.1904 Y32.1818 F12000 ; Move to start next pattern wall
G1 Z0.3 F12000 ; Z hop return
G1 E0.5 F1800 ; Un-retract
G1 X91.4036 Y53.395 E0.18371 F6000 ; Print pattern wall
G1 X70.1904 Y74.6082 E0.18371 F6000 ; Print pattern wall
G1 E-0.5 F1800 ; Retract
G1 Z0.4 F12000 ; Z hop
G0 X70.3987 Y32.1818 F12000 ; Move to start next pattern wall
G1 Z0.3 F12000 ; Z hop return
G1 E0.5 F1800 ; Un-retract
G1 X91.6119 Y53.395 E0.18371 F6000 ; Print pattern wall
G1 X70.3987 Y74.6082 E0.18371 F6000 ; Print pattern wall
G1 E-0.5 F1800 ; Retract
G1 Z0.4 F12000 ; Z hop
G0 X28.6165 Y32.1818 F12000 ; Move back to start position
G1 Z0.3 F12000 ; Z hop return
G1 E0.5 F1800 ; Un-retract
G0 Z0.4 F12000 ; Move to layer height
SET_PRESSURE_ADVANCE ADVANCE=0 ; Set pressure advance
M117 PA 0
G1 X49.8297 Y53.395 E0.18371 F6000 ; Print pattern wall
G1 X28.6165 Y74.6082 E0.18371 F6000 ; Print pattern wall
G1 E-0.5 F1800 ; Retract
G1 Z0.5 F12000 ; Z hop
G0 X28.8248 Y32.1818 F12000 ; Move to start next pattern wall
G1 Z0.4 F12000 ; Z hop return
G1 E0.5 F1800 ; Un-retract
G1 X50.038 Y53.395 E0.18371 F6000 ; Print pattern wall
G1 X28.8248 Y74.6082 E0.18371 F6000 ; Print pattern wall
G1 E-0.5 F1800 ; Retract
G1 Z0.5 F12000 ; Z hop
G0 X29.0331 Y32.1818 F12000 ; Move to start next pattern wall
G1 Z0.4 F12000 ; Z hop return
G1 E0.5 F1800 ; Un-retract
G1 X50.2463 Y53.395 E0.18371 F6000 ; Print pattern wall
G1 X29.0331 Y74.6082 E0.18371 F6000 ; Print pattern wall
G1 E-0.5 F1800 ; Retract
G1 Z0.5 F12000 ; Z hop
G0 X31.2018 Y32.1818 F12000 ; Move to next pattern
G1 Z0.4 F12000 ; Z hop return
G1 E0.5 F1800 ; Un-retract
SET_PRESSURE_ADVANCE ADVANCE=0.005 ; Set pressure advance
M117 PA 0.005
G1 X52.415 Y53.395 E0.18371 F6000 ; Print pattern wall
G1 X31.2018 Y74.6082 E0.18371 F6000 ; Print pattern wall
G1 E-0.5 F1800 ; Retract
G1 Z0.5 F12000 ; Z hop
G0 X31.4101 Y32.1818 F12000 ; Move to start next pattern wall
G1 Z0.4 F12000 ; Z hop return
G1 E0.5 F1800 ; Un-retract
G1 X52.6233 Y53.395 E0.18371 F6000 ; Print pattern wall
G1 X31.4101 Y74.6082 E0.18371 F6000 ; Print pattern wall
G1 E-0.5 F1800 ; Retract
G1 Z0.5 F12000 ; Z hop
G0 X31.6184 Y32.1818 F12000 ; Move to start next pattern wall
G1 Z0.4 F12000 ; Z hop return
G1 E0.5 F1800 ; Un-retract
G1 X52.8316 Y53.395 E0.18371 F6000 ; Print pattern wall
G1 X31.6184 Y74.6082 E0.18371 F6000 ; Print pattern wall
G1 E-0.5 F1800 ; Retract
G1 Z0.5 F12000 ; Z hop
G0 X33.7872 Y32.1818 F12000 ; Move to next pattern
G1 Z0.4 F12000 ; Z hop return
G1 E0.5 F1800 ; Un-retract
SET_PRESSURE_ADVANCE ADVANCE=0.01 ; Set pressure advance
M117 PA 0.01
G1 X55.0004 Y53.395 E0.18371 F6000 ; Print pattern wall
G1 X33.7872 Y74.6082 E0.18371 F6000 ; Print pattern wall
G1 E-0.5 F1800 ; Retract
G1 Z0.5 F12000 ; Z hop
G0 X33.9955 Y32.1818 F12000 ; Move to start next pattern wall
G1 Z0.4 F12000 ; Z hop return
G1 E0.5 F1800 ; Un-retract
G1 X55.2087 Y53.395 E0.18371 F6000 ; Print pattern wall
G1 X33.9955 Y74.6082 E0.18371 F6000 ; Print pattern wall
G1 E-0.5 F1800 ; Retract
G1 Z0.5 F12000 ; Z hop
G0 X34.2038 Y32.1818 F12000 ; Move to start next pattern wall
G1 Z0.4 F12000 ; Z hop return
G1 E0.5 F1800 ; Un-retract
G1 X55.417 Y53.395 E0.18371 F6000 ; Print pattern wall
G1 X34.2038 Y74.6082 E0.18371 F6000 ; Print pattern wall
G1 E-0.5 F1800 ; Retract
G1 Z0.5 F12000 ; Z hop
G0 X36.3725 Y32.1818 F12000 ; Move to next pattern
G1 Z0.4 F12000 ; Z hop return
G1 E0.5 F1800 ; Un-retract
SET_PRESSURE_ADVANCE ADVANCE=0.015 ; Set pressure advance
M117 PA 0.015
G1 X57.5857 Y53.395 E0.18371 F6000 ; Print pattern wall
G1 X36.3725 Y74.6082 E0.18371 F6000 ; Print pattern wall
G1 E-0.5 F1800 ; Retract
G1 Z0.5 F12000 ; Z hop
G0 X36.5808 Y32.1818 F12000 ; Move to start next pattern wall
G1 Z0.4 F12000 ; Z hop return
G1 E0.5 F1800 ; Un-retract
G1 X57.794 Y53.395 E0.18371 F6000 ; Print pattern wall
G1 X36.5808 Y74.6082 E0.18371 F6000 ; Print pattern wall
G1 E-0.5 F1800 ; Retract
G1 Z0.5 F12000 ; Z hop
G0 X36.7891 Y32.1818 F12000 ; Move to start next pattern wall
G1 Z0.4 F12000 ; Z hop return
G1 E0.5 F1800 ; Un-retract
G1 X58.0023 Y53.395 E0.18371 F6000 ; Print pattern wall
G1 X36.7891 Y74.6082 E0.18371 F6000 ; Print pattern wall
G1 E-0.5 F1800 ; Retract
G1 Z0.5 F12000 ; Z hop
G0 X38.9579 Y32.1818 F12000 ; Move to next pattern
G1 Z0.4 F12000 ; Z hop return
G1 E0.5 F1800 ; Un-retract
SET_PRESSURE_ADVANCE ADVANCE=0.02 ; Set pressure advance
M117 PA 0.02
G1 X60.1711 Y53.395 E0.18371 F6000 ; Print pattern wall
G1 X38.9579 Y74.6082 E0.18371 F6000 ; Print pattern wall
G1 E-0.5 F1800 ; Retract
G1 Z0.5 F12000 ; Z hop
G0 X39.1662 Y32.1818 F12000 ; Move to start next pattern wall
G1 Z0.4 F12000 ; Z hop return
G1 E0.5 F1800 ; Un-retract
G1 X60.3794 Y53.395 E0.18371 F6000 ; Print pattern wall
G1 X39.1662 Y74.6082 E0.18371 F6000 ; Print pattern wall
G1 E-0.5 F1800 ; Retract
G1 Z0.5 F12000 ; Z hop
G0 X39.3745 Y32.1818 F12000 ; Move to start next pattern wall
G1 Z0.4 F12000 ; Z hop return
G1 E0.5 F1800 ; Un-retract
G1 X60.5877 Y53.395 E0.18371 F6000 ; Print pattern wall
G1 X39.3745 Y74.6082 E0.18371 F6000 ; Print pattern wall
G1 E-0.5 F1800 ; Retract
G1 Z0.5 F12000 ; Z hop
G0 X41.5432 Y32.1818 F12000 ; Move to next pattern
G1 Z0.4 F12000 ; Z hop return
G1 E0.5 F1800 ; Un-retract
SET_PRESSURE_ADVANCE ADVANCE=0.025 ; Set pressure advance
M117 PA 0.025
G1 X62.7564 Y53.395 E0.18371 F6000 ; Print pattern wall
G1 X41.5432 Y74.6082 E0.18371 F6000 ; Print pattern wall
G1 E-0.5 F1800 ; Retract
G1 Z0.5 F12000 ; Z hop
G0 X41.7515 Y32.1818 F12000 ; Move to start next pattern wall
G1 Z0.4 F12000 ; Z hop return
G1 E0.5 F1800 ; Un-retract
G1 X62.9647 Y53.395 E0.18371 F6000 ; Print pattern wall
G1 X41.7515 Y74.6082 E0.18371 F6000 ; Print pattern wall
G1 E-0.5 F1800 ; Retract
G1 Z0.5 F12000 ; Z hop
G0 X41.9598 Y32.1818 F12000 ; Move to start next pattern wall
G1 Z0.4 F12000 ; Z hop return
G1 E0.5 F1800 ; Un-retract
G1 X63.173 Y53.395 E0.18371 F6000 ; Print pattern wall
G1 X41.9598 Y74.6082 E0.18371 F6000 ; Print pattern wall
G1 E-0.5 F1800 ; Retract
G1 Z0.5 F12000 ; Z hop
G0 X44.1286 Y32.1818 F12000 ; Move to next pattern
G1 Z0.4 F12000 ; Z hop return
G1 E0.5 F1800 ; Un-retract
SET_PRESSURE_ADVANCE ADVANCE=0.03 ; Set pressure advance
M117 PA 0.03
G1 X65.3418 Y53.395 E0.18371 F6000 ; Print pattern wall
G1 X44.1286 Y74.6082 E0.18371 F6000 ; Print pattern wall
G1 E-0.5 F1800 ; Retract
G1 Z0.5 F12000 ; Z hop
G0 X44.3369 Y32.1818 F12000 ; Move to start next pattern wall
G1 Z0.4 F12000 ; Z hop return
G1 E0.5 F1800 ; Un-retract
G1 X65.5501 Y53.395 E0.18371 F6000 ; Print pattern wall
G1 X44.3369 Y74.6082 E0.18371 F6000 ; Print pattern wall
G1 E-0.5 F1800 ; Retract
G1 Z0.5 F12000 ; Z hop
G0 X44.5452 Y32.1818 F12000 ; Move to start next pattern wall
G1 Z0.4 F12000 ; Z hop return
G1 E0.5 F1800 ; Un-retract
G1 X65.7584 Y53.395 E0.18371 F6000 ; Print pattern wall
G1 X44.5452 Y74.6082 E0.18371 F6000 ; Print pattern wall
G1 E-0.5 F1800 ; Retract
G1 Z0.5 F12000 ; Z hop
G0 X46.7139 Y32.1818 F12000 ; Move to next pattern
G1 Z0.4 F12000 ; Z hop return
G1 E0.5 F1800 ; Un-retract
SET_PRESSURE_ADVANCE ADVANCE=0.035 ; Set pressure advance
M117 PA 0.035
G1 X67.9271 Y53.395 E0.18371 F6000 ; Print pattern wall
G1 X46.7139 Y74.6082 E0.18371 F6000 ; Print pattern wall
G1 E-0.5 F1800 ; Retract
G1 Z0.5 F12000 ; Z hop
G0 X46.9222 Y32.1818 F12000 ; Move to start next pattern wall
G1 Z0.4 F12000 ; Z hop return
G1 E0.5 F1800 ; Un-retract
G1 X68.1354 Y53.395 E0.18371 F6000 ; Print pattern wall
G1 X46.9222 Y74.6082 E0.18371 F6000 ; Print pattern wall
G1 E-0.5 F1800 ; Retract
G1 Z0.5 F12000 ; Z hop
G0 X47.1305 Y32.1818 F12000 ; Move to start next pattern wall
G1 Z0.4 F12000 ; Z hop return
G1 E0.5 F1800 ; Un-retract
G1 X68.3437 Y53.395 E0.18371 F6000 ; Print pattern wall
G1 X47.1305 Y74.6082 E0.18371 F6000 ; Print pattern wall
G1 E-0.5 F1800 ; Retract
G1 Z0.5 F12000 ; Z hop
G0 X49.2993 Y32.1818 F12000 ; Move to next pattern
G1 Z0.4 F12000 ; Z hop return
G1 E0.5 F1800 ; Un-retract
SET_PRESSURE_ADVANCE ADVANCE=0.04 ; Set pressure advance
M117 PA 0.04
G1 X70.5125 Y53.395 E0.18371 F6000 ; Print pattern wall
G1 X49.2993 Y74.6082 E0.18371 F6000 ; Print pattern wall
G1 E-0.5 F1800 ; Retract
G1 Z0.5 F12000 ; Z hop
G0 X49.5076 Y32.1818 F12000 ; Move to start next pattern wall
G1 Z0.4 F12000 ; Z hop return
G1 E0.5 F1800 ; Un-retract
G1 X70.7208 Y53.395 E0.18371 F6000 ; Print pattern wall
G1 X49.5076 Y74.6082 E0.18371 F6000 ; Print pattern wall
G1 E-0.5 F1800 ; Retract
G1 Z0.5 F12000 ; Z hop
G0 X49.7159 Y32.1818 F12000 ; Move to start next pattern wall
G1 Z0.4 F12000 ; Z hop return
G1 E0.5 F1800 ; Un-retract
G1 X70.9291 Y53.395 E0.18371 F6000 ; Print pattern wall
G1 X49.7159 Y74.6082 E0.18371 F6000 ; Print pattern wall
G1 E-0.5 F1800 ; Retract
G1 Z0.5 F12000 ; Z hop
G0 X51.8846 Y32.1818 F12000 ; Move to next pattern
G1 Z0.4 F12000 ; Z hop return
G1 E0.5 F1800 ; Un-retract
SET_PRESSURE_ADVANCE ADVANCE=0.045 ; Set pressure advance
M117 PA 0.045
G1 X73.0978 Y53.395 E0.18371 F6000 ; Print pattern wall
G1 X51.8846 Y74.6082 E0.18371 F6000 ; Print pattern wall
G1 E-0.5 F1800 ; Retract
G1 Z0.5 F12000 ; Z hop
G0 X52.0929 Y32.1818 F12000 ; Move to start next pattern wall
G1 Z0.4 F12000 ; Z hop return
G1 E0.5 F1800 ; Un-retract
G1 X73.3061 Y53.395 E0.18371 F6000 ; Print pattern wall
G1 X52.0929 Y74.6082 E0.18371 F6000 ; Print pattern wall
G1 E-0.5 F1800 ; Retract
G1 Z0.5 F12000 ; Z hop
G0 X52.3012 Y32.1818 F12000 ; Move to start next pattern wall
G1 Z0.4 F12000 ; Z hop return
G1 E0.5 F1800 ; Un-retract
G1 X73.5144 Y53.395 E0.18371 F6000 ; Print pattern wall
G1 X52.3012 Y74.6082 E0.18371 F6000 ; Print pattern wall
G1 E-0.5 F1800 ; Retract
G1 Z0.5 F12000 ; Z hop
G0 X54.47 Y32.1818 F12000 ; Move to next pattern
G1 Z0.4 F12000 ; Z hop return
G1 E0.5 F1800 ; Un-retract
SET_PRESSURE_ADVANCE ADVANCE=0.05 ; Set pressure advance
M117 PA 0.05
G1 X75.6832 Y53.395 E0.18371 F6000 ; Print pattern wall
G1 X54.47 Y74.6082 E0.18371 F6000 ; Print pattern wall
G1 E-0.5 F1800 ; Retract
G1 Z0.5 F12000 ; Z hop
G0 X54.6783 Y32.1818 F12000 ; Move to start next pattern wall
G1 Z0.4 F12000 ; Z hop return
G1 E0.5 F1800 ; Un-retract
G1 X75.8915 Y53.395 E0.18371 F6000 ; Print pattern wall
G1 X54.6783 Y74.6082 E0.18371 F6000 ; Print pattern wall
G1 E-0.5 F1800 ; Retract
G1 Z0.5 F12000 ; Z hop
G0 X54.8866 Y32.1818 F12000 ; Move to start next pattern wall
G1 Z0.4 F12000 ; Z hop return
G1 E0.5 F1800 ; Un-retract
G1 X76.0998 Y53.395 E0.18371 F6000 ; Print pattern wall
G1 X54.8866 Y74.6082 E0.18371 F6000 ; Print pattern wall
G1 E-0.5 F1800 ; Retract
G1 Z0.5 F12000 ; Z hop
G0 X57.0553 Y32.1818 F12000 ; Move to next pattern
G1 Z0.4 F12000 ; Z hop return
G1 E0.5 F1800 ; Un-retract
SET_PRESSURE_ADVANCE ADVANCE=0.055 ; Set pressure advance
M117 PA 0.055
G1 X78.2685 Y53.395 E0.18371 F6000 ; Print pattern wall
G1 X57.0553 Y74.6082 E0.18371 F6000 ; Print pattern wall
G1 E-0.5 F1800 ; Retract
G1 Z0.5 F12000 ; Z hop
G0 X57.2636 Y32.1818 F12000 ; Move to start next pattern wall
G1 Z0.4 F12000 ; Z hop return
G1 E0.5 F1800 ; Un-retract
G1 X78.4768 Y53.395 E0.18371 F6000 ; Print pattern wall
G1 X57.2636 Y74.6082 E0.18371 F6000 ; Print pattern wall
G1 E-0.5 F1800 ; Retract
G1 Z0.5 F12000 ; Z hop
G0 X57.4719 Y32.1818 F12000 ; Move to start next pattern wall
G1 Z0.4 F12000 ; Z hop return
G1 E0.5 F1800 ; Un-retract
G1 X78.6851 Y53.395 E0.18371 F6000 ; Print pattern wall
G1 X57.4719 Y74.6082 E0.18371 F6000 ; Print pattern wall
G1 E-0.5 F1800 ; Retract
G1 Z0.5 F12000 ; Z hop
G0 X59.6407 Y32.1818 F12000 ; Move to next pattern
G1 Z0.4 F12000 ; Z hop return
G1 E0.5 F1800 ; Un-retract
SET_PRESSURE_ADVANCE ADVANCE=0.06 ; Set pressure advance
M117 PA 0.06
G1 X80.8539 Y53.395 E0.18371 F6000 ; Print pattern wall
G1 X59.6407 Y74.6082 E0.18371 F6000 ; Print pattern wall
G1 E-0.5 F1800 ; Retract
G1 Z0.5 F12000 ; Z hop
G0 X59.849 Y32.1818 F12000 ; Move to start next pattern wall
G1 Z0.4 F12000 ; Z hop return
G1 E0.5 F1800 ; Un-retract
G1 X81.0622 Y53.395 E0.18371 F6000 ; Print pattern wall
G1 X59.849 Y74.6082 E0.18371 F6000 ; Print pattern wall
G1 E-0.5 F1800 ; Retract
G1 Z0.5 F12000 ; Z hop
G0 X60.0573 Y32.1818 F12000 ; Move to start next pattern wall
G1 Z0.4 F12000 ; Z hop return
G1 E0.5 F1800 ; Un-retract
G1 X81.2705 Y53.395 E0.18371 F6000 ; Print pattern wall
G1 X60.0573 Y74.6082 E0.18371 F6000 ; Print pattern wall
G1 E-0.5 F1800 ; Retract
G1 Z0.5 F12000 ; Z hop
G0 X62.226 Y32.1818 F12000 ; Move to next pattern
G1 Z0.4 F12000 ; Z hop return
G1 E0.5 F1800 ; Un-retract
SET_PRESSURE_ADVANCE ADVANCE=0.065 ; Set pressure advance
M117 PA 0.065
G1 X83.4392 Y53.395 E0.18371 F6000 ; Print pattern wall
G1 X62.226 Y74.6082 E0.18371 F6000 ; Print pattern wall
G1 E-0.5 F1800 ; Retract
G1 Z0.5 F12000 ; Z hop
G0 X62.4343 Y32.1818 F12000 ; Move to start next pattern wall
G1 Z0.4 F12000 ; Z hop return
G1 E0.5 F1800 ; Un-retract
G1 X83.6475 Y53.395 E0.18371 F6000 ; Print pattern wall
G1 X62.4343 Y74.6082 E0.18371 F6000 ; Print pattern wall
G1 E-0.5 F1800 ; Retract
G1 Z0.5 F12000 ; Z hop
G0 X62.6426 Y32.1818 F12000 ; Move to start next pattern wall
G1 Z0.4 F12000 ; Z hop return
G1 E0.5 F1800 ; Un-retract
G1 X83.8558 Y53.395 E0.18371 F6000 ; Print pattern wall
G1 X62.6426 Y74.6082 E0.18371 F6000 ; Print pattern wall
G1 E-0.5 F1800 ; Retract
G1 Z0.5 F12000 ; Z hop
G0 X64.8114 Y32.1818 F12000 ; Move to next pattern
G1 Z0.4 F12000 ; Z hop return
G1 E0.5 F1800 ; Un-retract
SET_PRESSURE_ADVANCE ADVANCE=0.07 ; Set pressure advance
M117 PA 0.07
G1 X86.0246 Y53.395 E0.18371 F6000 ; Print pattern wall
G1 X64.8114 Y74.6082 E0.18371 F6000 ; Print pattern wall
G1 E-0.5 F1800 ; Retract
G1 Z0.5 F12000 ; Z hop
G0 X65.0197 Y32.1818 F12000 ; Move to start next pattern wall
G1 Z0.4 F12000 ; Z hop return
G1 E0.5 F1800 ; Un-retract
G1 X86.2329 Y53.395 E0.18371 F6000 ; Print pattern wall
G1 X65.0197 Y74.6082 E0.18371 F6000 ; Print pattern wall
G1 E-0.5 F1800 ; Retract
G1 Z0.5 F12000 ; Z hop
G0 X65.228 Y32.1818 F12000 ; Move to start next pattern wall
G1 Z0.4 F12000 ; Z hop return
G1 E0.5 F1800 ; Un-retract
G1 X86.4412 Y53.395 E0.18371 F6000 ; Print pattern wall
G1 X65.228 Y74.6082 E0.18371 F6000 ; Print pattern wall
G1 E-0.5 F1800 ; Retract
G1 Z0.5 F12000 ; Z hop
G0 X67.3967 Y32.1818 F12000 ; Move to next pattern
G1 Z0.4 F12000 ; Z hop return
G1 E0.5 F1800 ; Un-retract
SET_PRESSURE_ADVANCE ADVANCE=0.075 ; Set pressure advance
M117 PA 0.075
G1 X88.6099 Y53.395 E0.18371 F6000 ; Print pattern wall
G1 X67.3967 Y74.6082 E0.18371 F6000 ; Print pattern wall
G1 E-0.5 F1800 ; Retract
G1 Z0.5 F12000 ; Z hop
G0 X67.605 Y32.1818 F12000 ; Move to start next pattern wall
G1 Z0.4 F12000 ; Z hop return
G1 E0.5 F1800 ; Un-retract
G1 X88.8182 Y53.395 E0.18371 F6000 ; Print pattern wall
G1 X67.605 Y74.6082 E0.18371 F6000 ; Print pattern wall
G1 E-0.5 F1800 ; Retract
G1 Z0.5 F12000 ; Z hop
G0 X67.8133 Y32.1818 F12000 ; Move to start next pattern wall
G1 Z0.4 F12000 ; Z hop return
G1 E0.5 F1800 ; Un-retract
G1 X89.0265 Y53.395 E0.18371 F6000 ; Print pattern wall
G1 X67.8133 Y74.6082 E0.18371 F6000 ; Print pattern wall
G1 E-0.5 F1800 ; Retract
G1 Z0.5 F12000 ; Z hop
G0 X69.9821 Y32.1818 F12000 ; Move to next pattern
G1 Z0.4 F12000 ; Z hop return
G1 E0.5 F1800 ; Un-retract
SET_PRESSURE_ADVANCE ADVANCE=0.08 ; Set pressure advance
M117 PA 0.08
G1 X91.1953 Y53.395 E0.18371 F6000 ; Print pattern wall
G1 X69.9821 Y74.6082 E0.18371 F6000 ; Print pattern wall
G1 E-0.5 F1800 ; Retract
G1 Z0.5 F12000 ; Z hop
G0 X70.1904 Y32.1818 F12000 ; Move to start next pattern wall
G1 Z0.4 F12000 ; Z hop return
G1 E0.5 F1800 ; Un-retract
G1 X91.4036 Y53.395 E0.18371 F6000 ; Print pattern wall
G1 X70.1904 Y74.6082 E0.18371 F6000 ; Print pattern wall
G1 E-0.5 F1800 ; Retract
G1 Z0.5 F12000 ; Z hop
G0 X70.3987 Y32.1818 F12000 ; Move to start next pattern wall
G1 Z0.4 F12000 ; Z hop return
G1 E0.5 F1800 ; Un-retract
G1 X91.6119 Y53.395 E0.18371 F6000 ; Print pattern wall
G1 X70.3987 Y74.6082 E0.18371 F6000 ; Print pattern wall
G1 E-0.5 F1800 ; Retract
G1 Z0.5 F12000 ; Z hop
G0 X28.6165 Y32.1818 F12000 ; Move back to start position
G1 Z0.4 F12000 ; Z hop return
G1 E0.5 F1800 ; Un-retract
G0 Z0.5 F12000 ; Move to layer height
SET_PRESSURE_ADVANCE ADVANCE=0 ; Set pressure advance
M117 PA 0
G1 X49.8297 Y53.395 E0.18371 F6000 ; Print pattern wall
G1 X28.6165 Y74.6082 E0.18371 F6000 ; Print pattern wall
G1 E-0.5 F1800 ; Retract
G1 Z0.6 F12000 ; Z hop
G0 X28.8248 Y32.1818 F12000 ; Move to start next pattern wall
G1 Z0.5 F12000 ; Z hop return
G1 E0.5 F1800 ; Un-retract
G1 X50.038 Y53.395 E0.18371 F6000 ; Print pattern wall
G1 X28.8248 Y74.6082 E0.18371 F6000 ; Print pattern wall
G1 E-0.5 F1800 ; Retract
G1 Z0.6 F12000 ; Z hop
G0 X29.0331 Y32.1818 F12000 ; Move to start next pattern wall
G1 Z0.5 F12000 ; Z hop return
G1 E0.5 F1800 ; Un-retract
G1 X50.2463 Y53.395 E0.18371 F6000 ; Print pattern wall
G1 X29.0331 Y74.6082 E0.18371 F6000 ; Print pattern wall
G1 E-0.5 F1800 ; Retract
G1 Z0.6 F12000 ; Z hop
G0 X31.2018 Y32.1818 F12000 ; Move to next pattern
G1 Z0.5 F12000 ; Z hop return
G1 E0.5 F1800 ; Un-retract
SET_PRESSURE_ADVANCE ADVANCE=0.005 ; Set pressure advance
M117 PA 0.005
G1 X52.415 Y53.395 E0.18371 F6000 ; Print pattern wall
G1 X31.2018 Y74.6082 E0.18371 F6000 ; Print pattern wall
G1 E-0.5 F1800 ; Retract
G1 Z0.6 F12000 ; Z hop
G0 X31.4101 Y32.1818 F12000 ; Move to start next pattern wall
G1 Z0.5 F12000 ; Z hop return
G1 E0.5 F1800 ; Un-retract
G1 X52.6233 Y53.395 E0.18371 F6000 ; Print pattern wall
G1 X31.4101 Y74.6082 E0.18371 F6000 ; Print pattern wall
G1 E-0.5 F1800 ; Retract
G1 Z0.6 F12000 ; Z hop
G0 X31.6184 Y32.1818 F12000 ; Move to start next pattern wall
G1 Z0.5 F12000 ; Z hop return
G1 E0.5 F1800 ; Un-retract
G1 X52.8316 Y53.395 E0.18371 F6000 ; Print pattern wall
G1 X31.6184 Y74.6082 E0.18371 F6000 ; Print pattern wall
G1 E-0.5 F1800 ; Retract
G1 Z0.6 F12000 ; Z hop
G0 X33.7872 Y32.1818 F12000 ; Move to next pattern
G1 Z0.5 F12000 ; Z hop return
G1 E0.5 F1800 ; Un-retract
SET_PRESSURE_ADVANCE ADVANCE=0.01 ; Set pressure advance
M117 PA 0.01
G1 X55.0004 Y53.395 E0.18371 F6000 ; Print pattern wall
G1 X33.7872 Y74.6082 E0.18371 F6000 ; Print pattern wall
G1 E-0.5 F1800 ; Retract
G1 Z0.6 F12000 ; Z hop
G0 X33.9955 Y32.1818 F12000 ; Move to start next pattern wall
G1 Z0.5 F12000 ; Z hop return
G1 E0.5 F1800 ; Un-retract
G1 X55.2087 Y53.395 E0.18371 F6000 ; Print pattern wall
G1 X33.9955 Y74.6082 E0.18371 F6000 ; Print pattern wall
G1 E-0.5 F1800 ; Retract
G1 Z0.6 F12000 ; Z hop
G0 X34.2038 Y32.1818 F12000 ; Move to start next pattern wall
G1 Z0.5 F12000 ; Z hop return
G1 E0.5 F1800 ; Un-retract
G1 X55.417 Y53.395 E0.18371 F6000 ; Print pattern wall
G1 X34.2038 Y74.6082 E0.18371 F6000 ; Print pattern wall
G1 E-0.5 F1800 ; Retract
G1 Z0.6 F12000 ; Z hop
G0 X36.3725 Y32.1818 F12000 ; Move to next pattern
G1 Z0.5 F12000 ; Z hop return
G1 E0.5 F1800 ; Un-retract
SET_PRESSURE_ADVANCE ADVANCE=0.015 ; Set pressure advance
M117 PA 0.015
G1 X57.5857 Y53.395 E0.18371 F6000 ; Print pattern wall
G1 X36.3725 Y74.6082 E0.18371 F6000 ; Print pattern wall
G1 E-0.5 F1800 ; Retract
G1 Z0.6 F12000 ; Z hop
G0 X36.5808 Y32.1818 F12000 ; Move to start next pattern wall
G1 Z0.5 F12000 ; Z hop return
G1 E0.5 F1800 ; Un-retract
G1 X57.794 Y53.395 E0.18371 F6000 ; Print pattern wall
G1 X36.5808 Y74.6082 E0.18371 F6000 ; Print pattern wall
G1 E-0.5 F1800 ; Retract
G1 Z0.6 F12000 ; Z hop
G0 X36.7891 Y32.1818 F12000 ; Move to start next pattern wall
G1 Z0.5 F12000 ; Z hop return
G1 E0.5 F1800 ; Un-retract
G1 X58.0023 Y53.395 E0.18371 F6000 ; Print pattern wall
G1 X36.7891 Y74.6082 E0.18371 F6000 ; Print pattern wall
G1 E-0.5 F1800 ; Retract
G1 Z0.6 F12000 ; Z hop
G0 X38.9579 Y32.1818 F12000 ; Move to next pattern
G1 Z0.5 F12000 ; Z hop return
G1 E0.5 F1800 ; Un-retract
SET_PRESSURE_ADVANCE ADVANCE=0.02 ; Set pressure advance
M117 PA 0.02
G1 X60.1711 Y53.395 E0.18371 F6000 ; Print pattern wall
G1 X38.9579 Y74.6082 E0.18371 F6000 ; Print pattern wall
G1 E-0.5 F1800 ; Retract
G1 Z0.6 F12000 ; Z hop
G0 X39.1662 Y32.1818 F12000 ; Move to start next pattern wall
G1 Z0.5 F12000 ; Z hop return
G1 E0.5 F1800 ; Un-retract
G1 X60.3794 Y53.395 E0.18371 F6000 ; Print pattern wall
G1 X39.1662 Y74.6082 E0.18371 F6000 ; Print pattern wall
G1 E-0.5 F1800 ; Retract
G1 Z0.6 F12000 ; Z hop
G0 X39.3745 Y32.1818 F12000 ; Move to start next pattern wall
G1 Z0.5 F12000 ; Z hop return
G1 E0.5 F1800 ; Un-retract
G1 X60.5877 Y53.395 E0.18371 F6000 ; Print pattern wall
G1 X39.3745 Y74.6082 E0.18371 F6000 ; Print pattern wall
G1 E-0.5 F1800 ; Retract
G1 Z0.6 F12000 ; Z hop
G0 X41.5432 Y32.1818 F12000 ; Move to next pattern
G1 Z0.5 F12000 ; Z hop return
G1 E0.5 F1800 ; Un-retract
SET_PRESSURE_ADVANCE ADVANCE=0.025 ; Set pressure advance
M117 PA 0.025
G1 X62.7564 Y53.395 E0.18371 F6000 ; Print pattern wall
G1 X41.5432 Y74.6082 E0.18371 F6000 ; Print pattern wall
G1 E-0.5 F1800 ; Retract
G1 Z0.6 F12000 ; Z hop
G0 X41.7515 Y32.1818 F12000 ; Move to start next pattern wall
G1 Z0.5 F12000 ; Z hop return
G1 E0.5 F1800 ; Un-retract
G1 X62.9647 Y53.395 E0.18371 F6000 ; Print pattern wall
G1 X41.7515 Y74.6082 E0.18371 F6000 ; Print pattern wall
G1 E-0.5 F1800 ; Retract
G1 Z0.6 F12000 ; Z hop
G0 X41.9598 Y32.1818 F12000 ; Move to start next pattern wall
G1 Z0.5 F12000 ; Z hop return
G1 E0.5 F1800 ; Un-retract
G1 X63.173 Y53.395 E0.18371 F6000 ; Print pattern wall
G1 X41.9598 Y74.6082 E0.18371 F6000 ; Print pattern wall
G1 E-0.5 F1800 ; Retract
G1 Z0.6 F12000 ; Z hop
G0 X44.1286 Y32.1818 F12000 ; Move to next pattern
G1 Z0.5 F12000 ; Z hop return
G1 E0.5 F1800 ; Un-retract
SET_PRESSURE_ADVANCE ADVANCE=0.03 ; Set pressure advance
M117 PA 0.03
G1 X65.3418 Y53.395 E0.18371 F6000 ; Print pattern wall
G1 X44.1286 Y74.6082 E0.18371 F6000 ; Print pattern wall
G1 E-0.5 F1800 ; Retract
G1 Z0.6 F12000 ; Z hop
G0 X44.3369 Y32.1818 F12000 ; Move to start next pattern wall
G1 Z0.5 F12000 ; Z hop return
G1 E0.5 F1800 ; Un-retract
G1 X65.5501 Y53.395 E0.18371 F6000 ; Print pattern wall
G1 X44.3369 Y74.6082 E0.18371 F6000 ; Print pattern wall
G1 E-0.5 F1800 ; Retract
G1 Z0.6 F12000 ; Z hop
G0 X44.5452 Y32.1818 F12000 ; Move to start next pattern wall
G1 Z0.5 F12000 ; Z hop return
G1 E0.5 F1800 ; Un-retract
G1 X65.7584 Y53.395 E0.18371 F6000 ; Print pattern wall
G1 X44.5452 Y74.6082 E0.18371 F6000 ; Print pattern wall
G1 E-0.5 F1800 ; Retract
G1 Z0.6 F12000 ; Z hop
G0 X46.7139 Y32.1818 F12000 ; Move to next pattern
G1 Z0.5 F12000 ; Z hop return
G1 E0.5 F1800 ; Un-retract
SET_PRESSURE_ADVANCE ADVANCE=0.035 ; Set pressure advance
M117 PA 0.035
G1 X67.9271 Y53.395 E0.18371 F6000 ; Print pattern wall
G1 X46.7139 Y74.6082 E0.18371 F6000 ; Print pattern wall
G1 E-0.5 F1800 ; Retract
G1 Z0.6 F12000 ; Z hop
G0 X46.9222 Y32.1818 F12000 ; Move to start next pattern wall
G1 Z0.5 F12000 ; Z hop return
G1 E0.5 F1800 ; Un-retract
G1 X68.1354 Y53.395 E0.18371 F6000 ; Print pattern wall
G1 X46.9222 Y74.6082 E0.18371 F6000 ; Print pattern wall
G1 E-0.5 F1800 ; Retract
G1 Z0.6 F12000 ; Z hop
G0 X47.1305 Y32.1818 F12000 ; Move to start next pattern wall
G1 Z0.5 F12000 ; Z hop return
G1 E0.5 F1800 ; Un-retract
G1 X68.3437 Y53.395 E0.18371 F6000 ; Print pattern wall
G1 X47.1305 Y74.6082 E0.18371 F6000 ; Print pattern wall
G1 E-0.5 F1800 ; Retract
G1 Z0.6 F12000 ; Z hop
G0 X49.2993 Y32.1818 F12000 ; Move to next pattern
G1 Z0.5 F12000 ; Z hop return
G1 E0.5 F1800 ; Un-retract
SET_PRESSURE_ADVANCE ADVANCE=0.04 ; Set pressure advance
M117 PA 0.04
G1 X70.5125 Y53.395 E0.18371 F6000 ; Print pattern wall
G1 X49.2993 Y74.6082 E0.18371 F6000 ; Print pattern wall
G1 E-0.5 F1800 ; Retract
G1 Z0.6 F12000 ; Z hop
G0 X49.5076 Y32.1818 F12000 ; Move to start next pattern wall
G1 Z0.5 F12000 ; Z hop return
G1 E0.5 F1800 ; Un-retract
G1 X70.7208 Y53.395 E0.18371 F6000 ; Print pattern wall
G1 X49.5076 Y74.6082 E0.18371 F6000 ; Print pattern wall
G1 E-0.5 F1800 ; Retract
G1 Z0.6 F12000 ; Z hop
G0 X49.7159 Y32.1818 F12000 ; Move to start next pattern wall
G1 Z0.5 F12000 ; Z hop return
G1 E0.5 F1800 ; Un-retract
G1 X70.9291 Y53.395 E0.18371 F6000 ; Print pattern wall
G1 X49.7159 Y74.6082 E0.18371 F6000 ; Print pattern wall
G1 E-0.5 F1800 ; Retract
G1 Z0.6 F12000 ; Z hop
G0 X51.8846 Y32.1818 F12000 ; Move to next pattern
G1 Z0.5 F12000 ; Z hop return
G1 E0.5 F1800 ; Un-retract
SET_PRESSURE_ADVANCE ADVANCE=0.045 ; Set pressure advance
M117 PA 0.045
G1 X73.0978 Y53.395 E0.18371 F6000 ; Print pattern wall
G1 X51.8846 Y74.6082 E0.18371 F6000 ; Print pattern wall
G1 E-0.5 F1800 ; Retract
G1 Z0.6 F12000 ; Z hop
G0 X52.0929 Y32.1818 F12000 ; Move to start next pattern wall
G1 Z0.5 F12000 ; Z hop return
G1 E0.5 F1800 ; Un-retract
G1 X73.3061 Y53.395 E0.18371 F6000 ; Print pattern wall
G1 X52.0929 Y74.6082 E0.18371 F6000 ; Print pattern wall
G1 E-0.5 F1800 ; Retract
G1 Z0.6 F12000 ; Z hop
G0 X52.3012 Y32.1818 F12000 ; Move to start next pattern wall
G1 Z0.5 F12000 ; Z hop return
G1 E0.5 F1800 ; Un-retract
G1 X73.5144 Y53.395 E0.18371 F6000 ; Print pattern wall
G1 X52.3012 Y74.6082 E0.18371 F6000 ; Print pattern wall
G1 E-0.5 F1800 ; Retract
G1 Z0.6 F12000 ; Z hop
G0 X54.47 Y32.1818 F12000 ; Move to next pattern
G1 Z0.5 F12000 ; Z hop return
G1 E0.5 F1800 ; Un-retract
SET_PRESSURE_ADVANCE ADVANCE=0.05 ; Set pressure advance
M117 PA 0.05
G1 X75.6832 Y53.395 E0.18371 F6000 ; Print pattern wall
G1 X54.47 Y74.6082 E0.18371 F6000 ; Print pattern wall
G1 E-0.5 F1800 ; Retract
G1 Z0.6 F12000 ; Z hop
G0 X54.6783 Y32.1818 F12000 ; Move to start next pattern wall
G1 Z0.5 F12000 ; Z hop return
G1 E0.5 F1800 ; Un-retract
G1 X75.8915 Y53.395 E0.18371 F6000 ; Print pattern wall
G1 X54.6783 Y74.6082 E0.18371 F6000 ; Print pattern wall
G1 E-0.5 F1800 ; Retract
G1 Z0.6 F12000 ; Z hop
G0 X54.8866 Y32.1818 F12000 ; Move to start next pattern wall
G1 Z0.5 F12000 ; Z hop return
G1 E0.5 F1800 ; Un-retract
G1 X76.0998 Y53.395 E0.18371 F6000 ; Print pattern wall
G1 X54.8866 Y74.6082 E0.18371 F6000 ; Print pattern wall
G1 E-0.5 F1800 ; Retract
G1 Z0.6 F12000 ; Z hop
G0 X57.0553 Y32.1818 F12000 ; Move to next pattern
G1 Z0.5 F12000 ; Z hop return
G1 E0.5 F1800 ; Un-retract
SET_PRESSURE_ADVANCE ADVANCE=0.055 ; Set pressure advance
M117 PA 0.055
G1 X78.2685 Y53.395 E0.18371 F6000 ; Print pattern wall
G1 X57.0553 Y74.6082 E0.18371 F6000 ; Print pattern wall
G1 E-0.5 F1800 ; Retract
G1 Z0.6 F12000 ; Z hop
G0 X57.2636 Y32.1818 F12000 ; Move to start next pattern wall
G1 Z0.5 F12000 ; Z hop return
G1 E0.5 F1800 ; Un-retract
G1 X78.4768 Y53.395 E0.18371 F6000 ; Print pattern wall
G1 X57.2636 Y74.6082 E0.18371 F6000 ; Print pattern wall
G1 E-0.5 F1800 ; Retract
G1 Z0.6 F12000 ; Z hop
G0 X57.4719 Y32.1818 F12000 ; Move to start next pattern wall
G1 Z0.5 F12000 ; Z hop return
G1 E0.5 F1800 ; Un-retract
G1 X78.6851 Y53.395 E0.18371 F6000 ; Print pattern wall
G1 X57.4719 Y74.6082 E0.18371 F6000 ; Print pattern wall
G1 E-0.5 F1800 ; Retract
G1 Z0.6 F12000 ; Z hop
G0 X59.6407 Y32.1818 F12000 ; Move to next pattern
G1 Z0.5 F12000 ; Z hop return
G1 E0.5 F1800 ; Un-retract
SET_PRESSURE_ADVANCE ADVANCE=0.06 ; Set pressure advance
M117 PA 0.06
G1 X80.8539 Y53.395 E0.18371 F6000 ; Print pattern wall
G1 X59.6407 Y74.6082 E0.18371 F6000 ; Print pattern wall
G1 E-0.5 F1800 ; Retract
G1 Z0.6 F12000 ; Z hop
G0 X59.849 Y32.1818 F12000 ; Move to start next pattern wall
G1 Z0.5 F12000 ; Z hop return
G1 E0.5 F1800 ; Un-retract
G1 X81.0622 Y53.395 E0.18371 F6000 ; Print pattern wall
G1 X59.849 Y74.6082 E0.18371 F6000 ; Print pattern wall
G1 E-0.5 F1800 ; Retract
G1 Z0.6 F12000 ; Z hop
G0 X60.0573 Y32.1818 F12000 ; Move to start next pattern wall
G1 Z0.5 F12000 ; Z hop return
G1 E0.5 F1800 ; Un-retract
G1 X81.2705 Y53.395 E0.18371 F6000 ; Print pattern wall
G1 X60.0573 Y74.6082 E0.18371 F6000 ; Print pattern wall
G1 E-0.5 F1800 ; Retract
G1 Z0.6 F12000 ; Z hop
G0 X62.226 Y32.1818 F12000 ; Move to next pattern
G1 Z0.5 F12000 ; Z hop return
G1 E0.5 F1800 ; Un-retract
SET_PRESSURE_ADVANCE ADVANCE=0.065 ; Set pressure advance
M117 PA 0.065
G1 X83.4392 Y53.395 E0.18371 F6000 ; Print pattern wall
G1 X62.226 Y74.6082 E0.18371 F6000 ; Print pattern wall
G1 E-0.5 F1800 ; Retract
G1 Z0.6 F12000 ; Z hop
G0 X62.4343 Y32.1818 F12000 ; Move to start next pattern wall
G1 Z0.5 F12000 ; Z hop return
G1 E0.5 F1800 ; Un-retract
G1 X83.6475 Y53.395 E0.18371 F6000 ; Print pattern wall
G1 X62.4343 Y74.6082 E0.18371 F6000 ; Print pattern wall
G1 E-0.5 F1800 ; Retract
G1 Z0.6 F12000 ; Z hop
G0 X62.6426 Y32.1818 F12000 ; Move to start next pattern wall
G1 Z0.5 F12000 ; Z hop return
G1 E0.5 F1800 ; Un-retract
G1 X83.8558 Y53.395 E0.18371 F6000 ; Print pattern wall
G1 X62.6426 Y74.6082 E0.18371 F6000 ; Print pattern wall
G1 E-0.5 F1800 ; Retract
G1 Z0.6 F12000 ; Z hop
G0 X64.8114 Y32.1818 F12000 ; Move to next pattern
G1 Z0.5 F12000 ; Z hop return
G1 E0.5 F1800 ; Un-retract
SET_PRESSURE_ADVANCE ADVANCE=0.07 ; Set pressure advance
M117 PA 0.07
G1 X86.0246 Y53.395 E0.18371 F6000 ; Print pattern wall
G1 X64.8114 Y74.6082 E0.18371 F6000 ; Print pattern wall
G1 E-0.5 F1800 ; Retract
G1 Z0.6 F12000 ; Z hop
G0 X65.0197 Y32.1818 F12000 ; Move to start next pattern wall
G1 Z0.5 F12000 ; Z hop return
G1 E0.5 F1800 ; Un-retract
G1 X86.2329 Y53.395 E0.18371 F6000 ; Print pattern wall
G1 X65.0197 Y74.6082 E0.18371 F6000 ; Print pattern wall
G1 E-0.5 F1800 ; Retract
G1 Z0.6 F12000 ; Z hop
G0 X65.228 Y32.1818 F12000 ; Move to start next pattern wall
G1 Z0.5 F12000 ; Z hop return
G1 E0.5 F1800 ; Un-retract
G1 X86.4412 Y53.395 E0.18371 F6000 ; Print pattern wall
G1 X65.228 Y74.6082 E0.18371 F6000 ; Print pattern wall
G1 E-0.5 F1800 ; Retract
G1 Z0.6 F12000 ; Z hop
G0 X67.3967 Y32.1818 F12000 ; Move to next pattern
G1 Z0.5 F12000 ; Z hop return
G1 E0.5 F1800 ; Un-retract
SET_PRESSURE_ADVANCE ADVANCE=0.075 ; Set pressure advance
M117 PA 0.075
G1 X88.6099 Y53.395 E0.18371 F6000 ; Print pattern wall
G1 X67.3967 Y74.6082 E0.18371 F6000 ; Print pattern wall
G1 E-0.5 F1800 ; Retract
G1 Z0.6 F12000 ; Z hop
G0 X67.605 Y32.1818 F12000 ; Move to start next pattern wall
G1 Z0.5 F12000 ; Z hop return
G1 E0.5 F1800 ; Un-retract
G1 X88.8182 Y53.395 E0.18371 F6000 ; Print pattern wall
G1 X67.605 Y74.6082 E0.18371 F6000 ; Print pattern wall
G1 E-0.5 F1800 ; Retract
G1 Z0.6 F12000 ; Z hop
G0 X67.8133 Y32.1818 F12000 ; Move to start next pattern wall
G1 Z0.5 F12000 ; Z hop return
G1 E0.5 F1800 ; Un-retract
G1 X89.0265 Y53.395 E0.18371 F6000 ; Print pattern wall
G1 X67.8133 Y74.6082 E0.18371 F6000 ; Print pattern wall
G1 E-0.5 F1800 ; Retract
G1 Z0.6 F12000 ; Z hop
G0 X69.9821 Y32.1818 F12000 ; Move to next pattern
G1 Z0.5 F12000 ; Z hop return
G1 E0.5 F1800 ; Un-retract
SET_PRESSURE_ADVANCE ADVANCE=0.08 ; Set pressure advance
M117 PA 0.08
G1 X91.1953 Y53.395 E0.18371 F6000 ; Print pattern wall
G1 X69.9821 Y74.6082 E0.18371 F6000 ; Print pattern wall
G1 E-0.5 F1800 ; Retract
G1 Z0.6 F12000 ; Z hop
G0 X70.1904 Y32.1818 F12000 ; Move to start next pattern wall
G1 Z0.5 F12000 ; Z hop return
G1 E0.5 F1800 ; Un-retract
G1 X91.4036 Y53.395 E0.18371 F6000 ; Print pattern wall
G1 X70.1904 Y74.6082 E0.18371 F6000 ; Print pattern wall
G1 E-0.5 F1800 ; Retract
G1 Z0.6 F12000 ; Z hop
G0 X70.3987 Y32.1818 F12000 ; Move to start next pattern wall
G1 Z0.5 F12000 ; Z hop return
G1 E0.5 F1800 ; Un-retract
G1 X91.6119 Y53.395 E0.18371 F6000 ; Print pattern wall
G1 X70.3987 Y74.6082 E0.18371 F6000 ; Print pattern wall
SET_PRESSURE_ADVANCE ADVANCE=0 ; Set pressure advance back to start value
M117 PA 0
G1 E-0.5 F1800 ; Retract
G1 Z0.6 F12000 ; Z hop
G0 Z5.5 F12000 ; Z raise
M104 S0 ; Turn off hotend
M140 S0 ; Turn off bed
M107    ; Turn off fan
;
; End G-code
;
END_PRINT
;
; FINISH
;
