; generated by SuperSlicer 2.5.59 on 2023-04-02 at 02:42:04 UTC


;
;

;
;
; 

; external perimeters extrusion width = 0.40mm
; perimeters extrusion width = 0.46mm
; infill extrusion width = 0.64mm
; solid infill extrusion width = 0.56mm
; top infill extrusion width = 0.40mm
; first layer extrusion width = 0.50mm

; object:{"name":"Voron_Design_Cube_v7","id":"Voron_Design_Cube_v7.stl id:0 copy 0","object_center":[60.000000,60.000000,0.000000],"boundingbox_center":[60.000000,60.000000,15.000000],"boundingbox_size":[30.000000,30.000000,30.000000]}
EXCLUDE_OBJECT_DEFINE NAME=Voron_Design_Cube_v7_stl_id_0_copy_0 CENTER=60.000000,60.000000 POLYGON=[[45.000000,45.000000],[75.000000,45.000000],[75.000000,75.000000],[45.000000,75.000000],[45.000000,45.000000]]
; plater:{"center":[60.000000,60.000000,0.000000],"boundingbox_center":[60.000000,60.000000,15.000000],"boundingbox_size":[30.000000,30.000000,30.000000]}

M73 P0 R51
;TYPE:Custom
; custom gcode: start_gcode
START_PRINT T_BED=110 T_EXTRUDER=240
; custom gcode end: start_gcode
M107
G21 ; set units to millimeters
G90 ; use absolute coordinates
M82 ; use absolute distances for extrusion
G92 E0
; custom gcode: start_filament_gcode
; Filament gcode

    PRESSURE_ADVANCE_SELECT FILAMENT=ABS
; custom gcode end: start_filament_gcode
;_TOOLCHANGE 0
M104 S240 ; set temperature
M109 S240 ; set temperature and wait for it to be reached
M190 S110 ; set bed temperature and wait for it to be reached
;LAYER_CHANGE
;Z:0.2
;HEIGHT:0.2
G1 Z0.2 F12000
G1 E-0.5 F3000
M204 S2000
G1 X45.448 Y45.448 F12000
G1 E0 F1800
;TYPE:Skirt
;WIDTH:0.52
G1 X42.573 Y48.324 E0.15487
G1 X41.879 Y49.285 E0.2
G1 X41.484 Y50.951 E0.26522
G1 X41.484 Y69.049 E0.95443
G1 X41.673 Y70.219 E0.99956
G1 X42.573 Y71.676 E1.06478
G1 X48.324 Y77.427 E1.37451
G1 X49.285 Y78.121 E1.41965
G1 X50.951 Y78.516 E1.48486
G1 X69.049 Y78.516 E2.17408
G1 X70.219 Y78.327 E2.21921
G1 X71.676 Y77.427 E2.28442
G1 X77.427 Y71.676 E2.59416
G1 X78.121 Y70.715 E2.63929
G1 X78.516 Y69.049 E2.70451
G1 X78.516 Y50.951 E3.39372
G1 X78.327 Y49.781 E3.43886
G1 X77.427 Y48.324 E3.50407
G1 X71.676 Y42.573 E3.8138
G1 X70.715 Y41.879 E3.85894
G1 X69.049 Y41.484 E3.92415
G1 X50.951 Y41.484 E4.61337
G1 X49.781 Y41.673 E4.6585
G1 X48.324 Y42.573 E4.72372
G1 X45.448 Y45.448 E4.87858
G1 X45.786 Y45.786 F12000
G1 F1800
G1 X42.91 Y48.661 E5.03345
G1 X42.355 Y49.403 E5.06874
G1 X41.961 Y50.951 E5.12956
G1 X41.961 Y69.049 E5.81877
G1 X42.094 Y69.966 E5.85406
G1 X42.91 Y71.339 E5.91488
G1 X48.661 Y77.09 E6.22462
G1 X49.403 Y77.645 E6.2599
G1 X50.951 Y78.039 E6.32073
G1 X69.049 Y78.039 E7.00994
G1 X69.966 Y77.906 E7.04523
G1 X71.339 Y77.09 E7.10605
G1 X77.09 Y71.339 E7.41578
G1 X77.645 Y70.597 E7.45107
G1 X78.039 Y69.049 E7.51189
G1 X78.039 Y50.951 E8.2011
G1 X77.906 Y50.034 E8.23639
G1 X77.09 Y48.661 E8.29721
G1 X71.339 Y42.91 E8.60695
G1 X70.597 Y42.355 E8.64223
G1 X69.049 Y41.961 E8.70306
G1 X50.951 Y41.961 E9.39227
G1 X50.034 Y42.094 E9.42756
G1 X48.661 Y42.91 E9.48838
G1 X45.786 Y45.786 E9.64325
G92 E0
G1 E-0.5 F3000
; printing object Voron_Design_Cube_v7.stl id:0 copy 0
EXCLUDE_OBJECT_START NAME=Voron_Design_Cube_v7_stl_id_0_copy_0
G1 X52.641 Y65.206 F12000
G1 E0 F1800
;TYPE:Internal perimeter
;WIDTH:0.5
G1 X52.665 Y65.242 E0.0016
G1 X53.245 Y65.972 E0.03561
G1 X53.898 Y66.637 E0.06961
G1 X54.616 Y67.232 E0.10362
G1 X55.391 Y67.749 E0.13762
G1 X56.21 Y68.18 E0.17139
G1 X56.864 Y68.45 E0.1972
G1 X57.532 Y68.671 E0.22288
G1 X58.434 Y68.879 E0.25665
G1 X59.359 Y68.993 E0.29065
G1 X60.291 Y69.011 E0.32466
G1 X61.22 Y68.933 E0.35866
G1 X62.135 Y68.759 E0.39267
G1 X63.021 Y68.494 E0.42641
G1 X63.678 Y68.229 E0.45225
G1 X64.31 Y67.918 E0.47795
G1 X65.099 Y67.435 E0.51169
G1 X65.839 Y66.869 E0.5457
G1 X66.517 Y66.23 E0.5797
G1 X67.125 Y65.523 E0.61371
G1 X67.657 Y64.758 E0.64771
G1 X68.108 Y63.942 E0.68172
G1 X68.471 Y63.084 E0.71572
G1 X68.744 Y62.193 E0.74972
G1 X68.924 Y61.279 E0.78373
G1 X69.008 Y60.359 E0.81743
G1 X69.008 Y59.641 E0.8436
G1 X68.924 Y58.721 E0.87731
G1 X68.744 Y57.807 E0.91131
G1 X68.474 Y56.923 E0.94503
G1 X68.207 Y56.271 E0.97076
G1 X67.889 Y55.637 E0.99661
G1 X67.401 Y54.852 E1.03033
G1 X66.83 Y54.116 E1.06434
G1 X66.186 Y53.442 E1.09835
G1 X65.476 Y52.838 E1.13235
G1 X64.708 Y52.311 E1.16635
G1 X63.895 Y51.87 E1.2001
G1 X63.248 Y51.592 E1.2258
G1 X62.578 Y51.361 E1.25163
G1 X61.68 Y51.142 E1.28538
G1 X60.756 Y51.016 E1.31938
G1 X59.825 Y50.986 E1.35339
G1 X59.569 Y51.004 E1.36275
G1 X58.895 Y51.052 E1.38739
G1 X57.977 Y51.214 E1.4214
G1 X57.081 Y51.47 E1.4554
G1 X56.216 Y51.817 E1.48941
G1 X55.391 Y52.251 E1.52342
G1 X54.616 Y52.768 E1.55742
G1 X53.903 Y53.359 E1.5912
G1 X53.406 Y53.856 E1.61686
G1 X52.942 Y54.39 E1.64266
G1 X52.404 Y55.144 E1.67644
G1 X51.943 Y55.954 E1.71045
G1 X51.568 Y56.807 E1.74446
G1 X51.284 Y57.695 E1.77846
G1 X51.092 Y58.607 E1.81247
G1 X50.996 Y59.534 E1.84648
G1 X50.996 Y60.466 E1.88048
G1 X51.092 Y61.393 E1.91449
G1 X51.284 Y62.305 E1.94849
M73 P0 R51
G1 X51.567 Y63.187 E1.98229
G1 X51.845 Y63.837 E2.00808
G1 X52.166 Y64.462 E2.03373
G1 X52.641 Y65.206 E2.06592
G1 X53.026 Y64.958 F12000
G1 F1800
G1 X53.037 Y64.976 E2.06672
G1 X53.588 Y65.669 E2.09899
G1 X54.208 Y66.3 E2.13127
G1 X54.889 Y66.864 E2.16355
G1 X55.625 Y67.355 E2.19583
G1 X56.404 Y67.766 E2.22796
G1 X57.023 Y68.021 E2.25239
G1 X57.655 Y68.23 E2.27669
G1 X58.514 Y68.428 E2.30882
G1 X59.392 Y68.536 E2.34109
G1 X60.276 Y68.554 E2.37337
G1 X61.158 Y68.479 E2.40565
G1 X62.027 Y68.314 E2.43793
G1 X62.87 Y68.062 E2.47005
G1 X63.492 Y67.812 E2.49449
G1 X64.089 Y67.517 E2.5188
G1 X64.84 Y67.058 E2.55091
G1 X65.543 Y66.52 E2.58319
G1 X66.186 Y65.913 E2.61547
G1 X66.764 Y65.243 E2.64775
G1 X67.269 Y64.517 E2.68003
G1 X67.696 Y63.742 E2.71231
G1 X68.041 Y62.928 E2.74458
G1 X68.301 Y62.082 E2.77686
G1 X68.471 Y61.214 E2.80914
G1 X68.551 Y60.338 E2.84123
G1 X68.551 Y59.662 E2.86589
G1 X68.471 Y58.786 E2.89797
G1 X68.301 Y57.918 E2.93025
G1 X68.043 Y57.077 E2.96234
G1 X67.79 Y56.46 E2.98667
G1 X67.49 Y55.861 E3.01113
G1 X67.026 Y55.114 E3.04323
G1 X66.484 Y54.414 E3.07551
G1 X65.872 Y53.775 E3.10779
G1 X65.198 Y53.202 E3.14006
G1 X64.469 Y52.701 E3.17234
G1 X63.695 Y52.281 E3.20445
G1 X63.083 Y52.018 E3.22877
G1 X62.45 Y51.8 E3.25321
G1 X61.594 Y51.592 E3.28532
G1 X60.718 Y51.472 E3.3176
G1 X59.834 Y51.444 E3.34988
G1 X59.601 Y51.46 E3.35838
G1 X58.951 Y51.506 E3.38216
G1 X58.08 Y51.66 E3.41444
G1 X57.229 Y51.903 E3.44672
G1 X56.408 Y52.232 E3.479
G1 X55.625 Y52.645 E3.51128
G1 X54.889 Y53.136 E3.54356
G1 X54.211 Y53.697 E3.5757
G1 X53.74 Y54.168 E3.59998
G1 X53.302 Y54.674 E3.6244
G1 X52.789 Y55.39 E3.65654
G1 X52.352 Y56.159 E3.68882
G1 X51.996 Y56.969 E3.7211
G1 X51.726 Y57.812 E3.75338
G1 X51.545 Y58.678 E3.78566
G1 X51.453 Y59.558 E3.81794
G1 X51.453 Y60.442 E3.85022
G1 X51.545 Y61.322 E3.8825
G1 X51.726 Y62.188 E3.91478
G1 X51.995 Y63.027 E3.94692
G1 X52.259 Y63.642 E3.97134
G1 X52.563 Y64.234 E3.99562
G1 X53.026 Y64.958 E4.02696
G1 X53.41 Y64.71 F12000
;TYPE:External perimeter
G1 F1800
G1 X53.931 Y65.365 E4.05751
G1 X54.518 Y65.963 E4.08807
G1 X55.163 Y66.497 E4.11862
G1 X55.859 Y66.962 E4.14917
G1 X56.598 Y67.351 E4.17966
G1 X57.182 Y67.593 E4.20271
G1 X57.779 Y67.79 E4.22563
G1 X58.593 Y67.977 E4.25611
G1 X59.424 Y68.08 E4.28667
G1 X60.261 Y68.096 E4.31722
G1 X61.096 Y68.026 E4.34777
G1 X61.918 Y67.87 E4.37833
G1 X62.719 Y67.63 E4.40881
G1 X63.305 Y67.394 E4.43186
G1 X63.869 Y67.117 E4.45478
G1 X64.581 Y66.68 E4.48526
G1 X65.246 Y66.172 E4.51582
G1 X65.855 Y65.597 E4.54637
G1 X66.402 Y64.963 E4.57692
G1 X66.88 Y64.275 E4.60747
G1 X67.284 Y63.542 E4.63802
G1 X67.611 Y62.771 E4.66858
G1 X67.857 Y61.971 E4.69913
G1 X68.018 Y61.149 E4.72968
G1 X68.094 Y60.317 E4.76015
G1 X68.094 Y59.683 E4.7833
G1 X68.018 Y58.851 E4.81376
G1 X67.857 Y58.029 E4.84432
G1 X67.612 Y57.231 E4.87479
G1 X67.374 Y56.649 E4.89772
G1 X67.091 Y56.084 E4.92078
G1 X66.65 Y55.375 E4.95125
G1 X66.137 Y54.713 E4.98181
G1 X65.558 Y54.108 E5.01236
G1 X64.92 Y53.565 E5.04291
G1 X64.23 Y53.092 E5.07346
G1 X63.496 Y52.693 E5.10394
G1 X62.918 Y52.445 E5.12687
G1 X62.321 Y52.239 E5.14992
G1 X61.509 Y52.042 E5.1804
G1 X60.679 Y51.928 E5.21095
G1 X59.842 Y51.901 E5.24151
G1 X59.634 Y51.916 E5.24915
G1 X59.007 Y51.961 E5.27206
G1 X58.183 Y52.106 E5.30261
G1 X57.377 Y52.336 E5.33317
G1 X56.6 Y52.648 E5.36372
G1 X55.859 Y53.038 E5.39427
G1 X55.163 Y53.503 E5.42483
G1 X54.519 Y54.036 E5.45532
G1 X54.075 Y54.48 E5.47822
G1 X53.661 Y54.957 E5.50127
G1 X53.175 Y55.637 E5.53177
G1 X52.761 Y56.365 E5.56232
G1 X52.424 Y57.131 E5.59287
G1 X52.169 Y57.929 E5.62343
G1 X51.997 Y58.748 E5.65398
G1 X51.91 Y59.581 E5.68453
G1 X51.91 Y60.419 E5.71509
G1 X51.997 Y61.252 E5.74564
G1 X52.169 Y62.071 E5.77619
G1 X52.424 Y62.867 E5.80669
G1 X52.673 Y63.448 E5.82973
G1 X52.96 Y64.006 E5.85264
G1 X53.41 Y64.71 E5.88313
;WIPE_START
M204 S4000
G1 X53.251 Y65.077 F12000
;WIPE_END
G92 E0
G1 E-0.5 F3000
M204 S2000
G1 X46.364 Y68.567 F12000
G1 E0 F1800
;TYPE:Internal perimeter
G1 X46.364 Y51.433 E0.62513
G1 X51.433 Y46.364 E0.88669
G1 X68.567 Y46.364 E1.51183
G1 X73.636 Y51.433 E1.77339
G1 X73.636 Y68.567 E2.39852
G1 X68.567 Y73.636 E2.66008
G1 X51.433 Y73.636 E3.28522
G1 X46.364 Y68.567 E3.54678
G1 X45.907 Y68.756 F12000
G1 F1800
G1 X45.907 Y51.244 E4.18573
G1 X51.244 Y45.907 E4.4611
G1 X68.756 Y45.907 E5.10005
G1 X68.861 Y46.012 E5.10549
G1 X74.093 Y51.244 E5.37543
G1 X74.093 Y68.756 E6.01438
G1 X68.756 Y74.093 E6.28975
G1 X51.244 Y74.093 E6.9287
G1 X45.907 Y68.756 E7.20408
G1 X45.45 Y68.945 F12000
;TYPE:External perimeter
G1 F1800
G1 X45.45 Y51.055 E7.85684
G1 X51.055 Y45.45 E8.14604
G1 X68.945 Y45.45 E8.7988
G1 X69.185 Y45.689 E8.81115
G1 X74.55 Y51.055 E9.08799
G1 X74.55 Y68.945 E9.74076
G1 X68.945 Y74.55 E10.02995
G1 X51.055 Y74.55 E10.68272
G1 X45.45 Y68.945 E10.97191
;WIPE_START
M204 S4000
G1 X45.733 Y68.663 F12000
;WIPE_END
G92 E0
G1 E-0.5 F3000
M204 S2000
G1 X68.219 Y46.501 F12000
G1 E0 F1800
;TYPE:Solid infill
;WIDTH:0.503773
G1 F2400
G1 X73.499 Y51.781 E0.27449
G1 X73.499 Y52.427 F12000
G1 F2400
G1 X67.573 Y46.501 E0.58258
G1 X66.926 Y46.501 F12000
G1 F2400
G1 X73.499 Y53.074 E0.92428
G1 X73.499 Y53.72 F12000
G1 F2400
G1 X66.28 Y46.501 E1.29958
G1 X65.633 Y46.501 F12000
G1 F2400
G1 X73.499 Y54.367 E1.70849
G1 X73.499 Y55.013 F12000
G1 F2400
G1 X64.987 Y46.501 E2.151
G1 X64.341 Y46.501 F12000
G1 F2400
G1 X73.499 Y55.659 E2.62712
G1 X73.499 Y56.306 F12000
G1 F2400
G1 X63.694 Y46.501 E3.13685
G1 X63.048 Y46.501 F12000
G1 F2400
G1 X73.499 Y56.952 E3.68018
M73 P1 R51
G1 X73.499 Y57.599 F12000
G1 F2400
G1 X62.401 Y46.501 E4.25712
G1 X61.755 Y46.501 F12000
G1 F2400
G1 X73.499 Y58.245 E4.86766
G1 X73.499 Y58.891 F12000
G1 F2400
G1 X61.109 Y46.501 E5.51181
G1 X60.462 Y46.501 F12000
G1 F2400
G1 X73.499 Y59.538 E6.18956
G1 X73.499 Y60.184 F12000
G1 F2400
G1 X59.816 Y46.501 E6.90092
G1 X59.169 Y46.501 F12000
G1 F2400
G1 X65.128 Y52.46 E7.21072
G1 X63.667 Y51.645 F12000
G1 F2400
G1 X58.523 Y46.501 E7.47815
G1 X57.876 Y46.501 F12000
G1 F2400
G1 X62.654 Y51.279 E7.72653
G1 X61.748 Y51.019 F12000
G1 F2400
G1 X57.23 Y46.501 E7.96141
G1 X56.584 Y46.501 F12000
G1 F2400
G1 X60.992 Y50.91 E8.19061
G1 X60.311 Y50.875 F12000
G1 F2400
G1 X55.937 Y46.501 E8.41797
G1 X55.291 Y46.501 F12000
G1 F2400
G1 X59.658 Y50.868 E8.64499
G1 X59.074 Y50.931 F12000
G1 F2400
G1 X54.644 Y46.501 E8.8753
G1 X53.998 Y46.501 F12000
G1 F2400
G1 X58.503 Y51.006 E9.10952
G1 X57.934 Y51.084 F12000
G1 F2400
G1 X53.352 Y46.501 E9.34776
G1 X52.705 Y46.501 F12000
G1 F2400
G1 X57.453 Y51.249 E9.59457
G1 X56.971 Y51.414 F12000
G1 F2400
G1 X52.059 Y46.501 E9.84995
G1 X51.451 Y46.54 F12000
G1 F2400
G1 X56.489 Y51.578 E10.11188
G1 X56.032 Y51.767 F12000
G1 F2400
G1 X51.128 Y46.863 E10.36681
G1 X50.805 Y47.187 F12000
G1 F2400
G1 X55.626 Y52.008 E10.61747
G1 X55.221 Y52.249 F12000
G1 F2400
G1 X50.482 Y47.51 E10.86386
G1 X50.158 Y47.833 F12000
G1 F2400
G1 X54.816 Y52.49 E11.10598
G1 X54.43 Y52.751 F12000
G1 F2400
G1 X49.835 Y48.156 E11.34486
G1 X49.512 Y48.479 F12000
G1 F2400
G1 X54.09 Y53.057 E11.58285
G1 X53.749 Y53.363 F12000
G1 F2400
G1 X49.189 Y48.803 E11.81994
G1 X48.866 Y49.126 F12000
G1 F2400
G1 X53.409 Y53.669 E12.05613
G1 X53.108 Y54.015 F12000
G1 F2400
G1 X48.542 Y49.449 E12.29351
G1 X48.219 Y49.772 F12000
G1 F2400
G1 X52.826 Y54.378 E12.53299
G1 X52.543 Y54.742 F12000
G1 F2400
G1 X47.896 Y50.095 E12.77456
G1 X47.573 Y50.419 F12000
G1 F2400
G1 X52.266 Y55.112 E13.01857
G1 X52.05 Y55.542 F12000
G1 F2400
G1 X47.25 Y50.742 E13.26815
G1 X46.926 Y51.065 F12000
G1 F2400
G1 X51.834 Y55.973 E13.52329
G1 X51.618 Y56.403 F12000
G1 F2400
G1 X46.603 Y51.388 E13.78401
G1 X46.501 Y51.933 F12000
G1 F2400
G1 X51.416 Y56.847 E14.03952
G1 X51.281 Y57.359 F12000
G1 F2400
G1 X46.501 Y52.579 E14.28799
G1 X46.501 Y53.225 F12000
G1 F2400
G1 X51.146 Y57.87 E14.52945
G1 X51.01 Y58.381 F12000
G1 F2400
G1 X46.501 Y53.872 E14.76387
G1 X46.501 Y54.518 F12000
G1 F2400
G1 X50.937 Y58.954 E14.99448
G1 X50.905 Y59.569 F12000
G1 F2400
G1 X46.501 Y55.165 E15.22344
G1 X46.501 Y55.811 F12000
G1 F2400
G1 X50.874 Y60.183 E15.45075
G1 X50.922 Y60.878 F12000
G1 F2400
G1 X46.501 Y56.457 E15.68057
G1 X46.501 Y57.104 F12000
G1 F2400
G1 X51.042 Y61.644 E15.91663
G1 X51.185 Y62.434 F12000
G1 F2400
G1 X46.501 Y57.75 E16.16013
G1 X46.501 Y58.397 F12000
G1 F2400
G1 X51.559 Y63.454 E16.42305
G1 X52.234 Y64.776 F12000
G1 F2400
G1 X46.501 Y59.043 E16.72109
G92 E0
G1 E-0.5 F3000
G1 X67.61 Y54.942 F12000
G1 E0 F1800
G1 F2400
G1 X73.499 Y60.831 E0.30616
G1 X73.499 Y61.477 F12000
G1 F2400
G1 X68.384 Y56.362 E0.57207
G1 X68.732 Y57.357 F12000
G1 F2400
G1 X73.499 Y62.124 E0.81987
G1 X73.499 Y62.77 F12000
G1 F2400
G1 X68.941 Y58.212 E1.05681
G1 X69.049 Y58.967 F12000
G1 F2400
G1 X73.499 Y63.416 E1.28813
G1 X73.499 Y64.063 F12000
G1 F2400
G1 X69.142 Y59.706 E1.51464
G1 X69.11 Y60.321 F12000
G1 F2400
G1 X73.499 Y64.709 E1.74279
G1 X73.499 Y65.356 F12000
G1 F2400
G1 X69.079 Y60.936 E1.97257
G1 X69.007 Y61.511 F12000
G1 F2400
G1 X73.499 Y66.002 E2.20607
G1 X73.499 Y66.648 F12000
G1 F2400
G1 X68.878 Y62.027 E2.44631
G1 X68.748 Y62.544 F12000
G1 F2400
G1 X73.499 Y67.295 E2.69329
G1 X73.499 Y67.941 F12000
G1 F2400
G1 X68.619 Y63.061 E2.947
G1 X68.418 Y63.507 F12000
G1 F2400
G1 X73.46 Y68.549 E3.20911
G1 X73.137 Y68.872 F12000
G1 F2400
G1 X68.207 Y63.942 E3.46542
G1 X67.995 Y64.377 F12000
G1 F2400
G1 X72.813 Y69.195 E3.71591
M73 P1 R51
G1 X72.49 Y69.518 F12000
G1 F2400
G1 X67.784 Y64.812 E3.96059
G1 X67.505 Y65.179 F12000
G1 F2400
G1 X72.167 Y69.842 E4.20298
G1 X71.844 Y70.165 F12000
G1 F2400
G1 X67.222 Y65.543 E4.44324
G1 X66.94 Y65.907 F12000
G1 F2400
G1 X71.521 Y70.488 E4.68138
G1 X71.197 Y70.811 F12000
G1 F2400
G1 X66.658 Y66.272 E4.91739
G1 X66.318 Y66.578 F12000
G1 F2400
G1 X70.874 Y71.134 E5.15424
G1 X70.551 Y71.458 F12000
G1 F2400
G1 X65.969 Y66.875 E5.39246
G1 X65.62 Y67.172 F12000
G1 F2400
G1 X70.228 Y71.781 E5.63204
G1 X69.905 Y72.104 F12000
G1 F2400
G1 X65.27 Y67.469 E5.87299
G1 X64.873 Y67.719 F12000
G1 F2400
G1 X69.581 Y72.427 E6.11778
G1 X69.258 Y72.75 F12000
G1 F2400
G1 X64.458 Y67.95 E6.36733
G1 X64.044 Y68.182 F12000
G1 F2400
G1 X68.935 Y73.074 E6.62163
G1 X68.612 Y73.397 F12000
G1 F2400
G1 X63.612 Y68.397 E6.88157
G1 X63.131 Y68.562 F12000
G1 F2400
G1 X68.067 Y73.499 E7.13821
G1 X67.421 Y73.499 F12000
G1 F2400
G1 X62.65 Y68.727 E7.38627
G1 X62.168 Y68.893 F12000
G1 F2400
G1 X66.775 Y73.499 E7.62573
G1 X66.128 Y73.499 F12000
G1 F2400
G1 X61.6 Y68.971 E7.86114
G1 X61.031 Y69.048 F12000
G1 F2400
G1 X65.482 Y73.499 E8.09251
G1 X64.835 Y73.499 F12000
G1 F2400
G1 X60.463 Y69.126 E8.31985
G1 X59.804 Y69.114 F12000
G1 F2400
G1 X64.189 Y73.499 E8.54782
G1 X63.543 Y73.499 F12000
G1 F2400
G1 X59.108 Y69.064 E8.77836
G1 X58.412 Y69.015 F12000
G1 F2400
G1 X62.896 Y73.499 E9.01149
G1 X62.25 Y73.499 F12000
G1 F2400
G1 X57.523 Y68.772 E9.25722
G1 X56.563 Y68.459 F12000
G1 F2400
G1 X61.603 Y73.499 E9.51923
G1 X60.957 Y73.499 F12000
G1 F2400
G1 X55.329 Y67.871 E9.8118
G92 E0
G1 E-0.5 F3000
G1 X60.31 Y73.499 F12000
G1 E0 F1800
G1 F2400
G1 X46.501 Y59.69 E0.71792
G1 X46.501 Y60.336 F12000
G1 F2400
