; generated by SuperSlicer 2.5.59 on 2023-03-22 at 21:16:35 UTC


;
;

;
;
; 

; external perimeters extrusion width = 0.40mm
; perimeters extrusion width = 0.46mm
; infill extrusion width = 0.64mm
; solid infill extrusion width = 0.56mm
; top infill extrusion width = 0.40mm
; first layer extrusion width = 0.50mm

; object:{"name":"Voron_Design_Cube_v7","id":"Voron_Design_Cube_v7.stl id:0 copy 0","object_center":[60.000000,60.000000,0.000000],"boundingbox_center":[60.000000,60.000000,15.000000],"boundingbox_size":[30.000000,30.000000,30.000000]}
EXCLUDE_OBJECT_DEFINE NAME=Voron_Design_Cube_v7_stl_id_0_copy_0 CENTER=60.000000,60.000000 POLYGON=[[45.000000,45.000000],[75.000000,45.000000],[75.000000,75.000000],[45.000000,75.000000],[45.000000,45.000000]]
; plater:{"center":[60.000000,60.000000,0.000000],"boundingbox_center":[60.000000,60.000000,15.000000],"boundingbox_size":[30.000000,30.000000,30.000000]}

M73 P0 R44
;TYPE:Custom
; custom gcode: start_gcode
START_PRINT T_BED=60 T_EXTRUDER=200
; custom gcode end: start_gcode
M107
G21 ; set units to millimeters
G90 ; use absolute coordinates
M82 ; use absolute distances for extrusion
G92 E0
; custom gcode: start_filament_gcode
; Filament gcode

    PRESSURE_ADVANCE_SELECT FILAMENT=PLA
; custom gcode end: start_filament_gcode
;_TOOLCHANGE 0
M104 S200 ; set temperature
M109 S200 ; set temperature and wait for it to be reached
M190 S60 ; set bed temperature and wait for it to be reached
;LAYER_CHANGE
;Z:0.2
;HEIGHT:0.2
G1 Z0.2 F12000
M73 P0 R44
G1 E-0.8 F3000
M204 S2000
G1 Z0.6 F12000
G1 X45.448 Y45.448
G1 Z0.2
G1 E0 F1800
;TYPE:Skirt
;WIDTH:0.52
G1 X42.573 Y48.324 E0.16132
G1 X41.879 Y49.285 E0.20833
G1 X41.484 Y50.951 E0.27627
G1 X41.484 Y69.049 E0.9942
G1 X41.673 Y70.219 E1.04121
G1 X42.573 Y71.676 E1.10914
G1 X48.324 Y77.427 E1.43178
G1 X49.285 Y78.121 E1.4788
G1 X50.951 Y78.516 E1.54673
G1 X69.049 Y78.516 E2.26466
G1 X70.219 Y78.327 E2.31168
G1 X71.676 Y77.427 E2.37961
G1 X77.427 Y71.676 E2.70225
G1 X78.121 Y70.715 E2.74926
G1 X78.516 Y69.049 E2.8172
G1 X78.516 Y50.951 E3.53513
G1 X78.327 Y49.781 E3.58214
G1 X77.427 Y48.324 E3.65007
G1 X71.676 Y42.573 E3.97271
G1 X70.715 Y41.879 E4.01973
G1 X69.049 Y41.484 E4.08766
G1 X50.951 Y41.484 E4.80559
G1 X49.781 Y41.673 E4.85261
G1 X48.324 Y42.573 E4.92054
G1 X45.448 Y45.448 E5.08186
G1 X45.786 Y45.786 F12000
G1 F1800
G1 X42.91 Y48.661 E5.24318
G1 X42.355 Y49.403 E5.27993
G1 X41.961 Y50.951 E5.34329
G1 X41.961 Y69.049 E6.06122
G1 X42.094 Y69.966 E6.09798
G1 X42.91 Y71.339 E6.16134
G1 X48.661 Y77.09 E6.48398
M73 P0 R44
G1 X49.403 Y77.645 E6.52073
G1 X50.951 Y78.039 E6.58409
G1 X69.049 Y78.039 E7.30202
G1 X69.966 Y77.906 E7.33878
G1 X71.339 Y77.09 E7.40213
G1 X77.09 Y71.339 E7.72477
G1 X77.645 Y70.597 E7.76153
G1 X78.039 Y69.049 E7.82489
G1 X78.039 Y50.951 E8.54282
G1 X77.906 Y50.034 E8.57957
G1 X77.09 Y48.661 E8.64293
G1 X71.339 Y42.91 E8.96557
G1 X70.597 Y42.355 E9.00233
G1 X69.049 Y41.961 E9.06568
G1 X50.951 Y41.961 E9.78362
G1 X50.034 Y42.094 E9.82037
G1 X48.661 Y42.91 E9.88373
G1 X45.786 Y45.786 E10.04505
G92 E0
G1 E-0.8 F3000
G1 Z0.6 F12000
; printing object Voron_Design_Cube_v7.stl id:0 copy 0
EXCLUDE_OBJECT_START NAME=Voron_Design_Cube_v7_stl_id_0_copy_0
G1 X52.641 Y65.206
G1 Z0.2
G1 E0 F1800
;TYPE:Internal perimeter
;WIDTH:0.5
G1 X52.665 Y65.242 E0.00167
G1 X53.245 Y65.972 E0.03709
G1 X53.898 Y66.637 E0.07251
G1 X54.616 Y67.232 E0.10794
G1 X55.391 Y67.749 E0.14336
G1 X56.21 Y68.18 E0.17854
G1 X56.864 Y68.45 E0.20542
G1 X57.532 Y68.671 E0.23217
G1 X58.434 Y68.879 E0.26734
G1 X59.359 Y68.993 E0.30276
G1 X60.291 Y69.011 E0.33819
G1 X61.22 Y68.933 E0.37361
G1 X62.135 Y68.759 E0.40903
G1 X63.021 Y68.494 E0.44418
G1 X63.678 Y68.229 E0.47109
G1 X64.31 Y67.918 E0.49786
G1 X65.099 Y67.435 E0.53301
G1 X65.839 Y66.869 E0.56843
G1 X66.517 Y66.23 E0.60385
G1 X67.125 Y65.523 E0.63928
G1 X67.657 Y64.758 E0.6747
G1 X68.108 Y63.942 E0.71012
G1 X68.471 Y63.084 E0.74554
G1 X68.744 Y62.193 E0.78096
G1 X68.924 Y61.279 E0.81638
G1 X69.008 Y60.359 E0.85149
G1 X69.008 Y59.641 E0.87875
G1 X68.924 Y58.721 E0.91386
G1 X68.744 Y57.807 E0.94929
G1 X68.474 Y56.923 E0.98441
G1 X68.207 Y56.271 E1.0112
G1 X67.889 Y55.637 E1.03814
G1 X67.401 Y54.852 E1.07326
G1 X66.83 Y54.116 E1.10869
G1 X66.186 Y53.442 E1.14411
G1 X65.476 Y52.838 E1.17953
G1 X64.708 Y52.311 E1.21495
G1 X63.895 Y51.87 E1.2501
G1 X63.248 Y51.592 E1.27687
G1 X62.578 Y51.361 E1.30378
G1 X61.68 Y51.142 E1.33893
G1 X60.756 Y51.016 E1.37436
G1 X59.825 Y50.986 E1.40978
G1 X59.569 Y51.004 E1.41953
G1 X58.895 Y51.052 E1.4452
G1 X57.977 Y51.214 E1.48062
G1 X57.081 Y51.47 E1.51605
G1 X56.216 Y51.817 E1.55147
G1 X55.391 Y52.251 E1.58689
G1 X54.616 Y52.768 E1.62231
G1 X53.903 Y53.359 E1.6575
G1 X53.406 Y53.856 E1.68423
G1 X52.942 Y54.39 E1.7111
G1 X52.404 Y55.144 E1.7463
G1 X51.943 Y55.954 E1.78172
G1 X51.568 Y56.807 E1.81714
G1 X51.284 Y57.695 E1.85257
G1 X51.092 Y58.607 E1.88799
G1 X50.996 Y59.534 E1.92341
G1 X50.996 Y60.466 E1.95884
G1 X51.092 Y61.393 E1.99426
G1 X51.284 Y62.305 E2.02968
G1 X51.567 Y63.187 E2.06488
G1 X51.845 Y63.837 E2.09175
G1 X52.166 Y64.462 E2.11846
G1 X52.641 Y65.206 E2.152
G1 X53.026 Y64.958 F12000
G1 F1800
G1 X53.037 Y64.976 E2.15283
G1 X53.588 Y65.669 E2.18645
G1 X54.208 Y66.3 E2.22008
G1 X54.889 Y66.864 E2.2537
G1 X55.625 Y67.355 E2.28733
G1 X56.404 Y67.766 E2.3208
G1 X57.023 Y68.021 E2.34624
G1 X57.655 Y68.23 E2.37155
G1 X58.514 Y68.428 E2.40502
G1 X59.392 Y68.536 E2.43864
G1 X60.276 Y68.554 E2.47226
G1 X61.158 Y68.479 E2.50589
G1 X62.027 Y68.314 E2.53951
G1 X62.87 Y68.062 E2.57296
G1 X63.492 Y67.812 E2.59843
G1 X64.089 Y67.517 E2.62375
G1 X64.84 Y67.058 E2.6572
G1 X65.543 Y66.52 E2.69082
G1 X66.186 Y65.913 E2.72445
G1 X66.764 Y65.243 E2.75807
G1 X67.269 Y64.517 E2.7917
G1 X67.696 Y63.742 E2.82532
G1 X68.041 Y62.928 E2.85894
G1 X68.301 Y62.082 E2.89256
G1 X68.471 Y61.214 E2.92619
G1 X68.551 Y60.338 E2.95961
G1 X68.551 Y59.662 E2.9853
G1 X68.471 Y58.786 E3.01872
G1 X68.301 Y57.918 E3.05234
G1 X68.043 Y57.077 E3.08578
G1 X67.79 Y56.46 E3.11112
G1 X67.49 Y55.861 E3.1366
G1 X67.026 Y55.114 E3.17003
G1 X66.484 Y54.414 E3.20365
G1 X65.872 Y53.775 E3.23728
G1 X65.198 Y53.202 E3.2709
G1 X64.469 Y52.701 E3.30452
G1 X63.695 Y52.281 E3.33797
G1 X63.083 Y52.018 E3.3633
G1 X62.45 Y51.8 E3.38876
G1 X61.594 Y51.592 E3.42221
G1 X60.718 Y51.472 E3.45584
G1 X59.834 Y51.444 E3.48946
G1 X59.601 Y51.46 E3.49832
G1 X58.951 Y51.506 E3.52309
G1 X58.08 Y51.66 E3.55671
G1 X57.229 Y51.903 E3.59033
G1 X56.408 Y52.232 E3.62396
G1 X55.625 Y52.645 E3.65758
G1 X54.889 Y53.136 E3.69121
G1 X54.211 Y53.697 E3.72468
G1 X53.74 Y54.168 E3.74998
G1 X53.302 Y54.674 E3.77542
G1 X52.789 Y55.39 E3.8089
G1 X52.352 Y56.159 E3.84252
G1 X51.996 Y56.969 E3.87615
G1 X51.726 Y57.812 E3.90977
G1 X51.545 Y58.678 E3.9434
G1 X51.453 Y59.558 E3.97702
G1 X51.453 Y60.442 E4.01065
G1 X51.545 Y61.322 E4.04427
G1 X51.726 Y62.188 E4.0779
G1 X51.995 Y63.027 E4.11138
G1 X52.259 Y63.642 E4.13681
G1 X52.563 Y64.234 E4.1621
G1 X53.026 Y64.958 E4.19475
G1 X53.41 Y64.71 F12000
;TYPE:External perimeter
G1 F1800
G1 X53.931 Y65.365 E4.22658
G1 X54.518 Y65.963 E4.2584
G1 X55.163 Y66.497 E4.29023
G1 X55.859 Y66.962 E4.32206
G1 X56.598 Y67.351 E4.35381
G1 X57.182 Y67.593 E4.37782
G1 X57.779 Y67.79 E4.40169
G1 X58.593 Y67.977 E4.43345
G1 X59.424 Y68.08 E4.46528
G1 X60.261 Y68.096 E4.4971
G1 X61.096 Y68.026 E4.52893
G1 X61.918 Y67.87 E4.56076
G1 X62.719 Y67.63 E4.59251
G1 X63.305 Y67.394 E4.61652
G1 X63.869 Y67.117 E4.6404
G1 X64.581 Y66.68 E4.67215
G1 X65.246 Y66.172 E4.70397
G1 X65.855 Y65.597 E4.7358
G1 X66.402 Y64.963 E4.76762
G1 X66.88 Y64.275 E4.79945
G1 X67.284 Y63.542 E4.83128
G1 X67.611 Y62.771 E4.8631
G1 X67.857 Y61.971 E4.89492
G1 X68.018 Y61.149 E4.92675
G1 X68.094 Y60.317 E4.95849
G1 X68.094 Y59.683 E4.9826
G1 X68.018 Y58.851 E5.01434
G1 X67.857 Y58.029 E5.04616
G1 X67.612 Y57.231 E5.0779
G1 X67.374 Y56.649 E5.10179
G1 X67.091 Y56.084 E5.12581
G1 X66.65 Y55.375 E5.15755
G1 X66.137 Y54.713 E5.18938
G1 X65.558 Y54.108 E5.22121
G1 X64.92 Y53.565 E5.25303
G1 X64.23 Y53.092 E5.28486
G1 X63.496 Y52.693 E5.31661
G1 X62.918 Y52.445 E5.34049
G1 X62.321 Y52.239 E5.3645
G1 X61.509 Y52.042 E5.39625
G1 X60.679 Y51.928 E5.42808
G1 X59.842 Y51.901 E5.4599
G1 X59.634 Y51.916 E5.46786
G1 X59.007 Y51.961 E5.49173
G1 X58.183 Y52.106 E5.52356
G1 X57.377 Y52.336 E5.55538
G1 X56.6 Y52.648 E5.58721
G1 X55.859 Y53.038 E5.61903
G1 X55.163 Y53.503 E5.65086
G1 X54.519 Y54.036 E5.68262
G1 X54.075 Y54.48 E5.70648
G1 X53.661 Y54.957 E5.73049
G1 X53.175 Y55.637 E5.76226
G1 X52.761 Y56.365 E5.79408
G1 X52.424 Y57.131 E5.82591
G1 X52.169 Y57.929 E5.85774
G1 X51.997 Y58.748 E5.88956
G1 X51.91 Y59.581 E5.92139
G1 X51.91 Y60.419 E5.95322
G1 X51.997 Y61.252 E5.98504
G1 X52.169 Y62.071 E6.01687
G1 X52.424 Y62.867 E6.04863
G1 X52.673 Y63.448 E6.07264
G1 X52.96 Y64.006 E6.0965
G1 X53.41 Y64.71 E6.12826
;WIPE_START
M204 S4000
G1 X53.251 Y65.077 F12000
;WIPE_END
G92 E0
G1 E-0.8 F3000
M204 S2000
G1 Z0.6 F12000
G1 X46.364 Y68.567
G1 Z0.2
G1 E0 F1800
;TYPE:Internal perimeter
G1 X46.364 Y51.433 E0.65118
G1 X51.433 Y46.364 E0.92364
G1 X68.567 Y46.364 E1.57482
G1 X73.636 Y51.433 E1.84728
G1 X73.636 Y68.567 E2.49846
G1 X68.567 Y73.636 E2.77092
G1 X51.433 Y73.636 E3.4221
G1 X46.364 Y68.567 E3.69456
G1 X45.907 Y68.756 F12000
G1 F1800
G1 X45.907 Y51.244 E4.36013
G1 X51.244 Y45.907 E4.64698
G1 X68.756 Y45.907 E5.31255
G1 X68.861 Y46.012 E5.31822
G1 X74.093 Y51.244 E5.5994
G1 X74.093 Y68.756 E6.26498
G1 X68.756 Y74.093 E6.55183
G1 X51.244 Y74.093 E7.2174
G1 X45.907 Y68.756 E7.50425
G1 X45.45 Y68.945 F12000
;TYPE:External perimeter
G1 F1800
G1 X45.45 Y51.055 E8.18421
G1 X51.055 Y45.45 E8.48546
G1 X68.945 Y45.45 E9.16542
G1 X69.185 Y45.689 E9.17828
G1 X74.55 Y51.055 E9.46666
G1 X74.55 Y68.945 E10.14662
G1 X68.945 Y74.55 E10.44787
G1 X51.055 Y74.55 E11.12783
G1 X45.45 Y68.945 E11.42907
;WIPE_START
M204 S4000
G1 X45.733 Y68.663 F12000
;WIPE_END
G92 E0
G1 E-0.8 F3000
M204 S2000
G1 Z0.6 F12000
G1 X68.219 Y46.501
G1 Z0.2
G1 E0 F1800
;TYPE:Solid infill
;WIDTH:0.503773
G1 F2400
G1 X73.499 Y51.781 E0.28592
G1 X73.499 Y52.427 F12000
G1 F2400
G1 X67.573 Y46.501 E0.60685
G1 X66.926 Y46.501 F12000
G1 F2400
G1 X73.499 Y53.074 E0.96279
G1 X73.499 Y53.72 F12000
G1 F2400
G1 X66.28 Y46.501 E1.35373
G1 X65.633 Y46.501 F12000
G1 F2400
G1 X73.499 Y54.367 E1.77967
G1 X73.499 Y55.013 F12000
G1 F2400
G1 X64.987 Y46.501 E2.24063
G1 X64.341 Y46.501 F12000
G1 F2400
G1 X73.499 Y55.659 E2.73659
G1 X73.499 Y56.306 F12000
G1 F2400
G1 X63.694 Y46.501 E3.26755
G1 X63.048 Y46.501 F12000
G1 F2400
G1 X73.499 Y56.952 E3.83352
G1 X73.499 Y57.599 F12000
G1 F2400
G1 X62.401 Y46.501 E4.4345
G1 X61.755 Y46.501 F12000
G1 F2400
G1 X73.499 Y58.245 E5.07048
G1 X73.499 Y58.891 F12000
G1 F2400
G1 X61.109 Y46.501 E5.74147
G1 X60.462 Y46.501 F12000
G1 F2400
G1 X73.499 Y59.538 E6.44746
G1 X73.499 Y60.184 F12000
G1 F2400
G1 X59.816 Y46.501 E7.18846
G1 X59.169 Y46.501 F12000
G1 F2400
G1 X65.128 Y52.46 E7.51116
G1 X63.667 Y51.645 F12000
G1 F2400
G1 X58.523 Y46.501 E7.78974
G1 X57.876 Y46.501 F12000
G1 F2400
G1 X62.654 Y51.279 E8.04847
M73 P1 R44
G1 X61.748 Y51.019 F12000
G1 F2400
G1 X57.23 Y46.501 E8.29314
G1 X56.584 Y46.501 F12000
G1 F2400
G1 X60.992 Y50.91 E8.53189
G1 X60.311 Y50.875 F12000
G1 F2400
G1 X55.937 Y46.501 E8.76872
G1 X55.291 Y46.501 F12000
G1 F2400
G1 X59.658 Y50.868 E9.0052
G1 X59.074 Y50.931 F12000
G1 F2400
G1 X54.644 Y46.501 E9.2451
G1 X53.998 Y46.501 F12000
G1 F2400
G1 X58.503 Y51.006 E9.48908
G1 X57.934 Y51.084 F12000
G1 F2400
G1 X53.352 Y46.501 E9.73725
G1 X52.705 Y46.501 F12000
G1 F2400
G1 X57.453 Y51.249 E9.99435
G1 X56.971 Y51.414 F12000
G1 F2400
G1 X52.059 Y46.501 E10.26037
G1 X51.451 Y46.54 F12000
G1 F2400
G1 X56.489 Y51.578 E10.53321
G1 X56.032 Y51.767 F12000
G1 F2400
G1 X51.128 Y46.863 E10.79876
G1 X50.805 Y47.187 F12000
G1 F2400
G1 X55.626 Y52.008 E11.05987
G1 X55.221 Y52.249 F12000
G1 F2400
G1 X50.482 Y47.51 E11.31652
G1 X50.158 Y47.833 F12000
G1 F2400
G1 X54.816 Y52.49 E11.56873
G1 X54.43 Y52.751 F12000
G1 F2400
G1 X49.835 Y48.156 E11.81757
G1 X49.512 Y48.479 F12000
G1 F2400
G1 X54.09 Y53.057 E12.06547
G1 X53.749 Y53.363 F12000
G1 F2400
G1 X49.189 Y48.803 E12.31244
G1 X48.866 Y49.126 F12000
G1 F2400
G1 X53.409 Y53.669 E12.55847
G1 X53.108 Y54.015 F12000
G1 F2400
G1 X48.542 Y49.449 E12.80574
G1 X48.219 Y49.772 F12000
G1 F2400
G1 X52.826 Y54.378 E13.0552
G1 X52.543 Y54.742 F12000
G1 F2400
G1 X47.896 Y50.095 E13.30683
G1 X47.573 Y50.419 F12000
G1 F2400
G1 X52.266 Y55.112 E13.56101
G1 X52.05 Y55.542 F12000
G1 F2400
G1 X47.25 Y50.742 E13.82099
G1 X46.926 Y51.065 F12000
G1 F2400
G1 X51.834 Y55.973 E14.08676
G1 X51.618 Y56.403 F12000
G1 F2400
G1 X46.603 Y51.388 E14.35834
G1 X46.501 Y51.933 F12000
G1 F2400
G1 X51.416 Y56.847 E14.62449
G1 X51.281 Y57.359 F12000
G1 F2400
G1 X46.501 Y52.579 E14.88333
G1 X46.501 Y53.225 F12000
G1 F2400
G1 X51.146 Y57.87 E15.13484
G1 X51.01 Y58.381 F12000
G1 F2400
G1 X46.501 Y53.872 E15.37903
G1 X46.501 Y54.518 F12000
G1 F2400
G1 X50.937 Y58.954 E15.61925
G1 X50.905 Y59.569 F12000
G1 F2400
G1 X46.501 Y55.165 E15.85775
G1 X46.501 Y55.811 F12000
G1 F2400
G1 X50.874 Y60.183 E16.09453
G1 X50.922 Y60.878 F12000
G1 F2400
G1 X46.501 Y56.457 E16.33393
G1 X46.501 Y57.104 F12000
G1 F2400
G1 X51.042 Y61.644 E16.57982
G1 X51.185 Y62.434 F12000
G1 F2400
G1 X46.501 Y57.75 E16.83346
G1 X46.501 Y58.397 F12000
G1 F2400
G1 X51.559 Y63.454 E17.10734
G1 X52.234 Y64.776 F12000
G1 F2400
G1 X46.501 Y59.043 E17.4178
G92 E0
G1 E-0.8 F3000
G1 Z0.6 F12000
G1 X67.61 Y54.942
G1 Z0.2
G1 E0 F1800
G1 F2400
G1 X73.499 Y60.831 E0.31892
G1 X73.499 Y61.477 F12000
G1 F2400
G1 X68.384 Y56.362 E0.5959
G1 X68.732 Y57.357 F12000
G1 F2400
G1 X73.499 Y62.124 E0.85403
G1 X73.499 Y62.77 F12000
G1 F2400
G1 X68.941 Y58.212 E1.10085
G1 X69.049 Y58.967 F12000
G1 F2400
G1 X73.499 Y63.416 E1.3418
G1 X73.499 Y64.063 F12000
G1 F2400
G1 X69.142 Y59.706 E1.57775
G1 X69.11 Y60.321 F12000
G1 F2400
G1 X73.499 Y64.709 E1.81541
G1 X73.499 Y65.356 F12000
G1 F2400
G1 X69.079 Y60.936 E2.05476
G1 X69.007 Y61.511 F12000
G1 F2400
G1 X73.499 Y66.002 E2.29799
G1 X73.499 Y66.648 F12000
G1 F2400
G1 X68.878 Y62.027 E2.54824
G1 X68.748 Y62.544 F12000
G1 F2400
G1 X73.499 Y67.295 E2.80551
G1 X73.499 Y67.941 F12000
G1 F2400
G1 X68.619 Y63.061 E3.0698
G1 X68.418 Y63.507 F12000
G1 F2400
G1 X73.46 Y68.549 E3.34283
G1 X73.137 Y68.872 F12000
G1 F2400
G1 X68.207 Y63.942 E3.60981
G1 X67.995 Y64.377 F12000
G1 F2400
G1 X72.813 Y69.195 E3.87074
G1 X72.49 Y69.518 F12000
G1 F2400
G1 X67.784 Y64.812 E4.12561
G1 X67.505 Y65.179 F12000
G1 F2400
G1 X72.167 Y69.842 E4.37811
G1 X71.844 Y70.165 F12000
G1 F2400
G1 X67.222 Y65.543 E4.62838
G1 X66.94 Y65.907 F12000
G1 F2400
G1 X71.521 Y70.488 E4.87644
G1 X71.197 Y70.811 F12000
G1 F2400
G1 X66.658 Y66.272 E5.12228
G1 X66.318 Y66.578 F12000
G1 F2400
G1 X70.874 Y71.134 E5.369
G1 X70.551 Y71.458 F12000
G1 F2400
G1 X65.969 Y66.875 E5.61715
G1 X65.62 Y67.172 F12000
G1 F2400
G1 X70.228 Y71.781 E5.86671
G1 X69.905 Y72.104 F12000
G1 F2400
G1 X65.27 Y67.469 E6.11769
G1 X64.873 Y67.719 F12000
G1 F2400
G1 X69.581 Y72.427 E6.37269
G1 X69.258 Y72.75 F12000
G1 F2400
G1 X64.458 Y67.95 E6.63263
G1 X64.044 Y68.182 F12000
G1 F2400
G1 X68.935 Y73.074 E6.89753
G1 X68.612 Y73.397 F12000
G1 F2400
G1 X63.612 Y68.397 E7.1683
G1 X63.131 Y68.562 F12000
G1 F2400
G1 X68.067 Y73.499 E7.43564
G1 X67.421 Y73.499 F12000
G1 F2400
G1 X62.65 Y68.727 E7.69403
G1 X62.168 Y68.893 F12000
G1 F2400
G1 X66.775 Y73.499 E7.94347
G1 X66.128 Y73.499 F12000
G1 F2400
G1 X61.6 Y68.971 E8.18869
G1 X61.031 Y69.048 F12000
G1 F2400
G1 X65.482 Y73.499 E8.4297
G1 X64.835 Y73.499 F12000
G1 F2400
G1 X60.463 Y69.126 E8.66651
G1 X59.804 Y69.114 F12000
G1 F2400
G1 X64.189 Y73.499 E8.90398
G1 X63.543 Y73.499 F12000
G1 F2400
G1 X59.108 Y69.064 E9.14413
G1 X58.412 Y69.015 F12000
G1 F2400
G1 X62.896 Y73.499 E9.38697
G1 X62.25 Y73.499 F12000
G1 F2400
G1 X57.523 Y68.772 E9.64293
G1 X56.563 Y68.459 F12000
G1 F2400
G1 X61.603 Y73.499 E9.91587
G1 X60.957 Y73.499 F12000
G1 F2400
G1 X55.329 Y67.871 E10.22063
G92 E0
G1 E-0.8 F3000
G1 Z0.6 F12000
G1 X60.31 Y73.499
G1 Z0.2
