
; ### Ellis' Pressure Advance / Linear Advance Calibration Tool ###
;
; Original Marlin linear advance calibration tool by Sineos [https://github.com/Sineos]
; Heavily modified/rewritten by Andrew Ellis [https://github.com/AndrewEllis93]
;
; -------------------------------------------
; Generated: Thu Jan 26 2023 15:42:12 GMT-0800 (Pacific Standard Time)
; -------------------------------------------
;
; Advanced Mode: false
;
; Printer:
;  - Firmware: klipper
;  - Bed Shape: Rect
;  - Bed Size X: 129 mm
;  - Bed Size Y: 120 mm
;  - Origin Bed Center: false
;  - Travel Speed: 200 mm/s
;  - Nozzle Diameter: 0.4 mm
;  - Filament Diameter: 1.75 mm
;  - Extrusion Multiplier: 1
;
; Retraction / Z Hop:
;  - Retraction Distance: 1 mm
;  - Retract Speed: 30 mm/s
;  - Unretract Speed: 30 mm/s
;  - Z Hop Enable: true
;  - Z Hop Height: 0.1mm
;
; First Layer Settings:
;  - First Layer Height: 0.2 mm
;  - First Layer Printing Speed: 30 mm/s
;  - First Layer Fan Speed: 0%
;  - Anchor Option: anchor_frame
;
; Print Settings:
;  - Layer Height: 0.2 mm
;  - Print Speed: 100 mm/s
;  - Acceleration: 6000 mm/s^2
;  - Fan Speed: 100%
;
; Pressure Advance Stepping:
;  - PA Start Value: 0
;  - PA End Value: 0.08
;  - PA Increment: 0.005
;
; Start / End G-code:
;  - Hotend Temp: 239C
;  - Bed Temp: 120C
;  - Don't Add G28: false
;  - Don't Add Heating G-Codes: false
;
; Calculated Values:
;  - Print Size X: 84.76 mm
;  - Print Size Y: 53.99 mm
;  - Number of Patterns to Print: 17
;  - PA Values: 0, 0.005, 0.01, 0.015, 0.02, 0.025, 0.03, 0.035, 0.04, 0.045, 0.05, 0.055, 0.06, 0.065, 0.07, 0.075, 0.08
;
; Prepare printing
;
G28 ; Home all axes
M190 S110 ; Set & wait for bed temp
M109 S240 ; Set & wait for hotend temp
START_PRINT T_BED=110 T_EXTRUDER=240
; START_PRINT ; Start macro (alternate / official start macro name)
G21 ; Millimeter units
G90 ; Absolute XYZ
M83 ; Relative E
G92 E0 ; Reset extruder distance
;
;  Begin printing
;
M106 S0 ; Set fan speed
SET_VELOCITY_LIMIT ACCEL=6000 ; Set printing acceleration
G1 E-1 F1800 ; Retract
G0 Z5 F12000 ; Z raise
G0 X22.1202 Y33.0068 F12000 ; Move to start position
G0 Z0.2 F12000 ; Move to start layer height
G1 E1 F1800 ; Un-retract
SET_PRESSURE_ADVANCE ADVANCE=0 ; Set pressure advance to start value
M117 PA 0
G1 X22.1202 Y75.4332 E1.82414 F1800 ; Draw perimeter (up)
G1 X106.8798 Y75.4332 E3.64426 F1800 ; Draw perimeter (right)
G1 X106.8798 Y33.0068 E1.82414 F1800 ; Draw perimeter (down)
G1 X22.1202 Y33.0068 E3.64426 F1800 ; Draw perimeter (left)
G0 X22.6373 Y33.5239 F12000 ; Step inwards to print next perimeter
G1 X22.6373 Y74.9161 E1.77967 F1800 ; Draw perimeter (up)
G1 X106.3627 Y74.9161 E3.5998 F1800 ; Draw perimeter (right)
G1 X106.3627 Y33.5239 E1.77967 F1800 ; Draw perimeter (down)
G1 X22.6373 Y33.5239 E3.5998 F1800 ; Draw perimeter (left)
G0 X23.1544 Y34.041 F12000 ; Step inwards to print next perimeter
G1 X23.1544 Y74.399 E1.73521 F1800 ; Draw perimeter (up)
G1 X105.8456 Y74.399 E3.55534 F1800 ; Draw perimeter (right)
G1 X105.8456 Y34.041 E1.73521 F1800 ; Draw perimeter (down)
G1 X23.1544 Y34.041 E3.55534 F1800 ; Draw perimeter (left)
G0 X23.6715 Y34.558 F12000 ; Step inwards to print next perimeter
G1 X23.6715 Y73.882 E1.69075 F1800 ; Draw perimeter (up)
G1 X105.3285 Y73.882 E3.51087 F1800 ; Draw perimeter (right)
G1 X105.3285 Y34.558 E1.69075 F1800 ; Draw perimeter (down)
G1 X23.6715 Y34.558 E3.51087 F1800 ; Draw perimeter (left)
G1 E-1 F1800 ; Retract
G1 Z0.3 F12000 ; Z hop
G0 X22.1202 Y75.9503 F12000 ; Move to box start
G1 Z0.2 F12000 ; Z hop return
G1 E1 F1800 ; Un-retract
G1 X22.1202 Y87.4674 E0.49518 F1800 ; Draw perimeter (up)
G1 X86.3747 Y87.4674 E2.76264 F1800 ; Draw perimeter (right)
G1 X86.3747 Y75.9503 E0.49518 F1800 ; Draw perimeter (down)
G1 X22.1202 Y75.9503 E2.76264 F1800 ; Draw perimeter (left)
G0 X22.6373 Y76.4674 F12000 ; Step inwards to print next perimeter
G1 X22.6373 Y86.9503 E0.45072 F1800 ; Draw perimeter (up)
G1 X85.8576 Y86.9503 E2.71818 F1800 ; Draw perimeter (right)
G1 X85.8576 Y76.4674 E0.45072 F1800 ; Draw perimeter (down)
G1 X22.6373 Y76.4674 E2.71818 F1800 ; Draw perimeter (left)
G0 X23.1544 Y76.9844 F12000 ; Step inwards to print next perimeter
G1 X23.1544 Y86.4332 E0.40625 F1800 ; Draw perimeter (up)
G1 X85.3406 Y86.4332 E2.67372 F1800 ; Draw perimeter (right)
G1 X85.3406 Y76.9844 E0.40625 F1800 ; Draw perimeter (down)
G1 X23.1544 Y76.9844 E2.67372 F1800 ; Draw perimeter (left)
G0 X23.6715 Y77.5015 F12000 ; Step inwards to print next perimeter
G1 X23.6715 Y85.9161 E0.36179 F1800 ; Draw perimeter (up)
G1 X84.8235 Y85.9161 E2.62925 F1800 ; Draw perimeter (right)
G1 X84.8235 Y77.5015 E0.36179 F1800 ; Draw perimeter (down)
G1 X23.6715 Y77.5015 E2.62925 F1800 ; Draw perimeter (left)
G0 X24.0448 Y77.8749 F12000 ; Move to fill start
G0 X24.7761 Y77.8749 F12000 ; Move
G1 X24.0448 Y78.6061 E0.04446 F1800 ; Fill
G0 X24.0448 Y79.3374 F12000 ; Move
G1 X25.5073 Y77.8749 E0.08893 F1800 ; Fill
G0 X26.2386 Y77.8749 F12000 ; Move
G1 X24.0448 Y80.0686 E0.13339 F1800 ; Fill
G0 X24.0448 Y80.7999 F12000 ; Move
G1 X26.9699 Y77.8749 E0.17786 F1800 ; Fill
G0 X27.7011 Y77.8749 F12000 ; Move
G1 X24.0448 Y81.5312 E0.22232 F1800 ; Fill
G0 X24.0448 Y82.2624 F12000 ; Move
G1 X28.4324 Y77.8749 E0.26678 F1800 ; Fill
G0 X29.1636 Y77.8749 F12000 ; Move
G1 X24.0448 Y82.9937 E0.31125 F1800 ; Fill
G0 X24.0448 Y83.7249 F12000 ; Move
G1 X29.8949 Y77.8749 E0.35571 F1800 ; Fill
G0 X30.6262 Y77.8749 F12000 ; Move
G1 X24.0448 Y84.4562 E0.40018 F1800 ; Fill
G0 X24.0448 Y85.1875 F12000 ; Move
G1 X31.3574 Y77.8749 E0.44464 F1800 ; Fill
G0 X32.0887 Y77.8749 F12000 ; Move
G1 X24.4207 Y85.5428 E0.46625 F1800 ; Fill
G0 X25.152 Y85.5428 F12000 ; Move
G1 X32.8199 Y77.8749 E0.46625 F1800 ; Fill
G0 X33.5512 Y77.8749 F12000 ; Move
G1 X25.8833 Y85.5428 E0.46625 F1800 ; Fill
G0 X26.6145 Y85.5428 F12000 ; Move
G1 X34.2825 Y77.8749 E0.46625 F1800 ; Fill
G0 X35.0137 Y77.8749 F12000 ; Move
G1 X27.3458 Y85.5428 E0.46625 F1800 ; Fill
G0 X28.0771 Y85.5428 F12000 ; Move
G1 X35.745 Y77.8749 E0.46625 F1800 ; Fill
G0 X36.4762 Y77.8749 F12000 ; Move
G1 X28.8083 Y85.5428 E0.46625 F1800 ; Fill
G0 X29.5396 Y85.5428 F12000 ; Move
G1 X37.2075 Y77.8749 E0.46625 F1800 ; Fill
G0 X37.9388 Y77.8749 F12000 ; Move
G1 X30.2708 Y85.5428 E0.46625 F1800 ; Fill
G0 X31.0021 Y85.5428 F12000 ; Move
G1 X38.67 Y77.8749 E0.46625 F1800 ; Fill
G0 X39.4013 Y77.8749 F12000 ; Move
G1 X31.7334 Y85.5428 E0.46625 F1800 ; Fill
G0 X32.4646 Y85.5428 F12000 ; Move
G1 X40.1326 Y77.8749 E0.46625 F1800 ; Fill
G0 X40.8638 Y77.8749 F12000 ; Move
G1 X33.1959 Y85.5428 E0.46625 F1800 ; Fill
G0 X33.9271 Y85.5428 F12000 ; Move
G1 X41.5951 Y77.8749 E0.46625 F1800 ; Fill
G0 X42.3263 Y77.8749 F12000 ; Move
G1 X34.6584 Y85.5428 E0.46625 F1800 ; Fill
G0 X35.3897 Y85.5428 F12000 ; Move
G1 X43.0576 Y77.8749 E0.46625 F1800 ; Fill
G0 X43.7889 Y77.8749 F12000 ; Move
G1 X36.1209 Y85.5428 E0.46625 F1800 ; Fill
G0 X36.8522 Y85.5428 F12000 ; Move
G1 X44.5201 Y77.8749 E0.46625 F1800 ; Fill
G0 X45.2514 Y77.8749 F12000 ; Move
G1 X37.5834 Y85.5428 E0.46625 F1800 ; Fill
G0 X38.3147 Y85.5428 F12000 ; Move
G1 X45.9826 Y77.8749 E0.46625 F1800 ; Fill
G0 X46.7139 Y77.8749 F12000 ; Move
G1 X39.046 Y85.5428 E0.46625 F1800 ; Fill
G0 X39.7772 Y85.5428 F12000 ; Move
G1 X47.4452 Y77.8749 E0.46625 F1800 ; Fill
G0 X48.1764 Y77.8749 F12000 ; Move
G1 X40.5085 Y85.5428 E0.46625 F1800 ; Fill
G0 X41.2398 Y85.5428 F12000 ; Move
G1 X48.9077 Y77.8749 E0.46625 F1800 ; Fill
G0 X49.6389 Y77.8749 F12000 ; Move
G1 X41.971 Y85.5428 E0.46625 F1800 ; Fill
G0 X42.7023 Y85.5428 F12000 ; Move
G1 X50.3702 Y77.8749 E0.46625 F1800 ; Fill
G0 X51.1015 Y77.8749 F12000 ; Move
G1 X43.4335 Y85.5428 E0.46625 F1800 ; Fill
G0 X44.1648 Y85.5428 F12000 ; Move
G1 X51.8327 Y77.8749 E0.46625 F1800 ; Fill
G0 X52.564 Y77.8749 F12000 ; Move
G1 X44.8961 Y85.5428 E0.46625 F1800 ; Fill
G0 X45.6273 Y85.5428 F12000 ; Move
G1 X53.2953 Y77.8749 E0.46625 F1800 ; Fill
G0 X54.0265 Y77.8749 F12000 ; Move
G1 X46.3586 Y85.5428 E0.46625 F1800 ; Fill
G0 X47.0898 Y85.5428 F12000 ; Move
G1 X54.7578 Y77.8749 E0.46625 F1800 ; Fill
G0 X55.489 Y77.8749 F12000 ; Move
G1 X47.8211 Y85.5428 E0.46625 F1800 ; Fill
G0 X48.5524 Y85.5428 F12000 ; Move
G1 X56.2203 Y77.8749 E0.46625 F1800 ; Fill
G0 X56.9516 Y77.8749 F12000 ; Move
G1 X49.2836 Y85.5428 E0.46625 F1800 ; Fill
G0 X50.0149 Y85.5428 F12000 ; Move
G1 X57.6828 Y77.8749 E0.46625 F1800 ; Fill
G0 X58.4141 Y77.8749 F12000 ; Move
G1 X50.7461 Y85.5428 E0.46625 F1800 ; Fill
G0 X51.4774 Y85.5428 F12000 ; Move
G1 X59.1453 Y77.8749 E0.46625 F1800 ; Fill
G0 X59.8766 Y77.8749 F12000 ; Move
G1 X52.2087 Y85.5428 E0.46625 F1800 ; Fill
G0 X52.9399 Y85.5428 F12000 ; Move
G1 X60.6079 Y77.8749 E0.46625 F1800 ; Fill
G0 X61.3391 Y77.8749 F12000 ; Move
G1 X53.6712 Y85.5428 E0.46625 F1800 ; Fill
G0 X54.4025 Y85.5428 F12000 ; Move
G1 X62.0704 Y77.8749 E0.46625 F1800 ; Fill
G0 X62.8016 Y77.8749 F12000 ; Move
G1 X55.1337 Y85.5428 E0.46625 F1800 ; Fill
G0 X55.865 Y85.5428 F12000 ; Move
G1 X63.5329 Y77.8749 E0.46625 F1800 ; Fill
G0 X64.2642 Y77.8749 F12000 ; Move
G1 X56.5962 Y85.5428 E0.46625 F1800 ; Fill
G0 X57.3275 Y85.5428 F12000 ; Move
G1 X64.9954 Y77.8749 E0.46625 F1800 ; Fill
G0 X65.7267 Y77.8749 F12000 ; Move
G1 X58.0588 Y85.5428 E0.46625 F1800 ; Fill
G0 X58.79 Y85.5428 F12000 ; Move
G1 X66.458 Y77.8749 E0.46625 F1800 ; Fill
G0 X67.1892 Y77.8749 F12000 ; Move
G1 X59.5213 Y85.5428 E0.46625 F1800 ; Fill
G0 X60.2525 Y85.5428 F12000 ; Move
G1 X67.9205 Y77.8749 E0.46625 F1800 ; Fill
G0 X68.6517 Y77.8749 F12000 ; Move
G1 X60.9838 Y85.5428 E0.46625 F1800 ; Fill
G0 X61.7151 Y85.5428 F12000 ; Move
G1 X69.383 Y77.8749 E0.46625 F1800 ; Fill
G0 X70.1143 Y77.8749 F12000 ; Move
G1 X62.4463 Y85.5428 E0.46625 F1800 ; Fill
G0 X63.1776 Y85.5428 F12000 ; Move
G1 X70.8455 Y77.8749 E0.46625 F1800 ; Fill
G0 X71.5768 Y77.8749 F12000 ; Move
G1 X63.9088 Y85.5428 E0.46625 F1800 ; Fill
G0 X64.6401 Y85.5428 F12000 ; Move
G1 X72.308 Y77.8749 E0.46625 F1800 ; Fill
G0 X73.0393 Y77.8749 F12000 ; Move
G1 X65.3714 Y85.5428 E0.46625 F1800 ; Fill
G0 X66.1026 Y85.5428 F12000 ; Move
G1 X73.7706 Y77.8749 E0.46625 F1800 ; Fill
G0 X74.5018 Y77.8749 F12000 ; Move
G1 X66.8339 Y85.5428 E0.46625 F1800 ; Fill
G0 X67.5651 Y85.5428 F12000 ; Move
G1 X75.2331 Y77.8749 E0.46625 F1800 ; Fill
G0 X75.9643 Y77.8749 F12000 ; Move
G1 X68.2964 Y85.5428 E0.46625 F1800 ; Fill
G0 X69.0277 Y85.5428 F12000 ; Move
G1 X76.6956 Y77.8749 E0.46625 F1800 ; Fill
G0 X77.4269 Y77.8749 F12000 ; Move
G1 X69.7589 Y85.5428 E0.46625 F1800 ; Fill
G0 X70.4902 Y85.5428 F12000 ; Move
G1 X78.1581 Y77.8749 E0.46625 F1800 ; Fill
G0 X78.8894 Y77.8749 F12000 ; Move
G1 X71.2215 Y85.5428 E0.46625 F1800 ; Fill
G0 X71.9527 Y85.5428 F12000 ; Move
G1 X79.6206 Y77.8749 E0.46625 F1800 ; Fill
G0 X80.3519 Y77.8749 F12000 ; Move
G1 X72.684 Y85.5428 E0.46625 F1800 ; Fill
G0 X73.4152 Y85.5428 F12000 ; Move
G1 X81.0832 Y77.8749 E0.46625 F1800 ; Fill
G0 X81.8144 Y77.8749 F12000 ; Move
G1 X74.1465 Y85.5428 E0.46625 F1800 ; Fill
G0 X74.8778 Y85.5428 F12000 ; Move
G1 X82.5457 Y77.8749 E0.46625 F1800 ; Fill
G0 X83.277 Y77.8749 F12000 ; Move
G1 X75.609 Y85.5428 E0.46625 F1800 ; Fill
G0 X76.3403 Y85.5428 F12000 ; Move
G1 X84.0082 Y77.8749 E0.46625 F1800 ; Fill
G0 X84.4501 Y78.1642 F12000 ; Move
G1 X77.0715 Y85.5428 E0.44865 F1800 ; Fill
G0 X77.8028 Y85.5428 F12000 ; Move
G1 X84.4501 Y78.8955 E0.40419 F1800 ; Fill
G0 X84.4501 Y79.6267 F12000 ; Move
G1 X78.5341 Y85.5428 E0.35972 F1800 ; Fill
G0 X79.2653 Y85.5428 F12000 ; Move
G1 X84.4501 Y80.358 E0.31526 F1800 ; Fill
G0 X84.4501 Y81.0892 F12000 ; Move
G1 X79.9966 Y85.5428 E0.2708 F1800 ; Fill
G0 X80.7278 Y85.5428 F12000 ; Move
G1 X84.4501 Y81.8205 E0.22633 F1800 ; Fill
G0 X84.4501 Y82.5518 F12000 ; Move
G1 X81.4591 Y85.5428 E0.18187 F1800 ; Fill
G0 X82.1904 Y85.5428 F12000 ; Move
G1 X84.4501 Y83.283 E0.1374 F1800 ; Fill
G0 X84.4501 Y84.0143 F12000 ; Move
G1 X82.9216 Y85.5428 E0.09294 F1800 ; Fill
G0 X83.6529 Y85.5428 F12000 ; Move
G1 X84.4501 Y84.7455 E0.04848 F1800 ; Fill
G0 X84.4501 Y85.4768 F12000 ; Move
G1 X84.3842 Y85.5428 E0.00401 F1800 ; Fill
G0 Z0.2 F12000 ; Move to layer height
G1 E-1 F1800 ; Retract
G1 Z0.3 F12000 ; Z hop
G0 X26.7491 Y34.9314 F12000 ; Move to pattern start

G1 Z0.2 F12000 ; Z hop return
G1 E1 F1800 ; Un-retract
SET_PRESSURE_ADVANCE ADVANCE=0 ; Set pressure advance
M117 PA 0
G1 X46.0377 Y54.22 E0.92334 F1800 ; Print pattern wall
G1 X26.7491 Y73.5086 E0.92334 F1800 ; Print pattern wall
G1 E-1 F1800 ; Retract
G1 Z0.3 F12000 ; Z hop
G0 X27.3248 Y34.9314 F12000 ; Move to start next pattern wall
G1 Z0.2 F12000 ; Z hop return
G1 E1 F1800 ; Un-retract
G1 X46.6134 Y54.22 E0.92334 F1800 ; Print pattern wall
G1 X27.3248 Y73.5086 E0.92334 F1800 ; Print pattern wall
G1 E-1 F1800 ; Retract
G1 Z0.3 F12000 ; Z hop
G0 X27.9005 Y34.9314 F12000 ; Move to start next pattern wall
G1 Z0.2 F12000 ; Z hop return
G1 E1 F1800 ; Un-retract
G1 X47.1891 Y54.22 E0.92334 F1800 ; Print pattern wall
G1 X27.9005 Y73.5086 E0.92334 F1800 ; Print pattern wall
G1 E-1 F1800 ; Retract
G1 Z0.3 F12000 ; Z hop
G0 X30.3505 Y34.9314 F12000 ; Move to next pattern
G1 Z0.2 F12000 ; Z hop return
G1 E1 F1800 ; Un-retract
SET_PRESSURE_ADVANCE ADVANCE=0.005 ; Set pressure advance
M117 PA 0.005
G1 X49.6391 Y54.22 E0.92334 F1800 ; Print pattern wall
G1 X30.3505 Y73.5086 E0.92334 F1800 ; Print pattern wall
G1 E-1 F1800 ; Retract
G1 Z0.3 F12000 ; Z hop
G0 X30.9262 Y34.9314 F12000 ; Move to start next pattern wall
G1 Z0.2 F12000 ; Z hop return
G1 E1 F1800 ; Un-retract
G1 X50.2148 Y54.22 E0.92334 F1800 ; Print pattern wall
G1 X30.9262 Y73.5086 E0.92334 F1800 ; Print pattern wall
G1 E-1 F1800 ; Retract
G1 Z0.3 F12000 ; Z hop
G0 X31.5019 Y34.9314 F12000 ; Move to start next pattern wall
G1 Z0.2 F12000 ; Z hop return
G1 E1 F1800 ; Un-retract
G1 X50.7905 Y54.22 E0.92334 F1800 ; Print pattern wall
G1 X31.5019 Y73.5086 E0.92334 F1800 ; Print pattern wall
G1 E-1 F1800 ; Retract
G1 Z0.3 F12000 ; Z hop
G0 X33.9519 Y34.9314 F12000 ; Move to next pattern
G1 Z0.2 F12000 ; Z hop return
G1 E1 F1800 ; Un-retract
SET_PRESSURE_ADVANCE ADVANCE=0.01 ; Set pressure advance
M117 PA 0.01
G1 X53.2405 Y54.22 E0.92334 F1800 ; Print pattern wall
G1 X33.9519 Y73.5086 E0.92334 F1800 ; Print pattern wall
G1 E-1 F1800 ; Retract
G1 Z0.3 F12000 ; Z hop
G0 X34.5276 Y34.9314 F12000 ; Move to start next pattern wall
G1 Z0.2 F12000 ; Z hop return
G1 E1 F1800 ; Un-retract
G1 X53.8162 Y54.22 E0.92334 F1800 ; Print pattern wall
G1 X34.5276 Y73.5086 E0.92334 F1800 ; Print pattern wall
G1 E-1 F1800 ; Retract
G1 Z0.3 F12000 ; Z hop
G0 X35.1033 Y34.9314 F12000 ; Move to start next pattern wall
G1 Z0.2 F12000 ; Z hop return
G1 E1 F1800 ; Un-retract
G1 X54.3919 Y54.22 E0.92334 F1800 ; Print pattern wall
G1 X35.1033 Y73.5086 E0.92334 F1800 ; Print pattern wall
G1 E-1 F1800 ; Retract
G1 Z0.3 F12000 ; Z hop
G0 X37.5533 Y34.9314 F12000 ; Move to next pattern
G1 Z0.2 F12000 ; Z hop return
G1 E1 F1800 ; Un-retract
SET_PRESSURE_ADVANCE ADVANCE=0.015 ; Set pressure advance
M117 PA 0.015
G1 X56.8419 Y54.22 E0.92334 F1800 ; Print pattern wall
G1 X37.5533 Y73.5086 E0.92334 F1800 ; Print pattern wall
G1 E-1 F1800 ; Retract
G1 Z0.3 F12000 ; Z hop
G0 X38.129 Y34.9314 F12000 ; Move to start next pattern wall
G1 Z0.2 F12000 ; Z hop return
G1 E1 F1800 ; Un-retract
G1 X57.4176 Y54.22 E0.92334 F1800 ; Print pattern wall
G1 X38.129 Y73.5086 E0.92334 F1800 ; Print pattern wall
G1 E-1 F1800 ; Retract
G1 Z0.3 F12000 ; Z hop
G0 X38.7047 Y34.9314 F12000 ; Move to start next pattern wall
G1 Z0.2 F12000 ; Z hop return
G1 E1 F1800 ; Un-retract
G1 X57.9933 Y54.22 E0.92334 F1800 ; Print pattern wall
G1 X38.7047 Y73.5086 E0.92334 F1800 ; Print pattern wall
G1 E-1 F1800 ; Retract
G1 Z0.3 F12000 ; Z hop
G0 X41.1547 Y34.9314 F12000 ; Move to next pattern
G1 Z0.2 F12000 ; Z hop return
G1 E1 F1800 ; Un-retract
SET_PRESSURE_ADVANCE ADVANCE=0.02 ; Set pressure advance
M117 PA 0.02
G1 X60.4433 Y54.22 E0.92334 F1800 ; Print pattern wall
G1 X41.1547 Y73.5086 E0.92334 F1800 ; Print pattern wall
G1 E-1 F1800 ; Retract
G1 Z0.3 F12000 ; Z hop
G0 X41.7304 Y34.9314 F12000 ; Move to start next pattern wall
G1 Z0.2 F12000 ; Z hop return
G1 E1 F1800 ; Un-retract
G1 X61.019 Y54.22 E0.92334 F1800 ; Print pattern wall
G1 X41.7304 Y73.5086 E0.92334 F1800 ; Print pattern wall
G1 E-1 F1800 ; Retract
G1 Z0.3 F12000 ; Z hop
G0 X42.3061 Y34.9314 F12000 ; Move to start next pattern wall
G1 Z0.2 F12000 ; Z hop return
G1 E1 F1800 ; Un-retract
G1 X61.5947 Y54.22 E0.92334 F1800 ; Print pattern wall
G1 X42.3061 Y73.5086 E0.92334 F1800 ; Print pattern wall
G1 E-1 F1800 ; Retract
G1 Z0.3 F12000 ; Z hop
G0 X44.7561 Y34.9314 F12000 ; Move to next pattern
G1 Z0.2 F12000 ; Z hop return
G1 E1 F1800 ; Un-retract
SET_PRESSURE_ADVANCE ADVANCE=0.025 ; Set pressure advance
M117 PA 0.025
G1 X64.0447 Y54.22 E0.92334 F1800 ; Print pattern wall
G1 X44.7561 Y73.5086 E0.92334 F1800 ; Print pattern wall
G1 E-1 F1800 ; Retract
G1 Z0.3 F12000 ; Z hop
G0 X45.3318 Y34.9314 F12000 ; Move to start next pattern wall
G1 Z0.2 F12000 ; Z hop return
G1 E1 F1800 ; Un-retract
G1 X64.6204 Y54.22 E0.92334 F1800 ; Print pattern wall
G1 X45.3318 Y73.5086 E0.92334 F1800 ; Print pattern wall
G1 E-1 F1800 ; Retract
G1 Z0.3 F12000 ; Z hop
G0 X45.9075 Y34.9314 F12000 ; Move to start next pattern wall
G1 Z0.2 F12000 ; Z hop return
G1 E1 F1800 ; Un-retract
G1 X65.1961 Y54.22 E0.92334 F1800 ; Print pattern wall
G1 X45.9075 Y73.5086 E0.92334 F1800 ; Print pattern wall
G1 E-1 F1800 ; Retract
G1 Z0.3 F12000 ; Z hop
G0 X48.3575 Y34.9314 F12000 ; Move to next pattern
G1 Z0.2 F12000 ; Z hop return
G1 E1 F1800 ; Un-retract
SET_PRESSURE_ADVANCE ADVANCE=0.03 ; Set pressure advance
M117 PA 0.03
G1 X67.6461 Y54.22 E0.92334 F1800 ; Print pattern wall
G1 X48.3575 Y73.5086 E0.92334 F1800 ; Print pattern wall
G1 E-1 F1800 ; Retract
G1 Z0.3 F12000 ; Z hop
G0 X48.9332 Y34.9314 F12000 ; Move to start next pattern wall
G1 Z0.2 F12000 ; Z hop return
G1 E1 F1800 ; Un-retract
G1 X68.2218 Y54.22 E0.92334 F1800 ; Print pattern wall
G1 X48.9332 Y73.5086 E0.92334 F1800 ; Print pattern wall
G1 E-1 F1800 ; Retract
G1 Z0.3 F12000 ; Z hop
G0 X49.5089 Y34.9314 F12000 ; Move to start next pattern wall
G1 Z0.2 F12000 ; Z hop return
G1 E1 F1800 ; Un-retract
G1 X68.7975 Y54.22 E0.92334 F1800 ; Print pattern wall
G1 X49.5089 Y73.5086 E0.92334 F1800 ; Print pattern wall
G1 E-1 F1800 ; Retract
G1 Z0.3 F12000 ; Z hop
G0 X51.9589 Y34.9314 F12000 ; Move to next pattern
G1 Z0.2 F12000 ; Z hop return
G1 E1 F1800 ; Un-retract
SET_PRESSURE_ADVANCE ADVANCE=0.035 ; Set pressure advance
M117 PA 0.035
G1 X71.2475 Y54.22 E0.92334 F1800 ; Print pattern wall
G1 X51.9589 Y73.5086 E0.92334 F1800 ; Print pattern wall
G1 E-1 F1800 ; Retract
G1 Z0.3 F12000 ; Z hop
G0 X52.5346 Y34.9314 F12000 ; Move to start next pattern wall
G1 Z0.2 F12000 ; Z hop return
G1 E1 F1800 ; Un-retract
G1 X71.8232 Y54.22 E0.92334 F1800 ; Print pattern wall
G1 X52.5346 Y73.5086 E0.92334 F1800 ; Print pattern wall
G1 E-1 F1800 ; Retract
G1 Z0.3 F12000 ; Z hop
G0 X53.1103 Y34.9314 F12000 ; Move to start next pattern wall
G1 Z0.2 F12000 ; Z hop return
G1 E1 F1800 ; Un-retract
G1 X72.3989 Y54.22 E0.92334 F1800 ; Print pattern wall
G1 X53.1103 Y73.5086 E0.92334 F1800 ; Print pattern wall
G1 E-1 F1800 ; Retract
G1 Z0.3 F12000 ; Z hop
G0 X55.5603 Y34.9314 F12000 ; Move to next pattern
G1 Z0.2 F12000 ; Z hop return
G1 E1 F1800 ; Un-retract
SET_PRESSURE_ADVANCE ADVANCE=0.04 ; Set pressure advance
M117 PA 0.04
G1 X74.8489 Y54.22 E0.92334 F1800 ; Print pattern wall
G1 X55.5603 Y73.5086 E0.92334 F1800 ; Print pattern wall
G1 E-1 F1800 ; Retract
G1 Z0.3 F12000 ; Z hop
G0 X56.136 Y34.9314 F12000 ; Move to start next pattern wall
G1 Z0.2 F12000 ; Z hop return
G1 E1 F1800 ; Un-retract
G1 X75.4246 Y54.22 E0.92334 F1800 ; Print pattern wall
G1 X56.136 Y73.5086 E0.92334 F1800 ; Print pattern wall
G1 E-1 F1800 ; Retract
G1 Z0.3 F12000 ; Z hop
G0 X56.7117 Y34.9314 F12000 ; Move to start next pattern wall
G1 Z0.2 F12000 ; Z hop return
G1 E1 F1800 ; Un-retract
G1 X76.0003 Y54.22 E0.92334 F1800 ; Print pattern wall
G1 X56.7117 Y73.5086 E0.92334 F1800 ; Print pattern wall
G1 E-1 F1800 ; Retract
G1 Z0.3 F12000 ; Z hop
G0 X59.1617 Y34.9314 F12000 ; Move to next pattern
G1 Z0.2 F12000 ; Z hop return
G1 E1 F1800 ; Un-retract
SET_PRESSURE_ADVANCE ADVANCE=0.045 ; Set pressure advance
M117 PA 0.045
G1 X78.4503 Y54.22 E0.92334 F1800 ; Print pattern wall
G1 X59.1617 Y73.5086 E0.92334 F1800 ; Print pattern wall
G1 E-1 F1800 ; Retract
G1 Z0.3 F12000 ; Z hop
G0 X59.7374 Y34.9314 F12000 ; Move to start next pattern wall
G1 Z0.2 F12000 ; Z hop return
G1 E1 F1800 ; Un-retract
G1 X79.026 Y54.22 E0.92334 F1800 ; Print pattern wall
G1 X59.7374 Y73.5086 E0.92334 F1800 ; Print pattern wall
G1 E-1 F1800 ; Retract
G1 Z0.3 F12000 ; Z hop
G0 X60.3131 Y34.9314 F12000 ; Move to start next pattern wall
G1 Z0.2 F12000 ; Z hop return
G1 E1 F1800 ; Un-retract
G1 X79.6017 Y54.22 E0.92334 F1800 ; Print pattern wall
G1 X60.3131 Y73.5086 E0.92334 F1800 ; Print pattern wall
G1 E-1 F1800 ; Retract
G1 Z0.3 F12000 ; Z hop
G0 X62.7631 Y34.9314 F12000 ; Move to next pattern
G1 Z0.2 F12000 ; Z hop return
G1 E1 F1800 ; Un-retract
SET_PRESSURE_ADVANCE ADVANCE=0.05 ; Set pressure advance
M117 PA 0.05
G1 X82.0517 Y54.22 E0.92334 F1800 ; Print pattern wall
G1 X62.7631 Y73.5086 E0.92334 F1800 ; Print pattern wall
G1 E-1 F1800 ; Retract
G1 Z0.3 F12000 ; Z hop
G0 X63.3388 Y34.9314 F12000 ; Move to start next pattern wall
G1 Z0.2 F12000 ; Z hop return
G1 E1 F1800 ; Un-retract
G1 X82.6274 Y54.22 E0.92334 F1800 ; Print pattern wall
G1 X63.3388 Y73.5086 E0.92334 F1800 ; Print pattern wall
G1 E-1 F1800 ; Retract
G1 Z0.3 F12000 ; Z hop
G0 X63.9145 Y34.9314 F12000 ; Move to start next pattern wall
G1 Z0.2 F12000 ; Z hop return
G1 E1 F1800 ; Un-retract
G1 X83.2031 Y54.22 E0.92334 F1800 ; Print pattern wall
G1 X63.9145 Y73.5086 E0.92334 F1800 ; Print pattern wall
G1 E-1 F1800 ; Retract
G1 Z0.3 F12000 ; Z hop
G0 X66.3645 Y34.9314 F12000 ; Move to next pattern
G1 Z0.2 F12000 ; Z hop return
G1 E1 F1800 ; Un-retract
SET_PRESSURE_ADVANCE ADVANCE=0.055 ; Set pressure advance
M117 PA 0.055
G1 X85.6531 Y54.22 E0.92334 F1800 ; Print pattern wall
G1 X66.3645 Y73.5086 E0.92334 F1800 ; Print pattern wall
G1 E-1 F1800 ; Retract
G1 Z0.3 F12000 ; Z hop
G0 X66.9402 Y34.9314 F12000 ; Move to start next pattern wall
G1 Z0.2 F12000 ; Z hop return
G1 E1 F1800 ; Un-retract
G1 X86.2288 Y54.22 E0.92334 F1800 ; Print pattern wall
G1 X66.9402 Y73.5086 E0.92334 F1800 ; Print pattern wall
G1 E-1 F1800 ; Retract
G1 Z0.3 F12000 ; Z hop
G0 X67.5159 Y34.9314 F12000 ; Move to start next pattern wall
G1 Z0.2 F12000 ; Z hop return
G1 E1 F1800 ; Un-retract
G1 X86.8045 Y54.22 E0.92334 F1800 ; Print pattern wall
G1 X67.5159 Y73.5086 E0.92334 F1800 ; Print pattern wall
G1 E-1 F1800 ; Retract
G1 Z0.3 F12000 ; Z hop
G0 X69.9659 Y34.9314 F12000 ; Move to next pattern
G1 Z0.2 F12000 ; Z hop return
G1 E1 F1800 ; Un-retract
SET_PRESSURE_ADVANCE ADVANCE=0.06 ; Set pressure advance
M117 PA 0.06
G1 X89.2545 Y54.22 E0.92334 F1800 ; Print pattern wall
G1 X69.9659 Y73.5086 E0.92334 F1800 ; Print pattern wall
G1 E-1 F1800 ; Retract
G1 Z0.3 F12000 ; Z hop
G0 X70.5416 Y34.9314 F12000 ; Move to start next pattern wall
G1 Z0.2 F12000 ; Z hop return
G1 E1 F1800 ; Un-retract
G1 X89.8302 Y54.22 E0.92334 F1800 ; Print pattern wall
G1 X70.5416 Y73.5086 E0.92334 F1800 ; Print pattern wall
G1 E-1 F1800 ; Retract
G1 Z0.3 F12000 ; Z hop
G0 X71.1173 Y34.9314 F12000 ; Move to start next pattern wall
G1 Z0.2 F12000 ; Z hop return
G1 E1 F1800 ; Un-retract
G1 X90.4059 Y54.22 E0.92334 F1800 ; Print pattern wall
G1 X71.1173 Y73.5086 E0.92334 F1800 ; Print pattern wall
G1 E-1 F1800 ; Retract
G1 Z0.3 F12000 ; Z hop
G0 X73.5673 Y34.9314 F12000 ; Move to next pattern
G1 Z0.2 F12000 ; Z hop return
G1 E1 F1800 ; Un-retract
SET_PRESSURE_ADVANCE ADVANCE=0.065 ; Set pressure advance
M117 PA 0.065
G1 X92.8559 Y54.22 E0.92334 F1800 ; Print pattern wall
G1 X73.5673 Y73.5086 E0.92334 F1800 ; Print pattern wall
G1 E-1 F1800 ; Retract
G1 Z0.3 F12000 ; Z hop
G0 X74.1429 Y34.9314 F12000 ; Move to start next pattern wall
G1 Z0.2 F12000 ; Z hop return
G1 E1 F1800 ; Un-retract
G1 X93.4316 Y54.22 E0.92334 F1800 ; Print pattern wall
G1 X74.1429 Y73.5086 E0.92334 F1800 ; Print pattern wall
G1 E-1 F1800 ; Retract
G1 Z0.3 F12000 ; Z hop
G0 X74.7186 Y34.9314 F12000 ; Move to start next pattern wall
G1 Z0.2 F12000 ; Z hop return
G1 E1 F1800 ; Un-retract
G1 X94.0073 Y54.22 E0.92334 F1800 ; Print pattern wall
G1 X74.7186 Y73.5086 E0.92334 F1800 ; Print pattern wall
G1 E-1 F1800 ; Retract
G1 Z0.3 F12000 ; Z hop
G0 X77.1686 Y34.9314 F12000 ; Move to next pattern
G1 Z0.2 F12000 ; Z hop return
G1 E1 F1800 ; Un-retract
SET_PRESSURE_ADVANCE ADVANCE=0.07 ; Set pressure advance
M117 PA 0.07
G1 X96.4573 Y54.22 E0.92334 F1800 ; Print pattern wall
G1 X77.1686 Y73.5086 E0.92334 F1800 ; Print pattern wall
G1 E-1 F1800 ; Retract
G1 Z0.3 F12000 ; Z hop
G0 X77.7443 Y34.9314 F12000 ; Move to start next pattern wall
G1 Z0.2 F12000 ; Z hop return
G1 E1 F1800 ; Un-retract
G1 X97.033 Y54.22 E0.92334 F1800 ; Print pattern wall
G1 X77.7443 Y73.5086 E0.92334 F1800 ; Print pattern wall
G1 E-1 F1800 ; Retract
G1 Z0.3 F12000 ; Z hop
G0 X78.32 Y34.9314 F12000 ; Move to start next pattern wall
G1 Z0.2 F12000 ; Z hop return
G1 E1 F1800 ; Un-retract
G1 X97.6087 Y54.22 E0.92334 F1800 ; Print pattern wall
G1 X78.32 Y73.5086 E0.92334 F1800 ; Print pattern wall
G1 E-1 F1800 ; Retract
G1 Z0.3 F12000 ; Z hop
G0 X80.77 Y34.9314 F12000 ; Move to next pattern
G1 Z0.2 F12000 ; Z hop return
G1 E1 F1800 ; Un-retract
SET_PRESSURE_ADVANCE ADVANCE=0.075 ; Set pressure advance
M117 PA 0.075
G1 X100.0587 Y54.22 E0.92334 F1800 ; Print pattern wall
G1 X80.77 Y73.5086 E0.92334 F1800 ; Print pattern wall
G1 E-1 F1800 ; Retract
G1 Z0.3 F12000 ; Z hop
G0 X81.3457 Y34.9314 F12000 ; Move to start next pattern wall
G1 Z0.2 F12000 ; Z hop return
G1 E1 F1800 ; Un-retract
G1 X100.6344 Y54.22 E0.92334 F1800 ; Print pattern wall
G1 X81.3457 Y73.5086 E0.92334 F1800 ; Print pattern wall
G1 E-1 F1800 ; Retract
G1 Z0.3 F12000 ; Z hop
G0 X81.9214 Y34.9314 F12000 ; Move to start next pattern wall
G1 Z0.2 F12000 ; Z hop return
G1 E1 F1800 ; Un-retract
G1 X101.2101 Y54.22 E0.92334 F1800 ; Print pattern wall
G1 X81.9214 Y73.5086 E0.92334 F1800 ; Print pattern wall
G1 E-1 F1800 ; Retract
G1 Z0.3 F12000 ; Z hop
G0 X84.3714 Y34.9314 F12000 ; Move to next pattern
G1 Z0.2 F12000 ; Z hop return
G1 E1 F1800 ; Un-retract
SET_PRESSURE_ADVANCE ADVANCE=0.08 ; Set pressure advance
M117 PA 0.08
G1 X103.6601 Y54.22 E0.92334 F1800 ; Print pattern wall
G1 X84.3714 Y73.5086 E0.92334 F1800 ; Print pattern wall
G1 E-1 F1800 ; Retract
G1 Z0.3 F12000 ; Z hop
G0 X84.9471 Y34.9314 F12000 ; Move to start next pattern wall
G1 Z0.2 F12000 ; Z hop return
G1 E1 F1800 ; Un-retract
G1 X104.2358 Y54.22 E0.92334 F1800 ; Print pattern wall
G1 X84.9471 Y73.5086 E0.92334 F1800 ; Print pattern wall
G1 E-1 F1800 ; Retract
G1 Z0.3 F12000 ; Z hop
G0 X85.5228 Y34.9314 F12000 ; Move to start next pattern wall
G1 Z0.2 F12000 ; Z hop return
G1 E1 F1800 ; Un-retract
G1 X104.8115 Y54.22 E0.92334 F1800 ; Print pattern wall
G1 X85.5228 Y73.5086 E0.92334 F1800 ; Print pattern wall
G1 E-1 F1800 ; Retract
G1 Z0.3 F12000 ; Z hop
G0 X26.7491 Y34.9314 F12000 ; Move back to start position
G1 Z0.2 F12000 ; Z hop return
G1 E1 F1800 ; Un-retract
M106 S255 ; Set fan speed
G0 Z0.4 F12000 ; Move to layer height
SET_PRESSURE_ADVANCE ADVANCE=0 ; Set pressure advance to start value for numbering
M117 PA 0
G1 E-1 F1800 ; Retract
G1 Z0.5 F12000 ; Z hop
G0 X23.4002 Y76.8832 F12000 ; Move
G1 Z0.4 F12000 ; Z hop return
G1 E1 F1800 ; Un-retract
G1 X25.4002 Y76.8832 E0.0677 F1800 ; Glyph: 0
G1 X27.4002 Y76.8832 E0.0677 F1800 ; Glyph: 0
G1 X27.4002 Y78.8832 E0.0677 F1800 ; Glyph: 0
G1 X25.4002 Y78.8832 E0.0677 F1800 ; Glyph: 0
G1 X23.4002 Y78.8832 E0.0677 F1800 ; Glyph: 0
G1 X23.4002 Y76.8832 E0.0677 F1800 ; Glyph: 0
G1 E-1 F1800 ; Retract
G1 Z0.5 F12000 ; Z hop
G0 X30.603 Y76.8832 F12000 ; Move
G1 Z0.4 F12000 ; Z hop return
G1 E1 F1800 ; Un-retract
G1 X32.603 Y76.8832 E0.0677 F1800 ; Glyph: 0
G1 X34.603 Y76.8832 E0.0677 F1800 ; Glyph: 0
G1 X34.603 Y78.8832 E0.0677 F1800 ; Glyph: 0
G1 X32.603 Y78.8832 E0.0677 F1800 ; Glyph: 0
G1 X30.603 Y78.8832 E0.0677 F1800 ; Glyph: 0
G1 X30.603 Y76.8832 E0.0677 F1800 ; Glyph: 0
G1 E-1 F1800 ; Retract
G1 Z0.5 F12000 ; Z hop
G0 X34.603 Y79.8832 F12000 ; Move
G1 Z0.4 F12000 ; Z hop return
G1 E1 F1800 ; Un-retract
G1 X33.853 Y79.8832 E0.02539 F1800 ; Glyph: .
G1 E-1 F1800 ; Retract
G1 Z0.5 F12000 ; Z hop
G0 X30.603 Y80.8832 F12000 ; Move
G1 Z0.4 F12000 ; Z hop return
G1 E1 F1800 ; Un-retract
G1 X32.603 Y80.8832 E0.0677 F1800 ; Glyph: 0
G1 X34.603 Y80.8832 E0.0677 F1800 ; Glyph: 0
G1 X34.603 Y82.8832 E0.0677 F1800 ; Glyph: 0
G1 X32.603 Y82.8832 E0.0677 F1800 ; Glyph: 0
G1 X30.603 Y82.8832 E0.0677 F1800 ; Glyph: 0
G1 X30.603 Y80.8832 E0.0677 F1800 ; Glyph: 0
G1 E-1 F1800 ; Retract
G1 Z0.5 F12000 ; Z hop
G0 X30.603 Y83.8832 F12000 ; Move
G1 Z0.4 F12000 ; Z hop return
G1 E1 F1800 ; Un-retract
G1 X32.603 Y83.8832 E0.0677 F1800 ; Glyph: 1
G1 X34.603 Y83.8832 E0.0677 F1800 ; Glyph: 1
G1 E-1 F1800 ; Retract
G1 Z0.5 F12000 ; Z hop
G0 X37.8058 Y76.8832 F12000 ; Move
G1 Z0.4 F12000 ; Z hop return
G1 E1 F1800 ; Un-retract
G1 X39.8058 Y76.8832 E0.0677 F1800 ; Glyph: 0
G1 X41.8058 Y76.8832 E0.0677 F1800 ; Glyph: 0
G1 X41.8058 Y78.8832 E0.0677 F1800 ; Glyph: 0
G1 X39.8058 Y78.8832 E0.0677 F1800 ; Glyph: 0
G1 X37.8058 Y78.8832 E0.0677 F1800 ; Glyph: 0
G1 X37.8058 Y76.8832 E0.0677 F1800 ; Glyph: 0
G1 E-1 F1800 ; Retract
G1 Z0.5 F12000 ; Z hop
G0 X41.8058 Y79.8832 F12000 ; Move
G1 Z0.4 F12000 ; Z hop return
G1 E1 F1800 ; Un-retract
G1 X41.0558 Y79.8832 E0.02539 F1800 ; Glyph: .
G1 E-1 F1800 ; Retract
G1 Z0.5 F12000 ; Z hop
G0 X37.8058 Y80.8832 F12000 ; Move
G1 Z0.4 F12000 ; Z hop return
G1 E1 F1800 ; Un-retract
G1 X39.8058 Y80.8832 E0.0677 F1800 ; Glyph: 0
G1 X41.8058 Y80.8832 E0.0677 F1800 ; Glyph: 0
G1 X41.8058 Y82.8832 E0.0677 F1800 ; Glyph: 0
G1 X39.8058 Y82.8832 E0.0677 F1800 ; Glyph: 0
G1 X37.8058 Y82.8832 E0.0677 F1800 ; Glyph: 0
G1 X37.8058 Y80.8832 E0.0677 F1800 ; Glyph: 0
G1 E-1 F1800 ; Retract
G1 Z0.5 F12000 ; Z hop
G0 X37.8058 Y83.8832 F12000 ; Move
G1 Z0.4 F12000 ; Z hop return
G1 E1 F1800 ; Un-retract
G1 X37.8058 Y85.8832 E0.0677 F1800 ; Glyph: 2
G1 X39.8058 Y85.8832 E0.0677 F1800 ; Glyph: 2
G1 X39.8058 Y83.8832 E0.0677 F1800 ; Glyph: 2
G1 X41.8058 Y83.8832 E0.0677 F1800 ; Glyph: 2
G1 X41.8058 Y85.8832 E0.0677 F1800 ; Glyph: 2
G1 E-1 F1800 ; Retract
G1 Z0.5 F12000 ; Z hop
G0 X45.0086 Y76.8832 F12000 ; Move
G1 Z0.4 F12000 ; Z hop return
G1 E1 F1800 ; Un-retract
G1 X47.0086 Y76.8832 E0.0677 F1800 ; Glyph: 0
G1 X49.0086 Y76.8832 E0.0677 F1800 ; Glyph: 0
G1 X49.0086 Y78.8832 E0.0677 F1800 ; Glyph: 0
G1 X47.0086 Y78.8832 E0.0677 F1800 ; Glyph: 0
G1 X45.0086 Y78.8832 E0.0677 F1800 ; Glyph: 0
G1 X45.0086 Y76.8832 E0.0677 F1800 ; Glyph: 0
G1 E-1 F1800 ; Retract
G1 Z0.5 F12000 ; Z hop
G0 X49.0086 Y79.8832 F12000 ; Move
G1 Z0.4 F12000 ; Z hop return
G1 E1 F1800 ; Un-retract
G1 X48.2586 Y79.8832 E0.02539 F1800 ; Glyph: .
G1 E-1 F1800 ; Retract
G1 Z0.5 F12000 ; Z hop
G0 X45.0086 Y80.8832 F12000 ; Move
G1 Z0.4 F12000 ; Z hop return
G1 E1 F1800 ; Un-retract
G1 X47.0086 Y80.8832 E0.0677 F1800 ; Glyph: 0
G1 X49.0086 Y80.8832 E0.0677 F1800 ; Glyph: 0
G1 X49.0086 Y82.8832 E0.0677 F1800 ; Glyph: 0
G1 X47.0086 Y82.8832 E0.0677 F1800 ; Glyph: 0
G1 X45.0086 Y82.8832 E0.0677 F1800 ; Glyph: 0
G1 X45.0086 Y80.8832 E0.0677 F1800 ; Glyph: 0
G1 E-1 F1800 ; Retract
G1 Z0.5 F12000 ; Z hop
G0 X45.0086 Y83.8832 F12000 ; Move
G1 Z0.4 F12000 ; Z hop return
G1 E1 F1800 ; Un-retract
G1 X45.0086 Y85.8832 E0.0677 F1800 ; Glyph: 3
G1 X47.0086 Y85.8832 E0.0677 F1800 ; Glyph: 3
G1 X47.0086 Y83.8832 E0.0677 F1800 ; Glyph: 3
G0 X47.0086 Y85.8832 F12000 ; Move
G1 X49.0086 Y85.8832 E0.0677 F1800 ; Glyph: 3
G1 X49.0086 Y83.8832 E0.0677 F1800 ; Glyph: 3
G1 E-1 F1800 ; Retract
G1 Z0.5 F12000 ; Z hop
G0 X52.2114 Y76.8832 F12000 ; Move
G1 Z0.4 F12000 ; Z hop return
G1 E1 F1800 ; Un-retract
G1 X54.2114 Y76.8832 E0.0677 F1800 ; Glyph: 0
G1 X56.2114 Y76.8832 E0.0677 F1800 ; Glyph: 0
G1 X56.2114 Y78.8832 E0.0677 F1800 ; Glyph: 0
G1 X54.2114 Y78.8832 E0.0677 F1800 ; Glyph: 0
G1 X52.2114 Y78.8832 E0.0677 F1800 ; Glyph: 0
G1 X52.2114 Y76.8832 E0.0677 F1800 ; Glyph: 0
G1 E-1 F1800 ; Retract
G1 Z0.5 F12000 ; Z hop
G0 X56.2114 Y79.8832 F12000 ; Move
G1 Z0.4 F12000 ; Z hop return
G1 E1 F1800 ; Un-retract
G1 X55.4614 Y79.8832 E0.02539 F1800 ; Glyph: .
G1 E-1 F1800 ; Retract
G1 Z0.5 F12000 ; Z hop
G0 X52.2114 Y80.8832 F12000 ; Move
G1 Z0.4 F12000 ; Z hop return
G1 E1 F1800 ; Un-retract
G1 X54.2114 Y80.8832 E0.0677 F1800 ; Glyph: 0
G1 X56.2114 Y80.8832 E0.0677 F1800 ; Glyph: 0
G1 X56.2114 Y82.8832 E0.0677 F1800 ; Glyph: 0
G1 X54.2114 Y82.8832 E0.0677 F1800 ; Glyph: 0
G1 X52.2114 Y82.8832 E0.0677 F1800 ; Glyph: 0
G1 X52.2114 Y80.8832 E0.0677 F1800 ; Glyph: 0
G1 E-1 F1800 ; Retract
G1 Z0.5 F12000 ; Z hop
G0 X52.2114 Y85.8832 F12000 ; Move
G1 Z0.4 F12000 ; Z hop return
G1 E1 F1800 ; Un-retract
G1 X54.2114 Y85.8832 E0.0677 F1800 ; Glyph: 4
G1 X56.2114 Y85.8832 E0.0677 F1800 ; Glyph: 4
G0 X54.2114 Y85.8832 F12000 ; Move
G1 X54.2114 Y83.8832 E0.0677 F1800 ; Glyph: 4
G1 X52.2114 Y83.8832 E0.0677 F1800 ; Glyph: 4
G1 E-1 F1800 ; Retract
G1 Z0.5 F12000 ; Z hop
G0 X59.4142 Y76.8832 F12000 ; Move
G1 Z0.4 F12000 ; Z hop return
G1 E1 F1800 ; Un-retract
G1 X61.4142 Y76.8832 E0.0677 F1800 ; Glyph: 0
G1 X63.4142 Y76.8832 E0.0677 F1800 ; Glyph: 0
G1 X63.4142 Y78.8832 E0.0677 F1800 ; Glyph: 0
G1 X61.4142 Y78.8832 E0.0677 F1800 ; Glyph: 0
G1 X59.4142 Y78.8832 E0.0677 F1800 ; Glyph: 0
G1 X59.4142 Y76.8832 E0.0677 F1800 ; Glyph: 0
G1 E-1 F1800 ; Retract
G1 Z0.5 F12000 ; Z hop
G0 X63.4142 Y79.8832 F12000 ; Move
G1 Z0.4 F12000 ; Z hop return
G1 E1 F1800 ; Un-retract
G1 X62.6642 Y79.8832 E0.02539 F1800 ; Glyph: .
G1 E-1 F1800 ; Retract
G1 Z0.5 F12000 ; Z hop
G0 X59.4142 Y80.8832 F12000 ; Move
G1 Z0.4 F12000 ; Z hop return
G1 E1 F1800 ; Un-retract
G1 X61.4142 Y80.8832 E0.0677 F1800 ; Glyph: 0
G1 X63.4142 Y80.8832 E0.0677 F1800 ; Glyph: 0
G1 X63.4142 Y82.8832 E0.0677 F1800 ; Glyph: 0
G1 X61.4142 Y82.8832 E0.0677 F1800 ; Glyph: 0
G1 X59.4142 Y82.8832 E0.0677 F1800 ; Glyph: 0
G1 X59.4142 Y80.8832 E0.0677 F1800 ; Glyph: 0
G1 E-1 F1800 ; Retract
G1 Z0.5 F12000 ; Z hop
G0 X59.4142 Y85.8832 F12000 ; Move
G1 Z0.4 F12000 ; Z hop return
G1 E1 F1800 ; Un-retract
G1 X59.4142 Y83.8832 E0.0677 F1800 ; Glyph: 5
G1 X61.4142 Y83.8832 E0.0677 F1800 ; Glyph: 5
G1 X61.4142 Y85.8832 E0.0677 F1800 ; Glyph: 5
G1 X63.4142 Y85.8832 E0.0677 F1800 ; Glyph: 5
G1 X63.4142 Y83.8832 E0.0677 F1800 ; Glyph: 5
G1 E-1 F1800 ; Retract
G1 Z0.5 F12000 ; Z hop
G0 X66.617 Y76.8832 F12000 ; Move
G1 Z0.4 F12000 ; Z hop return
G1 E1 F1800 ; Un-retract
G1 X68.617 Y76.8832 E0.0677 F1800 ; Glyph: 0
G1 X70.617 Y76.8832 E0.0677 F1800 ; Glyph: 0
G1 X70.617 Y78.8832 E0.0677 F1800 ; Glyph: 0
G1 X68.617 Y78.8832 E0.0677 F1800 ; Glyph: 0
G1 X66.617 Y78.8832 E0.0677 F1800 ; Glyph: 0
G1 X66.617 Y76.8832 E0.0677 F1800 ; Glyph: 0
G1 E-1 F1800 ; Retract
G1 Z0.5 F12000 ; Z hop
G0 X70.617 Y79.8832 F12000 ; Move
G1 Z0.4 F12000 ; Z hop return
G1 E1 F1800 ; Un-retract
G1 X69.867 Y79.8832 E0.02539 F1800 ; Glyph: .
G1 E-1 F1800 ; Retract
G1 Z0.5 F12000 ; Z hop
G0 X66.617 Y80.8832 F12000 ; Move
G1 Z0.4 F12000 ; Z hop return
G1 E1 F1800 ; Un-retract
G1 X68.617 Y80.8832 E0.0677 F1800 ; Glyph: 0
G1 X70.617 Y80.8832 E0.0677 F1800 ; Glyph: 0
G1 X70.617 Y82.8832 E0.0677 F1800 ; Glyph: 0
G1 X68.617 Y82.8832 E0.0677 F1800 ; Glyph: 0
G1 X66.617 Y82.8832 E0.0677 F1800 ; Glyph: 0
G1 X66.617 Y80.8832 E0.0677 F1800 ; Glyph: 0
G1 E-1 F1800 ; Retract
G1 Z0.5 F12000 ; Z hop
G0 X66.617 Y85.8832 F12000 ; Move
G1 Z0.4 F12000 ; Z hop return
G1 E1 F1800 ; Un-retract
G1 X66.617 Y83.8832 E0.0677 F1800 ; Glyph: 6
G1 X68.617 Y83.8832 E0.0677 F1800 ; Glyph: 6
G1 X70.617 Y83.8832 E0.0677 F1800 ; Glyph: 6
G1 X70.617 Y85.8832 E0.0677 F1800 ; Glyph: 6
G1 X68.617 Y85.8832 E0.0677 F1800 ; Glyph: 6
G1 X68.617 Y83.8832 E0.0677 F1800 ; Glyph: 6
G1 E-1 F1800 ; Retract
G1 Z0.5 F12000 ; Z hop
G0 X73.8198 Y76.8832 F12000 ; Move
G1 Z0.4 F12000 ; Z hop return
G1 E1 F1800 ; Un-retract
G1 X75.8198 Y76.8832 E0.0677 F1800 ; Glyph: 0
G1 X77.8198 Y76.8832 E0.0677 F1800 ; Glyph: 0
G1 X77.8198 Y78.8832 E0.0677 F1800 ; Glyph: 0
G1 X75.8198 Y78.8832 E0.0677 F1800 ; Glyph: 0
G1 X73.8198 Y78.8832 E0.0677 F1800 ; Glyph: 0
G1 X73.8198 Y76.8832 E0.0677 F1800 ; Glyph: 0
G1 E-1 F1800 ; Retract
G1 Z0.5 F12000 ; Z hop
G0 X77.8198 Y79.8832 F12000 ; Move
G1 Z0.4 F12000 ; Z hop return
G1 E1 F1800 ; Un-retract
G1 X77.0698 Y79.8832 E0.02539 F1800 ; Glyph: .
G1 E-1 F1800 ; Retract
G1 Z0.5 F12000 ; Z hop
G0 X73.8198 Y80.8832 F12000 ; Move
G1 Z0.4 F12000 ; Z hop return
G1 E1 F1800 ; Un-retract
G1 X75.8198 Y80.8832 E0.0677 F1800 ; Glyph: 0
G1 X77.8198 Y80.8832 E0.0677 F1800 ; Glyph: 0
G1 X77.8198 Y82.8832 E0.0677 F1800 ; Glyph: 0
G1 X75.8198 Y82.8832 E0.0677 F1800 ; Glyph: 0
G1 X73.8198 Y82.8832 E0.0677 F1800 ; Glyph: 0
G1 X73.8198 Y80.8832 E0.0677 F1800 ; Glyph: 0
G1 E-1 F1800 ; Retract
G1 Z0.5 F12000 ; Z hop
G0 X73.8198 Y83.8832 F12000 ; Move
G1 Z0.4 F12000 ; Z hop return
G1 E1 F1800 ; Un-retract
G1 X73.8198 Y85.8832 E0.0677 F1800 ; Glyph: 7
G1 X75.8198 Y85.8832 E0.0677 F1800 ; Glyph: 7
G1 X77.8198 Y85.8832 E0.0677 F1800 ; Glyph: 7
G1 E-1 F1800 ; Retract
G1 Z0.5 F12000 ; Z hop
G0 X81.0226 Y76.8832 F12000 ; Move
G1 Z0.4 F12000 ; Z hop return
G1 E1 F1800 ; Un-retract
G1 X83.0226 Y76.8832 E0.0677 F1800 ; Glyph: 0
G1 X85.0226 Y76.8832 E0.0677 F1800 ; Glyph: 0
G1 X85.0226 Y78.8832 E0.0677 F1800 ; Glyph: 0
G1 X83.0226 Y78.8832 E0.0677 F1800 ; Glyph: 0
G1 X81.0226 Y78.8832 E0.0677 F1800 ; Glyph: 0
G1 X81.0226 Y76.8832 E0.0677 F1800 ; Glyph: 0
G1 E-1 F1800 ; Retract
G1 Z0.5 F12000 ; Z hop
G0 X85.0226 Y79.8832 F12000 ; Move
G1 Z0.4 F12000 ; Z hop return
G1 E1 F1800 ; Un-retract
G1 X84.2726 Y79.8832 E0.02539 F1800 ; Glyph: .
G1 E-1 F1800 ; Retract
G1 Z0.5 F12000 ; Z hop
G0 X81.0226 Y80.8832 F12000 ; Move
G1 Z0.4 F12000 ; Z hop return
G1 E1 F1800 ; Un-retract
G1 X83.0226 Y80.8832 E0.0677 F1800 ; Glyph: 0
G1 X85.0226 Y80.8832 E0.0677 F1800 ; Glyph: 0
G1 X85.0226 Y82.8832 E0.0677 F1800 ; Glyph: 0
G1 X83.0226 Y82.8832 E0.0677 F1800 ; Glyph: 0
G1 X81.0226 Y82.8832 E0.0677 F1800 ; Glyph: 0
G1 X81.0226 Y80.8832 E0.0677 F1800 ; Glyph: 0
G1 E-1 F1800 ; Retract
G1 Z0.5 F12000 ; Z hop
G0 X81.0226 Y83.8832 F12000 ; Move
G1 Z0.4 F12000 ; Z hop return
G1 E1 F1800 ; Un-retract
G1 X83.0226 Y83.8832 E0.0677 F1800 ; Glyph: 8
G1 X85.0226 Y83.8832 E0.0677 F1800 ; Glyph: 8
G1 X85.0226 Y85.8832 E0.0677 F1800 ; Glyph: 8
G1 X83.0226 Y85.8832 E0.0677 F1800 ; Glyph: 8
G1 X81.0226 Y85.8832 E0.0677 F1800 ; Glyph: 8
G1 X81.0226 Y83.8832 E0.0677 F1800 ; Glyph: 8
G0 X83.0226 Y83.8832 F12000 ; Move
G1 X83.0226 Y85.8832 E0.0677 F1800 ; Glyph: 8
G1 E-1 F1800 ; Retract
G1 Z0.5 F12000 ; Z hop
G0 X24.8245 Y33.0068 F12000 ; Move to pattern start

G1 Z0.4 F12000 ; Z hop return
G1 E1 F1800 ; Un-retract
SET_PRESSURE_ADVANCE ADVANCE=0 ; Set pressure advance
M117 PA 0
G1 X46.0377 Y54.22 E1.01546 F6000 ; Print pattern wall
G1 X24.8245 Y75.4332 E1.01546 F6000 ; Print pattern wall
G1 E-1 F1800 ; Retract
G1 Z0.5 F12000 ; Z hop
G0 X25.4002 Y33.0068 F12000 ; Move to start next pattern wall
G1 Z0.4 F12000 ; Z hop return
G1 E1 F1800 ; Un-retract
G1 X46.6134 Y54.22 E1.01546 F6000 ; Print pattern wall
G1 X25.4002 Y75.4332 E1.01546 F6000 ; Print pattern wall
G1 E-1 F1800 ; Retract
G1 Z0.5 F12000 ; Z hop
G0 X25.9759 Y33.0068 F12000 ; Move to start next pattern wall
G1 Z0.4 F12000 ; Z hop return
G1 E1 F1800 ; Un-retract
G1 X47.1891 Y54.22 E1.01546 F6000 ; Print pattern wall
G1 X25.9759 Y75.4332 E1.01546 F6000 ; Print pattern wall
G1 E-1 F1800 ; Retract
G1 Z0.5 F12000 ; Z hop
G0 X28.4259 Y33.0068 F12000 ; Move to next pattern
G1 Z0.4 F12000 ; Z hop return
G1 E1 F1800 ; Un-retract
SET_PRESSURE_ADVANCE ADVANCE=0.005 ; Set pressure advance
M117 PA 0.005
G1 X49.6391 Y54.22 E1.01546 F6000 ; Print pattern wall
G1 X28.4259 Y75.4332 E1.01546 F6000 ; Print pattern wall
G1 E-1 F1800 ; Retract
G1 Z0.5 F12000 ; Z hop
G0 X29.0016 Y33.0068 F12000 ; Move to start next pattern wall
G1 Z0.4 F12000 ; Z hop return
G1 E1 F1800 ; Un-retract
G1 X50.2148 Y54.22 E1.01546 F6000 ; Print pattern wall
G1 X29.0016 Y75.4332 E1.01546 F6000 ; Print pattern wall
G1 E-1 F1800 ; Retract
G1 Z0.5 F12000 ; Z hop
G0 X29.5773 Y33.0068 F12000 ; Move to start next pattern wall
G1 Z0.4 F12000 ; Z hop return
G1 E1 F1800 ; Un-retract
G1 X50.7905 Y54.22 E1.01546 F6000 ; Print pattern wall
G1 X29.5773 Y75.4332 E1.01546 F6000 ; Print pattern wall
G1 E-1 F1800 ; Retract
G1 Z0.5 F12000 ; Z hop
G0 X32.0273 Y33.0068 F12000 ; Move to next pattern
G1 Z0.4 F12000 ; Z hop return
G1 E1 F1800 ; Un-retract
SET_PRESSURE_ADVANCE ADVANCE=0.01 ; Set pressure advance
M117 PA 0.01
G1 X53.2405 Y54.22 E1.01546 F6000 ; Print pattern wall
G1 X32.0273 Y75.4332 E1.01546 F6000 ; Print pattern wall
G1 E-1 F1800 ; Retract
G1 Z0.5 F12000 ; Z hop
G0 X32.603 Y33.0068 F12000 ; Move to start next pattern wall
G1 Z0.4 F12000 ; Z hop return
G1 E1 F1800 ; Un-retract
G1 X53.8162 Y54.22 E1.01546 F6000 ; Print pattern wall
G1 X32.603 Y75.4332 E1.01546 F6000 ; Print pattern wall
G1 E-1 F1800 ; Retract
G1 Z0.5 F12000 ; Z hop
G0 X33.1787 Y33.0068 F12000 ; Move to start next pattern wall
G1 Z0.4 F12000 ; Z hop return
G1 E1 F1800 ; Un-retract
G1 X54.3919 Y54.22 E1.01546 F6000 ; Print pattern wall
G1 X33.1787 Y75.4332 E1.01546 F6000 ; Print pattern wall
G1 E-1 F1800 ; Retract
G1 Z0.5 F12000 ; Z hop
G0 X35.6287 Y33.0068 F12000 ; Move to next pattern
G1 Z0.4 F12000 ; Z hop return
G1 E1 F1800 ; Un-retract
SET_PRESSURE_ADVANCE ADVANCE=0.015 ; Set pressure advance
M117 PA 0.015
G1 X56.8419 Y54.22 E1.01546 F6000 ; Print pattern wall
G1 X35.6287 Y75.4332 E1.01546 F6000 ; Print pattern wall
G1 E-1 F1800 ; Retract
G1 Z0.5 F12000 ; Z hop
G0 X36.2044 Y33.0068 F12000 ; Move to start next pattern wall
G1 Z0.4 F12000 ; Z hop return
G1 E1 F1800 ; Un-retract
G1 X57.4176 Y54.22 E1.01546 F6000 ; Print pattern wall
G1 X36.2044 Y75.4332 E1.01546 F6000 ; Print pattern wall
G1 E-1 F1800 ; Retract
G1 Z0.5 F12000 ; Z hop
G0 X36.7801 Y33.0068 F12000 ; Move to start next pattern wall
G1 Z0.4 F12000 ; Z hop return
G1 E1 F1800 ; Un-retract
G1 X57.9933 Y54.22 E1.01546 F6000 ; Print pattern wall
G1 X36.7801 Y75.4332 E1.01546 F6000 ; Print pattern wall
G1 E-1 F1800 ; Retract
G1 Z0.5 F12000 ; Z hop
G0 X39.2301 Y33.0068 F12000 ; Move to next pattern
G1 Z0.4 F12000 ; Z hop return
G1 E1 F1800 ; Un-retract
SET_PRESSURE_ADVANCE ADVANCE=0.02 ; Set pressure advance
M117 PA 0.02
G1 X60.4433 Y54.22 E1.01546 F6000 ; Print pattern wall
G1 X39.2301 Y75.4332 E1.01546 F6000 ; Print pattern wall
G1 E-1 F1800 ; Retract
G1 Z0.5 F12000 ; Z hop
G0 X39.8058 Y33.0068 F12000 ; Move to start next pattern wall
G1 Z0.4 F12000 ; Z hop return
G1 E1 F1800 ; Un-retract
G1 X61.019 Y54.22 E1.01546 F6000 ; Print pattern wall
G1 X39.8058 Y75.4332 E1.01546 F6000 ; Print pattern wall
G1 E-1 F1800 ; Retract
G1 Z0.5 F12000 ; Z hop
G0 X40.3815 Y33.0068 F12000 ; Move to start next pattern wall
G1 Z0.4 F12000 ; Z hop return
G1 E1 F1800 ; Un-retract
G1 X61.5947 Y54.22 E1.01546 F6000 ; Print pattern wall
G1 X40.3815 Y75.4332 E1.01546 F6000 ; Print pattern wall
G1 E-1 F1800 ; Retract
G1 Z0.5 F12000 ; Z hop
G0 X42.8315 Y33.0068 F12000 ; Move to next pattern
G1 Z0.4 F12000 ; Z hop return
G1 E1 F1800 ; Un-retract
SET_PRESSURE_ADVANCE ADVANCE=0.025 ; Set pressure advance
M117 PA 0.025
G1 X64.0447 Y54.22 E1.01546 F6000 ; Print pattern wall
G1 X42.8315 Y75.4332 E1.01546 F6000 ; Print pattern wall
G1 E-1 F1800 ; Retract
G1 Z0.5 F12000 ; Z hop
G0 X43.4072 Y33.0068 F12000 ; Move to start next pattern wall
G1 Z0.4 F12000 ; Z hop return
G1 E1 F1800 ; Un-retract
G1 X64.6204 Y54.22 E1.01546 F6000 ; Print pattern wall
G1 X43.4072 Y75.4332 E1.01546 F6000 ; Print pattern wall
G1 E-1 F1800 ; Retract
G1 Z0.5 F12000 ; Z hop
G0 X43.9829 Y33.0068 F12000 ; Move to start next pattern wall
G1 Z0.4 F12000 ; Z hop return
G1 E1 F1800 ; Un-retract
G1 X65.1961 Y54.22 E1.01546 F6000 ; Print pattern wall
G1 X43.9829 Y75.4332 E1.01546 F6000 ; Print pattern wall
G1 E-1 F1800 ; Retract
G1 Z0.5 F12000 ; Z hop
G0 X46.4329 Y33.0068 F12000 ; Move to next pattern
G1 Z0.4 F12000 ; Z hop return
G1 E1 F1800 ; Un-retract
SET_PRESSURE_ADVANCE ADVANCE=0.03 ; Set pressure advance
M117 PA 0.03
G1 X67.6461 Y54.22 E1.01546 F6000 ; Print pattern wall
G1 X46.4329 Y75.4332 E1.01546 F6000 ; Print pattern wall
G1 E-1 F1800 ; Retract
G1 Z0.5 F12000 ; Z hop
G0 X47.0086 Y33.0068 F12000 ; Move to start next pattern wall
G1 Z0.4 F12000 ; Z hop return
G1 E1 F1800 ; Un-retract
G1 X68.2218 Y54.22 E1.01546 F6000 ; Print pattern wall
G1 X47.0086 Y75.4332 E1.01546 F6000 ; Print pattern wall
G1 E-1 F1800 ; Retract
G1 Z0.5 F12000 ; Z hop
G0 X47.5843 Y33.0068 F12000 ; Move to start next pattern wall
G1 Z0.4 F12000 ; Z hop return
G1 E1 F1800 ; Un-retract
G1 X68.7975 Y54.22 E1.01546 F6000 ; Print pattern wall
G1 X47.5843 Y75.4332 E1.01546 F6000 ; Print pattern wall
G1 E-1 F1800 ; Retract
G1 Z0.5 F12000 ; Z hop
G0 X50.0343 Y33.0068 F12000 ; Move to next pattern
G1 Z0.4 F12000 ; Z hop return
G1 E1 F1800 ; Un-retract
SET_PRESSURE_ADVANCE ADVANCE=0.035 ; Set pressure advance
M117 PA 0.035
G1 X71.2475 Y54.22 E1.01546 F6000 ; Print pattern wall
G1 X50.0343 Y75.4332 E1.01546 F6000 ; Print pattern wall
G1 E-1 F1800 ; Retract
G1 Z0.5 F12000 ; Z hop
G0 X50.61 Y33.0068 F12000 ; Move to start next pattern wall
G1 Z0.4 F12000 ; Z hop return
G1 E1 F1800 ; Un-retract
G1 X71.8232 Y54.22 E1.01546 F6000 ; Print pattern wall
G1 X50.61 Y75.4332 E1.01546 F6000 ; Print pattern wall
G1 E-1 F1800 ; Retract
G1 Z0.5 F12000 ; Z hop
G0 X51.1857 Y33.0068 F12000 ; Move to start next pattern wall
G1 Z0.4 F12000 ; Z hop return
G1 E1 F1800 ; Un-retract
G1 X72.3989 Y54.22 E1.01546 F6000 ; Print pattern wall
G1 X51.1857 Y75.4332 E1.01546 F6000 ; Print pattern wall
G1 E-1 F1800 ; Retract
G1 Z0.5 F12000 ; Z hop
G0 X53.6357 Y33.0068 F12000 ; Move to next pattern
G1 Z0.4 F12000 ; Z hop return
G1 E1 F1800 ; Un-retract
SET_PRESSURE_ADVANCE ADVANCE=0.04 ; Set pressure advance
M117 PA 0.04
G1 X74.8489 Y54.22 E1.01546 F6000 ; Print pattern wall
G1 X53.6357 Y75.4332 E1.01546 F6000 ; Print pattern wall
G1 E-1 F1800 ; Retract
G1 Z0.5 F12000 ; Z hop
G0 X54.2114 Y33.0068 F12000 ; Move to start next pattern wall
G1 Z0.4 F12000 ; Z hop return
G1 E1 F1800 ; Un-retract
G1 X75.4246 Y54.22 E1.01546 F6000 ; Print pattern wall
G1 X54.2114 Y75.4332 E1.01546 F6000 ; Print pattern wall
G1 E-1 F1800 ; Retract
G1 Z0.5 F12000 ; Z hop
G0 X54.7871 Y33.0068 F12000 ; Move to start next pattern wall
G1 Z0.4 F12000 ; Z hop return
G1 E1 F1800 ; Un-retract
G1 X76.0003 Y54.22 E1.01546 F6000 ; Print pattern wall
G1 X54.7871 Y75.4332 E1.01546 F6000 ; Print pattern wall
G1 E-1 F1800 ; Retract
G1 Z0.5 F12000 ; Z hop
G0 X57.2371 Y33.0068 F12000 ; Move to next pattern
G1 Z0.4 F12000 ; Z hop return
G1 E1 F1800 ; Un-retract
SET_PRESSURE_ADVANCE ADVANCE=0.045 ; Set pressure advance
M117 PA 0.045
G1 X78.4503 Y54.22 E1.01546 F6000 ; Print pattern wall
G1 X57.2371 Y75.4332 E1.01546 F6000 ; Print pattern wall
G1 E-1 F1800 ; Retract
G1 Z0.5 F12000 ; Z hop
G0 X57.8128 Y33.0068 F12000 ; Move to start next pattern wall
G1 Z0.4 F12000 ; Z hop return
G1 E1 F1800 ; Un-retract
G1 X79.026 Y54.22 E1.01546 F6000 ; Print pattern wall
G1 X57.8128 Y75.4332 E1.01546 F6000 ; Print pattern wall
G1 E-1 F1800 ; Retract
G1 Z0.5 F12000 ; Z hop
G0 X58.3885 Y33.0068 F12000 ; Move to start next pattern wall
G1 Z0.4 F12000 ; Z hop return
G1 E1 F1800 ; Un-retract
G1 X79.6017 Y54.22 E1.01546 F6000 ; Print pattern wall
G1 X58.3885 Y75.4332 E1.01546 F6000 ; Print pattern wall
G1 E-1 F1800 ; Retract
G1 Z0.5 F12000 ; Z hop
G0 X60.8385 Y33.0068 F12000 ; Move to next pattern
G1 Z0.4 F12000 ; Z hop return
G1 E1 F1800 ; Un-retract
SET_PRESSURE_ADVANCE ADVANCE=0.05 ; Set pressure advance
M117 PA 0.05
G1 X82.0517 Y54.22 E1.01546 F6000 ; Print pattern wall
G1 X60.8385 Y75.4332 E1.01546 F6000 ; Print pattern wall
G1 E-1 F1800 ; Retract
G1 Z0.5 F12000 ; Z hop
G0 X61.4142 Y33.0068 F12000 ; Move to start next pattern wall
G1 Z0.4 F12000 ; Z hop return
G1 E1 F1800 ; Un-retract
G1 X82.6274 Y54.22 E1.01546 F6000 ; Print pattern wall
G1 X61.4142 Y75.4332 E1.01546 F6000 ; Print pattern wall
G1 E-1 F1800 ; Retract
G1 Z0.5 F12000 ; Z hop
G0 X61.9899 Y33.0068 F12000 ; Move to start next pattern wall
G1 Z0.4 F12000 ; Z hop return
G1 E1 F1800 ; Un-retract
G1 X83.2031 Y54.22 E1.01546 F6000 ; Print pattern wall
G1 X61.9899 Y75.4332 E1.01546 F6000 ; Print pattern wall
G1 E-1 F1800 ; Retract
G1 Z0.5 F12000 ; Z hop
G0 X64.4399 Y33.0068 F12000 ; Move to next pattern
G1 Z0.4 F12000 ; Z hop return
G1 E1 F1800 ; Un-retract
SET_PRESSURE_ADVANCE ADVANCE=0.055 ; Set pressure advance
M117 PA 0.055
G1 X85.6531 Y54.22 E1.01546 F6000 ; Print pattern wall
G1 X64.4399 Y75.4332 E1.01546 F6000 ; Print pattern wall
G1 E-1 F1800 ; Retract
G1 Z0.5 F12000 ; Z hop
G0 X65.0156 Y33.0068 F12000 ; Move to start next pattern wall
G1 Z0.4 F12000 ; Z hop return
G1 E1 F1800 ; Un-retract
G1 X86.2288 Y54.22 E1.01546 F6000 ; Print pattern wall
G1 X65.0156 Y75.4332 E1.01546 F6000 ; Print pattern wall
G1 E-1 F1800 ; Retract
G1 Z0.5 F12000 ; Z hop
G0 X65.5913 Y33.0068 F12000 ; Move to start next pattern wall
G1 Z0.4 F12000 ; Z hop return
G1 E1 F1800 ; Un-retract
G1 X86.8045 Y54.22 E1.01546 F6000 ; Print pattern wall
G1 X65.5913 Y75.4332 E1.01546 F6000 ; Print pattern wall
G1 E-1 F1800 ; Retract
G1 Z0.5 F12000 ; Z hop
G0 X68.0413 Y33.0068 F12000 ; Move to next pattern
G1 Z0.4 F12000 ; Z hop return
G1 E1 F1800 ; Un-retract
SET_PRESSURE_ADVANCE ADVANCE=0.06 ; Set pressure advance
M117 PA 0.06
G1 X89.2545 Y54.22 E1.01546 F6000 ; Print pattern wall
G1 X68.0413 Y75.4332 E1.01546 F6000 ; Print pattern wall
G1 E-1 F1800 ; Retract
G1 Z0.5 F12000 ; Z hop
G0 X68.617 Y33.0068 F12000 ; Move to start next pattern wall
G1 Z0.4 F12000 ; Z hop return
G1 E1 F1800 ; Un-retract
G1 X89.8302 Y54.22 E1.01546 F6000 ; Print pattern wall
G1 X68.617 Y75.4332 E1.01546 F6000 ; Print pattern wall
G1 E-1 F1800 ; Retract
G1 Z0.5 F12000 ; Z hop
G0 X69.1927 Y33.0068 F12000 ; Move to start next pattern wall
G1 Z0.4 F12000 ; Z hop return
G1 E1 F1800 ; Un-retract
G1 X90.4059 Y54.22 E1.01546 F6000 ; Print pattern wall
G1 X69.1927 Y75.4332 E1.01546 F6000 ; Print pattern wall
G1 E-1 F1800 ; Retract
G1 Z0.5 F12000 ; Z hop
G0 X71.6427 Y33.0068 F12000 ; Move to next pattern
G1 Z0.4 F12000 ; Z hop return
G1 E1 F1800 ; Un-retract
SET_PRESSURE_ADVANCE ADVANCE=0.065 ; Set pressure advance
M117 PA 0.065
G1 X92.8559 Y54.22 E1.01546 F6000 ; Print pattern wall
G1 X71.6427 Y75.4332 E1.01546 F6000 ; Print pattern wall
G1 E-1 F1800 ; Retract
G1 Z0.5 F12000 ; Z hop
G0 X72.2184 Y33.0068 F12000 ; Move to start next pattern wall
G1 Z0.4 F12000 ; Z hop return
G1 E1 F1800 ; Un-retract
G1 X93.4316 Y54.22 E1.01546 F6000 ; Print pattern wall
G1 X72.2184 Y75.4332 E1.01546 F6000 ; Print pattern wall
G1 E-1 F1800 ; Retract
G1 Z0.5 F12000 ; Z hop
G0 X72.7941 Y33.0068 F12000 ; Move to start next pattern wall
G1 Z0.4 F12000 ; Z hop return
G1 E1 F1800 ; Un-retract
G1 X94.0073 Y54.22 E1.01546 F6000 ; Print pattern wall
G1 X72.7941 Y75.4332 E1.01546 F6000 ; Print pattern wall
G1 E-1 F1800 ; Retract
G1 Z0.5 F12000 ; Z hop
G0 X75.2441 Y33.0068 F12000 ; Move to next pattern
G1 Z0.4 F12000 ; Z hop return
G1 E1 F1800 ; Un-retract
SET_PRESSURE_ADVANCE ADVANCE=0.07 ; Set pressure advance
M117 PA 0.07
G1 X96.4573 Y54.22 E1.01546 F6000 ; Print pattern wall
G1 X75.2441 Y75.4332 E1.01546 F6000 ; Print pattern wall
G1 E-1 F1800 ; Retract
G1 Z0.5 F12000 ; Z hop
G0 X75.8198 Y33.0068 F12000 ; Move to start next pattern wall
G1 Z0.4 F12000 ; Z hop return
G1 E1 F1800 ; Un-retract
G1 X97.033 Y54.22 E1.01546 F6000 ; Print pattern wall
G1 X75.8198 Y75.4332 E1.01546 F6000 ; Print pattern wall
G1 E-1 F1800 ; Retract
G1 Z0.5 F12000 ; Z hop
G0 X76.3955 Y33.0068 F12000 ; Move to start next pattern wall
G1 Z0.4 F12000 ; Z hop return
G1 E1 F1800 ; Un-retract
G1 X97.6087 Y54.22 E1.01546 F6000 ; Print pattern wall
G1 X76.3955 Y75.4332 E1.01546 F6000 ; Print pattern wall
G1 E-1 F1800 ; Retract
G1 Z0.5 F12000 ; Z hop
G0 X78.8455 Y33.0068 F12000 ; Move to next pattern
G1 Z0.4 F12000 ; Z hop return
G1 E1 F1800 ; Un-retract
SET_PRESSURE_ADVANCE ADVANCE=0.075 ; Set pressure advance
M117 PA 0.075
G1 X100.0587 Y54.22 E1.01546 F6000 ; Print pattern wall
G1 X78.8455 Y75.4332 E1.01546 F6000 ; Print pattern wall
G1 E-1 F1800 ; Retract
G1 Z0.5 F12000 ; Z hop
G0 X79.4212 Y33.0068 F12000 ; Move to start next pattern wall
G1 Z0.4 F12000 ; Z hop return
G1 E1 F1800 ; Un-retract
G1 X100.6344 Y54.22 E1.01546 F6000 ; Print pattern wall
G1 X79.4212 Y75.4332 E1.01546 F6000 ; Print pattern wall
G1 E-1 F1800 ; Retract
G1 Z0.5 F12000 ; Z hop
G0 X79.9969 Y33.0068 F12000 ; Move to start next pattern wall
G1 Z0.4 F12000 ; Z hop return
G1 E1 F1800 ; Un-retract
G1 X101.2101 Y54.22 E1.01546 F6000 ; Print pattern wall
G1 X79.9969 Y75.4332 E1.01546 F6000 ; Print pattern wall
G1 E-1 F1800 ; Retract
G1 Z0.5 F12000 ; Z hop
G0 X82.4469 Y33.0068 F12000 ; Move to next pattern
G1 Z0.4 F12000 ; Z hop return
G1 E1 F1800 ; Un-retract
SET_PRESSURE_ADVANCE ADVANCE=0.08 ; Set pressure advance
M117 PA 0.08
G1 X103.6601 Y54.22 E1.01546 F6000 ; Print pattern wall
G1 X82.4469 Y75.4332 E1.01546 F6000 ; Print pattern wall
G1 E-1 F1800 ; Retract
G1 Z0.5 F12000 ; Z hop
G0 X83.0226 Y33.0068 F12000 ; Move to start next pattern wall
G1 Z0.4 F12000 ; Z hop return
G1 E1 F1800 ; Un-retract
G1 X104.2358 Y54.22 E1.01546 F6000 ; Print pattern wall
G1 X83.0226 Y75.4332 E1.01546 F6000 ; Print pattern wall
G1 E-1 F1800 ; Retract
G1 Z0.5 F12000 ; Z hop
G0 X83.5983 Y33.0068 F12000 ; Move to start next pattern wall
G1 Z0.4 F12000 ; Z hop return
G1 E1 F1800 ; Un-retract
G1 X104.8115 Y54.22 E1.01546 F6000 ; Print pattern wall
G1 X83.5983 Y75.4332 E1.01546 F6000 ; Print pattern wall
G1 E-1 F1800 ; Retract
G1 Z0.5 F12000 ; Z hop
G0 X24.8245 Y33.0068 F12000 ; Move back to start position
G1 Z0.4 F12000 ; Z hop return
G1 E1 F1800 ; Un-retract
G0 Z0.6 F12000 ; Move to layer height
SET_PRESSURE_ADVANCE ADVANCE=0 ; Set pressure advance
M117 PA 0
G1 X46.0377 Y54.22 E1.01546 F6000 ; Print pattern wall
G1 X24.8245 Y75.4332 E1.01546 F6000 ; Print pattern wall
G1 E-1 F1800 ; Retract
G1 Z0.7 F12000 ; Z hop
G0 X25.4002 Y33.0068 F12000 ; Move to start next pattern wall
G1 Z0.6 F12000 ; Z hop return
G1 E1 F1800 ; Un-retract
G1 X46.6134 Y54.22 E1.01546 F6000 ; Print pattern wall
G1 X25.4002 Y75.4332 E1.01546 F6000 ; Print pattern wall
G1 E-1 F1800 ; Retract
G1 Z0.7 F12000 ; Z hop
G0 X25.9759 Y33.0068 F12000 ; Move to start next pattern wall
G1 Z0.6 F12000 ; Z hop return
G1 E1 F1800 ; Un-retract
G1 X47.1891 Y54.22 E1.01546 F6000 ; Print pattern wall
G1 X25.9759 Y75.4332 E1.01546 F6000 ; Print pattern wall
G1 E-1 F1800 ; Retract
G1 Z0.7 F12000 ; Z hop
G0 X28.4259 Y33.0068 F12000 ; Move to next pattern
G1 Z0.6 F12000 ; Z hop return
G1 E1 F1800 ; Un-retract
SET_PRESSURE_ADVANCE ADVANCE=0.005 ; Set pressure advance
M117 PA 0.005
G1 X49.6391 Y54.22 E1.01546 F6000 ; Print pattern wall
G1 X28.4259 Y75.4332 E1.01546 F6000 ; Print pattern wall
G1 E-1 F1800 ; Retract
G1 Z0.7 F12000 ; Z hop
G0 X29.0016 Y33.0068 F12000 ; Move to start next pattern wall
G1 Z0.6 F12000 ; Z hop return
G1 E1 F1800 ; Un-retract
G1 X50.2148 Y54.22 E1.01546 F6000 ; Print pattern wall
G1 X29.0016 Y75.4332 E1.01546 F6000 ; Print pattern wall
G1 E-1 F1800 ; Retract
G1 Z0.7 F12000 ; Z hop
G0 X29.5773 Y33.0068 F12000 ; Move to start next pattern wall
G1 Z0.6 F12000 ; Z hop return
G1 E1 F1800 ; Un-retract
G1 X50.7905 Y54.22 E1.01546 F6000 ; Print pattern wall
G1 X29.5773 Y75.4332 E1.01546 F6000 ; Print pattern wall
G1 E-1 F1800 ; Retract
G1 Z0.7 F12000 ; Z hop
G0 X32.0273 Y33.0068 F12000 ; Move to next pattern
G1 Z0.6 F12000 ; Z hop return
G1 E1 F1800 ; Un-retract
SET_PRESSURE_ADVANCE ADVANCE=0.01 ; Set pressure advance
M117 PA 0.01
G1 X53.2405 Y54.22 E1.01546 F6000 ; Print pattern wall
G1 X32.0273 Y75.4332 E1.01546 F6000 ; Print pattern wall
G1 E-1 F1800 ; Retract
G1 Z0.7 F12000 ; Z hop
G0 X32.603 Y33.0068 F12000 ; Move to start next pattern wall
G1 Z0.6 F12000 ; Z hop return
G1 E1 F1800 ; Un-retract
G1 X53.8162 Y54.22 E1.01546 F6000 ; Print pattern wall
G1 X32.603 Y75.4332 E1.01546 F6000 ; Print pattern wall
G1 E-1 F1800 ; Retract
G1 Z0.7 F12000 ; Z hop
G0 X33.1787 Y33.0068 F12000 ; Move to start next pattern wall
G1 Z0.6 F12000 ; Z hop return
G1 E1 F1800 ; Un-retract
G1 X54.3919 Y54.22 E1.01546 F6000 ; Print pattern wall
G1 X33.1787 Y75.4332 E1.01546 F6000 ; Print pattern wall
G1 E-1 F1800 ; Retract
G1 Z0.7 F12000 ; Z hop
G0 X35.6287 Y33.0068 F12000 ; Move to next pattern
G1 Z0.6 F12000 ; Z hop return
G1 E1 F1800 ; Un-retract
SET_PRESSURE_ADVANCE ADVANCE=0.015 ; Set pressure advance
M117 PA 0.015
G1 X56.8419 Y54.22 E1.01546 F6000 ; Print pattern wall
G1 X35.6287 Y75.4332 E1.01546 F6000 ; Print pattern wall
G1 E-1 F1800 ; Retract
G1 Z0.7 F12000 ; Z hop
G0 X36.2044 Y33.0068 F12000 ; Move to start next pattern wall
G1 Z0.6 F12000 ; Z hop return
G1 E1 F1800 ; Un-retract
G1 X57.4176 Y54.22 E1.01546 F6000 ; Print pattern wall
G1 X36.2044 Y75.4332 E1.01546 F6000 ; Print pattern wall
G1 E-1 F1800 ; Retract
G1 Z0.7 F12000 ; Z hop
G0 X36.7801 Y33.0068 F12000 ; Move to start next pattern wall
G1 Z0.6 F12000 ; Z hop return
G1 E1 F1800 ; Un-retract
G1 X57.9933 Y54.22 E1.01546 F6000 ; Print pattern wall
G1 X36.7801 Y75.4332 E1.01546 F6000 ; Print pattern wall
G1 E-1 F1800 ; Retract
G1 Z0.7 F12000 ; Z hop
G0 X39.2301 Y33.0068 F12000 ; Move to next pattern
G1 Z0.6 F12000 ; Z hop return
G1 E1 F1800 ; Un-retract
SET_PRESSURE_ADVANCE ADVANCE=0.02 ; Set pressure advance
M117 PA 0.02
G1 X60.4433 Y54.22 E1.01546 F6000 ; Print pattern wall
G1 X39.2301 Y75.4332 E1.01546 F6000 ; Print pattern wall
G1 E-1 F1800 ; Retract
G1 Z0.7 F12000 ; Z hop
G0 X39.8058 Y33.0068 F12000 ; Move to start next pattern wall
G1 Z0.6 F12000 ; Z hop return
G1 E1 F1800 ; Un-retract
G1 X61.019 Y54.22 E1.01546 F6000 ; Print pattern wall
G1 X39.8058 Y75.4332 E1.01546 F6000 ; Print pattern wall
G1 E-1 F1800 ; Retract
G1 Z0.7 F12000 ; Z hop
G0 X40.3815 Y33.0068 F12000 ; Move to start next pattern wall
G1 Z0.6 F12000 ; Z hop return
G1 E1 F1800 ; Un-retract
G1 X61.5947 Y54.22 E1.01546 F6000 ; Print pattern wall
G1 X40.3815 Y75.4332 E1.01546 F6000 ; Print pattern wall
G1 E-1 F1800 ; Retract
G1 Z0.7 F12000 ; Z hop
G0 X42.8315 Y33.0068 F12000 ; Move to next pattern
G1 Z0.6 F12000 ; Z hop return
G1 E1 F1800 ; Un-retract
SET_PRESSURE_ADVANCE ADVANCE=0.025 ; Set pressure advance
M117 PA 0.025
G1 X64.0447 Y54.22 E1.01546 F6000 ; Print pattern wall
G1 X42.8315 Y75.4332 E1.01546 F6000 ; Print pattern wall
G1 E-1 F1800 ; Retract
G1 Z0.7 F12000 ; Z hop
G0 X43.4072 Y33.0068 F12000 ; Move to start next pattern wall
G1 Z0.6 F12000 ; Z hop return
G1 E1 F1800 ; Un-retract
G1 X64.6204 Y54.22 E1.01546 F6000 ; Print pattern wall
G1 X43.4072 Y75.4332 E1.01546 F6000 ; Print pattern wall
G1 E-1 F1800 ; Retract
G1 Z0.7 F12000 ; Z hop
G0 X43.9829 Y33.0068 F12000 ; Move to start next pattern wall
G1 Z0.6 F12000 ; Z hop return
G1 E1 F1800 ; Un-retract
G1 X65.1961 Y54.22 E1.01546 F6000 ; Print pattern wall
G1 X43.9829 Y75.4332 E1.01546 F6000 ; Print pattern wall
G1 E-1 F1800 ; Retract
G1 Z0.7 F12000 ; Z hop
G0 X46.4329 Y33.0068 F12000 ; Move to next pattern
G1 Z0.6 F12000 ; Z hop return
G1 E1 F1800 ; Un-retract
SET_PRESSURE_ADVANCE ADVANCE=0.03 ; Set pressure advance
M117 PA 0.03
G1 X67.6461 Y54.22 E1.01546 F6000 ; Print pattern wall
G1 X46.4329 Y75.4332 E1.01546 F6000 ; Print pattern wall
G1 E-1 F1800 ; Retract
G1 Z0.7 F12000 ; Z hop
G0 X47.0086 Y33.0068 F12000 ; Move to start next pattern wall
G1 Z0.6 F12000 ; Z hop return
G1 E1 F1800 ; Un-retract
G1 X68.2218 Y54.22 E1.01546 F6000 ; Print pattern wall
G1 X47.0086 Y75.4332 E1.01546 F6000 ; Print pattern wall
G1 E-1 F1800 ; Retract
G1 Z0.7 F12000 ; Z hop
G0 X47.5843 Y33.0068 F12000 ; Move to start next pattern wall
G1 Z0.6 F12000 ; Z hop return
G1 E1 F1800 ; Un-retract
G1 X68.7975 Y54.22 E1.01546 F6000 ; Print pattern wall
G1 X47.5843 Y75.4332 E1.01546 F6000 ; Print pattern wall
G1 E-1 F1800 ; Retract
G1 Z0.7 F12000 ; Z hop
G0 X50.0343 Y33.0068 F12000 ; Move to next pattern
G1 Z0.6 F12000 ; Z hop return
G1 E1 F1800 ; Un-retract
SET_PRESSURE_ADVANCE ADVANCE=0.035 ; Set pressure advance
M117 PA 0.035
G1 X71.2475 Y54.22 E1.01546 F6000 ; Print pattern wall
G1 X50.0343 Y75.4332 E1.01546 F6000 ; Print pattern wall
G1 E-1 F1800 ; Retract
G1 Z0.7 F12000 ; Z hop
G0 X50.61 Y33.0068 F12000 ; Move to start next pattern wall
G1 Z0.6 F12000 ; Z hop return
G1 E1 F1800 ; Un-retract
G1 X71.8232 Y54.22 E1.01546 F6000 ; Print pattern wall
G1 X50.61 Y75.4332 E1.01546 F6000 ; Print pattern wall
G1 E-1 F1800 ; Retract
G1 Z0.7 F12000 ; Z hop
G0 X51.1857 Y33.0068 F12000 ; Move to start next pattern wall
G1 Z0.6 F12000 ; Z hop return
G1 E1 F1800 ; Un-retract
G1 X72.3989 Y54.22 E1.01546 F6000 ; Print pattern wall
G1 X51.1857 Y75.4332 E1.01546 F6000 ; Print pattern wall
G1 E-1 F1800 ; Retract
G1 Z0.7 F12000 ; Z hop
G0 X53.6357 Y33.0068 F12000 ; Move to next pattern
G1 Z0.6 F12000 ; Z hop return
G1 E1 F1800 ; Un-retract
SET_PRESSURE_ADVANCE ADVANCE=0.04 ; Set pressure advance
M117 PA 0.04
G1 X74.8489 Y54.22 E1.01546 F6000 ; Print pattern wall
G1 X53.6357 Y75.4332 E1.01546 F6000 ; Print pattern wall
G1 E-1 F1800 ; Retract
G1 Z0.7 F12000 ; Z hop
G0 X54.2114 Y33.0068 F12000 ; Move to start next pattern wall
G1 Z0.6 F12000 ; Z hop return
G1 E1 F1800 ; Un-retract
G1 X75.4246 Y54.22 E1.01546 F6000 ; Print pattern wall
G1 X54.2114 Y75.4332 E1.01546 F6000 ; Print pattern wall
G1 E-1 F1800 ; Retract
G1 Z0.7 F12000 ; Z hop
G0 X54.7871 Y33.0068 F12000 ; Move to start next pattern wall
G1 Z0.6 F12000 ; Z hop return
G1 E1 F1800 ; Un-retract
G1 X76.0003 Y54.22 E1.01546 F6000 ; Print pattern wall
G1 X54.7871 Y75.4332 E1.01546 F6000 ; Print pattern wall
G1 E-1 F1800 ; Retract
G1 Z0.7 F12000 ; Z hop
G0 X57.2371 Y33.0068 F12000 ; Move to next pattern
G1 Z0.6 F12000 ; Z hop return
G1 E1 F1800 ; Un-retract
SET_PRESSURE_ADVANCE ADVANCE=0.045 ; Set pressure advance
M117 PA 0.045
G1 X78.4503 Y54.22 E1.01546 F6000 ; Print pattern wall
G1 X57.2371 Y75.4332 E1.01546 F6000 ; Print pattern wall
G1 E-1 F1800 ; Retract
G1 Z0.7 F12000 ; Z hop
G0 X57.8128 Y33.0068 F12000 ; Move to start next pattern wall
G1 Z0.6 F12000 ; Z hop return
G1 E1 F1800 ; Un-retract
G1 X79.026 Y54.22 E1.01546 F6000 ; Print pattern wall
G1 X57.8128 Y75.4332 E1.01546 F6000 ; Print pattern wall
G1 E-1 F1800 ; Retract
G1 Z0.7 F12000 ; Z hop
G0 X58.3885 Y33.0068 F12000 ; Move to start next pattern wall
G1 Z0.6 F12000 ; Z hop return
G1 E1 F1800 ; Un-retract
G1 X79.6017 Y54.22 E1.01546 F6000 ; Print pattern wall
G1 X58.3885 Y75.4332 E1.01546 F6000 ; Print pattern wall
G1 E-1 F1800 ; Retract
G1 Z0.7 F12000 ; Z hop
G0 X60.8385 Y33.0068 F12000 ; Move to next pattern
G1 Z0.6 F12000 ; Z hop return
G1 E1 F1800 ; Un-retract
SET_PRESSURE_ADVANCE ADVANCE=0.05 ; Set pressure advance
M117 PA 0.05
G1 X82.0517 Y54.22 E1.01546 F6000 ; Print pattern wall
G1 X60.8385 Y75.4332 E1.01546 F6000 ; Print pattern wall
G1 E-1 F1800 ; Retract
G1 Z0.7 F12000 ; Z hop
G0 X61.4142 Y33.0068 F12000 ; Move to start next pattern wall
G1 Z0.6 F12000 ; Z hop return
G1 E1 F1800 ; Un-retract
G1 X82.6274 Y54.22 E1.01546 F6000 ; Print pattern wall
G1 X61.4142 Y75.4332 E1.01546 F6000 ; Print pattern wall
G1 E-1 F1800 ; Retract
G1 Z0.7 F12000 ; Z hop
G0 X61.9899 Y33.0068 F12000 ; Move to start next pattern wall
G1 Z0.6 F12000 ; Z hop return
G1 E1 F1800 ; Un-retract
G1 X83.2031 Y54.22 E1.01546 F6000 ; Print pattern wall
G1 X61.9899 Y75.4332 E1.01546 F6000 ; Print pattern wall
G1 E-1 F1800 ; Retract
G1 Z0.7 F12000 ; Z hop
G0 X64.4399 Y33.0068 F12000 ; Move to next pattern
G1 Z0.6 F12000 ; Z hop return
G1 E1 F1800 ; Un-retract
SET_PRESSURE_ADVANCE ADVANCE=0.055 ; Set pressure advance
M117 PA 0.055
G1 X85.6531 Y54.22 E1.01546 F6000 ; Print pattern wall
G1 X64.4399 Y75.4332 E1.01546 F6000 ; Print pattern wall
G1 E-1 F1800 ; Retract
G1 Z0.7 F12000 ; Z hop
G0 X65.0156 Y33.0068 F12000 ; Move to start next pattern wall
G1 Z0.6 F12000 ; Z hop return
G1 E1 F1800 ; Un-retract
G1 X86.2288 Y54.22 E1.01546 F6000 ; Print pattern wall
G1 X65.0156 Y75.4332 E1.01546 F6000 ; Print pattern wall
G1 E-1 F1800 ; Retract
G1 Z0.7 F12000 ; Z hop
G0 X65.5913 Y33.0068 F12000 ; Move to start next pattern wall
G1 Z0.6 F12000 ; Z hop return
G1 E1 F1800 ; Un-retract
G1 X86.8045 Y54.22 E1.01546 F6000 ; Print pattern wall
G1 X65.5913 Y75.4332 E1.01546 F6000 ; Print pattern wall
G1 E-1 F1800 ; Retract
G1 Z0.7 F12000 ; Z hop
G0 X68.0413 Y33.0068 F12000 ; Move to next pattern
G1 Z0.6 F12000 ; Z hop return
G1 E1 F1800 ; Un-retract
SET_PRESSURE_ADVANCE ADVANCE=0.06 ; Set pressure advance
M117 PA 0.06
G1 X89.2545 Y54.22 E1.01546 F6000 ; Print pattern wall
G1 X68.0413 Y75.4332 E1.01546 F6000 ; Print pattern wall
G1 E-1 F1800 ; Retract
G1 Z0.7 F12000 ; Z hop
G0 X68.617 Y33.0068 F12000 ; Move to start next pattern wall
G1 Z0.6 F12000 ; Z hop return
G1 E1 F1800 ; Un-retract
G1 X89.8302 Y54.22 E1.01546 F6000 ; Print pattern wall
G1 X68.617 Y75.4332 E1.01546 F6000 ; Print pattern wall
G1 E-1 F1800 ; Retract
G1 Z0.7 F12000 ; Z hop
G0 X69.1927 Y33.0068 F12000 ; Move to start next pattern wall
G1 Z0.6 F12000 ; Z hop return
G1 E1 F1800 ; Un-retract
G1 X90.4059 Y54.22 E1.01546 F6000 ; Print pattern wall
G1 X69.1927 Y75.4332 E1.01546 F6000 ; Print pattern wall
G1 E-1 F1800 ; Retract
G1 Z0.7 F12000 ; Z hop
G0 X71.6427 Y33.0068 F12000 ; Move to next pattern
G1 Z0.6 F12000 ; Z hop return
G1 E1 F1800 ; Un-retract
SET_PRESSURE_ADVANCE ADVANCE=0.065 ; Set pressure advance
M117 PA 0.065
G1 X92.8559 Y54.22 E1.01546 F6000 ; Print pattern wall
G1 X71.6427 Y75.4332 E1.01546 F6000 ; Print pattern wall
G1 E-1 F1800 ; Retract
G1 Z0.7 F12000 ; Z hop
G0 X72.2184 Y33.0068 F12000 ; Move to start next pattern wall
G1 Z0.6 F12000 ; Z hop return
G1 E1 F1800 ; Un-retract
G1 X93.4316 Y54.22 E1.01546 F6000 ; Print pattern wall
G1 X72.2184 Y75.4332 E1.01546 F6000 ; Print pattern wall
G1 E-1 F1800 ; Retract
G1 Z0.7 F12000 ; Z hop
G0 X72.7941 Y33.0068 F12000 ; Move to start next pattern wall
G1 Z0.6 F12000 ; Z hop return
G1 E1 F1800 ; Un-retract
G1 X94.0073 Y54.22 E1.01546 F6000 ; Print pattern wall
G1 X72.7941 Y75.4332 E1.01546 F6000 ; Print pattern wall
G1 E-1 F1800 ; Retract
G1 Z0.7 F12000 ; Z hop
G0 X75.2441 Y33.0068 F12000 ; Move to next pattern
G1 Z0.6 F12000 ; Z hop return
G1 E1 F1800 ; Un-retract
SET_PRESSURE_ADVANCE ADVANCE=0.07 ; Set pressure advance
M117 PA 0.07
G1 X96.4573 Y54.22 E1.01546 F6000 ; Print pattern wall
G1 X75.2441 Y75.4332 E1.01546 F6000 ; Print pattern wall
G1 E-1 F1800 ; Retract
G1 Z0.7 F12000 ; Z hop
G0 X75.8198 Y33.0068 F12000 ; Move to start next pattern wall
G1 Z0.6 F12000 ; Z hop return
G1 E1 F1800 ; Un-retract
G1 X97.033 Y54.22 E1.01546 F6000 ; Print pattern wall
G1 X75.8198 Y75.4332 E1.01546 F6000 ; Print pattern wall
G1 E-1 F1800 ; Retract
G1 Z0.7 F12000 ; Z hop
G0 X76.3955 Y33.0068 F12000 ; Move to start next pattern wall
G1 Z0.6 F12000 ; Z hop return
G1 E1 F1800 ; Un-retract
G1 X97.6087 Y54.22 E1.01546 F6000 ; Print pattern wall
G1 X76.3955 Y75.4332 E1.01546 F6000 ; Print pattern wall
G1 E-1 F1800 ; Retract
G1 Z0.7 F12000 ; Z hop
G0 X78.8455 Y33.0068 F12000 ; Move to next pattern
G1 Z0.6 F12000 ; Z hop return
G1 E1 F1800 ; Un-retract
SET_PRESSURE_ADVANCE ADVANCE=0.075 ; Set pressure advance
M117 PA 0.075
G1 X100.0587 Y54.22 E1.01546 F6000 ; Print pattern wall
G1 X78.8455 Y75.4332 E1.01546 F6000 ; Print pattern wall
G1 E-1 F1800 ; Retract
G1 Z0.7 F12000 ; Z hop
G0 X79.4212 Y33.0068 F12000 ; Move to start next pattern wall
G1 Z0.6 F12000 ; Z hop return
G1 E1 F1800 ; Un-retract
G1 X100.6344 Y54.22 E1.01546 F6000 ; Print pattern wall
G1 X79.4212 Y75.4332 E1.01546 F6000 ; Print pattern wall
G1 E-1 F1800 ; Retract
G1 Z0.7 F12000 ; Z hop
G0 X79.9969 Y33.0068 F12000 ; Move to start next pattern wall
G1 Z0.6 F12000 ; Z hop return
G1 E1 F1800 ; Un-retract
G1 X101.2101 Y54.22 E1.01546 F6000 ; Print pattern wall
G1 X79.9969 Y75.4332 E1.01546 F6000 ; Print pattern wall
G1 E-1 F1800 ; Retract
G1 Z0.7 F12000 ; Z hop
G0 X82.4469 Y33.0068 F12000 ; Move to next pattern
G1 Z0.6 F12000 ; Z hop return
G1 E1 F1800 ; Un-retract
SET_PRESSURE_ADVANCE ADVANCE=0.08 ; Set pressure advance
M117 PA 0.08
G1 X103.6601 Y54.22 E1.01546 F6000 ; Print pattern wall
G1 X82.4469 Y75.4332 E1.01546 F6000 ; Print pattern wall
G1 E-1 F1800 ; Retract
G1 Z0.7 F12000 ; Z hop
G0 X83.0226 Y33.0068 F12000 ; Move to start next pattern wall
G1 Z0.6 F12000 ; Z hop return
G1 E1 F1800 ; Un-retract
G1 X104.2358 Y54.22 E1.01546 F6000 ; Print pattern wall
G1 X83.0226 Y75.4332 E1.01546 F6000 ; Print pattern wall
G1 E-1 F1800 ; Retract
G1 Z0.7 F12000 ; Z hop
G0 X83.5983 Y33.0068 F12000 ; Move to start next pattern wall
G1 Z0.6 F12000 ; Z hop return
G1 E1 F1800 ; Un-retract
G1 X104.8115 Y54.22 E1.01546 F6000 ; Print pattern wall
G1 X83.5983 Y75.4332 E1.01546 F6000 ; Print pattern wall
G1 E-1 F1800 ; Retract
G1 Z0.7 F12000 ; Z hop
G0 X24.8245 Y33.0068 F12000 ; Move back to start position
G1 Z0.6 F12000 ; Z hop return
G1 E1 F1800 ; Un-retract
G0 Z0.8 F12000 ; Move to layer height
SET_PRESSURE_ADVANCE ADVANCE=0 ; Set pressure advance
M117 PA 0
G1 X46.0377 Y54.22 E1.01546 F6000 ; Print pattern wall
G1 X24.8245 Y75.4332 E1.01546 F6000 ; Print pattern wall
G1 E-1 F1800 ; Retract
G1 Z0.9 F12000 ; Z hop
G0 X25.4002 Y33.0068 F12000 ; Move to start next pattern wall
G1 Z0.8 F12000 ; Z hop return
G1 E1 F1800 ; Un-retract
G1 X46.6134 Y54.22 E1.01546 F6000 ; Print pattern wall
G1 X25.4002 Y75.4332 E1.01546 F6000 ; Print pattern wall
G1 E-1 F1800 ; Retract
G1 Z0.9 F12000 ; Z hop
G0 X25.9759 Y33.0068 F12000 ; Move to start next pattern wall
G1 Z0.8 F12000 ; Z hop return
G1 E1 F1800 ; Un-retract
G1 X47.1891 Y54.22 E1.01546 F6000 ; Print pattern wall
G1 X25.9759 Y75.4332 E1.01546 F6000 ; Print pattern wall
G1 E-1 F1800 ; Retract
G1 Z0.9 F12000 ; Z hop
G0 X28.4259 Y33.0068 F12000 ; Move to next pattern
G1 Z0.8 F12000 ; Z hop return
G1 E1 F1800 ; Un-retract
SET_PRESSURE_ADVANCE ADVANCE=0.005 ; Set pressure advance
M117 PA 0.005
G1 X49.6391 Y54.22 E1.01546 F6000 ; Print pattern wall
G1 X28.4259 Y75.4332 E1.01546 F6000 ; Print pattern wall
G1 E-1 F1800 ; Retract
G1 Z0.9 F12000 ; Z hop
G0 X29.0016 Y33.0068 F12000 ; Move to start next pattern wall
G1 Z0.8 F12000 ; Z hop return
G1 E1 F1800 ; Un-retract
G1 X50.2148 Y54.22 E1.01546 F6000 ; Print pattern wall
G1 X29.0016 Y75.4332 E1.01546 F6000 ; Print pattern wall
G1 E-1 F1800 ; Retract
G1 Z0.9 F12000 ; Z hop
G0 X29.5773 Y33.0068 F12000 ; Move to start next pattern wall
G1 Z0.8 F12000 ; Z hop return
G1 E1 F1800 ; Un-retract
G1 X50.7905 Y54.22 E1.01546 F6000 ; Print pattern wall
G1 X29.5773 Y75.4332 E1.01546 F6000 ; Print pattern wall
G1 E-1 F1800 ; Retract
G1 Z0.9 F12000 ; Z hop
G0 X32.0273 Y33.0068 F12000 ; Move to next pattern
G1 Z0.8 F12000 ; Z hop return
G1 E1 F1800 ; Un-retract
SET_PRESSURE_ADVANCE ADVANCE=0.01 ; Set pressure advance
M117 PA 0.01
G1 X53.2405 Y54.22 E1.01546 F6000 ; Print pattern wall
G1 X32.0273 Y75.4332 E1.01546 F6000 ; Print pattern wall
G1 E-1 F1800 ; Retract
G1 Z0.9 F12000 ; Z hop
G0 X32.603 Y33.0068 F12000 ; Move to start next pattern wall
G1 Z0.8 F12000 ; Z hop return
G1 E1 F1800 ; Un-retract
G1 X53.8162 Y54.22 E1.01546 F6000 ; Print pattern wall
G1 X32.603 Y75.4332 E1.01546 F6000 ; Print pattern wall
G1 E-1 F1800 ; Retract
G1 Z0.9 F12000 ; Z hop
G0 X33.1787 Y33.0068 F12000 ; Move to start next pattern wall
G1 Z0.8 F12000 ; Z hop return
G1 E1 F1800 ; Un-retract
G1 X54.3919 Y54.22 E1.01546 F6000 ; Print pattern wall
G1 X33.1787 Y75.4332 E1.01546 F6000 ; Print pattern wall
G1 E-1 F1800 ; Retract
G1 Z0.9 F12000 ; Z hop
G0 X35.6287 Y33.0068 F12000 ; Move to next pattern
G1 Z0.8 F12000 ; Z hop return
G1 E1 F1800 ; Un-retract
SET_PRESSURE_ADVANCE ADVANCE=0.015 ; Set pressure advance
M117 PA 0.015
G1 X56.8419 Y54.22 E1.01546 F6000 ; Print pattern wall
G1 X35.6287 Y75.4332 E1.01546 F6000 ; Print pattern wall
G1 E-1 F1800 ; Retract
G1 Z0.9 F12000 ; Z hop
G0 X36.2044 Y33.0068 F12000 ; Move to start next pattern wall
G1 Z0.8 F12000 ; Z hop return
G1 E1 F1800 ; Un-retract
G1 X57.4176 Y54.22 E1.01546 F6000 ; Print pattern wall
G1 X36.2044 Y75.4332 E1.01546 F6000 ; Print pattern wall
G1 E-1 F1800 ; Retract
G1 Z0.9 F12000 ; Z hop
G0 X36.7801 Y33.0068 F12000 ; Move to start next pattern wall
G1 Z0.8 F12000 ; Z hop return
G1 E1 F1800 ; Un-retract
G1 X57.9933 Y54.22 E1.01546 F6000 ; Print pattern wall
G1 X36.7801 Y75.4332 E1.01546 F6000 ; Print pattern wall
G1 E-1 F1800 ; Retract
G1 Z0.9 F12000 ; Z hop
G0 X39.2301 Y33.0068 F12000 ; Move to next pattern
G1 Z0.8 F12000 ; Z hop return
G1 E1 F1800 ; Un-retract
SET_PRESSURE_ADVANCE ADVANCE=0.02 ; Set pressure advance
M117 PA 0.02
G1 X60.4433 Y54.22 E1.01546 F6000 ; Print pattern wall
G1 X39.2301 Y75.4332 E1.01546 F6000 ; Print pattern wall
G1 E-1 F1800 ; Retract
G1 Z0.9 F12000 ; Z hop
G0 X39.8058 Y33.0068 F12000 ; Move to start next pattern wall
G1 Z0.8 F12000 ; Z hop return
G1 E1 F1800 ; Un-retract
G1 X61.019 Y54.22 E1.01546 F6000 ; Print pattern wall
G1 X39.8058 Y75.4332 E1.01546 F6000 ; Print pattern wall
G1 E-1 F1800 ; Retract
G1 Z0.9 F12000 ; Z hop
G0 X40.3815 Y33.0068 F12000 ; Move to start next pattern wall
G1 Z0.8 F12000 ; Z hop return
G1 E1 F1800 ; Un-retract
G1 X61.5947 Y54.22 E1.01546 F6000 ; Print pattern wall
G1 X40.3815 Y75.4332 E1.01546 F6000 ; Print pattern wall
G1 E-1 F1800 ; Retract
G1 Z0.9 F12000 ; Z hop
G0 X42.8315 Y33.0068 F12000 ; Move to next pattern
G1 Z0.8 F12000 ; Z hop return
G1 E1 F1800 ; Un-retract
SET_PRESSURE_ADVANCE ADVANCE=0.025 ; Set pressure advance
M117 PA 0.025
G1 X64.0447 Y54.22 E1.01546 F6000 ; Print pattern wall
G1 X42.8315 Y75.4332 E1.01546 F6000 ; Print pattern wall
G1 E-1 F1800 ; Retract
G1 Z0.9 F12000 ; Z hop
G0 X43.4072 Y33.0068 F12000 ; Move to start next pattern wall
G1 Z0.8 F12000 ; Z hop return
G1 E1 F1800 ; Un-retract
G1 X64.6204 Y54.22 E1.01546 F6000 ; Print pattern wall
G1 X43.4072 Y75.4332 E1.01546 F6000 ; Print pattern wall
G1 E-1 F1800 ; Retract
G1 Z0.9 F12000 ; Z hop
G0 X43.9829 Y33.0068 F12000 ; Move to start next pattern wall
G1 Z0.8 F12000 ; Z hop return
G1 E1 F1800 ; Un-retract
G1 X65.1961 Y54.22 E1.01546 F6000 ; Print pattern wall
G1 X43.9829 Y75.4332 E1.01546 F6000 ; Print pattern wall
G1 E-1 F1800 ; Retract
G1 Z0.9 F12000 ; Z hop
G0 X46.4329 Y33.0068 F12000 ; Move to next pattern
G1 Z0.8 F12000 ; Z hop return
G1 E1 F1800 ; Un-retract
SET_PRESSURE_ADVANCE ADVANCE=0.03 ; Set pressure advance
M117 PA 0.03
G1 X67.6461 Y54.22 E1.01546 F6000 ; Print pattern wall
G1 X46.4329 Y75.4332 E1.01546 F6000 ; Print pattern wall
G1 E-1 F1800 ; Retract
G1 Z0.9 F12000 ; Z hop
G0 X47.0086 Y33.0068 F12000 ; Move to start next pattern wall
G1 Z0.8 F12000 ; Z hop return
G1 E1 F1800 ; Un-retract
G1 X68.2218 Y54.22 E1.01546 F6000 ; Print pattern wall
G1 X47.0086 Y75.4332 E1.01546 F6000 ; Print pattern wall
G1 E-1 F1800 ; Retract
G1 Z0.9 F12000 ; Z hop
G0 X47.5843 Y33.0068 F12000 ; Move to start next pattern wall
G1 Z0.8 F12000 ; Z hop return
G1 E1 F1800 ; Un-retract
G1 X68.7975 Y54.22 E1.01546 F6000 ; Print pattern wall
G1 X47.5843 Y75.4332 E1.01546 F6000 ; Print pattern wall
G1 E-1 F1800 ; Retract
G1 Z0.9 F12000 ; Z hop
G0 X50.0343 Y33.0068 F12000 ; Move to next pattern
G1 Z0.8 F12000 ; Z hop return
G1 E1 F1800 ; Un-retract
SET_PRESSURE_ADVANCE ADVANCE=0.035 ; Set pressure advance
M117 PA 0.035
G1 X71.2475 Y54.22 E1.01546 F6000 ; Print pattern wall
G1 X50.0343 Y75.4332 E1.01546 F6000 ; Print pattern wall
G1 E-1 F1800 ; Retract
G1 Z0.9 F12000 ; Z hop
G0 X50.61 Y33.0068 F12000 ; Move to start next pattern wall
G1 Z0.8 F12000 ; Z hop return
G1 E1 F1800 ; Un-retract
G1 X71.8232 Y54.22 E1.01546 F6000 ; Print pattern wall
G1 X50.61 Y75.4332 E1.01546 F6000 ; Print pattern wall
G1 E-1 F1800 ; Retract
G1 Z0.9 F12000 ; Z hop
G0 X51.1857 Y33.0068 F12000 ; Move to start next pattern wall
G1 Z0.8 F12000 ; Z hop return
G1 E1 F1800 ; Un-retract
G1 X72.3989 Y54.22 E1.01546 F6000 ; Print pattern wall
G1 X51.1857 Y75.4332 E1.01546 F6000 ; Print pattern wall
G1 E-1 F1800 ; Retract
G1 Z0.9 F12000 ; Z hop
G0 X53.6357 Y33.0068 F12000 ; Move to next pattern
G1 Z0.8 F12000 ; Z hop return
G1 E1 F1800 ; Un-retract
SET_PRESSURE_ADVANCE ADVANCE=0.04 ; Set pressure advance
M117 PA 0.04
G1 X74.8489 Y54.22 E1.01546 F6000 ; Print pattern wall
G1 X53.6357 Y75.4332 E1.01546 F6000 ; Print pattern wall
G1 E-1 F1800 ; Retract
G1 Z0.9 F12000 ; Z hop
G0 X54.2114 Y33.0068 F12000 ; Move to start next pattern wall
G1 Z0.8 F12000 ; Z hop return
G1 E1 F1800 ; Un-retract
G1 X75.4246 Y54.22 E1.01546 F6000 ; Print pattern wall
G1 X54.2114 Y75.4332 E1.01546 F6000 ; Print pattern wall
G1 E-1 F1800 ; Retract
G1 Z0.9 F12000 ; Z hop
G0 X54.7871 Y33.0068 F12000 ; Move to start next pattern wall
G1 Z0.8 F12000 ; Z hop return
G1 E1 F1800 ; Un-retract
G1 X76.0003 Y54.22 E1.01546 F6000 ; Print pattern wall
G1 X54.7871 Y75.4332 E1.01546 F6000 ; Print pattern wall
G1 E-1 F1800 ; Retract
G1 Z0.9 F12000 ; Z hop
G0 X57.2371 Y33.0068 F12000 ; Move to next pattern
G1 Z0.8 F12000 ; Z hop return
G1 E1 F1800 ; Un-retract
SET_PRESSURE_ADVANCE ADVANCE=0.045 ; Set pressure advance
M117 PA 0.045
G1 X78.4503 Y54.22 E1.01546 F6000 ; Print pattern wall
G1 X57.2371 Y75.4332 E1.01546 F6000 ; Print pattern wall
G1 E-1 F1800 ; Retract
G1 Z0.9 F12000 ; Z hop
G0 X57.8128 Y33.0068 F12000 ; Move to start next pattern wall
G1 Z0.8 F12000 ; Z hop return
G1 E1 F1800 ; Un-retract
G1 X79.026 Y54.22 E1.01546 F6000 ; Print pattern wall
G1 X57.8128 Y75.4332 E1.01546 F6000 ; Print pattern wall
G1 E-1 F1800 ; Retract
G1 Z0.9 F12000 ; Z hop
G0 X58.3885 Y33.0068 F12000 ; Move to start next pattern wall
G1 Z0.8 F12000 ; Z hop return
G1 E1 F1800 ; Un-retract
G1 X79.6017 Y54.22 E1.01546 F6000 ; Print pattern wall
G1 X58.3885 Y75.4332 E1.01546 F6000 ; Print pattern wall
G1 E-1 F1800 ; Retract
G1 Z0.9 F12000 ; Z hop
G0 X60.8385 Y33.0068 F12000 ; Move to next pattern
G1 Z0.8 F12000 ; Z hop return
G1 E1 F1800 ; Un-retract
SET_PRESSURE_ADVANCE ADVANCE=0.05 ; Set pressure advance
M117 PA 0.05
G1 X82.0517 Y54.22 E1.01546 F6000 ; Print pattern wall
G1 X60.8385 Y75.4332 E1.01546 F6000 ; Print pattern wall
G1 E-1 F1800 ; Retract
G1 Z0.9 F12000 ; Z hop
G0 X61.4142 Y33.0068 F12000 ; Move to start next pattern wall
G1 Z0.8 F12000 ; Z hop return
G1 E1 F1800 ; Un-retract
G1 X82.6274 Y54.22 E1.01546 F6000 ; Print pattern wall
G1 X61.4142 Y75.4332 E1.01546 F6000 ; Print pattern wall
G1 E-1 F1800 ; Retract
G1 Z0.9 F12000 ; Z hop
G0 X61.9899 Y33.0068 F12000 ; Move to start next pattern wall
G1 Z0.8 F12000 ; Z hop return
G1 E1 F1800 ; Un-retract
G1 X83.2031 Y54.22 E1.01546 F6000 ; Print pattern wall
G1 X61.9899 Y75.4332 E1.01546 F6000 ; Print pattern wall
G1 E-1 F1800 ; Retract
G1 Z0.9 F12000 ; Z hop
G0 X64.4399 Y33.0068 F12000 ; Move to next pattern
G1 Z0.8 F12000 ; Z hop return
G1 E1 F1800 ; Un-retract
SET_PRESSURE_ADVANCE ADVANCE=0.055 ; Set pressure advance
M117 PA 0.055
G1 X85.6531 Y54.22 E1.01546 F6000 ; Print pattern wall
G1 X64.4399 Y75.4332 E1.01546 F6000 ; Print pattern wall
G1 E-1 F1800 ; Retract
G1 Z0.9 F12000 ; Z hop
G0 X65.0156 Y33.0068 F12000 ; Move to start next pattern wall
G1 Z0.8 F12000 ; Z hop return
G1 E1 F1800 ; Un-retract
G1 X86.2288 Y54.22 E1.01546 F6000 ; Print pattern wall
G1 X65.0156 Y75.4332 E1.01546 F6000 ; Print pattern wall
G1 E-1 F1800 ; Retract
G1 Z0.9 F12000 ; Z hop
G0 X65.5913 Y33.0068 F12000 ; Move to start next pattern wall
G1 Z0.8 F12000 ; Z hop return
G1 E1 F1800 ; Un-retract
G1 X86.8045 Y54.22 E1.01546 F6000 ; Print pattern wall
G1 X65.5913 Y75.4332 E1.01546 F6000 ; Print pattern wall
G1 E-1 F1800 ; Retract
G1 Z0.9 F12000 ; Z hop
G0 X68.0413 Y33.0068 F12000 ; Move to next pattern
G1 Z0.8 F12000 ; Z hop return
G1 E1 F1800 ; Un-retract
SET_PRESSURE_ADVANCE ADVANCE=0.06 ; Set pressure advance
M117 PA 0.06
G1 X89.2545 Y54.22 E1.01546 F6000 ; Print pattern wall
G1 X68.0413 Y75.4332 E1.01546 F6000 ; Print pattern wall
G1 E-1 F1800 ; Retract
G1 Z0.9 F12000 ; Z hop
G0 X68.617 Y33.0068 F12000 ; Move to start next pattern wall
G1 Z0.8 F12000 ; Z hop return
G1 E1 F1800 ; Un-retract
G1 X89.8302 Y54.22 E1.01546 F6000 ; Print pattern wall
G1 X68.617 Y75.4332 E1.01546 F6000 ; Print pattern wall
G1 E-1 F1800 ; Retract
G1 Z0.9 F12000 ; Z hop
G0 X69.1927 Y33.0068 F12000 ; Move to start next pattern wall
G1 Z0.8 F12000 ; Z hop return
G1 E1 F1800 ; Un-retract
G1 X90.4059 Y54.22 E1.01546 F6000 ; Print pattern wall
G1 X69.1927 Y75.4332 E1.01546 F6000 ; Print pattern wall
G1 E-1 F1800 ; Retract
G1 Z0.9 F12000 ; Z hop
G0 X71.6427 Y33.0068 F12000 ; Move to next pattern
G1 Z0.8 F12000 ; Z hop return
G1 E1 F1800 ; Un-retract
SET_PRESSURE_ADVANCE ADVANCE=0.065 ; Set pressure advance
M117 PA 0.065
G1 X92.8559 Y54.22 E1.01546 F6000 ; Print pattern wall
G1 X71.6427 Y75.4332 E1.01546 F6000 ; Print pattern wall
G1 E-1 F1800 ; Retract
G1 Z0.9 F12000 ; Z hop
G0 X72.2184 Y33.0068 F12000 ; Move to start next pattern wall
G1 Z0.8 F12000 ; Z hop return
G1 E1 F1800 ; Un-retract
G1 X93.4316 Y54.22 E1.01546 F6000 ; Print pattern wall
G1 X72.2184 Y75.4332 E1.01546 F6000 ; Print pattern wall
G1 E-1 F1800 ; Retract
G1 Z0.9 F12000 ; Z hop
G0 X72.7941 Y33.0068 F12000 ; Move to start next pattern wall
G1 Z0.8 F12000 ; Z hop return
G1 E1 F1800 ; Un-retract
G1 X94.0073 Y54.22 E1.01546 F6000 ; Print pattern wall
G1 X72.7941 Y75.4332 E1.01546 F6000 ; Print pattern wall
G1 E-1 F1800 ; Retract
G1 Z0.9 F12000 ; Z hop
G0 X75.2441 Y33.0068 F12000 ; Move to next pattern
G1 Z0.8 F12000 ; Z hop return
G1 E1 F1800 ; Un-retract
SET_PRESSURE_ADVANCE ADVANCE=0.07 ; Set pressure advance
M117 PA 0.07
G1 X96.4573 Y54.22 E1.01546 F6000 ; Print pattern wall
G1 X75.2441 Y75.4332 E1.01546 F6000 ; Print pattern wall
G1 E-1 F1800 ; Retract
G1 Z0.9 F12000 ; Z hop
G0 X75.8198 Y33.0068 F12000 ; Move to start next pattern wall
G1 Z0.8 F12000 ; Z hop return
G1 E1 F1800 ; Un-retract
G1 X97.033 Y54.22 E1.01546 F6000 ; Print pattern wall
G1 X75.8198 Y75.4332 E1.01546 F6000 ; Print pattern wall
G1 E-1 F1800 ; Retract
G1 Z0.9 F12000 ; Z hop
G0 X76.3955 Y33.0068 F12000 ; Move to start next pattern wall
G1 Z0.8 F12000 ; Z hop return
G1 E1 F1800 ; Un-retract
G1 X97.6087 Y54.22 E1.01546 F6000 ; Print pattern wall
G1 X76.3955 Y75.4332 E1.01546 F6000 ; Print pattern wall
G1 E-1 F1800 ; Retract
G1 Z0.9 F12000 ; Z hop
G0 X78.8455 Y33.0068 F12000 ; Move to next pattern
G1 Z0.8 F12000 ; Z hop return
G1 E1 F1800 ; Un-retract
SET_PRESSURE_ADVANCE ADVANCE=0.075 ; Set pressure advance
M117 PA 0.075
G1 X100.0587 Y54.22 E1.01546 F6000 ; Print pattern wall
G1 X78.8455 Y75.4332 E1.01546 F6000 ; Print pattern wall
G1 E-1 F1800 ; Retract
G1 Z0.9 F12000 ; Z hop
G0 X79.4212 Y33.0068 F12000 ; Move to start next pattern wall
G1 Z0.8 F12000 ; Z hop return
G1 E1 F1800 ; Un-retract
G1 X100.6344 Y54.22 E1.01546 F6000 ; Print pattern wall
G1 X79.4212 Y75.4332 E1.01546 F6000 ; Print pattern wall
G1 E-1 F1800 ; Retract
G1 Z0.9 F12000 ; Z hop
G0 X79.9969 Y33.0068 F12000 ; Move to start next pattern wall
G1 Z0.8 F12000 ; Z hop return
G1 E1 F1800 ; Un-retract
G1 X101.2101 Y54.22 E1.01546 F6000 ; Print pattern wall
G1 X79.9969 Y75.4332 E1.01546 F6000 ; Print pattern wall
G1 E-1 F1800 ; Retract
G1 Z0.9 F12000 ; Z hop
G0 X82.4469 Y33.0068 F12000 ; Move to next pattern
G1 Z0.8 F12000 ; Z hop return
G1 E1 F1800 ; Un-retract
SET_PRESSURE_ADVANCE ADVANCE=0.08 ; Set pressure advance
M117 PA 0.08
G1 X103.6601 Y54.22 E1.01546 F6000 ; Print pattern wall
G1 X82.4469 Y75.4332 E1.01546 F6000 ; Print pattern wall
G1 E-1 F1800 ; Retract
G1 Z0.9 F12000 ; Z hop
G0 X83.0226 Y33.0068 F12000 ; Move to start next pattern wall
G1 Z0.8 F12000 ; Z hop return
G1 E1 F1800 ; Un-retract
G1 X104.2358 Y54.22 E1.01546 F6000 ; Print pattern wall
G1 X83.0226 Y75.4332 E1.01546 F6000 ; Print pattern wall
G1 E-1 F1800 ; Retract
G1 Z0.9 F12000 ; Z hop
G0 X83.5983 Y33.0068 F12000 ; Move to start next pattern wall
G1 Z0.8 F12000 ; Z hop return
G1 E1 F1800 ; Un-retract
G1 X104.8115 Y54.22 E1.01546 F6000 ; Print pattern wall
G1 X83.5983 Y75.4332 E1.01546 F6000 ; Print pattern wall
SET_PRESSURE_ADVANCE ADVANCE=0 ; Set pressure advance back to start value
M117 PA 0
G1 E-1 F1800 ; Retract
G1 Z0.9 F12000 ; Z hop
G0 Z5.8 F12000 ; Z raise
M104 S0 ; Turn off hotend
M140 S0 ; Turn off bed
M107    ; Turn off fan
;
; End G-code
;
PRINT_END ; End macro. Change name to match yours
;
; FINISH
;
