
; ### Ellis' Pressure Advance / Linear Advance Calibration Tool ###
;
; Original Marlin linear advance calibration tool by Sineos [https://github.com/Sineos]
; Heavily modified/rewritten by Andrew Ellis [https://github.com/AndrewEllis93]
;
; -------------------------------------------
; Generated: Fri Dec 30 2022 11:17:21 GMT-0800 (Pacific Standard Time)
; -------------------------------------------
;
; Advanced mode: false
;
; Printer:
;  - Firmware: klipper
;  - Bed Shape: Rect
;  - Bed Size X: 118 mm
;  - Bed Size Y: 118 mm
;  - Origin Bed Center: false
;  - Travel Speed: 200 mm/s
;  - Nozzle Diameter: 0.4 mm
;  - Filament Diameter: 1.75 mm
;  - Extrusion Multiplier: 1
;
; Retraction / Z Hop:
;  - Retraction Distance: 0.5 mm
;  - Retract Speed: 30 mm/s
;  - Unretract Speed: 35 mm/s
;  - Z Hop Enable: true
;  - Z Hop Height: 0.1mm
;
; First Layer Settings:
;  - First Layer Height: 0.2 mm
;  - First Layer Printing Speed: 30 mm/s
;  - First Layer Fan Speed: 0%
;  - Anchor Option: anchor_frame
;
; Print Settings:
;  - Layer Height: 0.2 mm
;  - Print Speed: 80 mm/s
;  - Acceleration: 6000 mm/s^2
;  - Fan Speed: 100%
;
; Pressure Advance Stepping:
;  - PA Start Value: 0
;  - PA End Value: 0.08
;  - PA Increment: 0.005
;
; Start / End G-code:
;  - Start G-code Type: standalone
;  - Hotend Temp: 200C
;  - Bed Temp: 60C
;
; Calculated Values:
;  - Print Size X: 84.76 mm
;  - Print Size Y: 53.99 mm
;  - Number of Patterns to Print: 17
;  - PA Values: 0, 0.005, 0.01, 0.015, 0.02, 0.025, 0.03, 0.035, 0.04, 0.045, 0.05, 0.055, 0.06, 0.065, 0.07, 0.075, 0.08
;
; Prepare printing
;
M190 S60    ; Set & wait for bed temp. !Don't modify/delete, only move!
M109 S200 ; Set & wait for hotend temp. !Don't modify/delete, only move!
START_PRINT T_BED=60 T_EXTRUDER=200
;
; Make sure this macro name matches your own!
; (For example, some may use START_PRINT instead.)
G21 ; Millimeter units
G90 ; Absolute XYZ
M83 ; Relative E
G92 E0 ; Reset extruder distance
;
;  Begin printing
;
M106 S0 ; Set fan speed
SET_VELOCITY_LIMIT ACCEL=6000 ; Set printing acceleration
G1 E-0.5 F1800 ; Retract
G0 Z5 F12000 ; Z raise
G0 X16.6202 Y32.0068 F12000 ; Move to start position
G0 Z0.2 F12000 ; Move to start layer height
G1 E0.5 F2100 ; Un-retract
SET_PRESSURE_ADVANCE ADVANCE=0 ; Set pressure advance to start value
M117 PA 0
G1 X16.6202 Y74.4332 E1.82414 F1800 ; Draw perimeter (up)
G1 X101.3798 Y74.4332 E3.64426 F1800 ; Draw perimeter (right)
G1 X101.3798 Y32.0068 E1.82414 F1800 ; Draw perimeter (down)
G1 X16.6202 Y32.0068 E3.64426 F1800 ; Draw perimeter (left)
G0 X17.1373 Y32.5239 F12000 ; Step inwards to print next perimeter
G1 X17.1373 Y73.9161 E1.77967 F1800 ; Draw perimeter (up)
G1 X100.8627 Y73.9161 E3.5998 F1800 ; Draw perimeter (right)
G1 X100.8627 Y32.5239 E1.77967 F1800 ; Draw perimeter (down)
G1 X17.1373 Y32.5239 E3.5998 F1800 ; Draw perimeter (left)
G0 X17.6544 Y33.041 F12000 ; Step inwards to print next perimeter
G1 X17.6544 Y73.399 E1.73521 F1800 ; Draw perimeter (up)
G1 X100.3456 Y73.399 E3.55534 F1800 ; Draw perimeter (right)
G1 X100.3456 Y33.041 E1.73521 F1800 ; Draw perimeter (down)
G1 X17.6544 Y33.041 E3.55534 F1800 ; Draw perimeter (left)
G0 X18.1715 Y33.558 F12000 ; Step inwards to print next perimeter
G1 X18.1715 Y72.882 E1.69075 F1800 ; Draw perimeter (up)
G1 X99.8285 Y72.882 E3.51087 F1800 ; Draw perimeter (right)
G1 X99.8285 Y33.558 E1.69075 F1800 ; Draw perimeter (down)
G1 X18.1715 Y33.558 E3.51087 F1800 ; Draw perimeter (left)
G1 E-0.5 F1800 ; Retract
G1 Z0.3 F12000 ; Z hop
G0 X16.6202 Y74.9503 F12000 ; Move to box start
G1 Z0.2 F12000 ; Z hop return
G1 E0.5 F2100 ; Un-retract
G1 X16.6202 Y86.4674 E0.49518 F1800 ; Draw perimeter (up)
G1 X80.8747 Y86.4674 E2.76264 F1800 ; Draw perimeter (right)
G1 X80.8747 Y74.9503 E0.49518 F1800 ; Draw perimeter (down)
G1 X16.6202 Y74.9503 E2.76264 F1800 ; Draw perimeter (left)
G0 X17.1373 Y75.4674 F12000 ; Step inwards to print next perimeter
G1 X17.1373 Y85.9503 E0.45072 F1800 ; Draw perimeter (up)
G1 X80.3576 Y85.9503 E2.71818 F1800 ; Draw perimeter (right)
G1 X80.3576 Y75.4674 E0.45072 F1800 ; Draw perimeter (down)
G1 X17.1373 Y75.4674 E2.71818 F1800 ; Draw perimeter (left)
G0 X17.6544 Y75.9844 F12000 ; Step inwards to print next perimeter
G1 X17.6544 Y85.4332 E0.40625 F1800 ; Draw perimeter (up)
G1 X79.8406 Y85.4332 E2.67372 F1800 ; Draw perimeter (right)
G1 X79.8406 Y75.9844 E0.40625 F1800 ; Draw perimeter (down)
G1 X17.6544 Y75.9844 E2.67372 F1800 ; Draw perimeter (left)
G0 X18.1715 Y76.5015 F12000 ; Step inwards to print next perimeter
G1 X18.1715 Y84.9161 E0.36179 F1800 ; Draw perimeter (up)
G1 X79.3235 Y84.9161 E2.62925 F1800 ; Draw perimeter (right)
G1 X79.3235 Y76.5015 E0.36179 F1800 ; Draw perimeter (down)
G1 X18.1715 Y76.5015 E2.62925 F1800 ; Draw perimeter (left)
G0 X18.5448 Y76.8749 F12000 ; Move to fill start
G0 X19.2761 Y76.8749 F12000 ; Move
G1 X18.5448 Y77.6061 E0.04446 F1800 ; Fill
G0 X18.5448 Y78.3374 F12000 ; Move
G1 X20.0073 Y76.8749 E0.08893 F1800 ; Fill
G0 X20.7386 Y76.8749 F12000 ; Move
G1 X18.5448 Y79.0686 E0.13339 F1800 ; Fill
G0 X18.5448 Y79.7999 F12000 ; Move
G1 X21.4699 Y76.8749 E0.17786 F1800 ; Fill
G0 X22.2011 Y76.8749 F12000 ; Move
G1 X18.5448 Y80.5312 E0.22232 F1800 ; Fill
G0 X18.5448 Y81.2624 F12000 ; Move
G1 X22.9324 Y76.8749 E0.26678 F1800 ; Fill
G0 X23.6636 Y76.8749 F12000 ; Move
G1 X18.5448 Y81.9937 E0.31125 F1800 ; Fill
G0 X18.5448 Y82.7249 F12000 ; Move
G1 X24.3949 Y76.8749 E0.35571 F1800 ; Fill
G0 X25.1262 Y76.8749 F12000 ; Move
G1 X18.5448 Y83.4562 E0.40018 F1800 ; Fill
G0 X18.5448 Y84.1875 F12000 ; Move
G1 X25.8574 Y76.8749 E0.44464 F1800 ; Fill
G0 X26.5887 Y76.8749 F12000 ; Move
G1 X18.9207 Y84.5428 E0.46625 F1800 ; Fill
G0 X19.652 Y84.5428 F12000 ; Move
G1 X27.3199 Y76.8749 E0.46625 F1800 ; Fill
G0 X28.0512 Y76.8749 F12000 ; Move
G1 X20.3833 Y84.5428 E0.46625 F1800 ; Fill
G0 X21.1145 Y84.5428 F12000 ; Move
G1 X28.7825 Y76.8749 E0.46625 F1800 ; Fill
G0 X29.5137 Y76.8749 F12000 ; Move
G1 X21.8458 Y84.5428 E0.46625 F1800 ; Fill
G0 X22.5771 Y84.5428 F12000 ; Move
G1 X30.245 Y76.8749 E0.46625 F1800 ; Fill
G0 X30.9762 Y76.8749 F12000 ; Move
G1 X23.3083 Y84.5428 E0.46625 F1800 ; Fill
G0 X24.0396 Y84.5428 F12000 ; Move
G1 X31.7075 Y76.8749 E0.46625 F1800 ; Fill
G0 X32.4388 Y76.8749 F12000 ; Move
G1 X24.7708 Y84.5428 E0.46625 F1800 ; Fill
G0 X25.5021 Y84.5428 F12000 ; Move
G1 X33.17 Y76.8749 E0.46625 F1800 ; Fill
G0 X33.9013 Y76.8749 F12000 ; Move
G1 X26.2334 Y84.5428 E0.46625 F1800 ; Fill
G0 X26.9646 Y84.5428 F12000 ; Move
G1 X34.6326 Y76.8749 E0.46625 F1800 ; Fill
G0 X35.3638 Y76.8749 F12000 ; Move
G1 X27.6959 Y84.5428 E0.46625 F1800 ; Fill
G0 X28.4271 Y84.5428 F12000 ; Move
G1 X36.0951 Y76.8749 E0.46625 F1800 ; Fill
G0 X36.8263 Y76.8749 F12000 ; Move
G1 X29.1584 Y84.5428 E0.46625 F1800 ; Fill
G0 X29.8897 Y84.5428 F12000 ; Move
G1 X37.5576 Y76.8749 E0.46625 F1800 ; Fill
G0 X38.2889 Y76.8749 F12000 ; Move
G1 X30.6209 Y84.5428 E0.46625 F1800 ; Fill
G0 X31.3522 Y84.5428 F12000 ; Move
G1 X39.0201 Y76.8749 E0.46625 F1800 ; Fill
G0 X39.7514 Y76.8749 F12000 ; Move
G1 X32.0834 Y84.5428 E0.46625 F1800 ; Fill
G0 X32.8147 Y84.5428 F12000 ; Move
G1 X40.4826 Y76.8749 E0.46625 F1800 ; Fill
G0 X41.2139 Y76.8749 F12000 ; Move
G1 X33.546 Y84.5428 E0.46625 F1800 ; Fill
G0 X34.2772 Y84.5428 F12000 ; Move
G1 X41.9452 Y76.8749 E0.46625 F1800 ; Fill
G0 X42.6764 Y76.8749 F12000 ; Move
G1 X35.0085 Y84.5428 E0.46625 F1800 ; Fill
G0 X35.7398 Y84.5428 F12000 ; Move
G1 X43.4077 Y76.8749 E0.46625 F1800 ; Fill
G0 X44.1389 Y76.8749 F12000 ; Move
G1 X36.471 Y84.5428 E0.46625 F1800 ; Fill
G0 X37.2023 Y84.5428 F12000 ; Move
G1 X44.8702 Y76.8749 E0.46625 F1800 ; Fill
G0 X45.6015 Y76.8749 F12000 ; Move
G1 X37.9335 Y84.5428 E0.46625 F1800 ; Fill
G0 X38.6648 Y84.5428 F12000 ; Move
G1 X46.3327 Y76.8749 E0.46625 F1800 ; Fill
G0 X47.064 Y76.8749 F12000 ; Move
G1 X39.3961 Y84.5428 E0.46625 F1800 ; Fill
G0 X40.1273 Y84.5428 F12000 ; Move
G1 X47.7953 Y76.8749 E0.46625 F1800 ; Fill
G0 X48.5265 Y76.8749 F12000 ; Move
G1 X40.8586 Y84.5428 E0.46625 F1800 ; Fill
G0 X41.5898 Y84.5428 F12000 ; Move
G1 X49.2578 Y76.8749 E0.46625 F1800 ; Fill
G0 X49.989 Y76.8749 F12000 ; Move
G1 X42.3211 Y84.5428 E0.46625 F1800 ; Fill
G0 X43.0524 Y84.5428 F12000 ; Move
G1 X50.7203 Y76.8749 E0.46625 F1800 ; Fill
G0 X51.4516 Y76.8749 F12000 ; Move
G1 X43.7836 Y84.5428 E0.46625 F1800 ; Fill
G0 X44.5149 Y84.5428 F12000 ; Move
G1 X52.1828 Y76.8749 E0.46625 F1800 ; Fill
G0 X52.9141 Y76.8749 F12000 ; Move
G1 X45.2461 Y84.5428 E0.46625 F1800 ; Fill
G0 X45.9774 Y84.5428 F12000 ; Move
G1 X53.6453 Y76.8749 E0.46625 F1800 ; Fill
G0 X54.3766 Y76.8749 F12000 ; Move
G1 X46.7087 Y84.5428 E0.46625 F1800 ; Fill
G0 X47.4399 Y84.5428 F12000 ; Move
G1 X55.1079 Y76.8749 E0.46625 F1800 ; Fill
G0 X55.8391 Y76.8749 F12000 ; Move
G1 X48.1712 Y84.5428 E0.46625 F1800 ; Fill
G0 X48.9025 Y84.5428 F12000 ; Move
G1 X56.5704 Y76.8749 E0.46625 F1800 ; Fill
G0 X57.3016 Y76.8749 F12000 ; Move
G1 X49.6337 Y84.5428 E0.46625 F1800 ; Fill
G0 X50.365 Y84.5428 F12000 ; Move
G1 X58.0329 Y76.8749 E0.46625 F1800 ; Fill
G0 X58.7642 Y76.8749 F12000 ; Move
G1 X51.0962 Y84.5428 E0.46625 F1800 ; Fill
G0 X51.8275 Y84.5428 F12000 ; Move
G1 X59.4954 Y76.8749 E0.46625 F1800 ; Fill
G0 X60.2267 Y76.8749 F12000 ; Move
G1 X52.5588 Y84.5428 E0.46625 F1800 ; Fill
G0 X53.29 Y84.5428 F12000 ; Move
G1 X60.958 Y76.8749 E0.46625 F1800 ; Fill
G0 X61.6892 Y76.8749 F12000 ; Move
G1 X54.0213 Y84.5428 E0.46625 F1800 ; Fill
G0 X54.7525 Y84.5428 F12000 ; Move
G1 X62.4205 Y76.8749 E0.46625 F1800 ; Fill
G0 X63.1517 Y76.8749 F12000 ; Move
G1 X55.4838 Y84.5428 E0.46625 F1800 ; Fill
G0 X56.2151 Y84.5428 F12000 ; Move
G1 X63.883 Y76.8749 E0.46625 F1800 ; Fill
G0 X64.6143 Y76.8749 F12000 ; Move
G1 X56.9463 Y84.5428 E0.46625 F1800 ; Fill
G0 X57.6776 Y84.5428 F12000 ; Move
G1 X65.3455 Y76.8749 E0.46625 F1800 ; Fill
G0 X66.0768 Y76.8749 F12000 ; Move
G1 X58.4088 Y84.5428 E0.46625 F1800 ; Fill
G0 X59.1401 Y84.5428 F12000 ; Move
G1 X66.808 Y76.8749 E0.46625 F1800 ; Fill
G0 X67.5393 Y76.8749 F12000 ; Move
G1 X59.8714 Y84.5428 E0.46625 F1800 ; Fill
G0 X60.6026 Y84.5428 F12000 ; Move
G1 X68.2706 Y76.8749 E0.46625 F1800 ; Fill
G0 X69.0018 Y76.8749 F12000 ; Move
G1 X61.3339 Y84.5428 E0.46625 F1800 ; Fill
G0 X62.0651 Y84.5428 F12000 ; Move
G1 X69.7331 Y76.8749 E0.46625 F1800 ; Fill
G0 X70.4643 Y76.8749 F12000 ; Move
G1 X62.7964 Y84.5428 E0.46625 F1800 ; Fill
G0 X63.5277 Y84.5428 F12000 ; Move
G1 X71.1956 Y76.8749 E0.46625 F1800 ; Fill
G0 X71.9269 Y76.8749 F12000 ; Move
G1 X64.2589 Y84.5428 E0.46625 F1800 ; Fill
G0 X64.9902 Y84.5428 F12000 ; Move
G1 X72.6581 Y76.8749 E0.46625 F1800 ; Fill
G0 X73.3894 Y76.8749 F12000 ; Move
G1 X65.7215 Y84.5428 E0.46625 F1800 ; Fill
G0 X66.4527 Y84.5428 F12000 ; Move
G1 X74.1206 Y76.8749 E0.46625 F1800 ; Fill
G0 X74.8519 Y76.8749 F12000 ; Move
G1 X67.184 Y84.5428 E0.46625 F1800 ; Fill
G0 X67.9152 Y84.5428 F12000 ; Move
G1 X75.5832 Y76.8749 E0.46625 F1800 ; Fill
G0 X76.3144 Y76.8749 F12000 ; Move
G1 X68.6465 Y84.5428 E0.46625 F1800 ; Fill
G0 X69.3778 Y84.5428 F12000 ; Move
G1 X77.0457 Y76.8749 E0.46625 F1800 ; Fill
G0 X77.777 Y76.8749 F12000 ; Move
G1 X70.109 Y84.5428 E0.46625 F1800 ; Fill
G0 X70.8403 Y84.5428 F12000 ; Move
G1 X78.5082 Y76.8749 E0.46625 F1800 ; Fill
G0 X78.9501 Y77.1642 F12000 ; Move
G1 X71.5715 Y84.5428 E0.44865 F1800 ; Fill
G0 X72.3028 Y84.5428 F12000 ; Move
G1 X78.9501 Y77.8955 E0.40419 F1800 ; Fill
G0 X78.9501 Y78.6267 F12000 ; Move
G1 X73.0341 Y84.5428 E0.35972 F1800 ; Fill
G0 X73.7653 Y84.5428 F12000 ; Move
G1 X78.9501 Y79.358 E0.31526 F1800 ; Fill
G0 X78.9501 Y80.0892 F12000 ; Move
G1 X74.4966 Y84.5428 E0.2708 F1800 ; Fill
G0 X75.2278 Y84.5428 F12000 ; Move
G1 X78.9501 Y80.8205 E0.22633 F1800 ; Fill
G0 X78.9501 Y81.5518 F12000 ; Move
G1 X75.9591 Y84.5428 E0.18187 F1800 ; Fill
G0 X76.6904 Y84.5428 F12000 ; Move
G1 X78.9501 Y82.283 E0.1374 F1800 ; Fill
G0 X78.9501 Y83.0143 F12000 ; Move
G1 X77.4216 Y84.5428 E0.09294 F1800 ; Fill
G0 X78.1529 Y84.5428 F12000 ; Move
G1 X78.9501 Y83.7455 E0.04848 F1800 ; Fill
G0 X78.9501 Y84.4768 F12000 ; Move
G1 X78.8842 Y84.5428 E0.00401 F1800 ; Fill
G0 Z0.2 F12000 ; Move to layer height
G1 E-0.5 F1800 ; Retract
G1 Z0.3 F12000 ; Z hop
G0 X21.2491 Y33.9314 F12000 ; Move to pattern start

G1 Z0.2 F12000 ; Z hop return
G1 E0.5 F2100 ; Un-retract
SET_PRESSURE_ADVANCE ADVANCE=0 ; Set pressure advance
M117 PA 0
G1 X40.5377 Y53.22 E0.92334 F1800 ; Print pattern wall
G1 X21.2491 Y72.5086 E0.92334 F1800 ; Print pattern wall
G1 E-0.5 F1800 ; Retract
G1 Z0.3 F12000 ; Z hop
G0 X21.8248 Y33.9314 F12000 ; Move to start next pattern wall
G1 Z0.2 F12000 ; Z hop return
G1 E0.5 F2100 ; Un-retract
G1 X41.1134 Y53.22 E0.92334 F1800 ; Print pattern wall
G1 X21.8248 Y72.5086 E0.92334 F1800 ; Print pattern wall
G1 E-0.5 F1800 ; Retract
G1 Z0.3 F12000 ; Z hop
G0 X22.4005 Y33.9314 F12000 ; Move to start next pattern wall
G1 Z0.2 F12000 ; Z hop return
G1 E0.5 F2100 ; Un-retract
G1 X41.6891 Y53.22 E0.92334 F1800 ; Print pattern wall
G1 X22.4005 Y72.5086 E0.92334 F1800 ; Print pattern wall
G1 E-0.5 F1800 ; Retract
G1 Z0.3 F12000 ; Z hop
G0 X24.8505 Y33.9314 F12000 ; Move to next pattern
G1 Z0.2 F12000 ; Z hop return
G1 E0.5 F2100 ; Un-retract
SET_PRESSURE_ADVANCE ADVANCE=0.005 ; Set pressure advance
M117 PA 0.005
G1 X44.1391 Y53.22 E0.92334 F1800 ; Print pattern wall
G1 X24.8505 Y72.5086 E0.92334 F1800 ; Print pattern wall
G1 E-0.5 F1800 ; Retract
G1 Z0.3 F12000 ; Z hop
G0 X25.4262 Y33.9314 F12000 ; Move to start next pattern wall
G1 Z0.2 F12000 ; Z hop return
G1 E0.5 F2100 ; Un-retract
G1 X44.7148 Y53.22 E0.92334 F1800 ; Print pattern wall
G1 X25.4262 Y72.5086 E0.92334 F1800 ; Print pattern wall
G1 E-0.5 F1800 ; Retract
G1 Z0.3 F12000 ; Z hop
G0 X26.0019 Y33.9314 F12000 ; Move to start next pattern wall
G1 Z0.2 F12000 ; Z hop return
G1 E0.5 F2100 ; Un-retract
G1 X45.2905 Y53.22 E0.92334 F1800 ; Print pattern wall
G1 X26.0019 Y72.5086 E0.92334 F1800 ; Print pattern wall
G1 E-0.5 F1800 ; Retract
G1 Z0.3 F12000 ; Z hop
G0 X28.4519 Y33.9314 F12000 ; Move to next pattern
G1 Z0.2 F12000 ; Z hop return
G1 E0.5 F2100 ; Un-retract
SET_PRESSURE_ADVANCE ADVANCE=0.01 ; Set pressure advance
M117 PA 0.01
G1 X47.7405 Y53.22 E0.92334 F1800 ; Print pattern wall
G1 X28.4519 Y72.5086 E0.92334 F1800 ; Print pattern wall
G1 E-0.5 F1800 ; Retract
G1 Z0.3 F12000 ; Z hop
G0 X29.0276 Y33.9314 F12000 ; Move to start next pattern wall
G1 Z0.2 F12000 ; Z hop return
G1 E0.5 F2100 ; Un-retract
G1 X48.3162 Y53.22 E0.92334 F1800 ; Print pattern wall
G1 X29.0276 Y72.5086 E0.92334 F1800 ; Print pattern wall
G1 E-0.5 F1800 ; Retract
G1 Z0.3 F12000 ; Z hop
G0 X29.6033 Y33.9314 F12000 ; Move to start next pattern wall
G1 Z0.2 F12000 ; Z hop return
G1 E0.5 F2100 ; Un-retract
G1 X48.8919 Y53.22 E0.92334 F1800 ; Print pattern wall
G1 X29.6033 Y72.5086 E0.92334 F1800 ; Print pattern wall
G1 E-0.5 F1800 ; Retract
G1 Z0.3 F12000 ; Z hop
G0 X32.0533 Y33.9314 F12000 ; Move to next pattern
G1 Z0.2 F12000 ; Z hop return
G1 E0.5 F2100 ; Un-retract
SET_PRESSURE_ADVANCE ADVANCE=0.015 ; Set pressure advance
M117 PA 0.015
G1 X51.3419 Y53.22 E0.92334 F1800 ; Print pattern wall
G1 X32.0533 Y72.5086 E0.92334 F1800 ; Print pattern wall
G1 E-0.5 F1800 ; Retract
G1 Z0.3 F12000 ; Z hop
G0 X32.629 Y33.9314 F12000 ; Move to start next pattern wall
G1 Z0.2 F12000 ; Z hop return
G1 E0.5 F2100 ; Un-retract
G1 X51.9176 Y53.22 E0.92334 F1800 ; Print pattern wall
G1 X32.629 Y72.5086 E0.92334 F1800 ; Print pattern wall
G1 E-0.5 F1800 ; Retract
G1 Z0.3 F12000 ; Z hop
G0 X33.2047 Y33.9314 F12000 ; Move to start next pattern wall
G1 Z0.2 F12000 ; Z hop return
G1 E0.5 F2100 ; Un-retract
G1 X52.4933 Y53.22 E0.92334 F1800 ; Print pattern wall
G1 X33.2047 Y72.5086 E0.92334 F1800 ; Print pattern wall
G1 E-0.5 F1800 ; Retract
G1 Z0.3 F12000 ; Z hop
G0 X35.6547 Y33.9314 F12000 ; Move to next pattern
G1 Z0.2 F12000 ; Z hop return
G1 E0.5 F2100 ; Un-retract
SET_PRESSURE_ADVANCE ADVANCE=0.02 ; Set pressure advance
M117 PA 0.02
G1 X54.9433 Y53.22 E0.92334 F1800 ; Print pattern wall
G1 X35.6547 Y72.5086 E0.92334 F1800 ; Print pattern wall
G1 E-0.5 F1800 ; Retract
G1 Z0.3 F12000 ; Z hop
G0 X36.2304 Y33.9314 F12000 ; Move to start next pattern wall
G1 Z0.2 F12000 ; Z hop return
G1 E0.5 F2100 ; Un-retract
G1 X55.519 Y53.22 E0.92334 F1800 ; Print pattern wall
G1 X36.2304 Y72.5086 E0.92334 F1800 ; Print pattern wall
G1 E-0.5 F1800 ; Retract
G1 Z0.3 F12000 ; Z hop
G0 X36.8061 Y33.9314 F12000 ; Move to start next pattern wall
G1 Z0.2 F12000 ; Z hop return
G1 E0.5 F2100 ; Un-retract
G1 X56.0947 Y53.22 E0.92334 F1800 ; Print pattern wall
G1 X36.8061 Y72.5086 E0.92334 F1800 ; Print pattern wall
G1 E-0.5 F1800 ; Retract
G1 Z0.3 F12000 ; Z hop
G0 X39.2561 Y33.9314 F12000 ; Move to next pattern
G1 Z0.2 F12000 ; Z hop return
G1 E0.5 F2100 ; Un-retract
SET_PRESSURE_ADVANCE ADVANCE=0.025 ; Set pressure advance
M117 PA 0.025
G1 X58.5447 Y53.22 E0.92334 F1800 ; Print pattern wall
G1 X39.2561 Y72.5086 E0.92334 F1800 ; Print pattern wall
G1 E-0.5 F1800 ; Retract
G1 Z0.3 F12000 ; Z hop
G0 X39.8318 Y33.9314 F12000 ; Move to start next pattern wall
G1 Z0.2 F12000 ; Z hop return
G1 E0.5 F2100 ; Un-retract
G1 X59.1204 Y53.22 E0.92334 F1800 ; Print pattern wall
G1 X39.8318 Y72.5086 E0.92334 F1800 ; Print pattern wall
G1 E-0.5 F1800 ; Retract
G1 Z0.3 F12000 ; Z hop
G0 X40.4075 Y33.9314 F12000 ; Move to start next pattern wall
G1 Z0.2 F12000 ; Z hop return
G1 E0.5 F2100 ; Un-retract
G1 X59.6961 Y53.22 E0.92334 F1800 ; Print pattern wall
G1 X40.4075 Y72.5086 E0.92334 F1800 ; Print pattern wall
G1 E-0.5 F1800 ; Retract
G1 Z0.3 F12000 ; Z hop
G0 X42.8575 Y33.9314 F12000 ; Move to next pattern
G1 Z0.2 F12000 ; Z hop return
G1 E0.5 F2100 ; Un-retract
SET_PRESSURE_ADVANCE ADVANCE=0.03 ; Set pressure advance
M117 PA 0.03
G1 X62.1461 Y53.22 E0.92334 F1800 ; Print pattern wall
G1 X42.8575 Y72.5086 E0.92334 F1800 ; Print pattern wall
G1 E-0.5 F1800 ; Retract
G1 Z0.3 F12000 ; Z hop
G0 X43.4332 Y33.9314 F12000 ; Move to start next pattern wall
G1 Z0.2 F12000 ; Z hop return
G1 E0.5 F2100 ; Un-retract
G1 X62.7218 Y53.22 E0.92334 F1800 ; Print pattern wall
G1 X43.4332 Y72.5086 E0.92334 F1800 ; Print pattern wall
G1 E-0.5 F1800 ; Retract
G1 Z0.3 F12000 ; Z hop
G0 X44.0089 Y33.9314 F12000 ; Move to start next pattern wall
G1 Z0.2 F12000 ; Z hop return
G1 E0.5 F2100 ; Un-retract
G1 X63.2975 Y53.22 E0.92334 F1800 ; Print pattern wall
G1 X44.0089 Y72.5086 E0.92334 F1800 ; Print pattern wall
G1 E-0.5 F1800 ; Retract
G1 Z0.3 F12000 ; Z hop
G0 X46.4589 Y33.9314 F12000 ; Move to next pattern
G1 Z0.2 F12000 ; Z hop return
G1 E0.5 F2100 ; Un-retract
SET_PRESSURE_ADVANCE ADVANCE=0.035 ; Set pressure advance
M117 PA 0.035
G1 X65.7475 Y53.22 E0.92334 F1800 ; Print pattern wall
G1 X46.4589 Y72.5086 E0.92334 F1800 ; Print pattern wall
G1 E-0.5 F1800 ; Retract
G1 Z0.3 F12000 ; Z hop
G0 X47.0346 Y33.9314 F12000 ; Move to start next pattern wall
G1 Z0.2 F12000 ; Z hop return
G1 E0.5 F2100 ; Un-retract
G1 X66.3232 Y53.22 E0.92334 F1800 ; Print pattern wall
G1 X47.0346 Y72.5086 E0.92334 F1800 ; Print pattern wall
G1 E-0.5 F1800 ; Retract
G1 Z0.3 F12000 ; Z hop
G0 X47.6103 Y33.9314 F12000 ; Move to start next pattern wall
G1 Z0.2 F12000 ; Z hop return
G1 E0.5 F2100 ; Un-retract
G1 X66.8989 Y53.22 E0.92334 F1800 ; Print pattern wall
G1 X47.6103 Y72.5086 E0.92334 F1800 ; Print pattern wall
G1 E-0.5 F1800 ; Retract
G1 Z0.3 F12000 ; Z hop
G0 X50.0603 Y33.9314 F12000 ; Move to next pattern
G1 Z0.2 F12000 ; Z hop return
G1 E0.5 F2100 ; Un-retract
SET_PRESSURE_ADVANCE ADVANCE=0.04 ; Set pressure advance
M117 PA 0.04
G1 X69.3489 Y53.22 E0.92334 F1800 ; Print pattern wall
G1 X50.0603 Y72.5086 E0.92334 F1800 ; Print pattern wall
G1 E-0.5 F1800 ; Retract
G1 Z0.3 F12000 ; Z hop
G0 X50.636 Y33.9314 F12000 ; Move to start next pattern wall
G1 Z0.2 F12000 ; Z hop return
G1 E0.5 F2100 ; Un-retract
G1 X69.9246 Y53.22 E0.92334 F1800 ; Print pattern wall
G1 X50.636 Y72.5086 E0.92334 F1800 ; Print pattern wall
G1 E-0.5 F1800 ; Retract
G1 Z0.3 F12000 ; Z hop
G0 X51.2117 Y33.9314 F12000 ; Move to start next pattern wall
G1 Z0.2 F12000 ; Z hop return
G1 E0.5 F2100 ; Un-retract
G1 X70.5003 Y53.22 E0.92334 F1800 ; Print pattern wall
G1 X51.2117 Y72.5086 E0.92334 F1800 ; Print pattern wall
G1 E-0.5 F1800 ; Retract
G1 Z0.3 F12000 ; Z hop
G0 X53.6617 Y33.9314 F12000 ; Move to next pattern
G1 Z0.2 F12000 ; Z hop return
G1 E0.5 F2100 ; Un-retract
SET_PRESSURE_ADVANCE ADVANCE=0.045 ; Set pressure advance
M117 PA 0.045
G1 X72.9503 Y53.22 E0.92334 F1800 ; Print pattern wall
G1 X53.6617 Y72.5086 E0.92334 F1800 ; Print pattern wall
G1 E-0.5 F1800 ; Retract
G1 Z0.3 F12000 ; Z hop
G0 X54.2374 Y33.9314 F12000 ; Move to start next pattern wall
G1 Z0.2 F12000 ; Z hop return
G1 E0.5 F2100 ; Un-retract
G1 X73.526 Y53.22 E0.92334 F1800 ; Print pattern wall
G1 X54.2374 Y72.5086 E0.92334 F1800 ; Print pattern wall
G1 E-0.5 F1800 ; Retract
G1 Z0.3 F12000 ; Z hop
G0 X54.8131 Y33.9314 F12000 ; Move to start next pattern wall
G1 Z0.2 F12000 ; Z hop return
G1 E0.5 F2100 ; Un-retract
G1 X74.1017 Y53.22 E0.92334 F1800 ; Print pattern wall
G1 X54.8131 Y72.5086 E0.92334 F1800 ; Print pattern wall
G1 E-0.5 F1800 ; Retract
G1 Z0.3 F12000 ; Z hop
G0 X57.2631 Y33.9314 F12000 ; Move to next pattern
G1 Z0.2 F12000 ; Z hop return
G1 E0.5 F2100 ; Un-retract
SET_PRESSURE_ADVANCE ADVANCE=0.05 ; Set pressure advance
M117 PA 0.05
G1 X76.5517 Y53.22 E0.92334 F1800 ; Print pattern wall
G1 X57.2631 Y72.5086 E0.92334 F1800 ; Print pattern wall
G1 E-0.5 F1800 ; Retract
G1 Z0.3 F12000 ; Z hop
G0 X57.8388 Y33.9314 F12000 ; Move to start next pattern wall
G1 Z0.2 F12000 ; Z hop return
G1 E0.5 F2100 ; Un-retract
G1 X77.1274 Y53.22 E0.92334 F1800 ; Print pattern wall
G1 X57.8388 Y72.5086 E0.92334 F1800 ; Print pattern wall
G1 E-0.5 F1800 ; Retract
G1 Z0.3 F12000 ; Z hop
G0 X58.4145 Y33.9314 F12000 ; Move to start next pattern wall
G1 Z0.2 F12000 ; Z hop return
G1 E0.5 F2100 ; Un-retract
G1 X77.7031 Y53.22 E0.92334 F1800 ; Print pattern wall
G1 X58.4145 Y72.5086 E0.92334 F1800 ; Print pattern wall
G1 E-0.5 F1800 ; Retract
G1 Z0.3 F12000 ; Z hop
G0 X60.8645 Y33.9314 F12000 ; Move to next pattern
G1 Z0.2 F12000 ; Z hop return
G1 E0.5 F2100 ; Un-retract
SET_PRESSURE_ADVANCE ADVANCE=0.055 ; Set pressure advance
M117 PA 0.055
G1 X80.1531 Y53.22 E0.92334 F1800 ; Print pattern wall
G1 X60.8645 Y72.5086 E0.92334 F1800 ; Print pattern wall
G1 E-0.5 F1800 ; Retract
G1 Z0.3 F12000 ; Z hop
G0 X61.4402 Y33.9314 F12000 ; Move to start next pattern wall
G1 Z0.2 F12000 ; Z hop return
G1 E0.5 F2100 ; Un-retract
G1 X80.7288 Y53.22 E0.92334 F1800 ; Print pattern wall
G1 X61.4402 Y72.5086 E0.92334 F1800 ; Print pattern wall
G1 E-0.5 F1800 ; Retract
G1 Z0.3 F12000 ; Z hop
G0 X62.0159 Y33.9314 F12000 ; Move to start next pattern wall
G1 Z0.2 F12000 ; Z hop return
G1 E0.5 F2100 ; Un-retract
G1 X81.3045 Y53.22 E0.92334 F1800 ; Print pattern wall
G1 X62.0159 Y72.5086 E0.92334 F1800 ; Print pattern wall
G1 E-0.5 F1800 ; Retract
G1 Z0.3 F12000 ; Z hop
G0 X64.4659 Y33.9314 F12000 ; Move to next pattern
G1 Z0.2 F12000 ; Z hop return
G1 E0.5 F2100 ; Un-retract
SET_PRESSURE_ADVANCE ADVANCE=0.06 ; Set pressure advance
M117 PA 0.06
G1 X83.7545 Y53.22 E0.92334 F1800 ; Print pattern wall
G1 X64.4659 Y72.5086 E0.92334 F1800 ; Print pattern wall
G1 E-0.5 F1800 ; Retract
G1 Z0.3 F12000 ; Z hop
G0 X65.0416 Y33.9314 F12000 ; Move to start next pattern wall
G1 Z0.2 F12000 ; Z hop return
G1 E0.5 F2100 ; Un-retract
G1 X84.3302 Y53.22 E0.92334 F1800 ; Print pattern wall
G1 X65.0416 Y72.5086 E0.92334 F1800 ; Print pattern wall
G1 E-0.5 F1800 ; Retract
G1 Z0.3 F12000 ; Z hop
G0 X65.6173 Y33.9314 F12000 ; Move to start next pattern wall
G1 Z0.2 F12000 ; Z hop return
G1 E0.5 F2100 ; Un-retract
G1 X84.9059 Y53.22 E0.92334 F1800 ; Print pattern wall
G1 X65.6173 Y72.5086 E0.92334 F1800 ; Print pattern wall
G1 E-0.5 F1800 ; Retract
G1 Z0.3 F12000 ; Z hop
G0 X68.0673 Y33.9314 F12000 ; Move to next pattern
G1 Z0.2 F12000 ; Z hop return
G1 E0.5 F2100 ; Un-retract
SET_PRESSURE_ADVANCE ADVANCE=0.065 ; Set pressure advance
M117 PA 0.065
G1 X87.3559 Y53.22 E0.92334 F1800 ; Print pattern wall
G1 X68.0673 Y72.5086 E0.92334 F1800 ; Print pattern wall
G1 E-0.5 F1800 ; Retract
G1 Z0.3 F12000 ; Z hop
G0 X68.6429 Y33.9314 F12000 ; Move to start next pattern wall
G1 Z0.2 F12000 ; Z hop return
G1 E0.5 F2100 ; Un-retract
G1 X87.9316 Y53.22 E0.92334 F1800 ; Print pattern wall
G1 X68.6429 Y72.5086 E0.92334 F1800 ; Print pattern wall
G1 E-0.5 F1800 ; Retract
G1 Z0.3 F12000 ; Z hop
G0 X69.2186 Y33.9314 F12000 ; Move to start next pattern wall
G1 Z0.2 F12000 ; Z hop return
G1 E0.5 F2100 ; Un-retract
G1 X88.5073 Y53.22 E0.92334 F1800 ; Print pattern wall
G1 X69.2186 Y72.5086 E0.92334 F1800 ; Print pattern wall
G1 E-0.5 F1800 ; Retract
G1 Z0.3 F12000 ; Z hop
G0 X71.6686 Y33.9314 F12000 ; Move to next pattern
G1 Z0.2 F12000 ; Z hop return
G1 E0.5 F2100 ; Un-retract
SET_PRESSURE_ADVANCE ADVANCE=0.07 ; Set pressure advance
M117 PA 0.07
G1 X90.9573 Y53.22 E0.92334 F1800 ; Print pattern wall
G1 X71.6686 Y72.5086 E0.92334 F1800 ; Print pattern wall
G1 E-0.5 F1800 ; Retract
G1 Z0.3 F12000 ; Z hop
G0 X72.2443 Y33.9314 F12000 ; Move to start next pattern wall
G1 Z0.2 F12000 ; Z hop return
G1 E0.5 F2100 ; Un-retract
G1 X91.533 Y53.22 E0.92334 F1800 ; Print pattern wall
G1 X72.2443 Y72.5086 E0.92334 F1800 ; Print pattern wall
G1 E-0.5 F1800 ; Retract
G1 Z0.3 F12000 ; Z hop
G0 X72.82 Y33.9314 F12000 ; Move to start next pattern wall
G1 Z0.2 F12000 ; Z hop return
G1 E0.5 F2100 ; Un-retract
G1 X92.1087 Y53.22 E0.92334 F1800 ; Print pattern wall
G1 X72.82 Y72.5086 E0.92334 F1800 ; Print pattern wall
G1 E-0.5 F1800 ; Retract
G1 Z0.3 F12000 ; Z hop
G0 X75.27 Y33.9314 F12000 ; Move to next pattern
G1 Z0.2 F12000 ; Z hop return
G1 E0.5 F2100 ; Un-retract
SET_PRESSURE_ADVANCE ADVANCE=0.075 ; Set pressure advance
M117 PA 0.075
G1 X94.5587 Y53.22 E0.92334 F1800 ; Print pattern wall
G1 X75.27 Y72.5086 E0.92334 F1800 ; Print pattern wall
G1 E-0.5 F1800 ; Retract
G1 Z0.3 F12000 ; Z hop
G0 X75.8457 Y33.9314 F12000 ; Move to start next pattern wall
G1 Z0.2 F12000 ; Z hop return
G1 E0.5 F2100 ; Un-retract
G1 X95.1344 Y53.22 E0.92334 F1800 ; Print pattern wall
G1 X75.8457 Y72.5086 E0.92334 F1800 ; Print pattern wall
G1 E-0.5 F1800 ; Retract
G1 Z0.3 F12000 ; Z hop
G0 X76.4214 Y33.9314 F12000 ; Move to start next pattern wall
G1 Z0.2 F12000 ; Z hop return
G1 E0.5 F2100 ; Un-retract
G1 X95.7101 Y53.22 E0.92334 F1800 ; Print pattern wall
G1 X76.4214 Y72.5086 E0.92334 F1800 ; Print pattern wall
G1 E-0.5 F1800 ; Retract
G1 Z0.3 F12000 ; Z hop
G0 X78.8714 Y33.9314 F12000 ; Move to next pattern
G1 Z0.2 F12000 ; Z hop return
G1 E0.5 F2100 ; Un-retract
SET_PRESSURE_ADVANCE ADVANCE=0.08 ; Set pressure advance
M117 PA 0.08
G1 X98.1601 Y53.22 E0.92334 F1800 ; Print pattern wall
G1 X78.8714 Y72.5086 E0.92334 F1800 ; Print pattern wall
G1 E-0.5 F1800 ; Retract
G1 Z0.3 F12000 ; Z hop
G0 X79.4471 Y33.9314 F12000 ; Move to start next pattern wall
G1 Z0.2 F12000 ; Z hop return
G1 E0.5 F2100 ; Un-retract
G1 X98.7358 Y53.22 E0.92334 F1800 ; Print pattern wall
G1 X79.4471 Y72.5086 E0.92334 F1800 ; Print pattern wall
G1 E-0.5 F1800 ; Retract
G1 Z0.3 F12000 ; Z hop
G0 X80.0228 Y33.9314 F12000 ; Move to start next pattern wall
G1 Z0.2 F12000 ; Z hop return
G1 E0.5 F2100 ; Un-retract
G1 X99.3115 Y53.22 E0.92334 F1800 ; Print pattern wall
G1 X80.0228 Y72.5086 E0.92334 F1800 ; Print pattern wall
G1 E-0.5 F1800 ; Retract
G1 Z0.3 F12000 ; Z hop
G0 X21.2491 Y33.9314 F12000 ; Move back to start position
G1 Z0.2 F12000 ; Z hop return
G1 E0.5 F2100 ; Un-retract
M106 S255 ; Set fan speed
G0 Z0.4 F12000 ; Move to layer height
G1 E-0.5 F1800 ; Retract
G1 Z0.5 F12000 ; Z hop
G0 X17.9002 Y75.8832 F12000 ; Move
G1 Z0.4 F12000 ; Z hop return
G1 E0.5 F2100 ; Un-retract
G1 X19.9002 Y75.8832 E0.0677 F1800 ; Glyph: 0
G1 X21.9002 Y75.8832 E0.0677 F1800 ; Glyph: 0
G1 X21.9002 Y77.8832 E0.0677 F1800 ; Glyph: 0
G1 X19.9002 Y77.8832 E0.0677 F1800 ; Glyph: 0
G1 X17.9002 Y77.8832 E0.0677 F1800 ; Glyph: 0
G1 X17.9002 Y75.8832 E0.0677 F1800 ; Glyph: 0
G1 E-0.5 F1800 ; Retract
G1 Z0.5 F12000 ; Z hop
G0 X25.103 Y75.8832 F12000 ; Move
G1 Z0.4 F12000 ; Z hop return
G1 E0.5 F2100 ; Un-retract
G1 X27.103 Y75.8832 E0.0677 F1800 ; Glyph: 0
G1 X29.103 Y75.8832 E0.0677 F1800 ; Glyph: 0
G1 X29.103 Y77.8832 E0.0677 F1800 ; Glyph: 0
G1 X27.103 Y77.8832 E0.0677 F1800 ; Glyph: 0
G1 X25.103 Y77.8832 E0.0677 F1800 ; Glyph: 0
G1 X25.103 Y75.8832 E0.0677 F1800 ; Glyph: 0
G1 E-0.5 F1800 ; Retract
G1 Z0.5 F12000 ; Z hop
G0 X29.103 Y78.8832 F12000 ; Move
G1 Z0.4 F12000 ; Z hop return
G1 E0.5 F2100 ; Un-retract
G1 X28.353 Y78.8832 E0.02539 F1800 ; Glyph: .
G1 E-0.5 F1800 ; Retract
G1 Z0.5 F12000 ; Z hop
G0 X25.103 Y79.8832 F12000 ; Move
G1 Z0.4 F12000 ; Z hop return
G1 E0.5 F2100 ; Un-retract
G1 X27.103 Y79.8832 E0.0677 F1800 ; Glyph: 0
G1 X29.103 Y79.8832 E0.0677 F1800 ; Glyph: 0
G1 X29.103 Y81.8832 E0.0677 F1800 ; Glyph: 0
G1 X27.103 Y81.8832 E0.0677 F1800 ; Glyph: 0
G1 X25.103 Y81.8832 E0.0677 F1800 ; Glyph: 0
G1 X25.103 Y79.8832 E0.0677 F1800 ; Glyph: 0
G1 E-0.5 F1800 ; Retract
G1 Z0.5 F12000 ; Z hop
G0 X25.103 Y82.8832 F12000 ; Move
G1 Z0.4 F12000 ; Z hop return
G1 E0.5 F2100 ; Un-retract
G1 X27.103 Y82.8832 E0.0677 F1800 ; Glyph: 1
G1 X29.103 Y82.8832 E0.0677 F1800 ; Glyph: 1
G1 E-0.5 F1800 ; Retract
G1 Z0.5 F12000 ; Z hop
G0 X32.3058 Y75.8832 F12000 ; Move
G1 Z0.4 F12000 ; Z hop return
G1 E0.5 F2100 ; Un-retract
G1 X34.3058 Y75.8832 E0.0677 F1800 ; Glyph: 0
G1 X36.3058 Y75.8832 E0.0677 F1800 ; Glyph: 0
G1 X36.3058 Y77.8832 E0.0677 F1800 ; Glyph: 0
G1 X34.3058 Y77.8832 E0.0677 F1800 ; Glyph: 0
G1 X32.3058 Y77.8832 E0.0677 F1800 ; Glyph: 0
G1 X32.3058 Y75.8832 E0.0677 F1800 ; Glyph: 0
G1 E-0.5 F1800 ; Retract
G1 Z0.5 F12000 ; Z hop
G0 X36.3058 Y78.8832 F12000 ; Move
G1 Z0.4 F12000 ; Z hop return
G1 E0.5 F2100 ; Un-retract
G1 X35.5558 Y78.8832 E0.02539 F1800 ; Glyph: .
G1 E-0.5 F1800 ; Retract
G1 Z0.5 F12000 ; Z hop
G0 X32.3058 Y79.8832 F12000 ; Move
G1 Z0.4 F12000 ; Z hop return
G1 E0.5 F2100 ; Un-retract
G1 X34.3058 Y79.8832 E0.0677 F1800 ; Glyph: 0
G1 X36.3058 Y79.8832 E0.0677 F1800 ; Glyph: 0
G1 X36.3058 Y81.8832 E0.0677 F1800 ; Glyph: 0
G1 X34.3058 Y81.8832 E0.0677 F1800 ; Glyph: 0
G1 X32.3058 Y81.8832 E0.0677 F1800 ; Glyph: 0
G1 X32.3058 Y79.8832 E0.0677 F1800 ; Glyph: 0
G1 E-0.5 F1800 ; Retract
G1 Z0.5 F12000 ; Z hop
G0 X32.3058 Y82.8832 F12000 ; Move
G1 Z0.4 F12000 ; Z hop return
G1 E0.5 F2100 ; Un-retract
G1 X32.3058 Y84.8832 E0.0677 F1800 ; Glyph: 2
G1 X34.3058 Y84.8832 E0.0677 F1800 ; Glyph: 2
G1 X34.3058 Y82.8832 E0.0677 F1800 ; Glyph: 2
G1 X36.3058 Y82.8832 E0.0677 F1800 ; Glyph: 2
G1 X36.3058 Y84.8832 E0.0677 F1800 ; Glyph: 2
G1 E-0.5 F1800 ; Retract
G1 Z0.5 F12000 ; Z hop
G0 X39.5086 Y75.8832 F12000 ; Move
G1 Z0.4 F12000 ; Z hop return
G1 E0.5 F2100 ; Un-retract
G1 X41.5086 Y75.8832 E0.0677 F1800 ; Glyph: 0
G1 X43.5086 Y75.8832 E0.0677 F1800 ; Glyph: 0
G1 X43.5086 Y77.8832 E0.0677 F1800 ; Glyph: 0
G1 X41.5086 Y77.8832 E0.0677 F1800 ; Glyph: 0
G1 X39.5086 Y77.8832 E0.0677 F1800 ; Glyph: 0
G1 X39.5086 Y75.8832 E0.0677 F1800 ; Glyph: 0
G1 E-0.5 F1800 ; Retract
G1 Z0.5 F12000 ; Z hop
G0 X43.5086 Y78.8832 F12000 ; Move
G1 Z0.4 F12000 ; Z hop return
G1 E0.5 F2100 ; Un-retract
G1 X42.7586 Y78.8832 E0.02539 F1800 ; Glyph: .
G1 E-0.5 F1800 ; Retract
G1 Z0.5 F12000 ; Z hop
G0 X39.5086 Y79.8832 F12000 ; Move
G1 Z0.4 F12000 ; Z hop return
G1 E0.5 F2100 ; Un-retract
G1 X41.5086 Y79.8832 E0.0677 F1800 ; Glyph: 0
G1 X43.5086 Y79.8832 E0.0677 F1800 ; Glyph: 0
G1 X43.5086 Y81.8832 E0.0677 F1800 ; Glyph: 0
G1 X41.5086 Y81.8832 E0.0677 F1800 ; Glyph: 0
G1 X39.5086 Y81.8832 E0.0677 F1800 ; Glyph: 0
G1 X39.5086 Y79.8832 E0.0677 F1800 ; Glyph: 0
G1 E-0.5 F1800 ; Retract
G1 Z0.5 F12000 ; Z hop
G0 X39.5086 Y82.8832 F12000 ; Move
G1 Z0.4 F12000 ; Z hop return
G1 E0.5 F2100 ; Un-retract
G1 X39.5086 Y84.8832 E0.0677 F1800 ; Glyph: 3
G1 X41.5086 Y84.8832 E0.0677 F1800 ; Glyph: 3
G1 X41.5086 Y82.8832 E0.0677 F1800 ; Glyph: 3
G0 X41.5086 Y84.8832 F12000 ; Move
G1 X43.5086 Y84.8832 E0.0677 F1800 ; Glyph: 3
G1 X43.5086 Y82.8832 E0.0677 F1800 ; Glyph: 3
G1 E-0.5 F1800 ; Retract
G1 Z0.5 F12000 ; Z hop
G0 X46.7114 Y75.8832 F12000 ; Move
G1 Z0.4 F12000 ; Z hop return
G1 E0.5 F2100 ; Un-retract
G1 X48.7114 Y75.8832 E0.0677 F1800 ; Glyph: 0
G1 X50.7114 Y75.8832 E0.0677 F1800 ; Glyph: 0
G1 X50.7114 Y77.8832 E0.0677 F1800 ; Glyph: 0
G1 X48.7114 Y77.8832 E0.0677 F1800 ; Glyph: 0
G1 X46.7114 Y77.8832 E0.0677 F1800 ; Glyph: 0
G1 X46.7114 Y75.8832 E0.0677 F1800 ; Glyph: 0
G1 E-0.5 F1800 ; Retract
G1 Z0.5 F12000 ; Z hop
G0 X50.7114 Y78.8832 F12000 ; Move
G1 Z0.4 F12000 ; Z hop return
G1 E0.5 F2100 ; Un-retract
G1 X49.9614 Y78.8832 E0.02539 F1800 ; Glyph: .
G1 E-0.5 F1800 ; Retract
G1 Z0.5 F12000 ; Z hop
G0 X46.7114 Y79.8832 F12000 ; Move
G1 Z0.4 F12000 ; Z hop return
G1 E0.5 F2100 ; Un-retract
G1 X48.7114 Y79.8832 E0.0677 F1800 ; Glyph: 0
G1 X50.7114 Y79.8832 E0.0677 F1800 ; Glyph: 0
G1 X50.7114 Y81.8832 E0.0677 F1800 ; Glyph: 0
G1 X48.7114 Y81.8832 E0.0677 F1800 ; Glyph: 0
G1 X46.7114 Y81.8832 E0.0677 F1800 ; Glyph: 0
G1 X46.7114 Y79.8832 E0.0677 F1800 ; Glyph: 0
G1 E-0.5 F1800 ; Retract
G1 Z0.5 F12000 ; Z hop
G0 X46.7114 Y84.8832 F12000 ; Move
G1 Z0.4 F12000 ; Z hop return
G1 E0.5 F2100 ; Un-retract
G1 X48.7114 Y84.8832 E0.0677 F1800 ; Glyph: 4
G1 X50.7114 Y84.8832 E0.0677 F1800 ; Glyph: 4
G0 X48.7114 Y84.8832 F12000 ; Move
G1 X48.7114 Y82.8832 E0.0677 F1800 ; Glyph: 4
G1 X46.7114 Y82.8832 E0.0677 F1800 ; Glyph: 4
G1 E-0.5 F1800 ; Retract
G1 Z0.5 F12000 ; Z hop
G0 X53.9142 Y75.8832 F12000 ; Move
G1 Z0.4 F12000 ; Z hop return
G1 E0.5 F2100 ; Un-retract
G1 X55.9142 Y75.8832 E0.0677 F1800 ; Glyph: 0
G1 X57.9142 Y75.8832 E0.0677 F1800 ; Glyph: 0
G1 X57.9142 Y77.8832 E0.0677 F1800 ; Glyph: 0
G1 X55.9142 Y77.8832 E0.0677 F1800 ; Glyph: 0
G1 X53.9142 Y77.8832 E0.0677 F1800 ; Glyph: 0
G1 X53.9142 Y75.8832 E0.0677 F1800 ; Glyph: 0
G1 E-0.5 F1800 ; Retract
G1 Z0.5 F12000 ; Z hop
G0 X57.9142 Y78.8832 F12000 ; Move
G1 Z0.4 F12000 ; Z hop return
G1 E0.5 F2100 ; Un-retract
G1 X57.1642 Y78.8832 E0.02539 F1800 ; Glyph: .
G1 E-0.5 F1800 ; Retract
G1 Z0.5 F12000 ; Z hop
G0 X53.9142 Y79.8832 F12000 ; Move
G1 Z0.4 F12000 ; Z hop return
G1 E0.5 F2100 ; Un-retract
G1 X55.9142 Y79.8832 E0.0677 F1800 ; Glyph: 0
G1 X57.9142 Y79.8832 E0.0677 F1800 ; Glyph: 0
G1 X57.9142 Y81.8832 E0.0677 F1800 ; Glyph: 0
G1 X55.9142 Y81.8832 E0.0677 F1800 ; Glyph: 0
G1 X53.9142 Y81.8832 E0.0677 F1800 ; Glyph: 0
G1 X53.9142 Y79.8832 E0.0677 F1800 ; Glyph: 0
G1 E-0.5 F1800 ; Retract
G1 Z0.5 F12000 ; Z hop
G0 X53.9142 Y84.8832 F12000 ; Move
G1 Z0.4 F12000 ; Z hop return
G1 E0.5 F2100 ; Un-retract
G1 X53.9142 Y82.8832 E0.0677 F1800 ; Glyph: 5
G1 X55.9142 Y82.8832 E0.0677 F1800 ; Glyph: 5
G1 X55.9142 Y84.8832 E0.0677 F1800 ; Glyph: 5
G1 X57.9142 Y84.8832 E0.0677 F1800 ; Glyph: 5
G1 X57.9142 Y82.8832 E0.0677 F1800 ; Glyph: 5
G1 E-0.5 F1800 ; Retract
G1 Z0.5 F12000 ; Z hop
G0 X61.117 Y75.8832 F12000 ; Move
G1 Z0.4 F12000 ; Z hop return
G1 E0.5 F2100 ; Un-retract
G1 X63.117 Y75.8832 E0.0677 F1800 ; Glyph: 0
G1 X65.117 Y75.8832 E0.0677 F1800 ; Glyph: 0
G1 X65.117 Y77.8832 E0.0677 F1800 ; Glyph: 0
G1 X63.117 Y77.8832 E0.0677 F1800 ; Glyph: 0
G1 X61.117 Y77.8832 E0.0677 F1800 ; Glyph: 0
G1 X61.117 Y75.8832 E0.0677 F1800 ; Glyph: 0
G1 E-0.5 F1800 ; Retract
G1 Z0.5 F12000 ; Z hop
G0 X65.117 Y78.8832 F12000 ; Move
G1 Z0.4 F12000 ; Z hop return
G1 E0.5 F2100 ; Un-retract
G1 X64.367 Y78.8832 E0.02539 F1800 ; Glyph: .
G1 E-0.5 F1800 ; Retract
G1 Z0.5 F12000 ; Z hop
G0 X61.117 Y79.8832 F12000 ; Move
G1 Z0.4 F12000 ; Z hop return
G1 E0.5 F2100 ; Un-retract
G1 X63.117 Y79.8832 E0.0677 F1800 ; Glyph: 0
G1 X65.117 Y79.8832 E0.0677 F1800 ; Glyph: 0
G1 X65.117 Y81.8832 E0.0677 F1800 ; Glyph: 0
G1 X63.117 Y81.8832 E0.0677 F1800 ; Glyph: 0
G1 X61.117 Y81.8832 E0.0677 F1800 ; Glyph: 0
G1 X61.117 Y79.8832 E0.0677 F1800 ; Glyph: 0
G1 E-0.5 F1800 ; Retract
G1 Z0.5 F12000 ; Z hop
G0 X61.117 Y84.8832 F12000 ; Move
G1 Z0.4 F12000 ; Z hop return
G1 E0.5 F2100 ; Un-retract
G1 X61.117 Y82.8832 E0.0677 F1800 ; Glyph: 6
G1 X63.117 Y82.8832 E0.0677 F1800 ; Glyph: 6
G1 X65.117 Y82.8832 E0.0677 F1800 ; Glyph: 6
G1 X65.117 Y84.8832 E0.0677 F1800 ; Glyph: 6
G1 X63.117 Y84.8832 E0.0677 F1800 ; Glyph: 6
G1 X63.117 Y82.8832 E0.0677 F1800 ; Glyph: 6
G1 E-0.5 F1800 ; Retract
G1 Z0.5 F12000 ; Z hop
G0 X68.3198 Y75.8832 F12000 ; Move
G1 Z0.4 F12000 ; Z hop return
G1 E0.5 F2100 ; Un-retract
G1 X70.3198 Y75.8832 E0.0677 F1800 ; Glyph: 0
G1 X72.3198 Y75.8832 E0.0677 F1800 ; Glyph: 0
G1 X72.3198 Y77.8832 E0.0677 F1800 ; Glyph: 0
G1 X70.3198 Y77.8832 E0.0677 F1800 ; Glyph: 0
G1 X68.3198 Y77.8832 E0.0677 F1800 ; Glyph: 0
G1 X68.3198 Y75.8832 E0.0677 F1800 ; Glyph: 0
G1 E-0.5 F1800 ; Retract
G1 Z0.5 F12000 ; Z hop
G0 X72.3198 Y78.8832 F12000 ; Move
G1 Z0.4 F12000 ; Z hop return
G1 E0.5 F2100 ; Un-retract
G1 X71.5698 Y78.8832 E0.02539 F1800 ; Glyph: .
G1 E-0.5 F1800 ; Retract
G1 Z0.5 F12000 ; Z hop
G0 X68.3198 Y79.8832 F12000 ; Move
G1 Z0.4 F12000 ; Z hop return
G1 E0.5 F2100 ; Un-retract
G1 X70.3198 Y79.8832 E0.0677 F1800 ; Glyph: 0
G1 X72.3198 Y79.8832 E0.0677 F1800 ; Glyph: 0
G1 X72.3198 Y81.8832 E0.0677 F1800 ; Glyph: 0
G1 X70.3198 Y81.8832 E0.0677 F1800 ; Glyph: 0
G1 X68.3198 Y81.8832 E0.0677 F1800 ; Glyph: 0
G1 X68.3198 Y79.8832 E0.0677 F1800 ; Glyph: 0
G1 E-0.5 F1800 ; Retract
G1 Z0.5 F12000 ; Z hop
G0 X68.3198 Y82.8832 F12000 ; Move
G1 Z0.4 F12000 ; Z hop return
G1 E0.5 F2100 ; Un-retract
G1 X68.3198 Y84.8832 E0.0677 F1800 ; Glyph: 7
G1 X70.3198 Y84.8832 E0.0677 F1800 ; Glyph: 7
G1 X72.3198 Y84.8832 E0.0677 F1800 ; Glyph: 7
G1 E-0.5 F1800 ; Retract
G1 Z0.5 F12000 ; Z hop
G0 X75.5226 Y75.8832 F12000 ; Move
G1 Z0.4 F12000 ; Z hop return
G1 E0.5 F2100 ; Un-retract
G1 X77.5226 Y75.8832 E0.0677 F1800 ; Glyph: 0
G1 X79.5226 Y75.8832 E0.0677 F1800 ; Glyph: 0
G1 X79.5226 Y77.8832 E0.0677 F1800 ; Glyph: 0
G1 X77.5226 Y77.8832 E0.0677 F1800 ; Glyph: 0
G1 X75.5226 Y77.8832 E0.0677 F1800 ; Glyph: 0
G1 X75.5226 Y75.8832 E0.0677 F1800 ; Glyph: 0
G1 E-0.5 F1800 ; Retract
G1 Z0.5 F12000 ; Z hop
G0 X79.5226 Y78.8832 F12000 ; Move
G1 Z0.4 F12000 ; Z hop return
G1 E0.5 F2100 ; Un-retract
G1 X78.7726 Y78.8832 E0.02539 F1800 ; Glyph: .
G1 E-0.5 F1800 ; Retract
G1 Z0.5 F12000 ; Z hop
G0 X75.5226 Y79.8832 F12000 ; Move
G1 Z0.4 F12000 ; Z hop return
G1 E0.5 F2100 ; Un-retract
G1 X77.5226 Y79.8832 E0.0677 F1800 ; Glyph: 0
G1 X79.5226 Y79.8832 E0.0677 F1800 ; Glyph: 0
G1 X79.5226 Y81.8832 E0.0677 F1800 ; Glyph: 0
G1 X77.5226 Y81.8832 E0.0677 F1800 ; Glyph: 0
G1 X75.5226 Y81.8832 E0.0677 F1800 ; Glyph: 0
G1 X75.5226 Y79.8832 E0.0677 F1800 ; Glyph: 0
G1 E-0.5 F1800 ; Retract
G1 Z0.5 F12000 ; Z hop
G0 X75.5226 Y82.8832 F12000 ; Move
G1 Z0.4 F12000 ; Z hop return
G1 E0.5 F2100 ; Un-retract
G1 X77.5226 Y82.8832 E0.0677 F1800 ; Glyph: 8
G1 X79.5226 Y82.8832 E0.0677 F1800 ; Glyph: 8
G1 X79.5226 Y84.8832 E0.0677 F1800 ; Glyph: 8
G1 X77.5226 Y84.8832 E0.0677 F1800 ; Glyph: 8
G1 X75.5226 Y84.8832 E0.0677 F1800 ; Glyph: 8
G1 X75.5226 Y82.8832 E0.0677 F1800 ; Glyph: 8
G0 X77.5226 Y82.8832 F12000 ; Move
G1 X77.5226 Y84.8832 E0.0677 F1800 ; Glyph: 8
G1 E-0.5 F1800 ; Retract
G1 Z0.5 F12000 ; Z hop
G0 X19.3245 Y32.0068 F12000 ; Move to pattern start

G1 Z0.4 F12000 ; Z hop return
G1 E0.5 F2100 ; Un-retract
SET_PRESSURE_ADVANCE ADVANCE=0 ; Set pressure advance
M117 PA 0
G1 X40.5377 Y53.22 E1.01546 F4800 ; Print pattern wall
G1 X19.3245 Y74.4332 E1.01546 F4800 ; Print pattern wall
G1 E-0.5 F1800 ; Retract
G1 Z0.5 F12000 ; Z hop
G0 X19.9002 Y32.0068 F12000 ; Move to start next pattern wall
G1 Z0.4 F12000 ; Z hop return
G1 E0.5 F2100 ; Un-retract
G1 X41.1134 Y53.22 E1.01546 F4800 ; Print pattern wall
G1 X19.9002 Y74.4332 E1.01546 F4800 ; Print pattern wall
G1 E-0.5 F1800 ; Retract
G1 Z0.5 F12000 ; Z hop
G0 X20.4759 Y32.0068 F12000 ; Move to start next pattern wall
G1 Z0.4 F12000 ; Z hop return
G1 E0.5 F2100 ; Un-retract
G1 X41.6891 Y53.22 E1.01546 F4800 ; Print pattern wall
G1 X20.4759 Y74.4332 E1.01546 F4800 ; Print pattern wall
G1 E-0.5 F1800 ; Retract
G1 Z0.5 F12000 ; Z hop
G0 X22.9259 Y32.0068 F12000 ; Move to next pattern
G1 Z0.4 F12000 ; Z hop return
G1 E0.5 F2100 ; Un-retract
SET_PRESSURE_ADVANCE ADVANCE=0.005 ; Set pressure advance
M117 PA 0.005
G1 X44.1391 Y53.22 E1.01546 F4800 ; Print pattern wall
G1 X22.9259 Y74.4332 E1.01546 F4800 ; Print pattern wall
G1 E-0.5 F1800 ; Retract
G1 Z0.5 F12000 ; Z hop
G0 X23.5016 Y32.0068 F12000 ; Move to start next pattern wall
G1 Z0.4 F12000 ; Z hop return
G1 E0.5 F2100 ; Un-retract
G1 X44.7148 Y53.22 E1.01546 F4800 ; Print pattern wall
G1 X23.5016 Y74.4332 E1.01546 F4800 ; Print pattern wall
G1 E-0.5 F1800 ; Retract
G1 Z0.5 F12000 ; Z hop
G0 X24.0773 Y32.0068 F12000 ; Move to start next pattern wall
G1 Z0.4 F12000 ; Z hop return
G1 E0.5 F2100 ; Un-retract
G1 X45.2905 Y53.22 E1.01546 F4800 ; Print pattern wall
G1 X24.0773 Y74.4332 E1.01546 F4800 ; Print pattern wall
G1 E-0.5 F1800 ; Retract
G1 Z0.5 F12000 ; Z hop
G0 X26.5273 Y32.0068 F12000 ; Move to next pattern
G1 Z0.4 F12000 ; Z hop return
G1 E0.5 F2100 ; Un-retract
SET_PRESSURE_ADVANCE ADVANCE=0.01 ; Set pressure advance
M117 PA 0.01
G1 X47.7405 Y53.22 E1.01546 F4800 ; Print pattern wall
G1 X26.5273 Y74.4332 E1.01546 F4800 ; Print pattern wall
G1 E-0.5 F1800 ; Retract
G1 Z0.5 F12000 ; Z hop
G0 X27.103 Y32.0068 F12000 ; Move to start next pattern wall
G1 Z0.4 F12000 ; Z hop return
G1 E0.5 F2100 ; Un-retract
G1 X48.3162 Y53.22 E1.01546 F4800 ; Print pattern wall
G1 X27.103 Y74.4332 E1.01546 F4800 ; Print pattern wall
G1 E-0.5 F1800 ; Retract
G1 Z0.5 F12000 ; Z hop
G0 X27.6787 Y32.0068 F12000 ; Move to start next pattern wall
G1 Z0.4 F12000 ; Z hop return
G1 E0.5 F2100 ; Un-retract
G1 X48.8919 Y53.22 E1.01546 F4800 ; Print pattern wall
G1 X27.6787 Y74.4332 E1.01546 F4800 ; Print pattern wall
G1 E-0.5 F1800 ; Retract
G1 Z0.5 F12000 ; Z hop
G0 X30.1287 Y32.0068 F12000 ; Move to next pattern
G1 Z0.4 F12000 ; Z hop return
G1 E0.5 F2100 ; Un-retract
SET_PRESSURE_ADVANCE ADVANCE=0.015 ; Set pressure advance
M117 PA 0.015
G1 X51.3419 Y53.22 E1.01546 F4800 ; Print pattern wall
G1 X30.1287 Y74.4332 E1.01546 F4800 ; Print pattern wall
G1 E-0.5 F1800 ; Retract
G1 Z0.5 F12000 ; Z hop
G0 X30.7044 Y32.0068 F12000 ; Move to start next pattern wall
G1 Z0.4 F12000 ; Z hop return
G1 E0.5 F2100 ; Un-retract
G1 X51.9176 Y53.22 E1.01546 F4800 ; Print pattern wall
G1 X30.7044 Y74.4332 E1.01546 F4800 ; Print pattern wall
G1 E-0.5 F1800 ; Retract
G1 Z0.5 F12000 ; Z hop
G0 X31.2801 Y32.0068 F12000 ; Move to start next pattern wall
G1 Z0.4 F12000 ; Z hop return
G1 E0.5 F2100 ; Un-retract
G1 X52.4933 Y53.22 E1.01546 F4800 ; Print pattern wall
G1 X31.2801 Y74.4332 E1.01546 F4800 ; Print pattern wall
G1 E-0.5 F1800 ; Retract
G1 Z0.5 F12000 ; Z hop
G0 X33.7301 Y32.0068 F12000 ; Move to next pattern
G1 Z0.4 F12000 ; Z hop return
G1 E0.5 F2100 ; Un-retract
SET_PRESSURE_ADVANCE ADVANCE=0.02 ; Set pressure advance
M117 PA 0.02
G1 X54.9433 Y53.22 E1.01546 F4800 ; Print pattern wall
G1 X33.7301 Y74.4332 E1.01546 F4800 ; Print pattern wall
G1 E-0.5 F1800 ; Retract
G1 Z0.5 F12000 ; Z hop
G0 X34.3058 Y32.0068 F12000 ; Move to start next pattern wall
G1 Z0.4 F12000 ; Z hop return
G1 E0.5 F2100 ; Un-retract
G1 X55.519 Y53.22 E1.01546 F4800 ; Print pattern wall
G1 X34.3058 Y74.4332 E1.01546 F4800 ; Print pattern wall
G1 E-0.5 F1800 ; Retract
G1 Z0.5 F12000 ; Z hop
G0 X34.8815 Y32.0068 F12000 ; Move to start next pattern wall
G1 Z0.4 F12000 ; Z hop return
G1 E0.5 F2100 ; Un-retract
G1 X56.0947 Y53.22 E1.01546 F4800 ; Print pattern wall
G1 X34.8815 Y74.4332 E1.01546 F4800 ; Print pattern wall
G1 E-0.5 F1800 ; Retract
G1 Z0.5 F12000 ; Z hop
G0 X37.3315 Y32.0068 F12000 ; Move to next pattern
G1 Z0.4 F12000 ; Z hop return
G1 E0.5 F2100 ; Un-retract
SET_PRESSURE_ADVANCE ADVANCE=0.025 ; Set pressure advance
M117 PA 0.025
G1 X58.5447 Y53.22 E1.01546 F4800 ; Print pattern wall
G1 X37.3315 Y74.4332 E1.01546 F4800 ; Print pattern wall
G1 E-0.5 F1800 ; Retract
G1 Z0.5 F12000 ; Z hop
G0 X37.9072 Y32.0068 F12000 ; Move to start next pattern wall
G1 Z0.4 F12000 ; Z hop return
G1 E0.5 F2100 ; Un-retract
G1 X59.1204 Y53.22 E1.01546 F4800 ; Print pattern wall
G1 X37.9072 Y74.4332 E1.01546 F4800 ; Print pattern wall
G1 E-0.5 F1800 ; Retract
G1 Z0.5 F12000 ; Z hop
G0 X38.4829 Y32.0068 F12000 ; Move to start next pattern wall
G1 Z0.4 F12000 ; Z hop return
G1 E0.5 F2100 ; Un-retract
G1 X59.6961 Y53.22 E1.01546 F4800 ; Print pattern wall
G1 X38.4829 Y74.4332 E1.01546 F4800 ; Print pattern wall
G1 E-0.5 F1800 ; Retract
G1 Z0.5 F12000 ; Z hop
G0 X40.9329 Y32.0068 F12000 ; Move to next pattern
G1 Z0.4 F12000 ; Z hop return
G1 E0.5 F2100 ; Un-retract
SET_PRESSURE_ADVANCE ADVANCE=0.03 ; Set pressure advance
M117 PA 0.03
G1 X62.1461 Y53.22 E1.01546 F4800 ; Print pattern wall
G1 X40.9329 Y74.4332 E1.01546 F4800 ; Print pattern wall
G1 E-0.5 F1800 ; Retract
G1 Z0.5 F12000 ; Z hop
G0 X41.5086 Y32.0068 F12000 ; Move to start next pattern wall
G1 Z0.4 F12000 ; Z hop return
G1 E0.5 F2100 ; Un-retract
G1 X62.7218 Y53.22 E1.01546 F4800 ; Print pattern wall
G1 X41.5086 Y74.4332 E1.01546 F4800 ; Print pattern wall
G1 E-0.5 F1800 ; Retract
G1 Z0.5 F12000 ; Z hop
G0 X42.0843 Y32.0068 F12000 ; Move to start next pattern wall
G1 Z0.4 F12000 ; Z hop return
G1 E0.5 F2100 ; Un-retract
G1 X63.2975 Y53.22 E1.01546 F4800 ; Print pattern wall
G1 X42.0843 Y74.4332 E1.01546 F4800 ; Print pattern wall
G1 E-0.5 F1800 ; Retract
G1 Z0.5 F12000 ; Z hop
G0 X44.5343 Y32.0068 F12000 ; Move to next pattern
G1 Z0.4 F12000 ; Z hop return
G1 E0.5 F2100 ; Un-retract
SET_PRESSURE_ADVANCE ADVANCE=0.035 ; Set pressure advance
M117 PA 0.035
G1 X65.7475 Y53.22 E1.01546 F4800 ; Print pattern wall
G1 X44.5343 Y74.4332 E1.01546 F4800 ; Print pattern wall
G1 E-0.5 F1800 ; Retract
G1 Z0.5 F12000 ; Z hop
G0 X45.11 Y32.0068 F12000 ; Move to start next pattern wall
G1 Z0.4 F12000 ; Z hop return
G1 E0.5 F2100 ; Un-retract
G1 X66.3232 Y53.22 E1.01546 F4800 ; Print pattern wall
G1 X45.11 Y74.4332 E1.01546 F4800 ; Print pattern wall
G1 E-0.5 F1800 ; Retract
G1 Z0.5 F12000 ; Z hop
G0 X45.6857 Y32.0068 F12000 ; Move to start next pattern wall
G1 Z0.4 F12000 ; Z hop return
G1 E0.5 F2100 ; Un-retract
G1 X66.8989 Y53.22 E1.01546 F4800 ; Print pattern wall
G1 X45.6857 Y74.4332 E1.01546 F4800 ; Print pattern wall
G1 E-0.5 F1800 ; Retract
G1 Z0.5 F12000 ; Z hop
G0 X48.1357 Y32.0068 F12000 ; Move to next pattern
G1 Z0.4 F12000 ; Z hop return
G1 E0.5 F2100 ; Un-retract
SET_PRESSURE_ADVANCE ADVANCE=0.04 ; Set pressure advance
M117 PA 0.04
G1 X69.3489 Y53.22 E1.01546 F4800 ; Print pattern wall
G1 X48.1357 Y74.4332 E1.01546 F4800 ; Print pattern wall
G1 E-0.5 F1800 ; Retract
G1 Z0.5 F12000 ; Z hop
G0 X48.7114 Y32.0068 F12000 ; Move to start next pattern wall
G1 Z0.4 F12000 ; Z hop return
G1 E0.5 F2100 ; Un-retract
G1 X69.9246 Y53.22 E1.01546 F4800 ; Print pattern wall
G1 X48.7114 Y74.4332 E1.01546 F4800 ; Print pattern wall
G1 E-0.5 F1800 ; Retract
G1 Z0.5 F12000 ; Z hop
G0 X49.2871 Y32.0068 F12000 ; Move to start next pattern wall
G1 Z0.4 F12000 ; Z hop return
G1 E0.5 F2100 ; Un-retract
G1 X70.5003 Y53.22 E1.01546 F4800 ; Print pattern wall
G1 X49.2871 Y74.4332 E1.01546 F4800 ; Print pattern wall
G1 E-0.5 F1800 ; Retract
G1 Z0.5 F12000 ; Z hop
G0 X51.7371 Y32.0068 F12000 ; Move to next pattern
G1 Z0.4 F12000 ; Z hop return
G1 E0.5 F2100 ; Un-retract
SET_PRESSURE_ADVANCE ADVANCE=0.045 ; Set pressure advance
M117 PA 0.045
G1 X72.9503 Y53.22 E1.01546 F4800 ; Print pattern wall
G1 X51.7371 Y74.4332 E1.01546 F4800 ; Print pattern wall
G1 E-0.5 F1800 ; Retract
G1 Z0.5 F12000 ; Z hop
G0 X52.3128 Y32.0068 F12000 ; Move to start next pattern wall
G1 Z0.4 F12000 ; Z hop return
G1 E0.5 F2100 ; Un-retract
G1 X73.526 Y53.22 E1.01546 F4800 ; Print pattern wall
G1 X52.3128 Y74.4332 E1.01546 F4800 ; Print pattern wall
G1 E-0.5 F1800 ; Retract
G1 Z0.5 F12000 ; Z hop
G0 X52.8885 Y32.0068 F12000 ; Move to start next pattern wall
G1 Z0.4 F12000 ; Z hop return
G1 E0.5 F2100 ; Un-retract
G1 X74.1017 Y53.22 E1.01546 F4800 ; Print pattern wall
G1 X52.8885 Y74.4332 E1.01546 F4800 ; Print pattern wall
G1 E-0.5 F1800 ; Retract
G1 Z0.5 F12000 ; Z hop
G0 X55.3385 Y32.0068 F12000 ; Move to next pattern
G1 Z0.4 F12000 ; Z hop return
G1 E0.5 F2100 ; Un-retract
SET_PRESSURE_ADVANCE ADVANCE=0.05 ; Set pressure advance
M117 PA 0.05
G1 X76.5517 Y53.22 E1.01546 F4800 ; Print pattern wall
G1 X55.3385 Y74.4332 E1.01546 F4800 ; Print pattern wall
G1 E-0.5 F1800 ; Retract
G1 Z0.5 F12000 ; Z hop
G0 X55.9142 Y32.0068 F12000 ; Move to start next pattern wall
G1 Z0.4 F12000 ; Z hop return
G1 E0.5 F2100 ; Un-retract
G1 X77.1274 Y53.22 E1.01546 F4800 ; Print pattern wall
G1 X55.9142 Y74.4332 E1.01546 F4800 ; Print pattern wall
G1 E-0.5 F1800 ; Retract
G1 Z0.5 F12000 ; Z hop
G0 X56.4899 Y32.0068 F12000 ; Move to start next pattern wall
G1 Z0.4 F12000 ; Z hop return
G1 E0.5 F2100 ; Un-retract
G1 X77.7031 Y53.22 E1.01546 F4800 ; Print pattern wall
G1 X56.4899 Y74.4332 E1.01546 F4800 ; Print pattern wall
G1 E-0.5 F1800 ; Retract
G1 Z0.5 F12000 ; Z hop
G0 X58.9399 Y32.0068 F12000 ; Move to next pattern
G1 Z0.4 F12000 ; Z hop return
G1 E0.5 F2100 ; Un-retract
SET_PRESSURE_ADVANCE ADVANCE=0.055 ; Set pressure advance
M117 PA 0.055
G1 X80.1531 Y53.22 E1.01546 F4800 ; Print pattern wall
G1 X58.9399 Y74.4332 E1.01546 F4800 ; Print pattern wall
G1 E-0.5 F1800 ; Retract
G1 Z0.5 F12000 ; Z hop
G0 X59.5156 Y32.0068 F12000 ; Move to start next pattern wall
G1 Z0.4 F12000 ; Z hop return
G1 E0.5 F2100 ; Un-retract
G1 X80.7288 Y53.22 E1.01546 F4800 ; Print pattern wall
G1 X59.5156 Y74.4332 E1.01546 F4800 ; Print pattern wall
G1 E-0.5 F1800 ; Retract
G1 Z0.5 F12000 ; Z hop
G0 X60.0913 Y32.0068 F12000 ; Move to start next pattern wall
G1 Z0.4 F12000 ; Z hop return
G1 E0.5 F2100 ; Un-retract
G1 X81.3045 Y53.22 E1.01546 F4800 ; Print pattern wall
G1 X60.0913 Y74.4332 E1.01546 F4800 ; Print pattern wall
G1 E-0.5 F1800 ; Retract
G1 Z0.5 F12000 ; Z hop
G0 X62.5413 Y32.0068 F12000 ; Move to next pattern
G1 Z0.4 F12000 ; Z hop return
G1 E0.5 F2100 ; Un-retract
SET_PRESSURE_ADVANCE ADVANCE=0.06 ; Set pressure advance
M117 PA 0.06
G1 X83.7545 Y53.22 E1.01546 F4800 ; Print pattern wall
G1 X62.5413 Y74.4332 E1.01546 F4800 ; Print pattern wall
G1 E-0.5 F1800 ; Retract
G1 Z0.5 F12000 ; Z hop
G0 X63.117 Y32.0068 F12000 ; Move to start next pattern wall
G1 Z0.4 F12000 ; Z hop return
G1 E0.5 F2100 ; Un-retract
G1 X84.3302 Y53.22 E1.01546 F4800 ; Print pattern wall
G1 X63.117 Y74.4332 E1.01546 F4800 ; Print pattern wall
G1 E-0.5 F1800 ; Retract
G1 Z0.5 F12000 ; Z hop
G0 X63.6927 Y32.0068 F12000 ; Move to start next pattern wall
G1 Z0.4 F12000 ; Z hop return
G1 E0.5 F2100 ; Un-retract
G1 X84.9059 Y53.22 E1.01546 F4800 ; Print pattern wall
G1 X63.6927 Y74.4332 E1.01546 F4800 ; Print pattern wall
G1 E-0.5 F1800 ; Retract
G1 Z0.5 F12000 ; Z hop
G0 X66.1427 Y32.0068 F12000 ; Move to next pattern
G1 Z0.4 F12000 ; Z hop return
G1 E0.5 F2100 ; Un-retract
SET_PRESSURE_ADVANCE ADVANCE=0.065 ; Set pressure advance
M117 PA 0.065
G1 X87.3559 Y53.22 E1.01546 F4800 ; Print pattern wall
G1 X66.1427 Y74.4332 E1.01546 F4800 ; Print pattern wall
G1 E-0.5 F1800 ; Retract
G1 Z0.5 F12000 ; Z hop
G0 X66.7184 Y32.0068 F12000 ; Move to start next pattern wall
G1 Z0.4 F12000 ; Z hop return
G1 E0.5 F2100 ; Un-retract
G1 X87.9316 Y53.22 E1.01546 F4800 ; Print pattern wall
G1 X66.7184 Y74.4332 E1.01546 F4800 ; Print pattern wall
G1 E-0.5 F1800 ; Retract
G1 Z0.5 F12000 ; Z hop
G0 X67.2941 Y32.0068 F12000 ; Move to start next pattern wall
G1 Z0.4 F12000 ; Z hop return
G1 E0.5 F2100 ; Un-retract
G1 X88.5073 Y53.22 E1.01546 F4800 ; Print pattern wall
G1 X67.2941 Y74.4332 E1.01546 F4800 ; Print pattern wall
G1 E-0.5 F1800 ; Retract
G1 Z0.5 F12000 ; Z hop
G0 X69.7441 Y32.0068 F12000 ; Move to next pattern
G1 Z0.4 F12000 ; Z hop return
G1 E0.5 F2100 ; Un-retract
SET_PRESSURE_ADVANCE ADVANCE=0.07 ; Set pressure advance
M117 PA 0.07
G1 X90.9573 Y53.22 E1.01546 F4800 ; Print pattern wall
G1 X69.7441 Y74.4332 E1.01546 F4800 ; Print pattern wall
G1 E-0.5 F1800 ; Retract
G1 Z0.5 F12000 ; Z hop
G0 X70.3198 Y32.0068 F12000 ; Move to start next pattern wall
G1 Z0.4 F12000 ; Z hop return
G1 E0.5 F2100 ; Un-retract
G1 X91.533 Y53.22 E1.01546 F4800 ; Print pattern wall
G1 X70.3198 Y74.4332 E1.01546 F4800 ; Print pattern wall
G1 E-0.5 F1800 ; Retract
G1 Z0.5 F12000 ; Z hop
G0 X70.8955 Y32.0068 F12000 ; Move to start next pattern wall
G1 Z0.4 F12000 ; Z hop return
G1 E0.5 F2100 ; Un-retract
G1 X92.1087 Y53.22 E1.01546 F4800 ; Print pattern wall
G1 X70.8955 Y74.4332 E1.01546 F4800 ; Print pattern wall
G1 E-0.5 F1800 ; Retract
G1 Z0.5 F12000 ; Z hop
G0 X73.3455 Y32.0068 F12000 ; Move to next pattern
G1 Z0.4 F12000 ; Z hop return
G1 E0.5 F2100 ; Un-retract
SET_PRESSURE_ADVANCE ADVANCE=0.075 ; Set pressure advance
M117 PA 0.075
G1 X94.5587 Y53.22 E1.01546 F4800 ; Print pattern wall
G1 X73.3455 Y74.4332 E1.01546 F4800 ; Print pattern wall
G1 E-0.5 F1800 ; Retract
G1 Z0.5 F12000 ; Z hop
G0 X73.9212 Y32.0068 F12000 ; Move to start next pattern wall
G1 Z0.4 F12000 ; Z hop return
G1 E0.5 F2100 ; Un-retract
G1 X95.1344 Y53.22 E1.01546 F4800 ; Print pattern wall
G1 X73.9212 Y74.4332 E1.01546 F4800 ; Print pattern wall
G1 E-0.5 F1800 ; Retract
G1 Z0.5 F12000 ; Z hop
G0 X74.4969 Y32.0068 F12000 ; Move to start next pattern wall
G1 Z0.4 F12000 ; Z hop return
G1 E0.5 F2100 ; Un-retract
G1 X95.7101 Y53.22 E1.01546 F4800 ; Print pattern wall
G1 X74.4969 Y74.4332 E1.01546 F4800 ; Print pattern wall
G1 E-0.5 F1800 ; Retract
G1 Z0.5 F12000 ; Z hop
G0 X76.9469 Y32.0068 F12000 ; Move to next pattern
G1 Z0.4 F12000 ; Z hop return
G1 E0.5 F2100 ; Un-retract
SET_PRESSURE_ADVANCE ADVANCE=0.08 ; Set pressure advance
M117 PA 0.08
G1 X98.1601 Y53.22 E1.01546 F4800 ; Print pattern wall
G1 X76.9469 Y74.4332 E1.01546 F4800 ; Print pattern wall
G1 E-0.5 F1800 ; Retract
G1 Z0.5 F12000 ; Z hop
G0 X77.5226 Y32.0068 F12000 ; Move to start next pattern wall
G1 Z0.4 F12000 ; Z hop return
G1 E0.5 F2100 ; Un-retract
G1 X98.7358 Y53.22 E1.01546 F4800 ; Print pattern wall
G1 X77.5226 Y74.4332 E1.01546 F4800 ; Print pattern wall
G1 E-0.5 F1800 ; Retract
G1 Z0.5 F12000 ; Z hop
G0 X78.0983 Y32.0068 F12000 ; Move to start next pattern wall
G1 Z0.4 F12000 ; Z hop return
G1 E0.5 F2100 ; Un-retract
G1 X99.3115 Y53.22 E1.01546 F4800 ; Print pattern wall
G1 X78.0983 Y74.4332 E1.01546 F4800 ; Print pattern wall
G1 E-0.5 F1800 ; Retract
G1 Z0.5 F12000 ; Z hop
G0 X19.3245 Y32.0068 F12000 ; Move back to start position
G1 Z0.4 F12000 ; Z hop return
G1 E0.5 F2100 ; Un-retract
G0 Z0.6 F12000 ; Move to layer height
SET_PRESSURE_ADVANCE ADVANCE=0 ; Set pressure advance
M117 PA 0
G1 X40.5377 Y53.22 E1.01546 F4800 ; Print pattern wall
G1 X19.3245 Y74.4332 E1.01546 F4800 ; Print pattern wall
G1 E-0.5 F1800 ; Retract
G1 Z0.7 F12000 ; Z hop
G0 X19.9002 Y32.0068 F12000 ; Move to start next pattern wall
G1 Z0.6 F12000 ; Z hop return
G1 E0.5 F2100 ; Un-retract
G1 X41.1134 Y53.22 E1.01546 F4800 ; Print pattern wall
G1 X19.9002 Y74.4332 E1.01546 F4800 ; Print pattern wall
G1 E-0.5 F1800 ; Retract
G1 Z0.7 F12000 ; Z hop
G0 X20.4759 Y32.0068 F12000 ; Move to start next pattern wall
G1 Z0.6 F12000 ; Z hop return
G1 E0.5 F2100 ; Un-retract
G1 X41.6891 Y53.22 E1.01546 F4800 ; Print pattern wall
G1 X20.4759 Y74.4332 E1.01546 F4800 ; Print pattern wall
G1 E-0.5 F1800 ; Retract
G1 Z0.7 F12000 ; Z hop
G0 X22.9259 Y32.0068 F12000 ; Move to next pattern
G1 Z0.6 F12000 ; Z hop return
G1 E0.5 F2100 ; Un-retract
SET_PRESSURE_ADVANCE ADVANCE=0.005 ; Set pressure advance
M117 PA 0.005
G1 X44.1391 Y53.22 E1.01546 F4800 ; Print pattern wall
G1 X22.9259 Y74.4332 E1.01546 F4800 ; Print pattern wall
G1 E-0.5 F1800 ; Retract
G1 Z0.7 F12000 ; Z hop
G0 X23.5016 Y32.0068 F12000 ; Move to start next pattern wall
G1 Z0.6 F12000 ; Z hop return
G1 E0.5 F2100 ; Un-retract
G1 X44.7148 Y53.22 E1.01546 F4800 ; Print pattern wall
G1 X23.5016 Y74.4332 E1.01546 F4800 ; Print pattern wall
G1 E-0.5 F1800 ; Retract
G1 Z0.7 F12000 ; Z hop
G0 X24.0773 Y32.0068 F12000 ; Move to start next pattern wall
G1 Z0.6 F12000 ; Z hop return
G1 E0.5 F2100 ; Un-retract
G1 X45.2905 Y53.22 E1.01546 F4800 ; Print pattern wall
G1 X24.0773 Y74.4332 E1.01546 F4800 ; Print pattern wall
G1 E-0.5 F1800 ; Retract
G1 Z0.7 F12000 ; Z hop
G0 X26.5273 Y32.0068 F12000 ; Move to next pattern
G1 Z0.6 F12000 ; Z hop return
G1 E0.5 F2100 ; Un-retract
SET_PRESSURE_ADVANCE ADVANCE=0.01 ; Set pressure advance
M117 PA 0.01
G1 X47.7405 Y53.22 E1.01546 F4800 ; Print pattern wall
G1 X26.5273 Y74.4332 E1.01546 F4800 ; Print pattern wall
G1 E-0.5 F1800 ; Retract
G1 Z0.7 F12000 ; Z hop
G0 X27.103 Y32.0068 F12000 ; Move to start next pattern wall
G1 Z0.6 F12000 ; Z hop return
G1 E0.5 F2100 ; Un-retract
G1 X48.3162 Y53.22 E1.01546 F4800 ; Print pattern wall
G1 X27.103 Y74.4332 E1.01546 F4800 ; Print pattern wall
G1 E-0.5 F1800 ; Retract
G1 Z0.7 F12000 ; Z hop
G0 X27.6787 Y32.0068 F12000 ; Move to start next pattern wall
G1 Z0.6 F12000 ; Z hop return
G1 E0.5 F2100 ; Un-retract
G1 X48.8919 Y53.22 E1.01546 F4800 ; Print pattern wall
G1 X27.6787 Y74.4332 E1.01546 F4800 ; Print pattern wall
G1 E-0.5 F1800 ; Retract
G1 Z0.7 F12000 ; Z hop
G0 X30.1287 Y32.0068 F12000 ; Move to next pattern
G1 Z0.6 F12000 ; Z hop return
G1 E0.5 F2100 ; Un-retract
SET_PRESSURE_ADVANCE ADVANCE=0.015 ; Set pressure advance
M117 PA 0.015
G1 X51.3419 Y53.22 E1.01546 F4800 ; Print pattern wall
G1 X30.1287 Y74.4332 E1.01546 F4800 ; Print pattern wall
G1 E-0.5 F1800 ; Retract
G1 Z0.7 F12000 ; Z hop
G0 X30.7044 Y32.0068 F12000 ; Move to start next pattern wall
G1 Z0.6 F12000 ; Z hop return
G1 E0.5 F2100 ; Un-retract
G1 X51.9176 Y53.22 E1.01546 F4800 ; Print pattern wall
G1 X30.7044 Y74.4332 E1.01546 F4800 ; Print pattern wall
G1 E-0.5 F1800 ; Retract
G1 Z0.7 F12000 ; Z hop
G0 X31.2801 Y32.0068 F12000 ; Move to start next pattern wall
G1 Z0.6 F12000 ; Z hop return
G1 E0.5 F2100 ; Un-retract
G1 X52.4933 Y53.22 E1.01546 F4800 ; Print pattern wall
G1 X31.2801 Y74.4332 E1.01546 F4800 ; Print pattern wall
G1 E-0.5 F1800 ; Retract
G1 Z0.7 F12000 ; Z hop
G0 X33.7301 Y32.0068 F12000 ; Move to next pattern
G1 Z0.6 F12000 ; Z hop return
G1 E0.5 F2100 ; Un-retract
SET_PRESSURE_ADVANCE ADVANCE=0.02 ; Set pressure advance
M117 PA 0.02
G1 X54.9433 Y53.22 E1.01546 F4800 ; Print pattern wall
G1 X33.7301 Y74.4332 E1.01546 F4800 ; Print pattern wall
G1 E-0.5 F1800 ; Retract
G1 Z0.7 F12000 ; Z hop
G0 X34.3058 Y32.0068 F12000 ; Move to start next pattern wall
G1 Z0.6 F12000 ; Z hop return
G1 E0.5 F2100 ; Un-retract
G1 X55.519 Y53.22 E1.01546 F4800 ; Print pattern wall
G1 X34.3058 Y74.4332 E1.01546 F4800 ; Print pattern wall
G1 E-0.5 F1800 ; Retract
G1 Z0.7 F12000 ; Z hop
G0 X34.8815 Y32.0068 F12000 ; Move to start next pattern wall
G1 Z0.6 F12000 ; Z hop return
G1 E0.5 F2100 ; Un-retract
G1 X56.0947 Y53.22 E1.01546 F4800 ; Print pattern wall
G1 X34.8815 Y74.4332 E1.01546 F4800 ; Print pattern wall
G1 E-0.5 F1800 ; Retract
G1 Z0.7 F12000 ; Z hop
G0 X37.3315 Y32.0068 F12000 ; Move to next pattern
G1 Z0.6 F12000 ; Z hop return
G1 E0.5 F2100 ; Un-retract
SET_PRESSURE_ADVANCE ADVANCE=0.025 ; Set pressure advance
M117 PA 0.025
G1 X58.5447 Y53.22 E1.01546 F4800 ; Print pattern wall
G1 X37.3315 Y74.4332 E1.01546 F4800 ; Print pattern wall
G1 E-0.5 F1800 ; Retract
G1 Z0.7 F12000 ; Z hop
G0 X37.9072 Y32.0068 F12000 ; Move to start next pattern wall
G1 Z0.6 F12000 ; Z hop return
G1 E0.5 F2100 ; Un-retract
G1 X59.1204 Y53.22 E1.01546 F4800 ; Print pattern wall
G1 X37.9072 Y74.4332 E1.01546 F4800 ; Print pattern wall
G1 E-0.5 F1800 ; Retract
G1 Z0.7 F12000 ; Z hop
G0 X38.4829 Y32.0068 F12000 ; Move to start next pattern wall
G1 Z0.6 F12000 ; Z hop return
G1 E0.5 F2100 ; Un-retract
G1 X59.6961 Y53.22 E1.01546 F4800 ; Print pattern wall
G1 X38.4829 Y74.4332 E1.01546 F4800 ; Print pattern wall
G1 E-0.5 F1800 ; Retract
G1 Z0.7 F12000 ; Z hop
G0 X40.9329 Y32.0068 F12000 ; Move to next pattern
G1 Z0.6 F12000 ; Z hop return
G1 E0.5 F2100 ; Un-retract
SET_PRESSURE_ADVANCE ADVANCE=0.03 ; Set pressure advance
M117 PA 0.03
G1 X62.1461 Y53.22 E1.01546 F4800 ; Print pattern wall
G1 X40.9329 Y74.4332 E1.01546 F4800 ; Print pattern wall
G1 E-0.5 F1800 ; Retract
G1 Z0.7 F12000 ; Z hop
G0 X41.5086 Y32.0068 F12000 ; Move to start next pattern wall
G1 Z0.6 F12000 ; Z hop return
G1 E0.5 F2100 ; Un-retract
G1 X62.7218 Y53.22 E1.01546 F4800 ; Print pattern wall
G1 X41.5086 Y74.4332 E1.01546 F4800 ; Print pattern wall
G1 E-0.5 F1800 ; Retract
G1 Z0.7 F12000 ; Z hop
G0 X42.0843 Y32.0068 F12000 ; Move to start next pattern wall
G1 Z0.6 F12000 ; Z hop return
G1 E0.5 F2100 ; Un-retract
G1 X63.2975 Y53.22 E1.01546 F4800 ; Print pattern wall
G1 X42.0843 Y74.4332 E1.01546 F4800 ; Print pattern wall
G1 E-0.5 F1800 ; Retract
G1 Z0.7 F12000 ; Z hop
G0 X44.5343 Y32.0068 F12000 ; Move to next pattern
G1 Z0.6 F12000 ; Z hop return
G1 E0.5 F2100 ; Un-retract
SET_PRESSURE_ADVANCE ADVANCE=0.035 ; Set pressure advance
M117 PA 0.035
G1 X65.7475 Y53.22 E1.01546 F4800 ; Print pattern wall
G1 X44.5343 Y74.4332 E1.01546 F4800 ; Print pattern wall
G1 E-0.5 F1800 ; Retract
G1 Z0.7 F12000 ; Z hop
G0 X45.11 Y32.0068 F12000 ; Move to start next pattern wall
G1 Z0.6 F12000 ; Z hop return
G1 E0.5 F2100 ; Un-retract
G1 X66.3232 Y53.22 E1.01546 F4800 ; Print pattern wall
G1 X45.11 Y74.4332 E1.01546 F4800 ; Print pattern wall
G1 E-0.5 F1800 ; Retract
G1 Z0.7 F12000 ; Z hop
G0 X45.6857 Y32.0068 F12000 ; Move to start next pattern wall
G1 Z0.6 F12000 ; Z hop return
G1 E0.5 F2100 ; Un-retract
G1 X66.8989 Y53.22 E1.01546 F4800 ; Print pattern wall
G1 X45.6857 Y74.4332 E1.01546 F4800 ; Print pattern wall
G1 E-0.5 F1800 ; Retract
G1 Z0.7 F12000 ; Z hop
G0 X48.1357 Y32.0068 F12000 ; Move to next pattern
G1 Z0.6 F12000 ; Z hop return
G1 E0.5 F2100 ; Un-retract
SET_PRESSURE_ADVANCE ADVANCE=0.04 ; Set pressure advance
M117 PA 0.04
G1 X69.3489 Y53.22 E1.01546 F4800 ; Print pattern wall
G1 X48.1357 Y74.4332 E1.01546 F4800 ; Print pattern wall
G1 E-0.5 F1800 ; Retract
G1 Z0.7 F12000 ; Z hop
G0 X48.7114 Y32.0068 F12000 ; Move to start next pattern wall
G1 Z0.6 F12000 ; Z hop return
G1 E0.5 F2100 ; Un-retract
G1 X69.9246 Y53.22 E1.01546 F4800 ; Print pattern wall
G1 X48.7114 Y74.4332 E1.01546 F4800 ; Print pattern wall
G1 E-0.5 F1800 ; Retract
G1 Z0.7 F12000 ; Z hop
G0 X49.2871 Y32.0068 F12000 ; Move to start next pattern wall
G1 Z0.6 F12000 ; Z hop return
G1 E0.5 F2100 ; Un-retract
G1 X70.5003 Y53.22 E1.01546 F4800 ; Print pattern wall
G1 X49.2871 Y74.4332 E1.01546 F4800 ; Print pattern wall
G1 E-0.5 F1800 ; Retract
G1 Z0.7 F12000 ; Z hop
G0 X51.7371 Y32.0068 F12000 ; Move to next pattern
G1 Z0.6 F12000 ; Z hop return
G1 E0.5 F2100 ; Un-retract
SET_PRESSURE_ADVANCE ADVANCE=0.045 ; Set pressure advance
M117 PA 0.045
G1 X72.9503 Y53.22 E1.01546 F4800 ; Print pattern wall
G1 X51.7371 Y74.4332 E1.01546 F4800 ; Print pattern wall
G1 E-0.5 F1800 ; Retract
G1 Z0.7 F12000 ; Z hop
G0 X52.3128 Y32.0068 F12000 ; Move to start next pattern wall
G1 Z0.6 F12000 ; Z hop return
G1 E0.5 F2100 ; Un-retract
G1 X73.526 Y53.22 E1.01546 F4800 ; Print pattern wall
G1 X52.3128 Y74.4332 E1.01546 F4800 ; Print pattern wall
G1 E-0.5 F1800 ; Retract
G1 Z0.7 F12000 ; Z hop
G0 X52.8885 Y32.0068 F12000 ; Move to start next pattern wall
G1 Z0.6 F12000 ; Z hop return
G1 E0.5 F2100 ; Un-retract
G1 X74.1017 Y53.22 E1.01546 F4800 ; Print pattern wall
G1 X52.8885 Y74.4332 E1.01546 F4800 ; Print pattern wall
G1 E-0.5 F1800 ; Retract
G1 Z0.7 F12000 ; Z hop
G0 X55.3385 Y32.0068 F12000 ; Move to next pattern
G1 Z0.6 F12000 ; Z hop return
G1 E0.5 F2100 ; Un-retract
SET_PRESSURE_ADVANCE ADVANCE=0.05 ; Set pressure advance
M117 PA 0.05
G1 X76.5517 Y53.22 E1.01546 F4800 ; Print pattern wall
G1 X55.3385 Y74.4332 E1.01546 F4800 ; Print pattern wall
G1 E-0.5 F1800 ; Retract
G1 Z0.7 F12000 ; Z hop
G0 X55.9142 Y32.0068 F12000 ; Move to start next pattern wall
G1 Z0.6 F12000 ; Z hop return
G1 E0.5 F2100 ; Un-retract
G1 X77.1274 Y53.22 E1.01546 F4800 ; Print pattern wall
G1 X55.9142 Y74.4332 E1.01546 F4800 ; Print pattern wall
G1 E-0.5 F1800 ; Retract
G1 Z0.7 F12000 ; Z hop
G0 X56.4899 Y32.0068 F12000 ; Move to start next pattern wall
G1 Z0.6 F12000 ; Z hop return
G1 E0.5 F2100 ; Un-retract
G1 X77.7031 Y53.22 E1.01546 F4800 ; Print pattern wall
G1 X56.4899 Y74.4332 E1.01546 F4800 ; Print pattern wall
G1 E-0.5 F1800 ; Retract
G1 Z0.7 F12000 ; Z hop
G0 X58.9399 Y32.0068 F12000 ; Move to next pattern
G1 Z0.6 F12000 ; Z hop return
G1 E0.5 F2100 ; Un-retract
SET_PRESSURE_ADVANCE ADVANCE=0.055 ; Set pressure advance
M117 PA 0.055
G1 X80.1531 Y53.22 E1.01546 F4800 ; Print pattern wall
G1 X58.9399 Y74.4332 E1.01546 F4800 ; Print pattern wall
G1 E-0.5 F1800 ; Retract
G1 Z0.7 F12000 ; Z hop
G0 X59.5156 Y32.0068 F12000 ; Move to start next pattern wall
G1 Z0.6 F12000 ; Z hop return
G1 E0.5 F2100 ; Un-retract
G1 X80.7288 Y53.22 E1.01546 F4800 ; Print pattern wall
G1 X59.5156 Y74.4332 E1.01546 F4800 ; Print pattern wall
G1 E-0.5 F1800 ; Retract
G1 Z0.7 F12000 ; Z hop
G0 X60.0913 Y32.0068 F12000 ; Move to start next pattern wall
G1 Z0.6 F12000 ; Z hop return
G1 E0.5 F2100 ; Un-retract
G1 X81.3045 Y53.22 E1.01546 F4800 ; Print pattern wall
G1 X60.0913 Y74.4332 E1.01546 F4800 ; Print pattern wall
G1 E-0.5 F1800 ; Retract
G1 Z0.7 F12000 ; Z hop
G0 X62.5413 Y32.0068 F12000 ; Move to next pattern
G1 Z0.6 F12000 ; Z hop return
G1 E0.5 F2100 ; Un-retract
SET_PRESSURE_ADVANCE ADVANCE=0.06 ; Set pressure advance
M117 PA 0.06
G1 X83.7545 Y53.22 E1.01546 F4800 ; Print pattern wall
G1 X62.5413 Y74.4332 E1.01546 F4800 ; Print pattern wall
G1 E-0.5 F1800 ; Retract
G1 Z0.7 F12000 ; Z hop
G0 X63.117 Y32.0068 F12000 ; Move to start next pattern wall
G1 Z0.6 F12000 ; Z hop return
G1 E0.5 F2100 ; Un-retract
G1 X84.3302 Y53.22 E1.01546 F4800 ; Print pattern wall
G1 X63.117 Y74.4332 E1.01546 F4800 ; Print pattern wall
G1 E-0.5 F1800 ; Retract
G1 Z0.7 F12000 ; Z hop
G0 X63.6927 Y32.0068 F12000 ; Move to start next pattern wall
G1 Z0.6 F12000 ; Z hop return
G1 E0.5 F2100 ; Un-retract
G1 X84.9059 Y53.22 E1.01546 F4800 ; Print pattern wall
G1 X63.6927 Y74.4332 E1.01546 F4800 ; Print pattern wall
G1 E-0.5 F1800 ; Retract
G1 Z0.7 F12000 ; Z hop
G0 X66.1427 Y32.0068 F12000 ; Move to next pattern
G1 Z0.6 F12000 ; Z hop return
G1 E0.5 F2100 ; Un-retract
SET_PRESSURE_ADVANCE ADVANCE=0.065 ; Set pressure advance
M117 PA 0.065
G1 X87.3559 Y53.22 E1.01546 F4800 ; Print pattern wall
G1 X66.1427 Y74.4332 E1.01546 F4800 ; Print pattern wall
G1 E-0.5 F1800 ; Retract
G1 Z0.7 F12000 ; Z hop
G0 X66.7184 Y32.0068 F12000 ; Move to start next pattern wall
G1 Z0.6 F12000 ; Z hop return
G1 E0.5 F2100 ; Un-retract
G1 X87.9316 Y53.22 E1.01546 F4800 ; Print pattern wall
G1 X66.7184 Y74.4332 E1.01546 F4800 ; Print pattern wall
G1 E-0.5 F1800 ; Retract
G1 Z0.7 F12000 ; Z hop
G0 X67.2941 Y32.0068 F12000 ; Move to start next pattern wall
G1 Z0.6 F12000 ; Z hop return
G1 E0.5 F2100 ; Un-retract
G1 X88.5073 Y53.22 E1.01546 F4800 ; Print pattern wall
G1 X67.2941 Y74.4332 E1.01546 F4800 ; Print pattern wall
G1 E-0.5 F1800 ; Retract
G1 Z0.7 F12000 ; Z hop
G0 X69.7441 Y32.0068 F12000 ; Move to next pattern
G1 Z0.6 F12000 ; Z hop return
G1 E0.5 F2100 ; Un-retract
SET_PRESSURE_ADVANCE ADVANCE=0.07 ; Set pressure advance
M117 PA 0.07
G1 X90.9573 Y53.22 E1.01546 F4800 ; Print pattern wall
G1 X69.7441 Y74.4332 E1.01546 F4800 ; Print pattern wall
G1 E-0.5 F1800 ; Retract
G1 Z0.7 F12000 ; Z hop
G0 X70.3198 Y32.0068 F12000 ; Move to start next pattern wall
G1 Z0.6 F12000 ; Z hop return
G1 E0.5 F2100 ; Un-retract
G1 X91.533 Y53.22 E1.01546 F4800 ; Print pattern wall
G1 X70.3198 Y74.4332 E1.01546 F4800 ; Print pattern wall
G1 E-0.5 F1800 ; Retract
G1 Z0.7 F12000 ; Z hop
G0 X70.8955 Y32.0068 F12000 ; Move to start next pattern wall
G1 Z0.6 F12000 ; Z hop return
G1 E0.5 F2100 ; Un-retract
G1 X92.1087 Y53.22 E1.01546 F4800 ; Print pattern wall
G1 X70.8955 Y74.4332 E1.01546 F4800 ; Print pattern wall
G1 E-0.5 F1800 ; Retract
G1 Z0.7 F12000 ; Z hop
G0 X73.3455 Y32.0068 F12000 ; Move to next pattern
G1 Z0.6 F12000 ; Z hop return
G1 E0.5 F2100 ; Un-retract
SET_PRESSURE_ADVANCE ADVANCE=0.075 ; Set pressure advance
M117 PA 0.075
G1 X94.5587 Y53.22 E1.01546 F4800 ; Print pattern wall
G1 X73.3455 Y74.4332 E1.01546 F4800 ; Print pattern wall
G1 E-0.5 F1800 ; Retract
G1 Z0.7 F12000 ; Z hop
G0 X73.9212 Y32.0068 F12000 ; Move to start next pattern wall
G1 Z0.6 F12000 ; Z hop return
G1 E0.5 F2100 ; Un-retract
G1 X95.1344 Y53.22 E1.01546 F4800 ; Print pattern wall
G1 X73.9212 Y74.4332 E1.01546 F4800 ; Print pattern wall
G1 E-0.5 F1800 ; Retract
G1 Z0.7 F12000 ; Z hop
G0 X74.4969 Y32.0068 F12000 ; Move to start next pattern wall
G1 Z0.6 F12000 ; Z hop return
G1 E0.5 F2100 ; Un-retract
G1 X95.7101 Y53.22 E1.01546 F4800 ; Print pattern wall
G1 X74.4969 Y74.4332 E1.01546 F4800 ; Print pattern wall
G1 E-0.5 F1800 ; Retract
G1 Z0.7 F12000 ; Z hop
G0 X76.9469 Y32.0068 F12000 ; Move to next pattern
G1 Z0.6 F12000 ; Z hop return
G1 E0.5 F2100 ; Un-retract
SET_PRESSURE_ADVANCE ADVANCE=0.08 ; Set pressure advance
M117 PA 0.08
G1 X98.1601 Y53.22 E1.01546 F4800 ; Print pattern wall
G1 X76.9469 Y74.4332 E1.01546 F4800 ; Print pattern wall
G1 E-0.5 F1800 ; Retract
G1 Z0.7 F12000 ; Z hop
G0 X77.5226 Y32.0068 F12000 ; Move to start next pattern wall
G1 Z0.6 F12000 ; Z hop return
G1 E0.5 F2100 ; Un-retract
G1 X98.7358 Y53.22 E1.01546 F4800 ; Print pattern wall
G1 X77.5226 Y74.4332 E1.01546 F4800 ; Print pattern wall
G1 E-0.5 F1800 ; Retract
G1 Z0.7 F12000 ; Z hop
G0 X78.0983 Y32.0068 F12000 ; Move to start next pattern wall
G1 Z0.6 F12000 ; Z hop return
G1 E0.5 F2100 ; Un-retract
G1 X99.3115 Y53.22 E1.01546 F4800 ; Print pattern wall
G1 X78.0983 Y74.4332 E1.01546 F4800 ; Print pattern wall
G1 E-0.5 F1800 ; Retract
G1 Z0.7 F12000 ; Z hop
G0 X19.3245 Y32.0068 F12000 ; Move back to start position
G1 Z0.6 F12000 ; Z hop return
G1 E0.5 F2100 ; Un-retract
G0 Z0.8 F12000 ; Move to layer height
SET_PRESSURE_ADVANCE ADVANCE=0 ; Set pressure advance
M117 PA 0
G1 X40.5377 Y53.22 E1.01546 F4800 ; Print pattern wall
G1 X19.3245 Y74.4332 E1.01546 F4800 ; Print pattern wall
G1 E-0.5 F1800 ; Retract
G1 Z0.9 F12000 ; Z hop
G0 X19.9002 Y32.0068 F12000 ; Move to start next pattern wall
G1 Z0.8 F12000 ; Z hop return
G1 E0.5 F2100 ; Un-retract
G1 X41.1134 Y53.22 E1.01546 F4800 ; Print pattern wall
G1 X19.9002 Y74.4332 E1.01546 F4800 ; Print pattern wall
G1 E-0.5 F1800 ; Retract
G1 Z0.9 F12000 ; Z hop
G0 X20.4759 Y32.0068 F12000 ; Move to start next pattern wall
G1 Z0.8 F12000 ; Z hop return
G1 E0.5 F2100 ; Un-retract
G1 X41.6891 Y53.22 E1.01546 F4800 ; Print pattern wall
G1 X20.4759 Y74.4332 E1.01546 F4800 ; Print pattern wall
G1 E-0.5 F1800 ; Retract
G1 Z0.9 F12000 ; Z hop
G0 X22.9259 Y32.0068 F12000 ; Move to next pattern
G1 Z0.8 F12000 ; Z hop return
G1 E0.5 F2100 ; Un-retract
SET_PRESSURE_ADVANCE ADVANCE=0.005 ; Set pressure advance
M117 PA 0.005
G1 X44.1391 Y53.22 E1.01546 F4800 ; Print pattern wall
G1 X22.9259 Y74.4332 E1.01546 F4800 ; Print pattern wall
G1 E-0.5 F1800 ; Retract
G1 Z0.9 F12000 ; Z hop
G0 X23.5016 Y32.0068 F12000 ; Move to start next pattern wall
G1 Z0.8 F12000 ; Z hop return
G1 E0.5 F2100 ; Un-retract
G1 X44.7148 Y53.22 E1.01546 F4800 ; Print pattern wall
G1 X23.5016 Y74.4332 E1.01546 F4800 ; Print pattern wall
G1 E-0.5 F1800 ; Retract
G1 Z0.9 F12000 ; Z hop
G0 X24.0773 Y32.0068 F12000 ; Move to start next pattern wall
G1 Z0.8 F12000 ; Z hop return
G1 E0.5 F2100 ; Un-retract
G1 X45.2905 Y53.22 E1.01546 F4800 ; Print pattern wall
G1 X24.0773 Y74.4332 E1.01546 F4800 ; Print pattern wall
G1 E-0.5 F1800 ; Retract
G1 Z0.9 F12000 ; Z hop
G0 X26.5273 Y32.0068 F12000 ; Move to next pattern
G1 Z0.8 F12000 ; Z hop return
G1 E0.5 F2100 ; Un-retract
SET_PRESSURE_ADVANCE ADVANCE=0.01 ; Set pressure advance
M117 PA 0.01
G1 X47.7405 Y53.22 E1.01546 F4800 ; Print pattern wall
G1 X26.5273 Y74.4332 E1.01546 F4800 ; Print pattern wall
G1 E-0.5 F1800 ; Retract
G1 Z0.9 F12000 ; Z hop
G0 X27.103 Y32.0068 F12000 ; Move to start next pattern wall
G1 Z0.8 F12000 ; Z hop return
G1 E0.5 F2100 ; Un-retract
G1 X48.3162 Y53.22 E1.01546 F4800 ; Print pattern wall
G1 X27.103 Y74.4332 E1.01546 F4800 ; Print pattern wall
G1 E-0.5 F1800 ; Retract
G1 Z0.9 F12000 ; Z hop
G0 X27.6787 Y32.0068 F12000 ; Move to start next pattern wall
G1 Z0.8 F12000 ; Z hop return
G1 E0.5 F2100 ; Un-retract
G1 X48.8919 Y53.22 E1.01546 F4800 ; Print pattern wall
G1 X27.6787 Y74.4332 E1.01546 F4800 ; Print pattern wall
G1 E-0.5 F1800 ; Retract
G1 Z0.9 F12000 ; Z hop
G0 X30.1287 Y32.0068 F12000 ; Move to next pattern
G1 Z0.8 F12000 ; Z hop return
G1 E0.5 F2100 ; Un-retract
SET_PRESSURE_ADVANCE ADVANCE=0.015 ; Set pressure advance
M117 PA 0.015
G1 X51.3419 Y53.22 E1.01546 F4800 ; Print pattern wall
G1 X30.1287 Y74.4332 E1.01546 F4800 ; Print pattern wall
G1 E-0.5 F1800 ; Retract
G1 Z0.9 F12000 ; Z hop
G0 X30.7044 Y32.0068 F12000 ; Move to start next pattern wall
G1 Z0.8 F12000 ; Z hop return
G1 E0.5 F2100 ; Un-retract
G1 X51.9176 Y53.22 E1.01546 F4800 ; Print pattern wall
G1 X30.7044 Y74.4332 E1.01546 F4800 ; Print pattern wall
G1 E-0.5 F1800 ; Retract
G1 Z0.9 F12000 ; Z hop
G0 X31.2801 Y32.0068 F12000 ; Move to start next pattern wall
G1 Z0.8 F12000 ; Z hop return
G1 E0.5 F2100 ; Un-retract
G1 X52.4933 Y53.22 E1.01546 F4800 ; Print pattern wall
G1 X31.2801 Y74.4332 E1.01546 F4800 ; Print pattern wall
G1 E-0.5 F1800 ; Retract
G1 Z0.9 F12000 ; Z hop
G0 X33.7301 Y32.0068 F12000 ; Move to next pattern
G1 Z0.8 F12000 ; Z hop return
G1 E0.5 F2100 ; Un-retract
SET_PRESSURE_ADVANCE ADVANCE=0.02 ; Set pressure advance
M117 PA 0.02
G1 X54.9433 Y53.22 E1.01546 F4800 ; Print pattern wall
G1 X33.7301 Y74.4332 E1.01546 F4800 ; Print pattern wall
G1 E-0.5 F1800 ; Retract
G1 Z0.9 F12000 ; Z hop
G0 X34.3058 Y32.0068 F12000 ; Move to start next pattern wall
G1 Z0.8 F12000 ; Z hop return
G1 E0.5 F2100 ; Un-retract
G1 X55.519 Y53.22 E1.01546 F4800 ; Print pattern wall
G1 X34.3058 Y74.4332 E1.01546 F4800 ; Print pattern wall
G1 E-0.5 F1800 ; Retract
G1 Z0.9 F12000 ; Z hop
G0 X34.8815 Y32.0068 F12000 ; Move to start next pattern wall
G1 Z0.8 F12000 ; Z hop return
G1 E0.5 F2100 ; Un-retract
G1 X56.0947 Y53.22 E1.01546 F4800 ; Print pattern wall
G1 X34.8815 Y74.4332 E1.01546 F4800 ; Print pattern wall
G1 E-0.5 F1800 ; Retract
G1 Z0.9 F12000 ; Z hop
G0 X37.3315 Y32.0068 F12000 ; Move to next pattern
G1 Z0.8 F12000 ; Z hop return
G1 E0.5 F2100 ; Un-retract
SET_PRESSURE_ADVANCE ADVANCE=0.025 ; Set pressure advance
M117 PA 0.025
G1 X58.5447 Y53.22 E1.01546 F4800 ; Print pattern wall
G1 X37.3315 Y74.4332 E1.01546 F4800 ; Print pattern wall
G1 E-0.5 F1800 ; Retract
G1 Z0.9 F12000 ; Z hop
G0 X37.9072 Y32.0068 F12000 ; Move to start next pattern wall
G1 Z0.8 F12000 ; Z hop return
G1 E0.5 F2100 ; Un-retract
G1 X59.1204 Y53.22 E1.01546 F4800 ; Print pattern wall
G1 X37.9072 Y74.4332 E1.01546 F4800 ; Print pattern wall
G1 E-0.5 F1800 ; Retract
G1 Z0.9 F12000 ; Z hop
G0 X38.4829 Y32.0068 F12000 ; Move to start next pattern wall
G1 Z0.8 F12000 ; Z hop return
G1 E0.5 F2100 ; Un-retract
G1 X59.6961 Y53.22 E1.01546 F4800 ; Print pattern wall
G1 X38.4829 Y74.4332 E1.01546 F4800 ; Print pattern wall
G1 E-0.5 F1800 ; Retract
G1 Z0.9 F12000 ; Z hop
G0 X40.9329 Y32.0068 F12000 ; Move to next pattern
G1 Z0.8 F12000 ; Z hop return
G1 E0.5 F2100 ; Un-retract
SET_PRESSURE_ADVANCE ADVANCE=0.03 ; Set pressure advance
M117 PA 0.03
G1 X62.1461 Y53.22 E1.01546 F4800 ; Print pattern wall
G1 X40.9329 Y74.4332 E1.01546 F4800 ; Print pattern wall
G1 E-0.5 F1800 ; Retract
G1 Z0.9 F12000 ; Z hop
G0 X41.5086 Y32.0068 F12000 ; Move to start next pattern wall
G1 Z0.8 F12000 ; Z hop return
G1 E0.5 F2100 ; Un-retract
G1 X62.7218 Y53.22 E1.01546 F4800 ; Print pattern wall
G1 X41.5086 Y74.4332 E1.01546 F4800 ; Print pattern wall
G1 E-0.5 F1800 ; Retract
G1 Z0.9 F12000 ; Z hop
G0 X42.0843 Y32.0068 F12000 ; Move to start next pattern wall
G1 Z0.8 F12000 ; Z hop return
G1 E0.5 F2100 ; Un-retract
G1 X63.2975 Y53.22 E1.01546 F4800 ; Print pattern wall
G1 X42.0843 Y74.4332 E1.01546 F4800 ; Print pattern wall
G1 E-0.5 F1800 ; Retract
G1 Z0.9 F12000 ; Z hop
G0 X44.5343 Y32.0068 F12000 ; Move to next pattern
G1 Z0.8 F12000 ; Z hop return
G1 E0.5 F2100 ; Un-retract
SET_PRESSURE_ADVANCE ADVANCE=0.035 ; Set pressure advance
M117 PA 0.035
G1 X65.7475 Y53.22 E1.01546 F4800 ; Print pattern wall
G1 X44.5343 Y74.4332 E1.01546 F4800 ; Print pattern wall
G1 E-0.5 F1800 ; Retract
G1 Z0.9 F12000 ; Z hop
G0 X45.11 Y32.0068 F12000 ; Move to start next pattern wall
G1 Z0.8 F12000 ; Z hop return
G1 E0.5 F2100 ; Un-retract
G1 X66.3232 Y53.22 E1.01546 F4800 ; Print pattern wall
G1 X45.11 Y74.4332 E1.01546 F4800 ; Print pattern wall
G1 E-0.5 F1800 ; Retract
G1 Z0.9 F12000 ; Z hop
G0 X45.6857 Y32.0068 F12000 ; Move to start next pattern wall
G1 Z0.8 F12000 ; Z hop return
G1 E0.5 F2100 ; Un-retract
G1 X66.8989 Y53.22 E1.01546 F4800 ; Print pattern wall
G1 X45.6857 Y74.4332 E1.01546 F4800 ; Print pattern wall
G1 E-0.5 F1800 ; Retract
G1 Z0.9 F12000 ; Z hop
G0 X48.1357 Y32.0068 F12000 ; Move to next pattern
G1 Z0.8 F12000 ; Z hop return
G1 E0.5 F2100 ; Un-retract
SET_PRESSURE_ADVANCE ADVANCE=0.04 ; Set pressure advance
M117 PA 0.04
G1 X69.3489 Y53.22 E1.01546 F4800 ; Print pattern wall
G1 X48.1357 Y74.4332 E1.01546 F4800 ; Print pattern wall
G1 E-0.5 F1800 ; Retract
G1 Z0.9 F12000 ; Z hop
G0 X48.7114 Y32.0068 F12000 ; Move to start next pattern wall
G1 Z0.8 F12000 ; Z hop return
G1 E0.5 F2100 ; Un-retract
G1 X69.9246 Y53.22 E1.01546 F4800 ; Print pattern wall
G1 X48.7114 Y74.4332 E1.01546 F4800 ; Print pattern wall
G1 E-0.5 F1800 ; Retract
G1 Z0.9 F12000 ; Z hop
G0 X49.2871 Y32.0068 F12000 ; Move to start next pattern wall
G1 Z0.8 F12000 ; Z hop return
G1 E0.5 F2100 ; Un-retract
G1 X70.5003 Y53.22 E1.01546 F4800 ; Print pattern wall
G1 X49.2871 Y74.4332 E1.01546 F4800 ; Print pattern wall
G1 E-0.5 F1800 ; Retract
G1 Z0.9 F12000 ; Z hop
G0 X51.7371 Y32.0068 F12000 ; Move to next pattern
G1 Z0.8 F12000 ; Z hop return
G1 E0.5 F2100 ; Un-retract
SET_PRESSURE_ADVANCE ADVANCE=0.045 ; Set pressure advance
M117 PA 0.045
G1 X72.9503 Y53.22 E1.01546 F4800 ; Print pattern wall
G1 X51.7371 Y74.4332 E1.01546 F4800 ; Print pattern wall
G1 E-0.5 F1800 ; Retract
G1 Z0.9 F12000 ; Z hop
G0 X52.3128 Y32.0068 F12000 ; Move to start next pattern wall
G1 Z0.8 F12000 ; Z hop return
G1 E0.5 F2100 ; Un-retract
G1 X73.526 Y53.22 E1.01546 F4800 ; Print pattern wall
G1 X52.3128 Y74.4332 E1.01546 F4800 ; Print pattern wall
G1 E-0.5 F1800 ; Retract
G1 Z0.9 F12000 ; Z hop
G0 X52.8885 Y32.0068 F12000 ; Move to start next pattern wall
G1 Z0.8 F12000 ; Z hop return
G1 E0.5 F2100 ; Un-retract
G1 X74.1017 Y53.22 E1.01546 F4800 ; Print pattern wall
G1 X52.8885 Y74.4332 E1.01546 F4800 ; Print pattern wall
G1 E-0.5 F1800 ; Retract
G1 Z0.9 F12000 ; Z hop
G0 X55.3385 Y32.0068 F12000 ; Move to next pattern
G1 Z0.8 F12000 ; Z hop return
G1 E0.5 F2100 ; Un-retract
SET_PRESSURE_ADVANCE ADVANCE=0.05 ; Set pressure advance
M117 PA 0.05
G1 X76.5517 Y53.22 E1.01546 F4800 ; Print pattern wall
G1 X55.3385 Y74.4332 E1.01546 F4800 ; Print pattern wall
G1 E-0.5 F1800 ; Retract
G1 Z0.9 F12000 ; Z hop
G0 X55.9142 Y32.0068 F12000 ; Move to start next pattern wall
G1 Z0.8 F12000 ; Z hop return
G1 E0.5 F2100 ; Un-retract
G1 X77.1274 Y53.22 E1.01546 F4800 ; Print pattern wall
G1 X55.9142 Y74.4332 E1.01546 F4800 ; Print pattern wall
G1 E-0.5 F1800 ; Retract
G1 Z0.9 F12000 ; Z hop
G0 X56.4899 Y32.0068 F12000 ; Move to start next pattern wall
G1 Z0.8 F12000 ; Z hop return
G1 E0.5 F2100 ; Un-retract
G1 X77.7031 Y53.22 E1.01546 F4800 ; Print pattern wall
G1 X56.4899 Y74.4332 E1.01546 F4800 ; Print pattern wall
G1 E-0.5 F1800 ; Retract
G1 Z0.9 F12000 ; Z hop
G0 X58.9399 Y32.0068 F12000 ; Move to next pattern
G1 Z0.8 F12000 ; Z hop return
G1 E0.5 F2100 ; Un-retract
SET_PRESSURE_ADVANCE ADVANCE=0.055 ; Set pressure advance
M117 PA 0.055
G1 X80.1531 Y53.22 E1.01546 F4800 ; Print pattern wall
G1 X58.9399 Y74.4332 E1.01546 F4800 ; Print pattern wall
G1 E-0.5 F1800 ; Retract
G1 Z0.9 F12000 ; Z hop
G0 X59.5156 Y32.0068 F12000 ; Move to start next pattern wall
G1 Z0.8 F12000 ; Z hop return
G1 E0.5 F2100 ; Un-retract
G1 X80.7288 Y53.22 E1.01546 F4800 ; Print pattern wall
G1 X59.5156 Y74.4332 E1.01546 F4800 ; Print pattern wall
G1 E-0.5 F1800 ; Retract
G1 Z0.9 F12000 ; Z hop
G0 X60.0913 Y32.0068 F12000 ; Move to start next pattern wall
G1 Z0.8 F12000 ; Z hop return
G1 E0.5 F2100 ; Un-retract
G1 X81.3045 Y53.22 E1.01546 F4800 ; Print pattern wall
G1 X60.0913 Y74.4332 E1.01546 F4800 ; Print pattern wall
G1 E-0.5 F1800 ; Retract
G1 Z0.9 F12000 ; Z hop
G0 X62.5413 Y32.0068 F12000 ; Move to next pattern
G1 Z0.8 F12000 ; Z hop return
G1 E0.5 F2100 ; Un-retract
SET_PRESSURE_ADVANCE ADVANCE=0.06 ; Set pressure advance
M117 PA 0.06
G1 X83.7545 Y53.22 E1.01546 F4800 ; Print pattern wall
G1 X62.5413 Y74.4332 E1.01546 F4800 ; Print pattern wall
G1 E-0.5 F1800 ; Retract
G1 Z0.9 F12000 ; Z hop
G0 X63.117 Y32.0068 F12000 ; Move to start next pattern wall
G1 Z0.8 F12000 ; Z hop return
G1 E0.5 F2100 ; Un-retract
G1 X84.3302 Y53.22 E1.01546 F4800 ; Print pattern wall
G1 X63.117 Y74.4332 E1.01546 F4800 ; Print pattern wall
G1 E-0.5 F1800 ; Retract
G1 Z0.9 F12000 ; Z hop
G0 X63.6927 Y32.0068 F12000 ; Move to start next pattern wall
G1 Z0.8 F12000 ; Z hop return
G1 E0.5 F2100 ; Un-retract
G1 X84.9059 Y53.22 E1.01546 F4800 ; Print pattern wall
G1 X63.6927 Y74.4332 E1.01546 F4800 ; Print pattern wall
G1 E-0.5 F1800 ; Retract
G1 Z0.9 F12000 ; Z hop
G0 X66.1427 Y32.0068 F12000 ; Move to next pattern
G1 Z0.8 F12000 ; Z hop return
G1 E0.5 F2100 ; Un-retract
SET_PRESSURE_ADVANCE ADVANCE=0.065 ; Set pressure advance
M117 PA 0.065
G1 X87.3559 Y53.22 E1.01546 F4800 ; Print pattern wall
G1 X66.1427 Y74.4332 E1.01546 F4800 ; Print pattern wall
G1 E-0.5 F1800 ; Retract
G1 Z0.9 F12000 ; Z hop
G0 X66.7184 Y32.0068 F12000 ; Move to start next pattern wall
G1 Z0.8 F12000 ; Z hop return
G1 E0.5 F2100 ; Un-retract
G1 X87.9316 Y53.22 E1.01546 F4800 ; Print pattern wall
G1 X66.7184 Y74.4332 E1.01546 F4800 ; Print pattern wall
G1 E-0.5 F1800 ; Retract
G1 Z0.9 F12000 ; Z hop
G0 X67.2941 Y32.0068 F12000 ; Move to start next pattern wall
G1 Z0.8 F12000 ; Z hop return
G1 E0.5 F2100 ; Un-retract
G1 X88.5073 Y53.22 E1.01546 F4800 ; Print pattern wall
G1 X67.2941 Y74.4332 E1.01546 F4800 ; Print pattern wall
G1 E-0.5 F1800 ; Retract
G1 Z0.9 F12000 ; Z hop
G0 X69.7441 Y32.0068 F12000 ; Move to next pattern
G1 Z0.8 F12000 ; Z hop return
G1 E0.5 F2100 ; Un-retract
SET_PRESSURE_ADVANCE ADVANCE=0.07 ; Set pressure advance
M117 PA 0.07
G1 X90.9573 Y53.22 E1.01546 F4800 ; Print pattern wall
G1 X69.7441 Y74.4332 E1.01546 F4800 ; Print pattern wall
G1 E-0.5 F1800 ; Retract
G1 Z0.9 F12000 ; Z hop
G0 X70.3198 Y32.0068 F12000 ; Move to start next pattern wall
G1 Z0.8 F12000 ; Z hop return
G1 E0.5 F2100 ; Un-retract
G1 X91.533 Y53.22 E1.01546 F4800 ; Print pattern wall
G1 X70.3198 Y74.4332 E1.01546 F4800 ; Print pattern wall
G1 E-0.5 F1800 ; Retract
G1 Z0.9 F12000 ; Z hop
G0 X70.8955 Y32.0068 F12000 ; Move to start next pattern wall
G1 Z0.8 F12000 ; Z hop return
G1 E0.5 F2100 ; Un-retract
G1 X92.1087 Y53.22 E1.01546 F4800 ; Print pattern wall
G1 X70.8955 Y74.4332 E1.01546 F4800 ; Print pattern wall
G1 E-0.5 F1800 ; Retract
G1 Z0.9 F12000 ; Z hop
G0 X73.3455 Y32.0068 F12000 ; Move to next pattern
G1 Z0.8 F12000 ; Z hop return
G1 E0.5 F2100 ; Un-retract
SET_PRESSURE_ADVANCE ADVANCE=0.075 ; Set pressure advance
M117 PA 0.075
G1 X94.5587 Y53.22 E1.01546 F4800 ; Print pattern wall
G1 X73.3455 Y74.4332 E1.01546 F4800 ; Print pattern wall
G1 E-0.5 F1800 ; Retract
G1 Z0.9 F12000 ; Z hop
G0 X73.9212 Y32.0068 F12000 ; Move to start next pattern wall
G1 Z0.8 F12000 ; Z hop return
G1 E0.5 F2100 ; Un-retract
G1 X95.1344 Y53.22 E1.01546 F4800 ; Print pattern wall
G1 X73.9212 Y74.4332 E1.01546 F4800 ; Print pattern wall
G1 E-0.5 F1800 ; Retract
G1 Z0.9 F12000 ; Z hop
G0 X74.4969 Y32.0068 F12000 ; Move to start next pattern wall
G1 Z0.8 F12000 ; Z hop return
G1 E0.5 F2100 ; Un-retract
G1 X95.7101 Y53.22 E1.01546 F4800 ; Print pattern wall
G1 X74.4969 Y74.4332 E1.01546 F4800 ; Print pattern wall
G1 E-0.5 F1800 ; Retract
G1 Z0.9 F12000 ; Z hop
G0 X76.9469 Y32.0068 F12000 ; Move to next pattern
G1 Z0.8 F12000 ; Z hop return
G1 E0.5 F2100 ; Un-retract
SET_PRESSURE_ADVANCE ADVANCE=0.08 ; Set pressure advance
M117 PA 0.08
G1 X98.1601 Y53.22 E1.01546 F4800 ; Print pattern wall
G1 X76.9469 Y74.4332 E1.01546 F4800 ; Print pattern wall
G1 E-0.5 F1800 ; Retract
G1 Z0.9 F12000 ; Z hop
G0 X77.5226 Y32.0068 F12000 ; Move to start next pattern wall
G1 Z0.8 F12000 ; Z hop return
G1 E0.5 F2100 ; Un-retract
G1 X98.7358 Y53.22 E1.01546 F4800 ; Print pattern wall
G1 X77.5226 Y74.4332 E1.01546 F4800 ; Print pattern wall
G1 E-0.5 F1800 ; Retract
G1 Z0.9 F12000 ; Z hop
G0 X78.0983 Y32.0068 F12000 ; Move to start next pattern wall
G1 Z0.8 F12000 ; Z hop return
G1 E0.5 F2100 ; Un-retract
G1 X99.3115 Y53.22 E1.01546 F4800 ; Print pattern wall
G1 X78.0983 Y74.4332 E1.01546 F4800 ; Print pattern wall
SET_PRESSURE_ADVANCE ADVANCE=0 ; Set pressure advance back to start value
M117 PA 0
G1 E-0.5 F1800 ; Retract
G1 Z0.9 F12000 ; Z hop
G0 Z5.8 F12000 ; Z raise
M104 S0 ; Turn off hotend
M140 S0 ; Turn off bed
M107    ; Turn off fan
;
; End G-code
;
END_PRINT
;
; FINISH
;
