; generated by SuperSlicer 2.5.59 on 2022-12-25 at 06:02:39 UTC


;
;

;
;
; 

; external perimeters extrusion width = 0.40mm
; perimeters extrusion width = 0.46mm
; infill extrusion width = 0.64mm
; solid infill extrusion width = 0.56mm
; top infill extrusion width = 0.40mm
; first layer extrusion width = 0.50mm

; object:{"name":"Voron_Design_Cube_v7","id":"Voron_Design_Cube_v7.stl id:0 copy 0","object_center":[60.000000,60.000000,0.000000],"boundingbox_center":[60.000000,60.000000,15.000000],"boundingbox_size":[30.000000,30.000000,30.000000]}
; plater:{"center":[60.000000,60.000000,0.000000],"boundingbox_center":[60.000000,60.000000,15.000000],"boundingbox_size":[30.000000,30.000000,30.000000]}

M73 P0 R39
;TYPE:Custom
; custom gcode: start_gcode
START_PRINT T_BED=60 T_EXTRUDER=200
; custom gcode end: start_gcode
M107
G21 ; set units to millimeters
G90 ; use absolute coordinates
M83 ; use relative distances for extrusion
; custom gcode: start_filament_gcode
; Filament gcode
PRESSURE_ADVANCE_SELECT FILAMENT=PLA
; custom gcode end: start_filament_gcode
;_TOOLCHANGE 0
M104 S200 ; set temperature
M109 S200 ; set temperature and wait for it to be reached
M190 S60 ; set bed temperature and wait for it to be reached
;LAYER_CHANGE
;Z:0.2
;HEIGHT:0.2
G1 Z0.12 F12000
G92 E0
G1 E-0.8 F3000
M204 S2000
G1 X45.448 Y45.448 F12000
G1 E0.8 F1800
;TYPE:Skirt
;WIDTH:0.52
G1 X42.573 Y48.324 E0.15164
G1 X41.879 Y49.285 E0.04419
G1 X41.484 Y50.951 E0.06386
G1 X41.484 Y69.049 E0.67485
G1 X41.673 Y70.219 E0.04419
G1 X42.573 Y71.676 E0.06386
G1 X48.324 Y77.427 E0.30328
G1 X49.285 Y78.121 E0.04419
G1 X50.951 Y78.516 E0.06386
G1 X69.049 Y78.516 E0.67485
G1 X70.219 Y78.327 E0.04419
G1 X71.676 Y77.427 E0.06386
G1 X77.427 Y71.676 E0.30328
M73 P0 R39
G1 X78.121 Y70.715 E0.04419
G1 X78.516 Y69.049 E0.06386
G1 X78.516 Y50.951 E0.67485
G1 X78.327 Y49.781 E0.04419
G1 X77.427 Y48.324 E0.06386
G1 X71.676 Y42.573 E0.30328
G1 X70.715 Y41.879 E0.04419
G1 X69.049 Y41.484 E0.06386
G1 X50.951 Y41.484 E0.67485
G1 X49.781 Y41.673 E0.04419
G1 X48.324 Y42.573 E0.06386
G1 X45.448 Y45.448 E0.15164
G1 X45.786 Y45.786 F12000
G1 F1800
G1 X42.91 Y48.661 E0.15164
G1 X42.355 Y49.403 E0.03455
G1 X41.961 Y50.951 E0.05956
G1 X41.961 Y69.049 E0.67485
G1 X42.094 Y69.966 E0.03455
G1 X42.91 Y71.339 E0.05956
G1 X48.661 Y77.09 E0.30328
G1 X49.403 Y77.645 E0.03455
G1 X50.951 Y78.039 E0.05956
G1 X69.049 Y78.039 E0.67485
G1 X69.966 Y77.906 E0.03455
G1 X71.339 Y77.09 E0.05956
G1 X77.09 Y71.339 E0.30328
G1 X77.645 Y70.597 E0.03455
G1 X78.039 Y69.049 E0.05956
G1 X78.039 Y50.951 E0.67485
G1 X77.906 Y50.034 E0.03455
G1 X77.09 Y48.661 E0.05956
G1 X71.339 Y42.91 E0.30328
G1 X70.597 Y42.355 E0.03455
G1 X69.049 Y41.961 E0.05956
G1 X50.951 Y41.961 E0.67485
G1 X50.034 Y42.094 E0.03455
G1 X48.661 Y42.91 E0.05956
G1 X45.786 Y45.786 E0.15164
G1 E-0.8 F3000
; printing object Voron_Design_Cube_v7.stl id:0 copy 0
; acceleration to travel
M204 S4000
G1 X47.43 Y47.43 F12000
; decel to extrusion
M204 S2000
G1 X48.252 Y48.252
; end travel
G1 E0.8 F1800
;TYPE:External perimeter
;WIDTH:0.5
G1 X51.055 Y45.45 E0.14158
G1 X68.945 Y45.45 E0.63916
G1 X69.185 Y45.689 E0.01209
;TYPE:Internal perimeter
G1 X68.861 Y46.012 E0.01633
;WIDTH:0.471435
G1 X68.728 Y46.526 E0.01786
;WIDTH:0.5
G1 X73.636 Y51.433 E0.24795
G1 X73.636 Y68.567 E0.61211
G1 X68.567 Y73.636 E0.25611
G1 X51.433 Y73.636 E0.61211
G1 X46.364 Y68.567 E0.25611
G1 X46.364 Y51.433 E0.61211
G1 X51.433 Y46.364 E0.25611
G1 X59.596 Y46.364 E0.29163
G1 X59.596 Y46.614 E0.00893
;TYPE:Unknown
G1 X59.597 Y50.752
;TYPE:Internal perimeter
G1 X59.597 Y51.002 E0.00893
G1 X59.569 Y51.004 E0.001
G1 X58.895 Y51.052 E0.02413
G1 X57.977 Y51.214 E0.0333
G1 X57.081 Y51.47 E0.0333
G1 X56.216 Y51.817 E0.0333
G1 X55.391 Y52.251 E0.0333
G1 X54.616 Y52.768 E0.0333
G1 X53.903 Y53.359 E0.03308
G1 X53.406 Y53.856 E0.02512
G1 X52.942 Y54.39 E0.02526
G1 X52.404 Y55.144 E0.03308
G1 X51.943 Y55.954 E0.0333
G1 X51.568 Y56.807 E0.0333
G1 X51.284 Y57.695 E0.0333
G1 X51.092 Y58.607 E0.0333
G1 X50.996 Y59.534 E0.0333
G1 X50.996 Y60.466 E0.0333
G1 X51.092 Y61.393 E0.0333
G1 X51.284 Y62.305 E0.0333
G1 X51.567 Y63.187 E0.03309
G1 X51.845 Y63.837 E0.02525
G1 X52.166 Y64.462 E0.02511
G1 X52.665 Y65.242 E0.03309
G1 X53.245 Y65.972 E0.0333
G1 X53.898 Y66.637 E0.0333
G1 X54.616 Y67.232 E0.0333
G1 X55.391 Y67.749 E0.0333
G1 X56.21 Y68.18 E0.03307
G1 X56.864 Y68.45 E0.02527
G1 X57.532 Y68.671 E0.02514
G1 X58.434 Y68.879 E0.03306
G1 X59.359 Y68.993 E0.0333
G1 X60.291 Y69.011 E0.0333
G1 X61.22 Y68.933 E0.0333
G1 X62.135 Y68.759 E0.0333
G1 X63.021 Y68.494 E0.03304
G1 X63.678 Y68.229 E0.0253
G1 X64.31 Y67.918 E0.02516
G1 X65.099 Y67.435 E0.03304
G1 X65.839 Y66.869 E0.0333
G1 X66.517 Y66.23 E0.0333
G1 X67.125 Y65.523 E0.0333
G1 X67.657 Y64.758 E0.0333
G1 X68.108 Y63.942 E0.0333
G1 X68.471 Y63.084 E0.0333
G1 X68.744 Y62.193 E0.0333
G1 X68.924 Y61.279 E0.0333
G1 X69.008 Y60.359 E0.033
G1 X69.008 Y59.641 E0.02563
G1 X68.924 Y58.721 E0.033
G1 X68.744 Y57.807 E0.0333
G1 X68.474 Y56.923 E0.03301
G1 X68.207 Y56.271 E0.02519
G1 X67.889 Y55.637 E0.02532
G1 X67.401 Y54.852 E0.03302
G1 X66.83 Y54.116 E0.0333
G1 X66.186 Y53.442 E0.0333
G1 X65.476 Y52.838 E0.03329
G1 X64.708 Y52.311 E0.0333
G1 X63.895 Y51.87 E0.03304
G1 X63.248 Y51.592 E0.02516
G1 X62.578 Y51.361 E0.02529
G1 X61.68 Y51.142 E0.03304
G1 X60.756 Y51.016 E0.0333
G1 X60.51 Y51.008 E0.0088
;WIDTH:0.499106
G1 X60.29 Y51.458 E0.01786
;WIDTH:0.5
G1 X60.718 Y51.472 E0.01528
G1 X61.594 Y51.592 E0.03161
G1 X62.45 Y51.8 E0.03145
G1 X63.083 Y52.018 E0.02393
G1 X63.695 Y52.281 E0.02381
G1 X64.469 Y52.701 E0.03144
G1 X65.198 Y53.202 E0.03161
G1 X65.872 Y53.775 E0.0316
G1 X66.484 Y54.414 E0.03161
G1 X67.026 Y55.114 E0.03161
G1 X67.49 Y55.861 E0.03143
G1 X67.79 Y56.46 E0.02395
G1 X68.043 Y57.077 E0.02382
G1 X68.301 Y57.918 E0.03142
G1 X68.471 Y58.786 E0.03161
G1 X68.551 Y59.662 E0.03142
G1 X68.551 Y60.338 E0.02415
G1 X68.471 Y61.214 E0.03142
G1 X68.301 Y62.082 E0.03161
G1 X68.041 Y62.928 E0.03161
G1 X67.696 Y63.742 E0.03161
G1 X67.269 Y64.517 E0.03161
G1 X66.764 Y65.243 E0.03161
G1 X66.186 Y65.913 E0.03161
G1 X65.543 Y66.52 E0.03161
G1 X64.84 Y67.058 E0.03161
G1 X64.089 Y67.517 E0.03144
G1 X63.492 Y67.812 E0.0238
G1 X62.87 Y68.062 E0.02394
G1 X62.027 Y68.314 E0.03144
G1 X61.158 Y68.479 E0.03161
G1 X60.504 Y68.534 E0.02344
G1 X60.489 Y68.077 E0.01635
;TYPE:External perimeter
G1 X61.096 Y68.026 E0.02175
G1 X61.918 Y67.87 E0.02992
G1 X62.719 Y67.63 E0.02985
G1 X63.305 Y67.394 E0.02258
G1 X63.869 Y67.117 E0.02245
G1 X64.581 Y66.68 E0.02984
G1 X65.246 Y66.172 E0.02992
G1 X65.855 Y65.597 E0.02992
G1 X66.402 Y64.963 E0.02992
G1 X66.88 Y64.275 E0.02992
G1 X67.284 Y63.542 E0.02991
G1 X67.611 Y62.771 E0.02992
G1 X67.857 Y61.971 E0.02991
G1 X68.018 Y61.149 E0.02992
G1 X68.094 Y60.317 E0.02983
G1 X68.094 Y59.683 E0.02267
G1 X68.018 Y58.851 E0.02983
G1 X67.857 Y58.029 E0.02992
G1 X67.612 Y57.231 E0.02984
G1 X67.374 Y56.649 E0.02245
G1 X67.091 Y56.084 E0.02258
G1 X66.65 Y55.375 E0.02984
G1 X66.137 Y54.713 E0.02992
G1 X65.558 Y54.108 E0.02992
G1 X64.92 Y53.565 E0.02991
G1 X64.23 Y53.092 E0.02992
G1 X63.496 Y52.693 E0.02984
G1 X62.918 Y52.445 E0.02245
G1 X62.321 Y52.239 E0.02257
G1 X61.509 Y52.042 E0.02985
G1 X60.679 Y51.928 E0.02992
G1 X59.842 Y51.901 E0.02992
G1 X59.634 Y51.916 E0.00748
G1 X59.007 Y51.961 E0.02244
G1 X58.183 Y52.106 E0.02992
G1 X57.377 Y52.336 E0.02992
G1 X56.6 Y52.648 E0.02992
G1 X55.859 Y53.038 E0.02992
G1 X55.163 Y53.503 E0.02992
G1 X54.519 Y54.036 E0.02986
G1 X54.075 Y54.48 E0.02243
G1 X53.661 Y54.957 E0.02257
G1 X53.175 Y55.637 E0.02986
G1 X52.761 Y56.365 E0.02992
G1 X52.424 Y57.131 E0.02992
G1 X52.169 Y57.929 E0.02992
G1 X51.997 Y58.748 E0.02992
G1 X51.91 Y59.581 E0.02992
G1 X51.91 Y60.419 E0.02992
G1 X51.997 Y61.252 E0.02992
G1 X52.169 Y62.071 E0.02992
G1 X52.424 Y62.867 E0.02986
G1 X52.673 Y63.448 E0.02256
G1 X52.96 Y64.006 E0.02243
G1 X53.41 Y64.71 E0.02986
G1 X53.931 Y65.365 E0.02992
G1 X54.518 Y65.963 E0.02992
G1 X55.163 Y66.497 E0.02992
G1 X55.859 Y66.962 E0.02992
G1 X56.598 Y67.351 E0.02985
G1 X57.182 Y67.593 E0.02257
G1 X57.779 Y67.79 E0.02244
G1 X58.593 Y67.977 E0.02985
G1 X59.424 Y68.08 E0.02992
G1 X60.033 Y68.092 E0.02175
;TYPE:Internal perimeter
G1 X60.048 Y68.549 E0.01635
G1 X59.392 Y68.536 E0.02344
G1 X58.514 Y68.428 E0.03161
G1 X57.655 Y68.23 E0.03146
G1 X57.023 Y68.021 E0.02379
G1 X56.404 Y67.766 E0.02392
G1 X55.625 Y67.355 E0.03146
G1 X54.889 Y66.864 E0.03161
G1 X54.208 Y66.3 E0.03161
G1 X53.588 Y65.669 E0.03161
G1 X53.037 Y64.976 E0.03161
G1 X52.563 Y64.234 E0.03147
G1 X52.259 Y63.642 E0.02377
G1 X51.995 Y63.027 E0.02391
G1 X51.726 Y62.188 E0.03148
G1 X51.545 Y61.322 E0.03161
G1 X51.453 Y60.442 E0.03161
G1 X51.453 Y59.558 E0.03161
G1 X51.545 Y58.678 E0.03161
G1 X51.726 Y57.812 E0.03161
G1 X51.996 Y56.969 E0.03161
G1 X52.352 Y56.159 E0.03161
G1 X52.789 Y55.39 E0.03161
G1 X53.302 Y54.674 E0.03147
G1 X53.74 Y54.168 E0.02392
G1 X54.211 Y53.697 E0.02378
G1 X54.889 Y53.136 E0.03147
G1 X55.625 Y52.645 E0.03161
G1 X56.408 Y52.232 E0.03161
G1 X57.229 Y51.903 E0.03161
G1 X58.08 Y51.66 E0.03161
G1 X58.951 Y51.506 E0.03161
G1 X59.601 Y51.46 E0.02328
G1 X59.834 Y51.444 E0.00832
;WIDTH:0.499106
G1 X60.053 Y50.993 E0.01786
;WIDTH:0.5
G1 X60.053 Y50.743 E0.00893
;TYPE:Unknown
G1 X60.053 Y46.614
;TYPE:Internal perimeter
G1 X60.053 Y46.364 E0.00893
G1 X68.338 Y46.364 E0.29599
G1 X68.448 Y45.907 E0.01679
G1 X51.244 Y45.907 E0.61463
G1 X45.907 Y51.244 E0.26964
G1 X45.907 Y68.756 E0.62564
G1 X51.244 Y74.093 E0.26964
G1 X68.756 Y74.093 E0.62564
G1 X74.093 Y68.756 E0.26964
G1 X74.093 Y51.244 E0.62564
G1 X69.185 Y46.336 E0.24799
G1 X69.508 Y46.012 E0.01633
;TYPE:External perimeter
G1 X74.55 Y51.055 E0.25475
G1 X74.55 Y68.945 E0.63916
G1 X68.945 Y74.55 E0.28317
M73 P1 R38
G1 X51.055 Y74.55 E0.63916
G1 X45.45 Y68.945 E0.28317
G1 X45.45 Y51.055 E0.63916
G1 X48.252 Y48.252 E0.14158
;WIPE_START
M204 S4000
G1 X48.639 Y48.356 F12000
;WIPE_END
G1 E-0.8 F3000
; acceleration to travel
G1 X61.613 Y47.127 F12000
; decel to extrusion
M204 S2000
G1 X68.219 Y46.501
; end travel
M73 P1 R38
G1 E0.8 F1800
;TYPE:Solid infill
;WIDTH:0.503773
G1 F2400
G1 X73.499 Y51.781 E0.26877
G1 X73.499 Y52.427 F12000
G1 F2400
G1 X67.573 Y46.501 E0.30167
G1 X66.926 Y46.501 F12000
G1 F2400
G1 X73.499 Y53.074 E0.33458
G1 X73.499 Y53.72 F12000
G1 F2400
G1 X66.28 Y46.501 E0.36748
G1 X65.633 Y46.501 F12000
G1 F2400
G1 X73.499 Y54.367 E0.40039
G1 X73.499 Y55.013 F12000
G1 F2400
G1 X64.987 Y46.501 E0.4333
G1 X64.341 Y46.501 F12000
G1 F2400
G1 X73.499 Y55.659 E0.4662
G1 X73.499 Y56.306 F12000
G1 F2400
G1 X63.694 Y46.501 E0.49911
G1 X63.048 Y46.501 F12000
G1 F2400
G1 X73.499 Y56.952 E0.53201
G1 X73.499 Y57.599 F12000
G1 F2400
G1 X62.401 Y46.501 E0.56492
G1 X61.755 Y46.501 F12000
G1 F2400
G1 X73.499 Y58.245 E0.59782
G1 X73.499 Y58.891 F12000
G1 F2400
G1 X61.109 Y46.501 E0.63073
G1 X60.462 Y46.501 F12000
G1 F2400
G1 X73.499 Y59.538 E0.66363
G1 X73.499 Y60.184 F12000
G1 F2400
G1 X59.816 Y46.501 E0.69654
G1 X59.169 Y46.501 F12000
G1 F2400
G1 X65.128 Y52.46 E0.30334
; acceleration to travel
M204 S4000
G1 X64.154 Y51.917 F12000
; decel to extrusion
M204 S2000
G1 X63.667 Y51.645
; end travel
G1 F2400
G1 X58.523 Y46.501 E0.26187
G1 X57.876 Y46.501 F12000
G1 F2400
G1 X62.654 Y51.279 E0.24321
G1 X61.748 Y51.019 F12000
G1 F2400
G1 X57.23 Y46.501 E0.22998
G1 X56.584 Y46.501 F12000
G1 F2400
G1 X60.992 Y50.91 E0.22443
G1 X60.311 Y50.875 F12000
G1 F2400
G1 X55.937 Y46.501 E0.22262
G1 X55.291 Y46.501 F12000
G1 F2400
G1 X59.658 Y50.868 E0.22229
G1 X59.074 Y50.931 F12000
G1 F2400
G1 X54.644 Y46.501 E0.22551
G1 X53.998 Y46.501 F12000
G1 F2400
G1 X58.503 Y51.006 E0.22934
G1 X57.934 Y51.084 F12000
G1 F2400
G1 X53.352 Y46.501 E0.23328
G1 X52.705 Y46.501 F12000
G1 F2400
G1 X57.453 Y51.249 E0.24167
G1 X56.971 Y51.414 F12000
G1 F2400
G1 X52.059 Y46.501 E0.25006
G1 X51.451 Y46.54 F12000
G1 F2400
G1 X56.489 Y51.578 E0.25647
G1 X56.032 Y51.767 F12000
G1 F2400
G1 X51.128 Y46.863 E0.24962
G1 X50.805 Y47.187 F12000
G1 F2400
G1 X55.626 Y52.008 E0.24544
G1 X55.221 Y52.249 F12000
G1 F2400
G1 X50.482 Y47.51 E0.24126
G1 X50.158 Y47.833 F12000
G1 F2400
G1 X54.816 Y52.49 E0.23708
G1 X54.43 Y52.751 F12000
G1 F2400
G1 X49.835 Y48.156 E0.23391
G1 X49.512 Y48.479 F12000
G1 F2400
G1 X54.09 Y53.057 E0.23303
G1 X53.749 Y53.363 F12000
G1 F2400
G1 X49.189 Y48.803 E0.23215
G1 X48.866 Y49.126 F12000
G1 F2400
G1 X53.409 Y53.669 E0.23127
G1 X53.108 Y54.015 F12000
G1 F2400
G1 X48.542 Y49.449 E0.23243
G1 X48.219 Y49.772 F12000
G1 F2400
G1 X52.826 Y54.378 E0.23449
G1 X52.543 Y54.742 F12000
G1 F2400
G1 X47.896 Y50.095 E0.23654
G1 X47.573 Y50.419 F12000
G1 F2400
G1 X52.266 Y55.112 E0.23893
G1 X52.05 Y55.542 F12000
G1 F2400
G1 X47.25 Y50.742 E0.24438
G1 X46.926 Y51.065 F12000
G1 F2400
G1 X51.834 Y55.973 E0.24983
G1 X51.618 Y56.403 F12000
G1 F2400
G1 X46.603 Y51.388 E0.25528
G1 X46.501 Y51.933 F12000
G1 F2400
G1 X51.416 Y56.847 E0.25019
G1 X51.281 Y57.359 F12000
G1 F2400
G1 X46.501 Y52.579 E0.2433
G1 X46.501 Y53.225 F12000
G1 F2400
G1 X51.146 Y57.87 E0.23642
G1 X51.01 Y58.381 F12000
G1 F2400
G1 X46.501 Y53.872 E0.22954
G1 X46.501 Y54.518 F12000
G1 F2400
G1 X50.937 Y58.954 E0.22581
G1 X50.905 Y59.569 F12000
G1 F2400
G1 X46.501 Y55.165 E0.22419
G1 X46.501 Y55.811 F12000
G1 F2400
G1 X50.874 Y60.183 E0.22257
G1 X50.922 Y60.878 F12000
G1 F2400
G1 X46.501 Y56.457 E0.22503
G1 X46.501 Y57.104 F12000
G1 F2400
G1 X51.042 Y61.644 E0.23113
G1 X51.185 Y62.434 F12000
G1 F2400
G1 X46.501 Y57.75 E0.23843
G1 X46.501 Y58.397 F12000
G1 F2400
G1 X51.559 Y63.454 E0.25745
; acceleration to travel
M204 S4000
G1 X52.009 Y64.335 F12000
; decel to extrusion
M204 S2000
G1 X52.234 Y64.776
; end travel
G1 F2400
G1 X46.501 Y59.043 E0.29183
G1 E-0.8 F3000
; acceleration to travel
M204 S4000
G1 X60.574 Y56.309 F12000
; decel to extrusion
M204 S2000
G1 X67.61 Y54.942
; end travel
G1 E0.8 F1800
G1 F2400
G1 X73.499 Y60.831 E0.29978
G1 X73.499 Y61.477 F12000
G1 F2400
G1 X68.384 Y56.362 E0.26037
; acceleration to travel
M204 S4000
G1 X68.616 Y57.025 F12000
; decel to extrusion
M204 S2000
G1 X68.732 Y57.357
; end travel
G1 F2400
G1 X73.499 Y62.124 E0.24264
G1 X73.499 Y62.77 F12000
G1 F2400
G1 X68.941 Y58.212 E0.23201
G1 X69.049 Y58.967 F12000
G1 F2400
G1 X73.499 Y63.416 E0.22649
G1 X73.499 Y64.063 F12000
G1 F2400
G1 X69.142 Y59.706 E0.2218
G1 X69.11 Y60.321 F12000
G1 F2400
G1 X73.499 Y64.709 E0.2234
G1 X73.499 Y65.356 F12000
G1 F2400
G1 X69.079 Y60.936 E0.22499
G1 X69.007 Y61.511 F12000
G1 F2400
G1 X73.499 Y66.002 E0.22864
G1 X73.499 Y66.648 F12000
G1 F2400
G1 X68.878 Y62.027 E0.23523
G1 X68.748 Y62.544 F12000
G1 F2400
G1 X73.499 Y67.295 E0.24183
G1 X73.499 Y67.941 F12000
G1 F2400
G1 X68.619 Y63.061 E0.24843
G1 X68.418 Y63.507 F12000
G1 F2400
G1 X73.46 Y68.549 E0.25665
G1 X73.137 Y68.872 F12000
G1 F2400
G1 X68.207 Y63.942 E0.25096
G1 X67.995 Y64.377 F12000
G1 F2400
G1 X72.813 Y69.195 E0.24527
G1 X72.49 Y69.518 F12000
G1 F2400
G1 X67.784 Y64.812 E0.23958
G1 X67.505 Y65.179 F12000
G1 F2400
G1 X72.167 Y69.842 E0.23734
G1 X71.844 Y70.165 F12000
G1 F2400
G1 X67.222 Y65.543 E0.23526
G1 X66.94 Y65.907 F12000
G1 F2400
G1 X71.521 Y70.488 E0.23317
G1 X71.197 Y70.811 F12000
G1 F2400
G1 X66.658 Y66.272 E0.23109
G1 X66.318 Y66.578 F12000
G1 F2400
G1 X70.874 Y71.134 E0.23192
G1 X70.551 Y71.458 F12000
G1 F2400
G1 X65.969 Y66.875 E0.23326
G1 X65.62 Y67.172 F12000
G1 F2400
G1 X70.228 Y71.781 E0.23459
G1 X69.905 Y72.104 F12000
G1 F2400
G1 X65.27 Y67.469 E0.23592
G1 X64.873 Y67.719 F12000
G1 F2400
G1 X69.581 Y72.427 E0.23969
G1 X69.258 Y72.75 F12000
G1 F2400
G1 X64.458 Y67.95 E0.24435
G1 X64.044 Y68.182 F12000
G1 F2400
G1 X68.935 Y73.074 E0.24901
G1 X68.612 Y73.397 F12000
G1 F2400
G1 X63.612 Y68.397 E0.25452
G1 X63.131 Y68.562 F12000
G1 F2400
G1 X68.067 Y73.499 E0.2513
G1 X67.421 Y73.499 F12000
G1 F2400
G1 X62.65 Y68.727 E0.24288
G1 X62.168 Y68.893 F12000
G1 F2400
G1 X66.775 Y73.499 E0.23447
G1 X66.128 Y73.499 F12000
G1 F2400
G1 X61.6 Y68.971 E0.23051
G1 X61.031 Y69.048 F12000
G1 F2400
G1 X65.482 Y73.499 E0.22655
G1 X64.835 Y73.499 F12000
G1 F2400
G1 X60.463 Y69.126 E0.2226
