; HEADER_BLOCK_START
; generated by OrcaSlicer 1.6.3 on 2023-06-21 at 13:15:44
; total layer number: 63
; HEADER_BLOCK_END

; THUMBNAIL_BLOCK_START
; THUMBNAIL_BLOCK_END

; external perimeters extrusion width = 0.40mm
; perimeters extrusion width = 0.45mm
; infill extrusion width = 0.45mm
; solid infill extrusion width = 0.40mm
; top infill extrusion width = 0.40mm
; support material extrusion width = 0.40mm
; first layer extrusion width = 0.50mm

; EXECUTABLE_BLOCK_START
EXCLUDE_OBJECT_DEFINE NAME=Wallet_Minimalist_6_5mm(1).stl_id_0_copy_0 CENTER=60,60 POLYGON=[[15.1,35.71],[15.1118,35.384],[15.1192,35.2948],[15.1642,34.9524],[15.1766,34.8831],[15.2581,34.5278],[15.2718,34.4785],[15.3924,34.1143],[15.4039,34.0844],[15.5661,33.7156],[15.5718,33.7042],[15.774,33.3411],[15.7774,33.3356],[16.0089,32.9981],[16.0244,32.9778],[16.2745,32.6784],[16.3048,32.6454],[16.5684,32.3845],[16.6159,32.3417],[16.8881,32.1189],[16.955,32.0694],[17.2311,31.884],[17.3187,31.8311],[17.5942,31.6818],[17.7037,31.6291],[17.9744,31.5139],[18.1064,31.4651],[18.3685,31.3818],[18.5231,31.3408],[18.7731,31.2866],[18.9498,31.2572],[19.1848,31.2292],[19.3826,31.2153],[19.6,31.21],[100.4,31.21],[100.726,31.2218],[100.815,31.2292],[101.158,31.2742],[101.227,31.2866],[101.582,31.3681],[101.631,31.3818],[101.996,31.5024],[102.026,31.5139],[102.394,31.6761],[102.406,31.6818],[102.769,31.884],[102.774,31.8874],[103.112,32.1189],[103.132,32.1344],[103.432,32.3845],[103.465,32.4148],[103.726,32.6784],[103.768,32.7259],[103.991,32.9981],[104.041,33.065],[104.226,33.3411],[104.279,33.4287],[104.428,33.7042],[104.481,33.8137],[104.596,34.0844],[104.645,34.2164],[104.728,34.4785],[104.769,34.6331],[104.823,34.8831],[104.853,35.0598],[104.881,35.2948],[104.895,35.4926],[104.9,35.71],[104.9,84.46],[104.88,84.8794],[104.879,84.8844],[104.819,85.2949],[104.817,85.3048],[104.718,85.7025],[104.714,85.717],[104.578,86.0984],[104.57,86.117],[104.401,86.4789],[104.389,86.5012],[104.187,86.8404],[104.17,86.8656],[103.939,87.1795],[103.933,87.1869],[103.829,87.2957],[103.811,87.3113],[103.702,87.3929],[103.67,87.4127],[103.56,87.4684],[103.512,87.4879],[100.072,88.7103],[99.795,88.77],[99.5126,88.79],[20.4874,88.79],[20.205,88.77],[19.9283,88.7103],[16.4878,87.4879],[16.4396,87.4684],[16.3305,87.4127],[16.2983,87.3929],[16.1887,87.3113],[16.1708,87.2957],[16.0666,87.1869],[16.0606,87.1795],[15.8297,86.8656],[15.813,86.8404],[15.6113,86.5012],[15.5994,86.4789],[15.4296,86.117],[15.4219,86.0984],[15.2864,85.717],[15.2821,85.7025],[15.1832,85.3048],[15.1812,85.2949],[15.1208,84.8844],[15.1204,84.8794],[15.1,84.46],[15.1,35.71]]
M73 P0 R16
;TYPE:Custom
START_PRINT T_BED=110 T_EXTRUDER=260
G90
G21
M83 ; use relative distances for extrusion
; Filament gcode

    PRESSURE_ADVANCE_SELECT FILAMENT=ABS
M106 S0
;LAYER_CHANGE
;Z:0.2
;HEIGHT:0.2
;BEFORE_LAYER_CHANGE
;0.2
G92 E0

;AFTER_LAYER_CHANGE
;0.2
SET_VELOCITY_LIMIT ACCEL_TO_DECEL=500
M204 S1000
G1 E-.5 F3000
G1 Z.2 F21000
G1 X16.403 Y29.357
G1 E.5 F1800
;TYPE:Skirt
;WIDTH:0.5
G1 F3000
G1 X17.432 Y28.937 E.03912
G1 X18.366 Y28.706 E.03385
G1 X19.6 Y28.596 E.04361
G1 X100.535 Y28.599 E2.8484
G1 X101.904 Y28.759 E.04853
G1 X103.212 Y29.177 E.04831
G1 X104.348 Y29.793 E.04546
G1 X105.289 Y30.545 E.04242
G1 X106.195 Y31.588 E.04861
G1 X106.762 Y32.531 E.03871
G1 X107.254 Y33.812 E.04831
G1 X107.491 Y35.164 E.04831
G1 X107.511 Y84.601 E1.73989
G1 X107.353 Y85.937 E.04733
G1 X106.941 Y87.217 E.04733
G1 X106.29 Y88.394 E.04733
G1 X105.82 Y88.997 E.02693
G1 X105.306 Y89.458 E.0243
G1 X104.419 Y89.938 E.03549
G1 X100.996 Y91.158 E.1279
G1 X100.422 Y91.31 E.02088
G1 X99.513 Y91.404 E.03218
G1 X20.487 Y91.404 E2.7812
G1 X19.578 Y91.31 E.03218
G1 X19.004 Y91.158 E.02088
G1 X15.186 Y89.764 E.14307
G1 X14.257 Y89.079 E.04061
G1 X13.71 Y88.394 E.03086
G1 X13.224 Y87.571 E.03362
G1 X12.822 Y86.587 E.03742
G1 X12.592 Y85.66 E.03362
G1 X12.486 Y84.46 E.04238
G1 X12.489 Y35.569 E1.72066
G1 X12.595 Y34.482 E.03844
G1 X12.749 Y33.801 E.02456
G1 X13.369 Y32.281 E.05779
G1 X14.232 Y31.044 E.05308
G1 X14.934 Y30.342 E.03494
G1 X15.567 Y29.851 E.02818
G1 X16.351 Y29.387 E.03208
G1 X16.58 Y29.781 F21000
G1 F3000
G1 X16.598 Y29.77 E.00075
G1 X17.584 Y29.368 E.03745
G1 X18.433 Y29.158 E.03078
G1 X19.6 Y29.053 E.04124
G1 X100.513 Y29.056 E2.84766
G1 X101.795 Y29.203 E.04539
G1 X103.019 Y29.592 E.04521
G1 X104.089 Y30.17 E.04281
G1 X104.982 Y30.884 E.04024
G1 X105.648 Y31.618 E.03488
G1 X106.347 Y32.723 E.04603
G1 X106.81 Y33.921 E.0452
G1 X107.035 Y35.186 E.04521
G1 X107.054 Y84.579 E1.73833
G1 X106.91 Y85.827 E.04421
G1 X106.527 Y87.024 E.04421
G1 X105.921 Y88.124 E.04421
G1 X105.488 Y88.683 E.02486
G1 X105.029 Y89.095 E.02173
G1 X104.265 Y89.508 E.03054
G1 X100.842 Y90.728 E.1279
G1 X100.32 Y90.865 E.01902
G1 X99.513 Y90.947 E.02855
G1 X20.487 Y90.947 E2.7812
M73 P1 R15
G1 X19.68 Y90.865 E.02855
G1 X19.158 Y90.728 E.01902
G1 X15.735 Y89.508 E.1279
G1 X14.882 Y89.027 E.03445
G1 X14.079 Y88.124 E.04252
G1 X13.638 Y87.378 E.0305
G1 X13.253 Y86.435 E.03586
G1 X13.044 Y85.593 E.0305
G1 X12.943 Y84.46 E.04004
G1 X12.946 Y35.591 E1.71988
G1 X13.047 Y34.548 E.03688
G1 X13.192 Y33.912 E.02295
G1 X13.763 Y32.513 E.0532
G1 X14.172 Y31.86 E.02711
G1 X14.774 Y31.128 E.03336
G1 X15.911 Y30.17 E.05233
G1 X16.528 Y29.811 E.02513
; printing object Wallet_Minimalist_6_5mm(1).stl id:0 copy 0
EXCLUDE_OBJECT_START NAME=Wallet_Minimalist_6_5mm(1).stl_id_0_copy_0
G1 E-.5
G1 Z.4 F21000
G1 X100.28 Y73.132
G1 Z.2
G1 E.5 F1800
;TYPE:Inner wall
G1 F3000
G1 X100.279 Y83.37 E.36031
G1 X100.095 Y83.533 E.00866
G1 X99.708 Y83.996 E.02124
G1 X99.394 Y84.512 E.02124
G1 X99.162 Y85.069 E.02124
G1 X99.015 Y85.654 E.02124
G1 X98.956 Y86.269 E.02172
G1 X21.044 Y86.269 E2.742
G1 X20.985 Y85.654 E.02172
G1 X20.838 Y85.069 E.02124
G1 X20.606 Y84.512 E.02124
G1 X20.292 Y83.996 E.02124
G1 X19.905 Y83.533 E.02124
G1 X19.721 Y83.37 E.00866
G1 X19.72 Y73.132 E.36031
G1 X17.621 Y73.196 E.0739
G1 X17.621 Y68.178 E.17663
G1 X17.807 Y68.114 E.00691
G1 X26.336 Y79.203 E.49234
G1 X26.674 Y79.597 E.01829
G1 X27.088 Y79.988 E.02003
G1 X27.46 Y80.278 E.01657
G1 X28.032 Y80.64 E.02385
G1 X28.553 Y80.887 E.02031
G1 X28.983 Y81.047 E.01612
G1 X29.529 Y81.193 E.01991
G1 X30.1 Y81.284 E.02034
G1 X30.619 Y81.311 E.01829
G1 X89.381 Y81.311 E2.06806
G1 X89.9 Y81.284 E.01829
G1 X90.471 Y81.193 E.02034
G1 X91.029 Y81.044 E.02033
G1 X91.556 Y80.841 E.01986
G1 X91.965 Y80.639 E.01607
G1 X92.464 Y80.335 E.02056
G1 X92.991 Y79.917 E.02368
G1 X93.329 Y79.593 E.01647
G1 X93.664 Y79.203 E.0181
G1 X102.193 Y68.114 E.49234
G1 X102.379 Y68.178 E.00691
G1 X102.379 Y73.196 E.17663
G1 X100.34 Y73.134 E.07179
G1 E-.5
G1 Z.4 F21000
G1 X91.581 Y79.075
G1 X91.321 Y79.237
G1 X91.216 Y79.297
G1 X90.948 Y79.429
G1 X90.837 Y79.476
G1 X90.55 Y79.583
G1 X90.151 Y79.69
G1 X89.739 Y79.755
G1 X89.341 Y79.776
G1 X30.659 Y79.776
G1 X30.261 Y79.755
G1 X29.849 Y79.69
G1 X29.45 Y79.583
G1 X29.163 Y79.476
G1 X29.052 Y79.429
G1 X28.784 Y79.297
G1 X28.679 Y79.237
G1 X28.426 Y79.079
G1 X28.329 Y79.008
G1 X28.089 Y78.822
G1 X27.788 Y78.537
G1 X27.529 Y78.234
G1 X17.386 Y66.359
G1 Z.2
G1 E.5 F1800
G1 F3000
G1 X17.61 Y66.915 E.02107
G1 X17.871 Y67.402 E.01948
G1 X18.157 Y67.819 E.01778
G1 X26.691 Y78.914 E.49265
M73 P2 R15
G1 X27.006 Y79.282 E.01702
G1 X27.386 Y79.641 E.01841
G1 X27.723 Y79.903 E.01502
G1 X28.253 Y80.239 E.02209
G1 X28.731 Y80.466 E.01863
G1 X29.122 Y80.611 E.01466
G1 X29.624 Y80.746 E.01831
G1 X30.148 Y80.829 E.01865
G1 X30.631 Y80.854 E.01702
G1 X89.369 Y80.854 E2.06722
G1 X89.852 Y80.829 E.01702
G1 X90.376 Y80.746 E.01865
G1 X90.887 Y80.609 E.01864
G1 X91.372 Y80.422 E.01829
G1 X91.745 Y80.239 E.01462
G1 X92.202 Y79.96 E.01883
G1 X92.69 Y79.572 E.02196
G1 X92.997 Y79.279 E.01493
G1 X93.309 Y78.914 E.01688
G1 X101.843 Y67.819 E.49265
G1 X102.129 Y67.402 E.01778
G1 X102.39 Y66.915 E.01948
G1 X102.614 Y66.359 E.02107
G1 X102.836 Y66.402 E.00796
G1 X102.836 Y73.668 E.2557
G1 X100.737 Y73.603 E.07391
G1 X100.736 Y83.576 E.35097
G1 X100.423 Y83.853 E.01469
G1 X100.081 Y84.263 E.01882
G1 X99.803 Y84.72 E.01882
G1 X99.597 Y85.214 E.01882
G1 X99.466 Y85.732 E.01882
G1 X99.415 Y86.265 E.01882
G1 X99.44 Y86.726 E.01626
G1 X20.56 Y86.726 E2.77609
G1 X20.585 Y86.265 E.01626
G1 X20.534 Y85.732 E.01882
G1 X20.403 Y85.214 E.01882
G1 X20.197 Y84.72 E.01882
G1 X19.919 Y84.263 E.01882
G1 X19.577 Y83.853 E.01882
G1 X19.264 Y83.576 E.01469
G1 X19.263 Y73.603 E.35097
G1 X17.164 Y73.668 E.07391
G1 X17.164 Y66.402 E.2557
G1 X17.327 Y66.371 E.00585
G1 E-.5
G1 Z.4 F21000
G1 X18.214 Y35.66
G1 X18.24 Y35.366
G1 X18.324 Y35.051
G1 X18.462 Y34.756
G1 X18.649 Y34.489
G1 X19.718 Y33.23
G1 Z.2
G1 E.5 F1800
G1 F3000
G1 X20.023 Y33.203 E.01078
G1 X99.977 Y33.203 E2.81389
G1 X100.353 Y33.236 E.01327
G1 X100.772 Y33.348 E.01529
G1 X101.166 Y33.532 E.01529
G1 X101.522 Y33.781 E.01529
G1 X101.829 Y34.088 E.01529
G1 X102.078 Y34.444 E.01529
G1 X102.262 Y34.838 E.01529
G1 X102.374 Y35.257 E.01529
G1 X102.407 Y35.633 E.01327
G1 X102.407 Y64.805 E1.02669
G1 X102.382 Y65.272 E.01646
G1 X102.299 Y65.769 E.01772
G1 X102.164 Y66.254 E.01772
G1 X101.976 Y66.721 E.01772
G1 X101.738 Y67.165 E.01772
G1 X101.473 Y67.55 E.01646
G1 X92.954 Y78.626 E.49179
G1 X92.664 Y78.964 E.01565
G1 X92.389 Y79.227 E.01339
G1 X91.939 Y79.584 E.02023
G1 X91.524 Y79.838 E.01711
G1 X91.189 Y80.003 E.01316
G1 X90.745 Y80.173 E.01671
G1 X90.28 Y80.298 E.01695
G1 X89.804 Y80.374 E.01697
G1 X89.357 Y80.397 E.01576
G1 X30.643 Y80.397 E2.06637
G1 X30.196 Y80.374 E.01576
G1 X29.72 Y80.298 E.01697
G1 X29.261 Y80.175 E.01671
G1 X28.909 Y80.044 E.01321
G1 X28.474 Y79.838 E.01695
G1 X27.986 Y79.529 E.02034
G1 X27.684 Y79.294 E.01346
G1 X27.338 Y78.966 E.01678
G1 X27.046 Y78.626 E.01576
G1 X18.527 Y67.55 E.49179
G1 X18.262 Y67.165 E.01646
G1 X18.024 Y66.721 E.01772
G1 X17.836 Y66.254 E.01772
G1 X17.701 Y65.769 E.01772
G1 X17.618 Y65.272 E.01772
G1 X17.593 Y64.805 E.01646
G1 X17.593 Y35.633 E1.02669
M73 P3 R15
G1 X17.626 Y35.257 E.01327
G1 X17.738 Y34.838 E.01529
G1 X17.922 Y34.444 E.01529
G1 X18.171 Y34.088 E.01529
G1 X18.478 Y33.781 E.01529
G1 X18.834 Y33.532 E.01529
G1 X19.228 Y33.348 E.01529
G1 X19.647 Y33.236 E.01529
G1 X19.658 Y33.235 E.00038
G1 X19.763 Y33.685 F21000
G1 F3000
G1 X20.043 Y33.66 E.0099
G1 X99.957 Y33.66 E2.81249
G1 X100.273 Y33.688 E.01116
G1 X100.615 Y33.779 E.01247
G1 X100.937 Y33.929 E.01247
G1 X101.227 Y34.132 E.01247
G1 X101.478 Y34.383 E.01247
G1 X101.681 Y34.673 E.01247
G1 X101.831 Y34.995 E.01247
G1 X101.922 Y35.337 E.01247
G1 X101.95 Y35.653 E.01116
G1 X101.95 Y64.793 E1.02555
G1 X101.927 Y65.222 E.01514
G1 X101.853 Y65.67 E.01596
G1 X101.73 Y66.106 E.01596
G1 X101.561 Y66.527 E.01596
G1 X101.347 Y66.927 E.01596
G1 X101.104 Y67.281 E.01514
G1 X92.599 Y78.338 E.49093
G1 X92.332 Y78.649 E.01442
G1 X92.089 Y78.882 E.01185
G1 X91.677 Y79.209 E.0185
G1 X91.304 Y79.437 E.01539
G1 X91.005 Y79.584 E.01171
G1 X90.604 Y79.738 E.01514
G1 X90.185 Y79.85 E.01526
G1 X89.756 Y79.918 E.01528
G1 X89.345 Y79.94 E.01449
G1 X30.655 Y79.94 E2.06553
G1 X30.244 Y79.918 E.01449
G1 X29.815 Y79.85 E.01528
G1 X29.4 Y79.739 E.01511
G1 X29.087 Y79.623 E.01175
G1 X28.695 Y79.437 E.01527
G1 X28.249 Y79.154 E.01858
G1 X27.982 Y78.947 E.0119
G1 X27.669 Y78.651 E.01516
G1 X27.401 Y78.338 E.01449
G1 X18.896 Y67.282 E.49093
G1 X18.653 Y66.927 E.01514
G1 X18.439 Y66.527 E.01596
G1 X18.27 Y66.106 E.01596
G1 X18.147 Y65.67 E.01596
G1 X18.073 Y65.222 E.01596
G1 X18.05 Y64.793 E.01514
G1 X18.05 Y35.653 E1.02555
G1 X18.078 Y35.337 E.01116
G1 X18.169 Y34.995 E.01247
G1 X18.319 Y34.673 E.01247
G1 X18.522 Y34.383 E.01247
G1 X18.773 Y34.132 E.01247
G1 X19.063 Y33.929 E.01247
G1 X19.385 Y33.779 E.01247
G1 X19.704 Y33.694 E.01162
G1 X19.834 Y34.18 F21000
;TYPE:Outer wall
G1 F3000
G1 X20.065 Y34.16 E.00817
G1 X99.935 Y34.16 E2.81095
G1 X100.186 Y34.182 E.00885
G1 X100.444 Y34.251 E.00939
G1 X100.686 Y34.364 E.00939
G1 X100.904 Y34.517 E.00939
G1 X101.093 Y34.706 E.00939
G1 X101.246 Y34.924 E.00939
G1 X101.359 Y35.166 E.00939
G1 X101.428 Y35.424 E.00939
G1 X101.45 Y35.675 E.00885
G1 X101.45 Y64.779 E1.0243
G1 X101.429 Y65.168 E.0137
G1 X101.364 Y65.561 E.01403
G1 X101.256 Y65.945 E.01403
G1 X101.107 Y66.315 E.01403
G1 X100.919 Y66.667 E.01403
G1 X100.699 Y66.987 E.0137
G1 X92.21 Y78.023 E.48998
G1 X91.969 Y78.305 E.01308
G1 X91.76 Y78.505 E.01017
G1 X91.39 Y78.798 E.01661
G1 X91.063 Y78.998 E.0135
G1 X90.805 Y79.125 E.01012
G1 X90.449 Y79.262 E.01342
G1 X90.081 Y79.361 E.01341
G1 X89.704 Y79.42 E.01343
G1 X89.332 Y79.44 E.01311
G1 X30.668 Y79.44 E2.06461
G1 X30.296 Y79.42 E.01311
G1 X29.919 Y79.361 E.01343
G1 X29.552 Y79.262 E.01336
G1 X29.282 Y79.162 E.01016
G1 X28.937 Y78.998 E.01343
G1 X28.537 Y78.745 E.01667
G1 X28.308 Y78.567 E.0102
G1 X28.032 Y78.306 E.01338
G1 X27.79 Y78.023 E.01311
G1 X19.301 Y66.987 E.48998
G1 X19.081 Y66.667 E.0137
G1 X18.893 Y66.315 E.01403
G1 X18.744 Y65.945 E.01403
G1 X18.636 Y65.561 E.01403
G1 X18.571 Y65.168 E.01403
G1 X18.55 Y64.779 E.0137
G1 X18.55 Y35.675 E1.0243
M73 P4 R15
G1 X18.572 Y35.424 E.00885
G1 X18.641 Y35.166 E.00939
G1 X18.754 Y34.924 E.00939
G1 X18.907 Y34.706 E.00939
G1 X19.096 Y34.517 E.00939
G1 X19.314 Y34.364 E.00939
G1 X19.556 Y34.251 E.00939
G1 X19.775 Y34.192 E.00797
G1 X19.85 Y34.137
G1 E-.5
G1 Z.4 F21000
G1 X19.688 Y33.868
G1 X19.756 Y33.85
G1 X20.05 Y33.824
G1 X99.95 Y33.824
G1 X100.244 Y33.85
G1 X100.559 Y33.934
G1 X100.854 Y34.072
G1 X101.121 Y34.259
G1 X101.351 Y34.489
G1 X101.538 Y34.756
G1 X101.676 Y35.051
G1 X101.76 Y35.366
G1 X101.786 Y35.66
G1 X101.814 Y74.733
G1 X101.194 Y74.075
G1 Z.2
G1 E.5 F1800
;TYPE:Inner wall
G1 F3000
G1 X101.193 Y83.804 E.34239
G1 X101.101 Y83.863 E.00387
G1 X100.752 Y84.172 E.01638
G1 X100.453 Y84.53 E.01641
G1 X100.211 Y84.928 E.01641
G1 X100.032 Y85.358 E.01641
G1 X99.918 Y85.81 E.01641
G1 X99.873 Y86.274 E.0164
G1 X99.896 Y86.856 E.02049
G1 X99.837 Y87.006 E.00566
G1 X99.723 Y87.116 E.0056
G1 X99.555 Y87.176 E.00627
G1 X99.463 Y87.183 E.00323
G1 X20.537 Y87.183 E2.77773
G1 X20.327 Y87.146 E.00748
G1 X20.163 Y87.006 E.0076
G1 X20.115 Y86.901 E.00407
G1 X20.098 Y86.798 E.00365
G1 X20.127 Y86.274 E.01847
G1 X20.082 Y85.81 E.0164
G1 X19.968 Y85.358 E.01641
G1 X19.789 Y84.928 E.01641
G1 X19.547 Y84.53 E.01641
G1 X19.248 Y84.172 E.01641
G1 X18.899 Y83.863 E.01638
G1 X18.807 Y83.804 E.00387
G1 X18.806 Y74.075 E.34239
G1 X16.699 Y74.139 E.07419
G1 X16.707 Y35.742 E1.35135
G1 X16.722 Y35.441 E.01057
G1 X16.782 Y35.07 E.01323
G1 X16.922 Y34.62 E.01658
G1 X17.036 Y34.375 E.00953
G1 X17.23 Y34.056 E.01313
G1 X17.527 Y33.696 E.01641
G1 X17.796 Y33.452 E.01281
G1 X18.016 Y33.292 E.00955
G1 X18.431 Y33.067 E.01664
G1 X18.783 Y32.937 E.01318
G1 X19.235 Y32.844 E.01624
G1 X19.642 Y32.817 E.01437
G1 X100.469 Y32.822 E2.84461
G1 X100.955 Y32.872 E.01719
G1 X101.226 Y32.939 E.00982
G1 X101.49 Y33.032 E.00983
G1 X101.743 Y33.15 E.00982
G1 X101.984 Y33.292 E.00987
G1 X102.21 Y33.456 E.00981
G1 X102.414 Y33.637 E.00959
G1 X102.659 Y33.906 E.01282
G1 X102.818 Y34.126 E.00955
G1 X102.96 Y34.367 E.00987
G1 X103.078 Y34.62 E.00983
G1 X103.171 Y34.884 E.00982
G1 X103.238 Y35.155 E.00983
G1 X103.278 Y35.431 E.00983
G1 X103.293 Y35.742 E.01094
G1 X103.301 Y74.139 E1.35135
G1 X101.254 Y74.077 E.07207
G1 X101.651 Y74.546 F21000
G1 F3000
G1 X101.639 Y84.059 E.33479
G1 X101.378 Y84.228 E.01095
G1 X101.081 Y84.491 E.01397
G1 X100.826 Y84.796 E.01399
G1 X100.62 Y85.136 E.01399
G1 X100.467 Y85.503 E.01399
G1 X100.37 Y85.888 E.01399
G1 X100.332 Y86.284 E.01399
G1 X100.36 Y86.808 E.01848
G1 X100.318 Y87.052 E.00869
G1 X100.203 Y87.281 E.00903
G1 X100.121 Y87.378 E.00447
G1 X99.987 Y87.491 E.00618
G1 X99.811 Y87.582 E.00696
G1 X99.63 Y87.629 E.0066
G1 X99.481 Y87.64 E.00527
G1 X20.519 Y87.64 E2.77894
G1 X20.37 Y87.629 E.00527
G1 X20.121 Y87.554 E.00915
G1 X20.013 Y87.491 E.00441
G1 X19.879 Y87.378 E.00618
G1 X19.797 Y87.281 E.00447
G1 X19.682 Y87.052 E.00903
G1 X19.652 Y86.935 E.00423
G1 X19.64 Y86.808 E.00448
G1 X19.668 Y86.284 E.01848
G1 X19.63 Y85.888 E.01399
G1 X19.533 Y85.503 E.01399
G1 X19.38 Y85.136 E.01399
G1 X19.174 Y84.796 E.01399
