; generated by SuperSlicer 2.5.59 on 2023-03-04 at 06:29:11 UTC


;
;

;
;
; 

; external perimeters extrusion width = 0.40mm
; perimeters extrusion width = 0.46mm
; infill extrusion width = 0.64mm
; solid infill extrusion width = 0.56mm
; top infill extrusion width = 0.40mm
; first layer extrusion width = 0.50mm

; object:{"name":"wallet-5","id":"wallet-5.stl id:0 copy 0","object_center":[60.000000,60.000000,0.000000],"boundingbox_center":[60.000000,60.000000,4.950000],"boundingbox_size":[57.000000,88.900002,9.900000]}
; plater:{"center":[60.000000,60.000000,0.000000],"boundingbox_center":[60.000000,60.000000,4.950000],"boundingbox_size":[57.000000,88.900002,9.900000]}

M73 P0 R17
;TYPE:Custom
; custom gcode: start_gcode
START_PRINT T_BED=110 T_EXTRUDER=240
; custom gcode end: start_gcode
M107
G21 ; set units to millimeters
G90 ; use absolute coordinates
M82 ; use absolute distances for extrusion
G92 E0
; custom gcode: start_filament_gcode
; Filament gcode

    PRESSURE_ADVANCE_SELECT FILAMENT=ABS
; custom gcode end: start_filament_gcode
;_TOOLCHANGE 0
M104 S240 ; set temperature
M109 S240 ; set temperature and wait for it to be reached
M190 S110 ; set bed temperature and wait for it to be reached
;LAYER_CHANGE
;Z:0.2
;HEIGHT:0.2
G1 Z0.2 F12000
M73 P0 R17
G1 E-0.5 F3000
M204 S2000
G1 X29.263 Y16.536 F12000
G1 E0 F1800
;TYPE:Skirt
;WIDTH:0.52
G1 X28.544 Y18.272 E0.07454
G1 X28.286 Y19.544 E0.12605
G1 X28.218 Y20.554 E0.1662
G1 X28.218 Y99.146 E3.2839
G1 X28.286 Y100.157 E3.32408
G1 X28.545 Y101.43 E3.37562
G1 X29.265 Y103.167 E3.45021
G1 X29.983 Y104.25 E3.50176
G1 X30.861 Y105.207 E3.55331
G1 X31.879 Y106.015 E3.60486
G1 X32.491 Y106.39 E3.63331
G1 X34.225 Y107.107 E3.70777
G1 X35.502 Y107.365 E3.75944
G1 X46.395 Y107.731 E4.19181
G1 X73.494 Y107.732 E5.26678
G1 X83.778 Y107.421 E5.67493
G1 X84.498 Y107.365 E5.70359
G1 X85.772 Y107.108 E5.75514
G1 X87.509 Y106.39 E5.82973
G1 X88.593 Y105.673 E5.88128
G1 X89.139 Y105.207 E5.90972
G1 X90.017 Y104.25 E5.96127
G1 X90.735 Y103.167 E6.01282
G1 X91.455 Y101.43 E6.08741
G1 X91.714 Y100.157 E6.13896
G1 X91.782 Y99.146 E6.17914
G1 X91.771 Y20.262 E9.3084
G1 X91.623 Y18.968 E9.36007
G1 X91.276 Y17.717 E9.41158
G1 X91.001 Y17.055 E9.44001
G1 X90.362 Y15.925 E9.49152
G1 X89.554 Y14.908 E9.54304
G1 X88.597 Y14.03 E9.59455
G1 X86.995 Y13.049 E9.66909
G1 X86.333 Y12.774 E9.69752
G1 X85.082 Y12.427 E9.74903
G1 X83.788 Y12.279 E9.8007
G1 X36.212 Y12.279 E11.68798
M73 P1 R16
G1 X35.494 Y12.336 E11.71656
G1 X34.222 Y12.594 E11.76808
G1 X32.486 Y13.313 E11.84262
G1 X31.403 Y14.03 E11.89413
G1 X30.858 Y14.496 E11.92256
G1 X29.98 Y15.453 E11.97407
G1 X29.263 Y16.536 E12.02559
G1 X29.67 Y16.785 F12000
G1 F1800
G1 X29.008 Y18.383 E12.0942
G1 X28.761 Y19.582 E12.14275
G1 X28.695 Y20.554 E12.18141
G1 X28.695 Y99.146 E15.29911
G1 X28.761 Y100.119 E15.3378
G1 X29.008 Y101.319 E15.38638
G1 X29.671 Y102.918 E15.45505
G1 X30.345 Y103.94 E15.50363
G1 X31.171 Y104.844 E15.55221
G1 X31.716 Y105.31 E15.58065
G1 X32.74 Y105.983 E15.62923
G1 X34.337 Y106.643 E15.69778
G1 X35.539 Y106.89 E15.74648
G1 X46.409 Y107.254 E16.17794
G1 X73.494 Y107.255 E17.25235
G1 X83.587 Y106.954 E17.65292
G1 X84.461 Y106.89 E17.68769
G1 X85.661 Y106.644 E17.73627
G1 X87.26 Y105.983 E17.80493
G1 X87.872 Y105.608 E17.83338
G1 X88.829 Y104.844 E17.88196
G1 X89.655 Y103.94 E17.93054
G1 X90.329 Y102.918 E17.97912
G1 X90.992 Y101.319 E18.04778
G1 X91.239 Y100.119 E18.09636
G1 X91.305 Y99.146 E18.13505
G1 X91.295 Y20.3 E21.26283
G1 X91.159 Y19.08 E21.31153
G1 X90.835 Y17.9 E21.36008
G1 X90.33 Y16.785 E21.40863
G1 X89.956 Y16.174 E21.43705
G1 X89.192 Y15.218 E21.4856
G1 X88.287 Y14.393 E21.53415
G1 X86.812 Y13.489 E21.60277
G1 X85.667 Y13.058 E21.65132
G1 X84.97 Y12.891 E21.67974
G1 X83.75 Y12.755 E21.72845
G1 X36.25 Y12.755 E23.61275
M73 P2 R16
G1 X35.532 Y12.811 E23.64133
G1 X34.333 Y13.058 E23.68988
G1 X32.735 Y13.72 E23.7585
G1 X31.713 Y14.393 E23.80705
G1 X31.168 Y14.858 E23.83547
G1 X30.343 Y15.763 E23.88402
G1 X29.67 Y16.785 E23.93257
G92 E0
G1 E-0.5 F3000
; printing object wallet-5.stl id:0 copy 0
; acceleration to travel
M204 S4000
G1 X32.323 Y18.417 F12000
; decel to extrusion
M204 S2000
G1 X33.649 Y19.234
; end travel
G1 E0 F1800
;TYPE:Internal perimeter
;WIDTH:0.5
G1 X33.433 Y19.85 E0.02481
G1 X33.36 Y20.505 E0.04985
G1 X33.36 Y99.195 E3.04059
G1 X33.433 Y99.85 E3.06563
G1 X33.666 Y100.515 E3.0924
G1 X34.041 Y101.111 E3.11917
G1 X34.539 Y101.609 E3.14594
G1 X35.135 Y101.984 E3.17271
G1 X35.8 Y102.217 E3.19948
G1 X36.455 Y102.29 E3.22452
G1 X83.545 Y102.29 E5.01426
G1 X84.2 Y102.217 E5.0393
G1 X84.865 Y101.984 E5.06607
G1 X85.461 Y101.609 E5.09284
G1 X85.959 Y101.111 E5.11961
G1 X86.334 Y100.515 E5.14638
G1 X86.567 Y99.85 E5.17315
G1 X86.64 Y99.195 E5.19819
G1 X86.64 Y20.505 E8.18893
G1 X86.567 Y19.85 E8.21397
G1 X86.334 Y19.185 E8.24074
G1 X85.959 Y18.589 E8.26751
G1 X85.461 Y18.091 E8.29428
G1 X84.865 Y17.716 E8.32105
G1 X84.2 Y17.483 E8.34782
G1 X83.545 Y17.41 E8.37286
G1 X36.455 Y17.41 E10.1626
G1 X35.8 Y17.483 E10.18764
G1 X35.135 Y17.716 E10.21441
G1 X34.539 Y18.091 E10.24118
G1 X34.041 Y18.589 E10.26795
G1 X33.666 Y19.185 E10.29472
G1 X33.649 Y19.234 E10.29668
G1 X34.08 Y19.385 F12000
;TYPE:External perimeter
G1 F1800
G1 X33.882 Y19.952 E10.31953
G1 X33.817 Y20.53 E10.34164
G1 X33.817 Y99.17 E13.33043
M73 P3 R16
G1 X33.882 Y99.748 E13.35253
G1 X34.08 Y100.315 E13.37539
G1 X34.4 Y100.824 E13.39825
G1 X34.826 Y101.25 E13.4211
G1 X35.335 Y101.57 E13.44396
G1 X35.902 Y101.768 E13.46681
G1 X36.48 Y101.833 E13.48892
G1 X83.52 Y101.833 E15.27671
G1 X84.098 Y101.768 E15.29881
G1 X84.665 Y101.57 E15.32167
G1 X85.174 Y101.25 E15.34453
G1 X85.6 Y100.824 E15.36738
G1 X85.92 Y100.315 E15.39024
G1 X86.118 Y99.748 E15.41309
G1 X86.183 Y99.17 E15.4352
G1 X86.183 Y20.53 E18.42399
G1 X86.118 Y19.952 E18.44609
G1 X85.92 Y19.385 E18.46895
G1 X85.6 Y18.876 E18.4918
G1 X85.174 Y18.45 E18.51466
G1 X84.665 Y18.13 E18.53752
G1 X84.098 Y17.932 E18.56037
G1 X83.52 Y17.867 E18.58248
G1 X36.48 Y17.867 E20.37027
G1 X35.902 Y17.932 E20.39237
G1 X35.335 Y18.13 E20.41523
G1 X34.826 Y18.45 E20.43808
G1 X34.4 Y18.876 E20.46094
G1 X34.08 Y19.385 E20.4838
;WIPE_START
M204 S4000
G1 X33.683 Y19.43 F12000
;WIPE_END
M204 S2000
G1 X33.005 Y18.939
;TYPE:Internal perimeter
G1 F1800
G1 X33.063 Y18.799 E20.48958
G1 X33.38 Y18.283 E20.51258
G1 X33.773 Y17.823 E20.53558
G1 X34.233 Y17.43 E20.55859
G1 X34.749 Y17.113 E20.58159
G1 X35.308 Y16.882 E20.60459
G1 X35.897 Y16.74 E20.62759
G1 X36.532 Y16.69 E20.65181
G1 X83.468 Y16.69 E22.43569
M73 P4 R16
G1 X83.802 Y16.717 E22.4484
G1 X84.103 Y16.74 E22.45991
G1 X84.692 Y16.882 E22.48291
G1 X85.251 Y17.113 E22.50591
G1 X85.767 Y17.43 E22.52892
G1 X86.227 Y17.823 E22.55192
G1 X86.62 Y18.283 E22.57492
G1 X86.937 Y18.799 E22.59793
G1 X87.168 Y19.358 E22.62093
G1 X87.31 Y19.947 E22.64393
G1 X87.36 Y20.582 E22.66814
G1 X87.36 Y99.118 E25.65303
G1 X87.31 Y99.754 E25.67726
G1 X87.168 Y100.343 E25.70028
G1 X86.936 Y100.902 E25.7233
G1 X86.619 Y101.418 E25.74631
G1 X86.226 Y101.879 E25.76933
G1 X85.765 Y102.272 E25.79235
G1 X85.249 Y102.588 E25.81537
G1 X84.689 Y102.819 E25.83839
G1 X84.1 Y102.96 E25.86141
G1 X83.452 Y103.011 E25.88611
G1 X73.483 Y103.31 E26.26516
G1 X46.517 Y103.31 E27.29003
G1 X36.548 Y103.011 E27.66908
G1 X35.9 Y102.96 E27.69379
G1 X35.311 Y102.819 E27.7168
G1 X34.751 Y102.588 E27.73982
G1 X34.235 Y102.272 E27.76284
G1 X33.774 Y101.879 E27.78586
G1 X33.38 Y101.418 E27.80888
G1 X33.064 Y100.902 E27.8319
G1 X32.832 Y100.343 E27.85492
G1 X32.69 Y99.754 E27.87793
G1 X32.64 Y99.118 E27.90216
G1 X32.64 Y20.582 E30.88705
G1 X32.69 Y19.947 E30.91126
G1 X32.832 Y19.358 E30.93426
G1 X33.005 Y18.939 E30.95149
G1 X32.583 Y18.764 F12000
;TYPE:External perimeter
G1 F1800
G1 X32.655 Y18.591 E30.95863
G1 X33.009 Y18.013 E30.98437
G1 X33.448 Y17.498 E31.01011
G1 X33.963 Y17.059 E31.03585
G1 X34.541 Y16.705 E31.06158
G1 X35.166 Y16.446 E31.08732
G1 X35.825 Y16.288 E31.11306
G1 X36.514 Y16.233 E31.13932
G1 X83.486 Y16.233 E32.92457
G1 X83.838 Y16.261 E32.93797
G1 X84.175 Y16.288 E32.95084
G1 X84.834 Y16.446 E32.97657
G1 X85.459 Y16.705 E33.00231
G1 X86.037 Y17.059 E33.02805
G1 X86.552 Y17.498 E33.05379
G1 X86.991 Y18.013 E33.07952
G1 X87.345 Y18.591 E33.10526
G1 X87.604 Y19.216 E33.131
G1 X87.762 Y19.875 E33.15674
G1 X87.817 Y20.564 E33.183
G1 X87.817 Y99.136 E36.16925
M73 P5 R16
G1 X87.762 Y99.826 E36.19553
G1 X87.604 Y100.484 E36.22128
G1 X87.345 Y101.11 E36.24704
G1 X86.99 Y101.688 E36.27279
G1 X86.55 Y102.203 E36.29855
G1 X86.034 Y102.643 E36.3243
G1 X85.456 Y102.997 E36.35006
G1 X84.83 Y103.255 E36.37581
G1 X84.171 Y103.413 E36.40157
G1 X83.476 Y103.467 E36.42805
G1 X73.49 Y103.767 E36.80778
G1 X46.51 Y103.767 E37.83317
G1 X36.524 Y103.467 E38.21289
G1 X35.829 Y103.413 E38.23938
G1 X35.17 Y103.255 E38.26513
G1 X34.544 Y102.997 E38.29089
G1 X33.966 Y102.643 E38.31664
G1 X33.45 Y102.203 E38.3424
G1 X33.01 Y101.688 E38.36815
G1 X32.655 Y101.11 E38.39391
G1 X32.396 Y100.484 E38.41966
G1 X32.238 Y99.826 E38.44541
G1 X32.183 Y99.136 E38.47169
G1 X32.183 Y20.564 E41.45795
G1 X32.238 Y19.875 E41.48421
G1 X32.396 Y19.216 E41.50995
G1 X32.583 Y18.764 E41.52854
;WIPE_START
M204 S4000
G1 X32.979 Y18.712 F12000
;WIPE_END
M204 S2000
G1 X33.383 Y18.962
;TYPE:Gap fill
;WIDTH:0.34237
G1 F1800
G1 X33.673 Y18.496 E41.5422
G1 X33.776 Y18.358 E41.54649
G1 X34.032 Y18.082 E41.55586
G1 X34.308 Y17.826 E41.56523
G1 X34.446 Y17.723 E41.56952
G1 X34.679 Y17.578 E41.57635
G1 X34.912 Y17.433 E41.58318
G1 X34.997 Y17.392 E41.58553
G1 X35.209 Y17.311 E41.59119
G1 X35.421 Y17.23 E41.59685
G1 X35.564 Y17.188 E41.60056
G1 X35.737 Y17.138 E41.60504
G1 X35.954 Y17.1 E41.61051
G1 X36.19 Y17.078 E41.61643
G1 X36.427 Y17.055 E41.62234
G1 X36.546 Y17.05 E41.62531
G1 X83.454 Y17.05 E42.7933
G1 X83.573 Y17.055 E42.79627
G1 X83.81 Y17.078 E42.80219
G1 X84.046 Y17.1 E42.8081
G1 X84.155 Y17.119 E42.81084
G1 X84.293 Y17.145 E42.81435
G1 X84.436 Y17.188 E42.81806
G1 X84.579 Y17.23 E42.82176
G1 X84.791 Y17.311 E42.82742
G1 X85.003 Y17.392 E42.83308
G1 X85.088 Y17.433 E42.83543
G1 X85.321 Y17.578 E42.84226
G1 X85.554 Y17.723 E42.84909
G1 X85.692 Y17.826 E42.85339
G1 X85.83 Y17.954 E42.85807
G1 X85.968 Y18.082 E42.86275
G1 X86.224 Y18.358 E42.87212
G1 X86.327 Y18.496 E42.87641
G1 X86.472 Y18.729 E42.88325
G1 X86.617 Y18.962 E42.89008
G1 X86.658 Y19.047 E42.89242
G1 X86.739 Y19.259 E42.89808
G1 X86.82 Y19.471 E42.90374
G1 X86.862 Y19.614 E42.90745
G1 X86.912 Y19.787 E42.91193
G1 X86.95 Y20.004 E42.9174
G1 X86.995 Y20.477 E42.92923
G1 X87 Y20.596 E42.9322
;WIDTH:0.341016
G1 X87 Y99.104 E44.87817
M73 P6 R16
G1 X86.995 Y99.223 E44.88113
G1 X86.972 Y99.46 E44.88702
G1 X86.95 Y99.697 E44.89292
G1 X86.931 Y99.805 E44.89563
G1 X86.904 Y99.943 E44.89912
G1 X86.862 Y100.086 E44.90282
G1 X86.82 Y100.23 E44.90653
G1 X86.739 Y100.441 E44.91215
G1 X86.658 Y100.653 E44.91777
G1 X86.616 Y100.739 E44.92014
G1 X86.471 Y100.972 E44.92694
G1 X86.327 Y101.205 E44.93375
G1 X86.224 Y101.342 E44.93799
G1 X86.095 Y101.481 E44.94267
G1 X85.967 Y101.62 E44.94736
G1 X85.83 Y101.747 E44.952
G1 X85.692 Y101.874 E44.95664
G1 X85.552 Y101.979 E44.96097
G1 X85.319 Y102.123 E44.96777
G1 X85.086 Y102.268 E44.97457
G1 X85.003 Y102.308 E44.97685
G1 X84.79 Y102.39 E44.98252
G1 X84.576 Y102.471 E44.98818
G1 X84.435 Y102.513 E44.99184
G1 X84.263 Y102.562 E44.99627
G1 X84.153 Y102.581 E44.99903
G1 X84.043 Y102.6 E45.00179
G1 X83.573 Y102.645 E45.01349
G1 X83.432 Y102.651 E45.01699
G1 X82.01 Y102.672 E45.05225
;WIDTH:0.392145
G1 X80.587 Y102.693 E45.09356
;WIDTH:0.44192
G1 X79.165 Y102.715 E45.14076
;WIDTH:0.491695
G1 X77.743 Y102.736 E45.19384
;WIDTH:0.54147
G1 X76.32 Y102.757 E45.25282
;WIDTH:0.591245
G1 X74.898 Y102.779 E45.31768
;WIDTH:0.64102
G1 X73.475 Y102.8 E45.38843
G1 X46.525 Y102.8 E46.72873
G1 X45.102 Y102.779 E46.79948
;WIDTH:0.591245
G1 X43.68 Y102.757 E46.86435
;WIDTH:0.54147
G1 X42.257 Y102.736 E46.92332
;WIDTH:0.491695
G1 X40.835 Y102.715 E46.9764
;WIDTH:0.44192
G1 X39.413 Y102.693 E47.0236
;WIDTH:0.392145
G1 X37.99 Y102.672 E47.06491
;WIDTH:0.34237
G1 X36.568 Y102.651 E47.10033
G1 X36.427 Y102.645 E47.10385
G1 X36.192 Y102.622 E47.10972
G1 X35.957 Y102.6 E47.1156
G1 X35.847 Y102.581 E47.11837
G1 X35.707 Y102.554 E47.12192
G1 X35.565 Y102.513 E47.1256
G1 X35.424 Y102.471 E47.12927
G1 X35.21 Y102.39 E47.13496
G1 X34.997 Y102.308 E47.14066
G1 X34.914 Y102.268 E47.14294
G1 X34.448 Y101.979 E47.15661
G1 X34.308 Y101.874 E47.16096
G1 X34.17 Y101.747 E47.16562
G1 X34.033 Y101.62 E47.17028
G1 X33.776 Y101.342 E47.1797
G1 X33.673 Y101.205 E47.18396
G1 X33.529 Y100.972 E47.19079
G1 X33.384 Y100.739 E47.19763
G1 X33.342 Y100.653 E47.2
G1 X33.18 Y100.23 E47.2113
G1 X33.138 Y100.086 E47.21502
G1 X33.088 Y99.913 E47.21951
G1 X33.069 Y99.805 E47.22224
G1 X33.05 Y99.697 E47.22497
G1 X33.028 Y99.46 E47.23089
G1 X33.005 Y99.223 E47.23681
G1 X33 Y99.104 E47.23978
G1 X33 Y20.596 E49.19459
G1 X33.005 Y20.477 E49.19756
G1 X33.028 Y20.24 E49.20348
G1 X33.05 Y20.004 E49.20939
G1 X33.069 Y19.895 E49.21213
G1 X33.095 Y19.757 E49.21563
G1 X33.138 Y19.614 E49.21934
G1 X33.18 Y19.471 E49.22305
G1 X33.261 Y19.259 E49.22871
G1 X33.342 Y19.047 E49.23437
G1 X33.383 Y18.962 E49.23672
M106 S255
;LAYER_CHANGE
;Z:0.4
;HEIGHT:0.2
; stop printing object wallet-5.stl id:0 copy 0
M204 S4000
G1 Z0.4 F12000
; printing object wallet-5.stl id:0 copy 0
G1 X33.517 Y19.213
;TYPE:Internal perimeter
;WIDTH:0.46
G1 F9000
G1 X33.305 Y19.821 E49.25903
G1 X33.229 Y20.49 E49.28238
G1 X33.229 Y99.21 E52.01243
G1 X33.305 Y99.879 E52.03578
G1 X33.547 Y100.572 E52.06124
G1 X33.937 Y101.194 E52.08669
G1 X34.456 Y101.713 E52.11214
G1 X35.078 Y102.103 E52.1376
G1 X35.771 Y102.345 E52.16305
G1 X36.44 Y102.421 E52.1864
G1 X65.022 Y102.421 E53.17765
M106 S196.35
G1 X83.56 Y102.421 E53.82055
G1 X84.229 Y102.345 E53.8439
G1 X84.922 Y102.103 E53.86936
G1 X85.544 Y101.713 E53.89481
G1 X86.063 Y101.194 E53.92027
G1 X86.453 Y100.572 E53.94572
G1 X86.695 Y99.879 E53.97117
G1 X86.771 Y99.21 E53.99453
G1 X86.771 Y20.49 E56.72457
G1 X86.695 Y19.821 E56.74793
G1 X86.453 Y19.128 E56.77338
G1 X86.063 Y18.506 E56.79883
G1 X85.544 Y17.987 E56.82429
G1 X84.922 Y17.597 E56.84974
G1 X84.229 Y17.355 E56.87519
G1 X83.56 Y17.279 E56.89855
G1 X36.44 Y17.279 E58.5327
G1 X35.771 Y17.355 E58.55605
G1 X35.078 Y17.597 E58.5815
G1 X34.456 Y17.987 E58.60696
G1 X33.937 Y18.506 E58.63241
G1 X33.547 Y19.128 E58.65786
G1 X33.517 Y19.213 E58.66101
G1 X33.911 Y19.351 F12000
G1 F9000
G1 X33.714 Y19.914 E58.68169
G1 X33.646 Y20.513 E58.7026
G1 X33.646 Y99.187 E61.43102
G1 X33.714 Y99.786 E61.45193
G1 X33.925 Y100.39 E61.47413
G1 X34.266 Y100.932 E61.49632
G1 X34.718 Y101.384 E61.51852
G1 X35.26 Y101.725 E61.54071
G1 X35.864 Y101.936 E61.5629
G1 X36.463 Y102.004 E61.58382
G1 X83.537 Y102.004 E63.21634
G1 X84.136 Y101.936 E63.23725
G1 X84.74 Y101.725 E63.25944
G1 X85.282 Y101.384 E63.28164
G1 X85.734 Y100.932 E63.30383
G1 X86.075 Y100.39 E63.32603
G1 X86.286 Y99.786 E63.34822
G1 X86.354 Y99.187 E63.36913
G1 X86.354 Y20.513 E66.09755
M73 P7 R15
G1 X86.286 Y19.914 E66.11847
G1 X86.075 Y19.31 E66.14066
G1 X85.734 Y18.768 E66.16285
G1 X85.282 Y18.316 E66.18505
G1 X84.74 Y17.975 E66.20724
G1 X84.136 Y17.764 E66.22944
G1 X83.537 Y17.696 E66.25035
G1 X36.463 Y17.696 E67.88287
G1 X35.864 Y17.764 E67.90378
G1 X35.26 Y17.975 E67.92598
G1 X34.718 Y18.316 E67.94817
G1 X34.266 Y18.768 E67.97037
G1 X33.911 Y19.351 E67.99404
M204 S2000
G1 X34.276 Y19.479 F12000
;TYPE:External perimeter
;WIDTH:0.4
G1 F6000
G1 X34.094 Y20.001 E68.01045
G1 X34.033 Y20.535 E68.02641
G1 X34.033 Y99.165 E70.36104
G1 X34.094 Y99.699 E70.377
G1 X34.276 Y100.221 E70.39341
G1 X34.57 Y100.689 E70.40982
G1 X34.961 Y101.08 E70.42624
G1 X35.429 Y101.374 E70.44265
G1 X35.951 Y101.556 E70.45906
G1 X36.485 Y101.617 E70.47502
G1 X83.515 Y101.617 E71.8714
G1 X84.049 Y101.556 E71.88737
G1 X84.571 Y101.374 E71.90378
G1 X85.039 Y101.08 E71.92019
G1 X85.43 Y100.689 E71.9366
G1 X85.724 Y100.221 E71.95301
G1 X85.906 Y99.699 E71.96942
G1 X85.967 Y99.165 E71.98539
G1 X85.967 Y20.535 E74.32001
G1 X85.906 Y20.001 E74.33598
