; generated by SuperSlicer 2.5.59 on 2023-03-01 at 00:23:45 UTC


;
;

;
;
; 

; external perimeters extrusion width = 0.40mm
; perimeters extrusion width = 0.46mm
; infill extrusion width = 0.64mm
; solid infill extrusion width = 0.56mm
; top infill extrusion width = 0.40mm
; first layer extrusion width = 0.50mm

; object:{"name":"Wallet_Minimalist_6_5mm","id":"Wallet_Minimalist_6_5mm.stl id:0 copy 0","object_center":[60.000291,59.999677,0.000000],"boundingbox_center":[60.000291,59.999677,4.450000],"boundingbox_size":[100.532682,100.532682,8.900000]}
; plater:{"center":[60.000291,59.999677,0.000000],"boundingbox_center":[60.000291,59.999677,4.450000],"boundingbox_size":[100.532682,100.532682,8.900000]}

M73 P0 R15
;TYPE:Custom
; custom gcode: start_gcode
START_PRINT T_BED=70 T_EXTRUDER=235
; custom gcode end: start_gcode
M107
G21 ; set units to millimeters
G90 ; use absolute coordinates
M82 ; use absolute distances for extrusion
G92 E0
; custom gcode: start_filament_gcode
; Filament gcode
PRESSURE_ADVANCE_SELECT FILAMENT=PETG
; custom gcode end: start_filament_gcode
;_TOOLCHANGE 0
M104 S235 ; set temperature
M109 S235 ; set temperature and wait for it to be reached
M190 S70 ; set bed temperature and wait for it to be reached
;LAYER_CHANGE
;Z:0.2
;HEIGHT:0.2
G1 Z0.2 F12000
M73 P0 R15
G1 E-1 F3000
M204 S2000
G1 X25.833 Y25.94 F12000
G1 E0 F1800
;TYPE:Skirt
;WIDTH:0.52
G1 X8.582 Y43.119 E0.96578
G1 X7.643 Y44.309 E1.02589
G1 X7.149 Y45.242 E1.06779
G1 X6.78 Y46.196 E1.10837
G1 X6.466 Y47.587 E1.16492
G1 X6.438 Y48.561 E1.20357
G1 X6.592 Y49.439 E1.23894
G1 X8.342 Y53.252 E1.40537
G1 X8.653 Y53.809 E1.43068
G1 X9.388 Y54.738 E1.47767
G1 X65.262 Y110.612 E4.61225
G1 X66.459 Y111.504 E4.67148
G1 X70.477 Y113.382 E4.84742
G1 X71.64 Y113.573 E4.89418
G1 X73.129 Y113.406 E4.95362
G1 X74.167 Y113.094 E4.9966
G1 X75.334 Y112.565 E5.04744
G1 X76.013 Y112.144 E5.07913
G1 X76.881 Y111.418 E5.12402
G1 X111.418 Y76.763 E7.0649
M73 P1 R15
G1 X111.952 Y76.139 E7.09748
G1 X112.563 Y75.224 E7.1411
G1 X113.037 Y74.232 E7.18474
G1 X113.293 Y73.467 E7.21672
G1 X113.477 Y72.646 E7.25011
G1 X113.577 Y71.639 E7.29023
G1 X113.556 Y70.74 E7.32592
G1 X113.379 Y69.595 E7.37186
G1 X113.083 Y68.616 E7.41244
G1 X112.556 Y67.493 E7.46168
G1 X111.981 Y66.628 E7.50288
G1 X111.294 Y65.836 E7.54448
G1 X54.164 Y8.706 E10.74953
G1 X53.144 Y7.849 E10.80236
G1 X51.834 Y7.102 E10.86219
G1 X50.405 Y6.621 E10.92198
G1 X49.115 Y6.433 E10.97369
G1 X47.609 Y6.486 E11.03349
G1 X46.163 Y6.818 E11.09235
G1 X44.763 Y7.444 E11.15317
G1 X43.532 Y8.314 E11.21296
G1 X25.833 Y25.94 E12.20386
G1 X26.163 Y26.271 F12000
G1 F1800
G1 X8.92 Y43.457 E13.1696
G1 X8.254 Y44.251 E13.2107
G1 X7.859 Y44.883 E13.24029
G1 X7.23 Y46.353 E13.3037
G1 X6.937 Y47.66 E13.35684
G1 X6.914 Y48.535 E13.39155
G1 X7.049 Y49.3 E13.42238
G1 X8.773 Y53.047 E13.58601
G1 X9.064 Y53.567 E13.60965
G1 X9.725 Y54.401 E13.65185
G1 X65.599 Y110.275 E16.78643
G1 X66.433 Y110.935 E16.82862
G1 X66.953 Y111.227 E16.85226
G1 X70.615 Y112.926 E17.01243
G1 X71.666 Y113.097 E17.05465
G1 X73.011 Y112.944 E17.10837
G1 X74.01 Y112.643 E17.14973
G1 X75.117 Y112.141 E17.19795
G1 X75.749 Y111.746 E17.22754
G1 X76.543 Y111.08 E17.26864
G1 X111.065 Y76.442 E19.20861
M73 P2 R14
G1 X111.565 Y75.86 E19.23903
G1 X112.154 Y74.979 E19.28108
G1 X112.589 Y74.068 E19.32113
G1 X112.829 Y73.354 E19.35102
G1 X113.005 Y72.576 E19.38266
G1 X113.101 Y71.611 E19.42114
G1 X113.079 Y70.763 E19.45478
G1 X112.918 Y69.715 E19.49684
G1 X112.634 Y68.777 E19.53572
G1 X112.147 Y67.739 E19.58118
G1 X111.598 Y66.912 E19.62059
G1 X110.956 Y66.173 E19.6594
G1 X53.826 Y9.043 E22.86445
M73 P2 R14
G1 X52.859 Y8.232 E22.91455
G1 X51.627 Y7.532 E22.97071
G1 X50.285 Y7.083 E23.02686
G1 X49.098 Y6.91 E23.07446
G1 X47.683 Y6.957 E23.13061
G1 X46.048 Y7.366 E23.19749
G1 X44.672 Y8.057 E23.25857
G1 X43.558 Y8.935 E23.31483
G1 X26.163 Y26.271 E24.28906
G92 E0
G1 E-1 F3000
; printing object Wallet_Minimalist_6_5mm.stl id:0 copy 0
; acceleration to travel
M204 S4000
G1 X45.573 Y69.949 F12000
; decel to extrusion
M204 S2000
G1 X55.278 Y91.788
; end travel
G1 E0 F1800
;TYPE:Internal perimeter
;WIDTH:0.5
G1 X14.465 Y50.975 E2.19366
G1 X14.638 Y50.765 E2.204
G1 X14.98 Y50.194 E2.2293
G1 X15.233 Y49.578 E2.2546
G1 X15.391 Y48.932 E2.27991
G1 X15.45 Y48.268 E2.30521
G1 X15.445 Y48.178 E2.30866
G1 X22.853 Y40.768 E2.70691
G1 X21.318 Y39.323 E2.78703
M73 P3 R14
G1 X23.64 Y37.003 E2.91178
G1 X23.875 Y37.118 E2.92173
G1 X22.233 Y49.705 E3.40414
G1 X22.19 Y50.255 E3.42514
G1 X22.207 Y50.866 E3.44836
G1 X22.271 Y51.377 E3.46791
G1 X22.428 Y52.077 E3.49517
G1 X22.636 Y52.66 E3.51872
G1 X22.844 Y53.113 E3.53766
G1 X23.147 Y53.639 E3.56072
G1 X23.512 Y54.142 E3.58434
G1 X23.881 Y54.552 E3.60533
G1 X65.448 Y96.118 E5.83948
G1 X65.858 Y96.488 E5.86047
G1 X66.361 Y96.853 E5.88409
G1 X66.899 Y97.164 E5.90771
G1 X67.45 Y97.409 E5.93061
G1 X67.922 Y97.569 E5.94954
G1 X68.53 Y97.716 E5.97335
G1 X69.239 Y97.798 E6.00046
G1 X69.751 Y97.809 E6.01991
G1 X70.295 Y97.767 E6.04066
G1 X82.882 Y96.125 E6.52308
G1 X82.997 Y96.36 E6.53303
G1 X80.677 Y98.682 E6.65778
G1 X79.232 Y97.146 E6.7379
G1 X71.822 Y104.555 E7.13615
G1 X71.732 Y104.55 E7.1396
G1 X71.068 Y104.609 E7.1649
G1 X70.422 Y104.767 E7.19021
G1 X69.806 Y105.02 E7.21551
G1 X69.235 Y105.362 E7.24081
G1 X69.025 Y105.535 E7.25115
G1 X55.278 Y91.788 E7.99001
G1 X54.955 Y92.112 F12000
G1 F1800
G1 X13.848 Y51.005 E10.19945
G1 X14.264 Y50.501 E10.22427
G1 X14.57 Y49.989 E10.24696
G1 X14.797 Y49.437 E10.26965
G1 X14.939 Y48.856 E10.29235
G1 X14.992 Y48.262 E10.31504
G1 X14.976 Y48 E10.325
G1 X22.197 Y40.778 E10.71316
G1 X20.662 Y39.333 E10.79328
G1 X24.267 Y35.73 E10.98701
G1 X24.502 Y35.845 E10.99696
G1 X22.688 Y49.752 E11.52997
G1 X22.648 Y50.267 E11.5496
G1 X22.663 Y50.831 E11.57106
G1 X22.722 Y51.298 E11.58893
G1 X22.868 Y51.949 E11.6143
G1 X23.06 Y52.488 E11.63605
G1 X23.25 Y52.903 E11.6534
G1 X23.531 Y53.39 E11.67474
G1 X23.868 Y53.854 E11.69653
G1 X24.213 Y54.237 E11.71616
G1 X65.763 Y95.787 E13.9494
M73 P4 R14
G1 X66.146 Y96.132 E13.96902
G1 X66.61 Y96.469 E13.99082
G1 X67.107 Y96.756 E14.01262
G1 X67.617 Y96.983 E14.03382
G1 X68.049 Y97.13 E14.05118
G1 X68.611 Y97.265 E14.07313
G1 X69.27 Y97.341 E14.09837
G1 X69.738 Y97.352 E14.11616
G1 X70.248 Y97.312 E14.13558
G1 X84.155 Y95.498 E14.6686
G1 X84.27 Y95.733 E14.67855
G1 X80.667 Y99.338 E14.87228
G1 X79.222 Y97.803 E14.9524
G1 X72 Y105.024 E15.34056
G1 X71.738 Y105.008 E15.35052
G1 X71.143 Y105.061 E15.37321
G1 X70.563 Y105.203 E15.39591
G1 X70.011 Y105.43 E15.4186
G1 X69.499 Y105.736 E15.44129
G1 X68.995 Y106.152 E15.46611
G1 X54.955 Y92.112 E16.22075
G1 X54.632 Y92.435 F12000
G1 F1800
G1 X13.182 Y50.985 E18.44861
G1 X13.555 Y50.642 E18.46786
G1 X13.889 Y50.237 E18.48783
G1 X14.161 Y49.784 E18.50791
G1 X14.361 Y49.295 E18.52799
G1 X14.487 Y48.781 E18.54807
G1 X14.534 Y48.255 E18.56815
G1 X14.508 Y47.823 E18.58463
G1 X21.541 Y40.788 E18.9627
G1 X20.005 Y39.343 E19.04283
G1 X25.204 Y34.147 E19.32218
G1 X25.453 Y34.316 E19.33364
G1 X25.203 Y34.903 E19.35789
G1 X25.045 Y35.428 E19.37874
G1 X24.953 Y35.921 E19.39781
G1 X23.142 Y49.799 E19.92974
G1 X23.105 Y50.278 E19.94799
G1 X23.12 Y50.797 E19.96771
G1 X23.172 Y51.219 E19.98389
G1 X23.308 Y51.822 E20.00737
G1 X23.484 Y52.316 E20.0273
G1 X23.657 Y52.694 E20.04308
G1 X23.915 Y53.14 E20.06269
G1 X24.223 Y53.566 E20.08267
G1 X24.545 Y53.923 E20.10092
G1 X66.077 Y95.455 E22.33325
G1 X66.434 Y95.777 E22.35151
G1 X66.86 Y96.085 E22.37148
G1 X67.315 Y96.348 E22.39146
G1 X67.784 Y96.557 E22.41096
G1 X68.177 Y96.69 E22.42674
G1 X68.691 Y96.814 E22.44684
G1 X69.302 Y96.885 E22.47022
G1 X69.726 Y96.894 E22.48634
G1 X70.201 Y96.858 E22.50444
G1 X84.079 Y95.047 E23.03637
M73 P5 R14
G1 X84.572 Y94.955 E23.05543
G1 X85.097 Y94.797 E23.07629
G1 X85.684 Y94.546 E23.10053
G1 X85.853 Y94.796 E23.112
G1 X80.657 Y99.995 E23.39135
G1 X79.212 Y98.459 E23.47148
G1 X72.177 Y105.492 E23.84955
G1 X71.745 Y105.466 E23.86602
G1 X71.219 Y105.513 E23.8861
G1 X70.705 Y105.639 E23.90618
G1 X70.216 Y105.839 E23.92627
G1 X69.763 Y106.111 E23.94635
G1 X69.355 Y106.447 E23.96642
G1 X69.019 Y106.822 E23.98558
G1 X54.632 Y92.435 E24.75887
G92 E0
G1 E-1 F3000
; acceleration to travel
M204 S4000
G1 X57.656 Y89.411 F12000
; decel to extrusion
M204 S2000
G1 X59.168 Y87.899
; end travel
G1 E0 F1800
G1 X66.392 Y95.123 E0.38831
G1 X66.722 Y95.421 E0.4052
G1 X67.109 Y95.701 E0.42335
G1 X67.522 Y95.94 E0.4415
G1 X67.95 Y96.13 E0.45931
G1 X68.304 Y96.251 E0.47351
G1 X68.771 Y96.364 E0.49175
G1 X69.333 Y96.428 E0.51327
G1 X69.713 Y96.437 E0.52772
G1 X70.153 Y96.403 E0.5445
G1 X84.007 Y94.596 E1.0755
G1 X84.464 Y94.511 E1.09314
G1 X84.941 Y94.366 E1.11209
G1 X85.4 Y94.171 E1.13105
G1 X85.835 Y93.926 E1.15
G1 X86.24 Y93.636 E1.16896
G1 X86.586 Y93.326 E1.1866
G1 X107.212 Y72.7 E2.29522
G1 X107.45 Y72.416 E2.30934
G1 X107.664 Y72.046 E2.32556
G1 X107.81 Y71.645 E2.34179
G1 X107.884 Y71.224 E2.35801
G1 X107.884 Y70.798 E2.37424
G1 X107.81 Y70.377 E2.39046
G1 X107.664 Y69.976 E2.40669
G1 X107.45 Y69.606 E2.42291
G1 X107.212 Y69.322 E2.43703
G1 X50.678 Y12.788 E5.47565
G1 X50.394 Y12.55 E5.48977
G1 X50.024 Y12.336 E5.50599
G1 X49.623 Y12.19 E5.52222
G1 X49.202 Y12.116 E5.53844
G1 X48.775 Y12.116 E5.55466
G1 X48.355 Y12.19 E5.57089
G1 X47.954 Y12.336 E5.58711
G1 X47.584 Y12.55 E5.60334
G1 X47.3 Y12.788 E5.61746
G1 X26.674 Y33.414 E6.72608
G1 X26.364 Y33.76 E6.74372
G1 X26.074 Y34.165 E6.76267
G1 X25.829 Y34.6 E6.78163
G1 X25.634 Y35.059 E6.80058
G1 X25.489 Y35.536 E6.81954
G1 X25.404 Y35.993 E6.83718
G1 X23.597 Y49.847 E7.36818
G1 X23.563 Y50.29 E7.38507
G1 X23.576 Y50.762 E7.40303
G1 X23.623 Y51.141 E7.41753
G1 X23.748 Y51.695 E7.43912
G1 X23.908 Y52.144 E7.45724
G1 X24.063 Y52.484 E7.47144
G1 X24.299 Y52.891 E7.48933
G1 X24.579 Y53.278 E7.50748
G1 X24.877 Y53.608 E7.52436
M73 P6 R14
G1 X59.168 Y87.899 E9.36747
G1 X59.491 Y87.576 F12000
G1 F1800
G1 X66.707 Y94.792 E9.75533
G1 X67.01 Y95.065 E9.77085
G1 X67.358 Y95.317 E9.78718
G1 X67.73 Y95.532 E9.80351
G1 X68.117 Y95.704 E9.81961
G1 X68.432 Y95.811 E9.83225
G1 X68.851 Y95.913 E9.84863
G1 X69.364 Y95.972 E9.86828
G1 X69.701 Y95.979 E9.88107
G1 X70.106 Y95.948 E9.89652
G1 X83.936 Y94.144 E10.42659
G1 X84.355 Y94.066 E10.4428
G1 X84.785 Y93.936 E10.45986
G1 X85.198 Y93.76 E10.47691
G1 X85.589 Y93.54 E10.49397
G1 X85.954 Y93.279 E10.51102
G1 X86.271 Y92.994 E10.52724
G1 X106.874 Y72.391 E11.63463
G1 X107.075 Y72.153 E11.64646
G1 X107.248 Y71.852 E11.65965
G1 X107.367 Y71.526 E11.67284
G1 X107.427 Y71.185 E11.68602
G1 X107.427 Y70.838 E11.6992
G1 X107.367 Y70.496 E11.71239
G1 X107.248 Y70.17 E11.72557
G1 X107.075 Y69.87 E11.73876
G1 X106.874 Y69.631 E11.7506
G1 X50.369 Y13.126 E14.7877
G1 X50.13 Y12.925 E14.79954
G1 X49.83 Y12.752 E14.81273
G1 X49.504 Y12.633 E14.82591
G1 X49.162 Y12.573 E14.8391
G1 X48.815 Y12.573 E14.85228
G1 X48.474 Y12.633 E14.86547
G1 X48.148 Y12.752 E14.87865
G1 X47.847 Y12.925 E14.89184
G1 X47.609 Y13.126 E14.90367
G1 X27.006 Y33.729 E16.01106
G1 X26.721 Y34.046 E16.02728
G1 X26.46 Y34.411 E16.04433
G1 X26.24 Y34.802 E16.06139
G1 X26.064 Y35.215 E16.07844
G1 X25.934 Y35.645 E16.0955
G1 X25.856 Y36.064 E16.11171
G1 X24.052 Y49.894 E16.64178
G1 X24.02 Y50.301 E16.65731
G1 X24.032 Y50.727 E16.67351
G1 X24.074 Y51.062 E16.68633
G1 X24.188 Y51.568 E16.70603
G1 X24.332 Y51.972 E16.72233
G1 X24.47 Y52.274 E16.73496
G1 X24.682 Y52.642 E16.75112
G1 X24.935 Y52.99 E16.76745
G1 X25.208 Y53.293 E16.78297
G1 X59.491 Y87.576 E18.62562
G92 E0
M73 P7 R14
G1 E-1 F3000
; acceleration to travel
M204 S4000
G1 X36.244 Y61.901 F12000
; decel to extrusion
M204 S2000
G1 X24.621 Y49.063
; end travel
G1 E0 F1800
;TYPE:External perimeter
G1 X24.507 Y49.941 E0.03365
G1 X24.478 Y50.312 E0.04781
G1 X24.488 Y50.692 E0.06226
G1 X24.525 Y50.983 E0.0734
G1 X24.628 Y51.44 E0.0912
G1 X24.756 Y51.8 E0.1057
G1 X24.877 Y52.064 E0.11675
G1 X25.066 Y52.393 E0.13118
G1 X25.291 Y52.702 E0.14569
G1 X25.54 Y52.978 E0.15984
G1 X67.022 Y94.46 E2.38944
G1 X67.298 Y94.709 E2.4036
G1 X67.607 Y94.934 E2.4181
G1 X67.938 Y95.124 E2.43261
G1 X68.284 Y95.278 E2.44701
G1 X68.559 Y95.372 E2.45807
G1 X68.931 Y95.462 E2.4726
G1 X69.396 Y95.515 E2.49038
G1 X69.688 Y95.522 E2.50151
G1 X70.059 Y95.493 E2.51563
G1 X83.864 Y93.692 E3.04477
G1 X84.247 Y93.621 E3.05956
G1 X84.629 Y93.506 E3.07471
G1 X84.995 Y93.349 E3.08987
G1 X85.343 Y93.154 E3.10502
G1 X85.667 Y92.922 E3.12018
G1 X85.957 Y92.662 E3.13497
G1 X106.537 Y72.082 E4.24112
G1 X106.699 Y71.889 E4.25068
G1 X106.832 Y71.658 E4.26083
G1 X106.923 Y71.407 E4.27098
G1 X106.97 Y71.145 E4.28112
G1 X106.97 Y70.878 E4.29127
G1 X106.923 Y70.615 E4.30141
G1 X106.832 Y70.364 E4.31156
G1 X106.699 Y70.133 E4.3217
G1 X106.537 Y69.94 E4.33126
G1 X50.06 Y13.463 E7.36685
G1 X49.867 Y13.301 E7.37641
G1 X49.636 Y13.168 E7.38656
G1 X49.385 Y13.076 E7.3967
G1 X49.122 Y13.03 E7.40685
G1 X48.855 Y13.03 E7.41699
G1 X48.593 Y13.076 E7.42714
G1 X48.342 Y13.168 E7.43728
G1 X48.111 Y13.301 E7.44743
G1 X47.918 Y13.463 E7.45699
G1 X27.338 Y34.043 E8.56314
M73 P8 R14
G1 X27.078 Y34.333 E8.57793
G1 X26.846 Y34.657 E8.59309
G1 X26.651 Y35.004 E8.60824
G1 X26.494 Y35.371 E8.6234
G1 X26.379 Y35.753 E8.63855
G1 X26.307 Y36.136 E8.65334
G1 X24.621 Y49.063 E9.14883
;WIPE_START
M204 S4000
G1 X24.252 Y49.216 F12000
;WIPE_END
G92 E0
G1 E-1 F3000
; acceleration to travel
G1 X20.323 Y45.288 F12000
; decel to extrusion
M204 S2000
G1 X18.358 Y43.324
; end travel
G1 E0 F1800
;TYPE:Internal perimeter
G1 X20.884 Y40.798 E0.13578
G1 X19.349 Y39.353 E0.21592
G1 X19.821 Y38.893 E0.24099
G1 X46.538 Y12.176 E1.67699
G1 X46.77 Y11.965 E1.68892
G1 X46.997 Y11.796 E1.69969
G1 X47.231 Y11.654 E1.71008
G1 X47.579 Y11.494 E1.72462
G1 X47.757 Y11.431 E1.73182
G1 X48.036 Y11.358 E1.74275
G1 X48.294 Y11.318 E1.75268
G1 X48.897 Y11.31 E1.7756
G1 X49.243 Y11.361 E1.78889
G1 X49.509 Y11.429 E1.79934
G1 X49.775 Y11.527 E1.81011
G1 X50.031 Y11.649 E1.82088
G1 X50.273 Y11.796 E1.83165
G1 X50.5 Y11.965 E1.84242
G1 X50.733 Y12.176 E1.85435
G1 X107.816 Y69.259 E4.92249
G1 X108.09 Y69.572 E4.93831
G1 X108.203 Y69.725 E4.94557
G1 X108.346 Y69.961 E4.95601
G1 X108.501 Y70.297 E4.9701
G1 X108.643 Y70.773 E4.98898
G1 X108.685 Y71.037 E4.99913
G1 X108.702 Y71.401 E5.01296
G1 X108.655 Y71.888 E5.03158
G1 X108.567 Y72.247 E5.04561
G1 X108.473 Y72.505 E5.05604
G1 X108.35 Y72.762 E5.0669
G1 X108.252 Y72.926 E5.07414
G1 X108.027 Y73.238 E5.08875
G1 X107.824 Y73.462 E5.10026
G1 X81.107 Y100.179 E6.53626
G1 X80.647 Y100.651 E6.56133
G1 X79.202 Y99.116 E6.64147
G1 X72.339 Y105.978 E7.01034
G1 X72.191 Y105.951 E7.01604
G1 X71.751 Y105.925 E7.03277
G1 X71.294 Y105.966 E7.05025
G1 X70.847 Y106.075 E7.06772
G1 X70.422 Y106.249 E7.08519
G1 X70.027 Y106.485 E7.10266
G1 X69.673 Y106.778 E7.12013
G1 X69.322 Y107.168 E7.14007
G1 X69.285 Y107.199 E7.14191
G1 X69.207 Y107.243 E7.1453
G1 X69.095 Y107.276 E7.14975
G1 X68.947 Y107.276 E7.15538
G1 X68.831 Y107.238 E7.16
G1 X68.753 Y107.193 E7.16343
G1 X68.681 Y107.131 E7.16704
G1 X12.869 Y51.319 E10.16687
M73 P9 R13
G1 X12.807 Y51.247 E10.17049
G1 X12.762 Y51.169 E10.17392
G1 X12.724 Y51.053 E10.17854
G1 X12.724 Y50.905 E10.18416
G1 X12.757 Y50.793 E10.18862
G1 X12.801 Y50.715 E10.19201
G1 X12.832 Y50.678 E10.19384
G1 X13.222 Y50.327 E10.21379
G1 X13.515 Y49.973 E10.23126
G1 X13.751 Y49.578 E10.24873
G1 X13.925 Y49.153 E10.2662
G1 X14.034 Y48.706 E10.28367
G1 X14.075 Y48.249 E10.30114
G1 X14.049 Y47.809 E10.31788
G1 X14.022 Y47.661 E10.32358
G1 X18.358 Y43.324 E10.55667
G1 X18.035 Y43.001 F12000
G1 F1800
G1 X20.228 Y40.808 E10.67454
G1 X19.064 Y39.713 E10.73528
G1 X18.649 Y39.396 E10.7551
G1 X19.5 Y38.567 E10.80025
G1 X46.222 Y11.845 E12.23655
G1 X46.479 Y11.612 E12.24975
G1 X46.742 Y11.416 E12.2622
G1 X47.017 Y11.25 E12.2744
G1 X47.406 Y11.071 E12.29069
G1 X47.623 Y10.993 E12.29943
G1 X47.943 Y10.91 E12.31198
G1 X48.255 Y10.861 E12.32401
G1 X48.927 Y10.853 E12.34955
G1 X49.333 Y10.912 E12.36515
G1 X49.645 Y10.993 E12.3774
G1 X49.953 Y11.105 E12.38985
G1 X50.248 Y11.247 E12.4023
G1 X50.529 Y11.416 E12.41475
G1 X50.791 Y11.612 E12.4272
