; generated by SuperSlicer 2.5.59 on 2023-02-22 at 22:50:49 UTC


;
;

;
;
; 

; external perimeters extrusion width = 0.40mm
; perimeters extrusion width = 0.46mm
; infill extrusion width = 0.64mm
; solid infill extrusion width = 0.56mm
; top infill extrusion width = 0.40mm
; first layer extrusion width = 0.50mm

; object:{"name":"Keychain-Whistle(Extra-Slim)","id":"Keychain-Whistle(Extra-Slim).stl id:0 copy 0","object_center":[60.000000,60.000000,0.000000],"boundingbox_center":[60.000000,60.000000,2.000000],"boundingbox_size":[12.258428,49.258429,4.000000]}
; plater:{"center":[60.000000,60.000000,0.000000],"boundingbox_center":[60.000000,60.000000,2.000000],"boundingbox_size":[12.258428,49.258429,4.000000]}

M73 P0 R6
;TYPE:Custom
; custom gcode: start_gcode
START_PRINT T_BED=60 T_EXTRUDER=200
; custom gcode end: start_gcode
M107
G21 ; set units to millimeters
G90 ; use absolute coordinates
M82 ; use absolute distances for extrusion
G92 E0
; custom gcode: start_filament_gcode
; Filament gcode

    PRESSURE_ADVANCE_SELECT FILAMENT=PLA
; custom gcode end: start_filament_gcode
;_TOOLCHANGE 0
M104 S200 ; set temperature
M109 S200 ; set temperature and wait for it to be reached
M190 S60 ; set bed temperature and wait for it to be reached
;LAYER_CHANGE
;Z:0.2
;HEIGHT:0.2
G1 Z0.2 F12000
M73 P0 R6
G1 E-0.8 F3000
M204 S2000
G1 X51.253 Y34.975 F12000
G1 E0 F1800
;TYPE:Skirt
;WIDTH:0.52
G1 X50.911 Y35.765 E0.03414
G1 X50.69 Y36.664 E0.07087
G1 X50.627 Y37.347 E0.09807
G1 X50.619 Y78.996 E1.75028
G1 X50.711 Y80.247 E1.80004
G1 X51.043 Y81.708 E1.85945
G1 X51.605 Y83.062 E1.9176
G1 X52.456 Y84.405 E1.98067
G1 X53.492 Y85.539 E2.04162
M73 P1 R6
G1 X54.379 Y86.251 E2.08672
G1 X55.743 Y87.043 E2.14929
G1 X57.042 Y87.532 E2.20436
G1 X58.666 Y87.837 E2.26992
G1 X61.225 Y87.847 E2.37143
G1 X62.778 Y87.58 E2.43392
G1 X64.258 Y87.043 E2.49638
G1 X65.795 Y86.126 E2.56738
G1 X67.167 Y84.86 E2.64144
G1 X67.815 Y84.028 E2.6833
G1 X68.36 Y83.124 E2.72517
G1 X68.751 Y82.276 E2.76221
G1 X69.072 Y81.306 E2.80274
M73 P1 R6
G1 X69.337 Y79.834 E2.86209
G1 X69.336 Y36.853 E4.56709
G1 X69.127 Y35.886 E4.60635
G1 X68.851 Y35.191 E4.63599
G1 X68.279 Y34.248 E4.67976
G1 X67.611 Y33.518 E4.71902
G1 X66.819 Y32.923 E4.75831
G1 X65.931 Y32.484 E4.7976
G1 X64.978 Y32.215 E4.83689
G1 X64.108 Y32.124 E4.87158
G1 X56.007 Y32.119 E5.19295
G1 X54.484 Y32.341 E5.254
G1 X53.615 Y32.683 E5.29104
G1 X53.021 Y33.026 E5.31826
G1 X52.107 Y33.792 E5.36555
G1 X51.253 Y34.975 E5.42344
G1 X51.669 Y35.21 F12000
G1 F1800
G1 X51.359 Y35.93 E5.45452
G1 X51.159 Y36.752 E5.48809
G1 X51.104 Y37.347 E5.51179
G1 X51.096 Y78.996 E7.16401
G1 X51.181 Y80.166 E7.21052
G1 X51.495 Y81.554 E7.26698
G1 X52.024 Y82.834 E7.3219
M73 P2 R6
G1 X52.827 Y84.105 E7.38157
G1 X53.809 Y85.182 E7.43938
G1 X54.665 Y85.869 E7.48291
G1 X55.932 Y86.605 E7.54103
G1 X57.163 Y87.07 E7.59326
G1 X58.694 Y87.361 E7.65508
G1 X61.199 Y87.371 E7.75445
G1 X62.669 Y87.116 E7.81361
G1 X64.069 Y86.605 E7.87273
G1 X65.518 Y85.737 E7.93974
G1 X66.82 Y84.533 E8.01008
G1 X67.432 Y83.744 E8.04969
G1 X67.946 Y82.888 E8.08931
G1 X68.616 Y81.166 E8.16261
G1 X68.861 Y79.805 E8.21746
G1 X68.861 Y36.897 E9.91959
G1 X68.668 Y36.017 E9.95536
G1 X68.427 Y35.411 E9.9812
G1 X67.907 Y34.547 E10.02122
G1 X67.3 Y33.88 E10.05698
G1 X66.58 Y33.336 E10.09278
G1 X65.773 Y32.934 E10.12857
G1 X64.905 Y32.686 E10.16437
G1 X64.108 Y32.601 E10.19616
G1 X56.007 Y32.596 E10.51753
G1 X54.607 Y32.802 E10.57363
G1 X53.296 Y33.415 E10.63105
G1 X52.444 Y34.129 E10.67514
G1 X51.669 Y35.21 E10.72792
G92 E0
G1 E-0.8 F3000
; printing object Keychain-Whistle(Extra-Slim).stl id:0 copy 0
; acceleration to travel
M204 S4000
G1 X59.919 Y40.719 F12000
; decel to extrusion
M204 S2000
G1 X64.044 Y43.474
; end travel
G1 E0 F1800
;TYPE:Internal perimeter
;WIDTH:0.5
G1 X64.044 Y76.724 E1.26369
M73 P3 R6
G1 X63.793 Y76.807 E1.27373
G1 X63.648 Y76.612 E1.28297
G1 X63.359 Y76.29 E1.29939
G1 X63.036 Y75.992 E1.31611
G1 X62.606 Y75.669 E1.33653
G1 X62.215 Y75.436 E1.35384
G1 X61.819 Y75.247 E1.37053
G1 X61.369 Y75.086 E1.38868
G1 X60.926 Y74.974 E1.40606
G1 X60.429 Y74.902 E1.42515
G1 X59.948 Y74.883 E1.44343
G1 X59.544 Y74.906 E1.45881
G1 X59.023 Y74.989 E1.47888
G1 X58.591 Y75.1 E1.4958
G1 X58.176 Y75.249 E1.5126
G1 X57.778 Y75.442 E1.5294
G1 X57.397 Y75.672 E1.54631
G1 X56.97 Y75.988 E1.56647
G1 X56.639 Y76.291 E1.58356
G1 X56.347 Y76.621 E1.6003
G1 X56.208 Y76.809 E1.60919
G1 X55.957 Y76.727 E1.61926
G1 X55.964 Y37.456 E3.11178
G1 X56.953 Y37.457 E3.14941
G1 X64.044 Y37.461 E3.41889
G1 X64.044 Y43.474 E3.64742
; acceleration to travel
M204 S4000
G1 X64.349 Y44.354 F12000
; decel to extrusion
M204 S2000
G1 X64.501 Y44.794
; end travel
G1 F1800
G1 X64.501 Y78.731 E4.93724
G1 X64.18 Y78.771 E4.94952
G1 X64.081 Y78.376 E4.96501
G1 X63.951 Y78.006 E4.97991
G1 X63.784 Y77.644 E4.99506
G1 X63.536 Y77.227 E5.01349
G1 X63.294 Y76.901 E5.02892
G1 X63.034 Y76.611 E5.04373
G1 X62.743 Y76.343 E5.05874
G1 X62.351 Y76.05 E5.07736
M73 P4 R6
G1 X61.999 Y75.839 E5.09294
G1 X61.643 Y75.67 E5.10794
G1 X61.236 Y75.524 E5.12439
G1 X60.837 Y75.423 E5.14002
G1 X60.387 Y75.357 E5.1573
G1 X59.952 Y75.341 E5.17383
G1 X59.593 Y75.361 E5.1875
G1 X59.116 Y75.437 E5.20588
G1 X58.726 Y75.537 E5.22117
G1 X58.353 Y75.671 E5.23624
G1 X57.996 Y75.844 E5.25132
G1 X57.651 Y76.052 E5.26661
G1 X57.262 Y76.341 E5.28504
G1 X56.965 Y76.612 E5.30032
G1 X56.703 Y76.908 E5.31536
G1 X56.465 Y77.231 E5.3306
G1 X56.218 Y77.646 E5.34895
G1 X56.049 Y78.008 E5.36415
G1 X55.92 Y78.381 E5.37913
G1 X55.821 Y78.782 E5.39482
G1 X55.499 Y78.743 E5.40713
G1 X55.507 Y37.455 E6.9763
G1 X55.525 Y37.357 E6.98013
G1 X55.544 Y37.305 E6.98223
G1 X55.629 Y37.17 E6.98827
G1 X55.671 Y37.128 E6.99054
G1 X55.752 Y37.071 E6.99431
G1 X55.842 Y37.029 E6.99808
G1 X55.901 Y37.014 E7.00039
G1 X56.058 Y36.999 E7.00638
G1 X56.954 Y37 E7.04042
G1 X64.016 Y37.004 E7.30882
G1 X64.124 Y37.021 E7.31298
G1 X64.208 Y37.05 E7.31637
G1 X64.285 Y37.095 E7.31977
G1 X64.353 Y37.153 E7.32316
G1 X64.404 Y37.216 E7.32622
G1 X64.466 Y37.336 E7.33134
G1 X64.487 Y37.411 E7.33433
G1 X64.501 Y37.558 E7.33996
G1 X64.501 Y44.794 E7.61496
G92 E0
G1 E-0.8 F3000
; acceleration to travel
M204 S4000
G1 X58.198 Y50.303 F12000
; decel to extrusion
M204 S2000
G1 X55.047 Y53.057
; end travel
G1 E0 F1800
G1 X55.049 Y37.413 E0.59456
G1 X55.083 Y37.235 E0.60145
G1 X55.132 Y37.101 E0.60686
G1 X55.21 Y36.964 E0.61287
G1 X55.27 Y36.883 E0.61669
G1 X55.376 Y36.778 E0.62237
G1 X55.523 Y36.673 E0.62922
G1 X55.687 Y36.598 E0.63608
G1 X55.82 Y36.562 E0.64134
G1 X56.037 Y36.542 E0.64961
G1 X56.954 Y36.543 E0.68446
G1 X64.051 Y36.547 E0.9542
G1 X64.236 Y36.576 E0.9613
G1 X64.4 Y36.633 E0.96791
G1 X64.551 Y36.72 E0.97453
G1 X64.683 Y36.834 E0.98114
G1 X64.788 Y36.965 E0.98754
G1 X64.893 Y37.166 E0.99615
G1 X64.938 Y37.327 E1.00251
G1 X64.958 Y37.537 E1.01055
G1 X64.958 Y78.976 E2.58548
M73 P5 R6
G1 X64.925 Y79.528 E2.60651
G1 X64.831 Y80.049 E2.62663
G1 X64.675 Y80.559 E2.64689
G1 X64.498 Y80.969 E2.66388
G1 X64.234 Y81.433 E2.68413
G1 X63.919 Y81.858 E2.70425
G1 X63.555 Y82.245 E2.72447
G1 X63.206 Y82.54 E2.74182
G1 X62.939 Y82.73 E2.75428
G1 X62.469 Y82.998 E2.77481
G1 X62.299 Y83.071 E2.78187
G1 X62.136 Y82.791 E2.7942
G1 X62.436 Y82.564 E2.80851
G1 X62.694 Y82.33 E2.82173
G1 X62.929 Y82.067 E2.83513
G1 X63.185 Y81.715 E2.85167
G1 X63.366 Y81.409 E2.86521
G1 X63.515 Y81.095 E2.87842
G1 X63.633 Y80.763 E2.89178
G1 X63.737 Y80.341 E2.90832
G1 X63.789 Y79.988 E2.92187
G1 X63.808 Y79.642 E2.93503
G1 X63.793 Y79.292 E2.94833
G1 X63.731 Y78.857 E2.96504
G1 X63.643 Y78.507 E2.97876
G1 X63.527 Y78.177 E2.99205
G1 X63.379 Y77.857 E3.00546
G1 X63.155 Y77.481 E3.02209
G1 X62.94 Y77.191 E3.03583
G1 X62.708 Y76.933 E3.04902
G1 X62.451 Y76.695 E3.06232
G1 X62.096 Y76.43 E3.07915
G1 X61.784 Y76.243 E3.09299
G1 X61.467 Y76.092 E3.10631
G1 X61.102 Y75.961 E3.12106
G1 X60.748 Y75.872 E3.13495
G1 X60.345 Y75.813 E3.1504
G1 X59.957 Y75.798 E3.16518
G1 X59.642 Y75.816 E3.17715
G1 X59.209 Y75.885 E3.19384
G1 X58.861 Y75.975 E3.20749
G1 X58.53 Y76.093 E3.22084
G1 X58.214 Y76.246 E3.23421
G1 X57.906 Y76.432 E3.24786
G1 X57.553 Y76.694 E3.26457
G1 X57.291 Y76.933 E3.27804
G1 X57.059 Y77.196 E3.29137
G1 X56.847 Y77.484 E3.30499
G1 X56.622 Y77.86 E3.32163
G1 X56.473 Y78.18 E3.33505
G1 X56.358 Y78.511 E3.34833
G1 X56.273 Y78.857 E3.36191
G1 X56.209 Y79.289 E3.37849
G1 X56.192 Y79.64 E3.39186
G1 X56.211 Y79.988 E3.4051
G1 X56.263 Y80.341 E3.41864
G1 X56.367 Y80.763 E3.43518
G1 X56.485 Y81.095 E3.44854
G1 X56.634 Y81.409 E3.46175
G1 X56.815 Y81.715 E3.4753
G1 X57.071 Y82.067 E3.49184
G1 X57.306 Y82.33 E3.50523
G1 X57.564 Y82.564 E3.51846
G1 X57.864 Y82.791 E3.53277
G1 X57.701 Y83.071 E3.5451
G1 X57.534 Y82.999 E3.552
G1 X56.999 Y82.687 E3.57555
G1 X56.634 Y82.414 E3.59287
G1 X56.45 Y82.251 E3.60222
G1 X56.127 Y81.911 E3.62003
G1 X55.919 Y81.654 E3.63262
G1 X55.664 Y81.268 E3.65021
G1 X55.505 Y80.977 E3.6628
G1 X55.32 Y80.548 E3.68054
G1 X55.239 Y80.309 E3.69013
G1 X55.153 Y79.981 E3.70304
G1 X55.075 Y79.531 E3.72037
G1 X55.042 Y78.976 E3.74151
G1 X55.047 Y53.057 E4.72661
G92 E0
G1 E-0.8 F3000
; acceleration to travel
M204 S4000
G1 X59.229 Y68.705 F12000
; decel to extrusion
M204 S2000
G1 X61.32 Y76.528
; end travel
G1 E0 F1800
;TYPE:External perimeter
G1 X61.291 Y76.515 E0.0012
G1 X60.968 Y76.399 E0.01424
G1 X60.659 Y76.321 E0.02638
G1 X60.304 Y76.269 E0.04002
G1 X59.961 Y76.256 E0.05305
G1 X59.691 Y76.271 E0.06332
G1 X59.302 Y76.333 E0.07831
G1 X58.995 Y76.412 E0.09033
G1 X58.708 Y76.515 E0.10195
G1 X58.431 Y76.649 E0.11361
G1 X58.161 Y76.812 E0.12563
G1 X57.844 Y77.047 E0.14061
G1 X57.618 Y77.254 E0.15227
G1 X57.415 Y77.483 E0.1639
G1 X57.228 Y77.738 E0.1759
G1 X57.026 Y78.075 E0.19083
G1 X56.897 Y78.352 E0.20246
G1 X56.797 Y78.64 E0.21406
G1 X56.722 Y78.946 E0.22602
G1 X56.664 Y79.333 E0.2409
G1 X56.65 Y79.638 E0.25251
G1 X56.667 Y79.942 E0.26406
G1 X56.712 Y80.253 E0.276
G1 X56.806 Y80.632 E0.29085
G1 X56.908 Y80.92 E0.30245
G1 X57.038 Y81.194 E0.31398
G1 X57.197 Y81.464 E0.3259
G1 X57.427 Y81.78 E0.34075
G1 X57.631 Y82.008 E0.35238
G1 X57.856 Y82.212 E0.3639
G1 X58.106 Y82.401 E0.37584
G1 X58.44 Y82.606 E0.39071
G1 X58.716 Y82.739 E0.40236
G1 X59.002 Y82.841 E0.41392
G1 X59.307 Y82.92 E0.42587
G1 X59.694 Y82.981 E0.44076
G1 X60 Y82.997 E0.45242
G1 X60.306 Y82.981 E0.46407
G1 X60.693 Y82.92 E0.47896
G1 X60.998 Y82.841 E0.49092
G1 X61.284 Y82.739 E0.50248
G1 X61.56 Y82.606 E0.51413
G1 X61.894 Y82.401 E0.529
G1 X62.144 Y82.212 E0.54093
G1 X62.369 Y82.008 E0.55246
G1 X62.573 Y81.78 E0.56409
G1 X62.803 Y81.464 E0.57894
G1 X62.962 Y81.194 E0.59086
G1 X63.092 Y80.92 E0.60238
G1 X63.194 Y80.632 E0.61399
G1 X63.288 Y80.253 E0.62884
G1 X63.333 Y79.942 E0.64078
G1 X63.35 Y79.639 E0.6523
G1 X63.337 Y79.335 E0.66388
G1 X63.282 Y78.946 E0.67882
G1 X63.204 Y78.639 E0.69085
G1 X63.103 Y78.349 E0.70251
G1 X62.974 Y78.07 E0.71419
G1 X62.775 Y77.735 E0.72901
G1 X62.585 Y77.481 E0.74106
G1 X62.382 Y77.254 E0.75264
G1 X62.158 Y77.047 E0.76423
G1 X61.841 Y76.81 E0.77927
G1 X61.568 Y76.646 E0.79137
G1 X61.32 Y76.528 E0.80181
;WIPE_START
M204 S4000
G1 X61.288 Y76.13 F12000
;WIPE_END
G92 E0
G1 E-0.8 F3000
; acceleration to travel
M73 P6 R6
G1 X64.039 Y76.107 F12000
; decel to extrusion
M204 S2000
G1 X65.415 Y76.095
; end travel
G1 E0 F1800
G1 X65.415 Y78.99 E0.11002
G1 X65.38 Y79.583 E0.1326
G1 X65.276 Y80.157 E0.15479
G1 X65.104 Y80.717 E0.17704
G1 X64.907 Y81.174 E0.19594
G1 X64.618 Y81.682 E0.21819
G1 X64.271 Y82.152 E0.24038
G1 X63.87 Y82.578 E0.26261
G1 X63.487 Y82.902 E0.28167
G1 X63.185 Y83.116 E0.29574
G1 X62.674 Y83.407 E0.31811
G1 X62.214 Y83.606 E0.33714
G1 X61.861 Y83.722 E0.35126
G1 X61.37 Y83.837 E0.37043
G1 X61.002 Y83.888 E0.38455
G1 X60.491 Y83.915 E0.40401
G1 X59.51 Y83.915 E0.44126
G1 X58.916 Y83.88 E0.46389
G1 X58.426 Y83.795 E0.4828
G1 X57.783 Y83.605 E0.50827
G1 X57.328 Y83.408 E0.52712
G1 X56.746 Y83.069 E0.55272
G1 X56.345 Y82.768 E0.57177
G1 X56.133 Y82.58 E0.58255
G1 X55.783 Y82.213 E0.60181
G1 X55.55 Y81.924 E0.61594
G1 X55.272 Y81.503 E0.6351
G1 X55.094 Y81.177 E0.64923
G1 X54.894 Y80.712 E0.66846
G1 X54.801 Y80.441 E0.67935
G1 X54.706 Y80.078 E0.69361
G1 X54.62 Y79.584 E0.71266
G1 X54.585 Y78.99 E0.73529
G1 X54.592 Y37.371 E2.31708
G1 X54.641 Y37.113 E2.32703
G1 X54.716 Y36.909 E2.33531
G1 X54.826 Y36.713 E2.34384
G1 X54.924 Y36.583 E2.35003
G1 X55.08 Y36.427 E2.35842
G1 X55.293 Y36.276 E2.36836
G1 X55.531 Y36.166 E2.3783
G1 X55.74 Y36.111 E2.38651
G1 X56.016 Y36.085 E2.39707
G1 X56.954 Y36.085 E2.43273
G1 X64.086 Y36.09 E2.70379
G1 X64.348 Y36.13 E2.71384
G1 X64.592 Y36.216 E2.72367
G1 X64.816 Y36.346 E2.73351
G1 X65.012 Y36.514 E2.74334
G1 X65.173 Y36.714 E2.75308
G1 X65.32 Y36.996 E2.76518
G1 X65.39 Y37.242 E2.77491
G1 X65.415 Y37.516 E2.78536
G1 X65.415 Y76.095 E4.25159
;WIPE_START
M204 S4000
M73 P7 R6
G1 X65.069 Y76.295 F12000
;WIPE_END
; acceleration to travel
G1 X64.34 Y76.744
; decel to extrusion
M204 S2000
G1 X63.976 Y76.968
; end travel
;TYPE:Gap fill
;WIDTH:0.625133
G1 F1800
G1 X64.033 Y77.154 E4.261
;WIDTH:0.528472
G1 X64.048 Y77.2 E4.26296
G1 X64.083 Y77.329 E4.26835
;WIDTH:0.406975
G1 X64.123 Y77.475 E4.27295
;WIDTH:0.354896
G1 X64.16 Y77.643 E4.27741
;WIDTH:0.262824
G1 X64.197 Y77.811 E4.28055
;WIDTH:0.193666
G1 X64.216 Y77.902 E4.28172
;WIDTH:0.164967
G1 X64.242 Y78.055 E4.28329
;WIDTH:0.131434
G1 X64.25 Y78.102 E4.28364
G1 X64.345 Y78.963 F12000
;WIDTH:0.794718
G1 F1800
G1 X64.349 Y79.01 E4.28665
G1 X64.355 Y79.118 E4.29338
;WIDTH:0.733535
G1 X64.363 Y79.253 E4.30117
G1 X64.366 Y79.323 E4.30517
G1 X64.364 Y79.461 E4.31312
G1 X64.353 Y79.629 E4.32278
G1 X64.35 Y79.662 E4.32466
;WIDTH:0.706487
G1 X64.334 Y79.794 E4.33198
;WIDTH:0.673943
G1 X64.319 Y79.925 E4.33893
G1 X64.295 Y80.053 E4.34576
;WIDTH:0.643775
G1 X64.257 Y80.222 E4.35442
;WIDTH:0.591415
G1 X64.219 Y80.391 E4.36233
G1 X64.203 Y80.445 E4.36488
G1 X64.149 Y80.607 E4.37266
;WIDTH:0.521311
G1 X64.095 Y80.768 E4.37944
G1 X64.043 Y80.897 E4.38497
;WIDTH:0.484105
G1 X63.97 Y81.055 E4.39135
;WIDTH:0.422531
G1 X63.898 Y81.214 E4.39684
G1 X63.876 Y81.254 E4.39829
G1 X63.781 Y81.412 E4.40412
;WIDTH:0.33854
G1 X63.679 Y81.582 E4.409
G1 X63.647 Y81.631 E4.41042
G1 X63.551 Y81.758 E4.41435
;WIDTH:0.259984
G1 X63.448 Y81.894 E4.41743
G1 X63.342 Y82.022 E4.42041
G1 X63.243 Y82.129 E4.42305
;WIDTH:0.167432
G1 X63.139 Y82.241 E4.42463
G1 X63.014 Y82.359 E4.42641
;WIDTH:0.133842
G1 X62.979 Y82.391 E4.42678
; acceleration to travel
M204 S4000
G1 X62.349 Y82.821 F12000
; decel to extrusion
M204 S2000
G1 X62.035 Y83.035
; end travel
;WIDTH:0.728256
G1 F1800
G1 X61.851 Y83.114 E4.43816
G1 X61.698 Y83.173 E4.44752
G1 X61.513 Y83.239 E4.45869
G1 X61.479 Y83.25 E4.46072
G1 X61.376 Y83.28 E4.46687
;WIDTH:0.690826
G1 X61.272 Y83.311 E4.47268
G1 X61.137 Y83.343 E4.48018
;WIDTH:0.65257
G1 X60.953 Y83.379 E4.48966
;WIDTH:0.624665
G1 X60.78 Y83.405 E4.49814
G1 X60.629 Y83.421 E4.50549
;WIDTH:0.577384
G1 X60.478 Y83.437 E4.51224
G1 X60.342 Y83.447 E4.5183
G1 X60.177 Y83.452 E4.52561
;WIDTH:0.540183
G1 X59.987 Y83.456 E4.53349
G1 X59.823 Y83.452 E4.54029
G1 X59.632 Y83.446 E4.54819
;WIDTH:0.568643
G1 X59.525 Y83.438 E4.55288
G1 X59.372 Y83.421 E4.55957
;WIDTH:0.606925
G1 X59.193 Y83.401 E4.56801
G1 X59.084 Y83.384 E4.57319
;WIDTH:0.652762
G1 X58.976 Y83.367 E4.57878
G1 X58.835 Y83.336 E4.58607
G1 X58.693 Y83.298 E4.59353
;WIDTH:0.716708
G1 X58.52 Y83.251 E4.60356
G1 X58.487 Y83.239 E4.60554
G1 X58.3 Y83.167 E4.61675
G1 X58.153 Y83.108 E4.62567
;WIDTH:0.751914
G1 X57.97 Y83.027 E4.63742
; acceleration to travel
M204 S4000
G1 X57.328 Y82.594 F12000
; decel to extrusion
M204 S2000
G1 X57.008 Y82.377
; end travel
;WIDTH:0.153981
G1 F1800
G1 X56.972 Y82.344 E4.63787
G1 X56.86 Y82.242 E4.63927
;WIDTH:0.184837
G1 X56.739 Y82.112 E4.64137
;WIDTH:0.261288
G1 X56.664 Y82.03 E4.64339
G1 X56.552 Y81.895 E4.64657
G1 X56.467 Y81.784 E4.6491
;WIDTH:0.32835
G1 X56.39 Y81.681 E4.65216
G1 X56.321 Y81.582 E4.65501
;WIDTH:0.37883
G1 X56.225 Y81.43 E4.66005
G1 X56.175 Y81.342 E4.66288
;WIDTH:0.410807
G1 X56.125 Y81.253 E4.66598
G1 X56.07 Y81.144 E4.66973
