; generated by SuperSlicer 2.5.59 on 2023-05-30 at 04:27:17 UTC


;
;

;
;
; 

; external perimeters extrusion width = 0.40mm
; perimeters extrusion width = 0.46mm
; infill extrusion width = 0.64mm
; solid infill extrusion width = 0.56mm
; top infill extrusion width = 0.40mm
; first layer extrusion width = 0.50mm

; object:{"name":"x stop switch mount option2","id":"x stop switch mount option2.stl id:0 copy 0","object_center":[60.000000,60.000000,0.000000],"boundingbox_center":[60.000000,60.000000,4.550000],"boundingbox_size":[14.500000,27.350000,9.100000]}
EXCLUDE_OBJECT_DEFINE NAME=x_stop_switch_mount_option2_stl_id_0_copy_0 CENTER=60.000000,60.000000 POLYGON=[[52.750000,46.325000],[57.250000,46.325000],[66.250000,49.425000],[67.250000,50.425000],[67.250000,60.425000],[57.250000,73.675000],[52.750000,73.675000],[52.750000,46.325000]]
; plater:{"center":[60.000000,60.000000,0.000000],"boundingbox_center":[60.000000,60.000000,4.550000],"boundingbox_size":[14.500000,27.350000,9.100000]}

M73 P0 R12
;TYPE:Custom
; custom gcode: start_gcode
START_PRINT T_BED=110 T_EXTRUDER=260
; custom gcode end: start_gcode
M107
G21 ; set units to millimeters
G90 ; use absolute coordinates
M82 ; use absolute distances for extrusion
G92 E0
; custom gcode: start_filament_gcode
; Filament gcode

    PRESSURE_ADVANCE_SELECT FILAMENT=ABS
; custom gcode end: start_filament_gcode
;_TOOLCHANGE 0
M109 S260 ; set temperature and wait for it to be reached
M190 S110 ; set bed temperature and wait for it to be reached
;LAYER_CHANGE
;Z:0.2
;HEIGHT:0.2
G1 Z0.2 F12000
M73 P0 R12
G1 E-0.5 F3000
M204 S2000
G1 X50.629 Y46.446 F12000
G1 E0 F1800
;TYPE:Skirt
;WIDTH:0.52
G1 X49.529 Y47.759 E0.0629
G1 X49.134 Y49.425 E0.12581
G1 X49.134 Y70.575 E0.90273
M73 P0 R12
G1 X49.871 Y72.796 E0.98869
G1 X51.184 Y73.896 E1.05159
G1 X52.85 Y74.291 E1.1145
G1 X57.15 Y74.291 E1.27246
G1 X58.353 Y74.091 E1.31723
G1 X59.802 Y73.178 E1.38014
G1 X69.807 Y62.986 E1.90478
G1 X70.354 Y62.275 E1.93774
G1 X70.862 Y60.639 E2.00065
G1 X70.966 Y58.925 E2.06374
G1 X70.966 Y52.425 E2.30251
G1 X70.861 Y50.278 E2.38146
G1 X70.677 Y49.296 E2.41817
G1 X69.777 Y47.839 E2.48107
G1 X68.835 Y46.897 E2.53
G1 X67.919 Y46.226 E2.57174
G1 X66.257 Y45.81 E2.63464
G1 X58.66 Y45.71 E2.91374
G1 X52.85 Y45.709 E3.12718
G1 X50.629 Y46.446 E3.21313
G1 X51.007 Y46.796 F12000
G1 F1800
G1 X50.005 Y47.877 E3.26726
G1 X49.611 Y49.425 E3.32593
G1 X49.611 Y70.575 E4.10285
G1 X50.131 Y72.334 E4.17022
G1 X51.302 Y73.42 E4.22889
G1 X52.85 Y73.814 E4.28756
G1 X57.15 Y73.814 E4.44552
G1 X58.096 Y73.672 E4.48064
G1 X59.461 Y72.844 E4.53931
G1 X69.467 Y62.652 E5.06395
G1 X70.386 Y60.607 E5.14633
G1 X70.489 Y58.925 E5.20822
G1 X70.489 Y52.425 E5.44699
G1 X70.385 Y50.302 E5.52505
G1 X69.44 Y48.176 E5.61051
G1 X68.498 Y47.235 E5.65944
G1 X67.794 Y46.701 E5.69191
G1 X66.251 Y46.287 E5.75058
G1 X58.654 Y46.187 E6.02967
G1 X52.85 Y46.186 E6.24288
G1 X51.091 Y46.706 E6.31025
G1 X51.007 Y46.796 E6.31479
G92 E0
G1 E-0.5 F3000
; printing object x stop switch mount option2.stl id:0 copy 0
EXCLUDE_OBJECT_START NAME=x_stop_switch_mount_option2_stl_id_0_copy_0
G1 X59.65 Y50.232 F12000
G1 E0 F1800
;TYPE:Internal perimeter
;WIDTH:0.5
G1 X59.471 Y50.232 E0.00633
G1 X59.268 Y50.379 E0.01513
;TYPE:Unknown
G1 X58.658 Y50.823
;TYPE:Internal perimeter
G1 X58.456 Y50.97 E0.02393
G1 X58.342 Y51.127 E0.03078
G1 X58.112 Y51.555 E0.04788
G1 X57.953 Y52.044 E0.06598
G1 X57.884 Y52.554 E0.08409
G1 X57.907 Y53.068 E0.10219
G1 X58.021 Y53.569 E0.12029
G1 X58.223 Y54.042 E0.1384
G1 X58.507 Y54.472 E0.1565
G1 X58.862 Y54.843 E0.1746
G1 X59.278 Y55.146 E0.19271
G1 X59.742 Y55.369 E0.21081
G1 X60.238 Y55.506 E0.22892
G1 X60.399 Y55.52 E0.2346
G1 X60.413 Y55.839 E0.24585
G1 X59.987 Y55.917 E0.26109
G1 X59.505 Y56.098 E0.27919
G1 X59.063 Y56.361 E0.2973
G1 X58.676 Y56.7 E0.3154
G1 X58.355 Y57.102 E0.33351
G1 X58.112 Y57.555 E0.35161
G1 X57.953 Y58.044 E0.36971
G1 X57.884 Y58.554 E0.38782
G1 X57.907 Y59.068 E0.40592
G1 X58.021 Y59.569 E0.42402
G1 X58.223 Y60.042 E0.44213
G1 X58.381 Y60.282 E0.45222
G1 X57.976 Y60.413 E0.46723
G1 X57.326 Y60.777 E0.49343
G1 X56.78 Y61.282 E0.51962
G1 X56.449 Y61.738 E0.53943
G1 X56.137 Y62.414 E0.56562
G1 X55.992 Y63.143 E0.5918
G1 X55.987 Y69.411 E0.81239
G1 X54.014 Y69.411 E0.88182
G1 X54.014 Y50.82 E1.53611
;WIDTH:0.386401
G1 X54.471 Y51.278 E1.5537
;WIDTH:0.5
G1 X54.471 Y68.954 E2.17579
M73 P1 R12
G1 X55.53 Y68.954 E2.21306
G1 X55.535 Y63.098 E2.41915
G1 X55.699 Y62.271 E2.44881
G1 X56.053 Y61.505 E2.47849
G1 X56.436 Y60.977 E2.50147
G1 X57.056 Y60.405 E2.53115
G1 X57.722 Y60.032 E2.55802
G1 X57.585 Y59.711 E2.57029
G1 X57.452 Y59.129 E2.59129
G1 X57.425 Y58.533 E2.61229
G1 X57.505 Y57.942 E2.63329
G1 X57.69 Y57.375 E2.65429
G1 X57.972 Y56.849 E2.67529
G1 X58.344 Y56.383 E2.69629
G1 X58.794 Y55.99 E2.71729
G1 X59.271 Y55.705 E2.73684
G1 X58.56 Y55.189 E2.76774
G1 X58.148 Y54.758 E2.78874
G1 X57.819 Y54.26 E2.80974
G1 X57.585 Y53.711 E2.83074
G1 X57.452 Y53.129 E2.85174
G1 X57.425 Y52.533 E2.87274
G1 X57.505 Y51.942 E2.89374
G1 X57.69 Y51.375 E2.91474
G1 X57.861 Y51.055 E2.92749
G1 X55.157 Y51.05 E3.02268
;WIDTH:0.488853
G1 X55.385 Y51.508 E3.04028
;WIDTH:0.5
G1 X57.165 Y51.511 E3.10289
G1 X57.058 Y51.84 E3.11506
G1 X56.967 Y52.513 E3.13896
G1 X56.997 Y53.191 E3.16285
G1 X57.148 Y53.853 E3.18674
G1 X57.415 Y54.477 E3.21064
G1 X57.789 Y55.044 E3.23453
G1 X58.258 Y55.535 E3.25843
G1 X58.456 Y55.678 E3.26703
G1 X58.013 Y56.065 E3.28774
G1 X57.589 Y56.596 E3.31164
G1 X57.268 Y57.194 E3.33553
G1 X57.058 Y57.84 E3.35943
G1 X56.967 Y58.513 E3.38332
G1 X56.997 Y59.191 E3.40722
G1 X57.143 Y59.832 E3.43035
G1 X56.785 Y60.032 E3.4448
G1 X56.093 Y60.672 E3.47797
G1 X55.656 Y61.273 E3.50412
G1 X55.216 Y62.229 E3.54116
G1 X54.928 Y62.166 E3.55152
G1 X54.928 Y51.507 E3.92665
;WIDTH:0.488853
G1 X54.7 Y51.05 E3.94425
;WIDTH:0.386401
G1 X54.243 Y50.592 E3.96184
;WIDTH:0.5
G1 X58.725 Y50.6 E4.11959
G1 X59.014 Y50.217 E4.13648
G1 X59.065 Y49.762 E4.15258
;TYPE:External perimeter
G1 X66.105 Y49.775 E4.40035
G1 X66.903 Y50.573 E4.44006
G1 X66.923 Y51.438 E4.4705
G1 X67 Y52.435 E4.5057
G1 X67 Y52.688 E4.51463
;TYPE:Internal perimeter
G1 X66.591 Y52.547 E4.52986
;TYPE:External perimeter
G1 X66.497 Y51.974 E4.5503
G1 X66.369 Y51.641 E4.56285
G1 X66.159 Y51.349 E4.57549
G1 X65.905 Y51.114 E4.58769
G1 X65.744 Y51.006 E4.5945
G1 X65.436 Y50.856 E4.60656
G1 X65.099 Y50.763 E4.61889
G1 X64.766 Y50.733 E4.63065
G1 X60.734 Y50.733 E4.77253
G1 X60.402 Y50.763 E4.78429
G1 X60.064 Y50.856 E4.7966
G1 X59.749 Y51.007 E4.80891
G1 X59.466 Y51.213 E4.82122
G1 X59.23 Y51.46 E4.83326
G1 X59.118 Y51.615 E4.83997
G1 X58.956 Y51.916 E4.85201
G1 X58.848 Y52.248 E4.86432
G1 X58.801 Y52.595 E4.87663
G1 X58.816 Y52.945 E4.88894
G1 X58.894 Y53.286 E4.90126
G1 X59.032 Y53.607 E4.91357
G1 X59.224 Y53.899 E4.92588
G1 X59.466 Y54.152 E4.93819
G1 X59.749 Y54.358 E4.95051
G1 X60.064 Y54.51 E4.96282
G1 X60.402 Y54.603 E4.97513
G1 X60.734 Y54.633 E4.98689
G1 X64.766 Y54.633 E5.12877
G1 X65.099 Y54.603 E5.14053
G1 X65.436 Y54.509 E5.15286
G1 X65.744 Y54.359 E5.16493
G1 X65.905 Y54.251 E5.17174
G1 X66.153 Y54.021 E5.18365
G1 X66.275 Y53.867 E5.19055
G1 X66.437 Y53.568 E5.20253
G1 X66.498 Y53.385 E5.20932
G1 X66.561 Y53 E5.22304
;TYPE:Internal perimeter
G1 X66.985 Y53.145 E5.23881
;TYPE:External perimeter
G1 X66.904 Y54.417 E5.28364
G1 X66.904 Y56.93 E5.37211
G1 X66.923 Y57.439 E5.39005
G1 X67 Y58.435 E5.42517
G1 X67 Y58.688 E5.43411
;TYPE:Internal perimeter
G1 X66.591 Y58.547 E5.44933
;TYPE:External perimeter
G1 X66.497 Y57.974 E5.46978
G1 X66.369 Y57.641 E5.48232
G1 X66.159 Y57.349 E5.49497
G1 X65.899 Y57.108 E5.50744
G1 X65.604 Y56.93 E5.51957
G1 X65.428 Y56.854 E5.52631
G1 X65.099 Y56.763 E5.53836
G1 X64.766 Y56.733 E5.55012
G1 X60.742 Y56.733 E5.69172
G1 X60.567 Y56.74 E5.69788
G1 X60.231 Y56.802 E5.70992
G1 X59.903 Y56.924 E5.72223
G1 X59.603 Y57.104 E5.73454
G1 X59.34 Y57.334 E5.74686
G1 X59.121 Y57.608 E5.75917
G1 X58.956 Y57.916 E5.77148
G1 X58.848 Y58.248 E5.78379
G1 X58.801 Y58.595 E5.79611
G1 X58.816 Y58.945 E5.80842
G1 X58.894 Y59.286 E5.82073
G1 X59.032 Y59.607 E5.83304
G1 X59.224 Y59.899 E5.84536
G1 X59.466 Y60.152 E5.85767
G1 X59.749 Y60.358 E5.86999
G1 X60.065 Y60.509 E5.88231
G1 X60.404 Y60.601 E5.89465
G1 X60.736 Y60.628 E5.90639
G1 X64.764 Y60.626 E6.04814
G1 X65.096 Y60.601 E6.05986
G1 X65.427 Y60.511 E6.07193
G1 X65.604 Y60.436 E6.07869
G1 X65.89 Y60.262 E6.09049
G1 X66.042 Y60.139 E6.09738
G1 X66.263 Y59.883 E6.10926
G1 X66.372 Y59.718 E6.11621
G1 X66.497 Y59.391 E6.12854
G1 X66.561 Y59 E6.14248
;TYPE:Internal perimeter
G1 X66.985 Y59.145 E6.15825
;TYPE:External perimeter
G1 X66.912 Y60.273 E6.19801
G1 X66.105 Y61.075 E6.23807
G1 X59.065 Y61.081 E6.48583
G1 X58.701 Y61.139 E6.49881
G1 X58.344 Y61.255 E6.51203
G1 X57.867 Y61.522 E6.53125
G1 X57.466 Y61.892 E6.55047
G1 X57.241 Y62.202 E6.56394
G1 X57.013 Y62.698 E6.58316
G1 X56.906 Y63.233 E6.60237
G1 X56.9 Y70.325 E6.85195
G1 X53.1 Y70.325 E6.9857
G1 X53.1 Y49.675 E7.71243
G1 X58.615 Y49.685 E7.90654
;TYPE:Internal perimeter
G1 X58.564 Y50.142 E7.92272
G1 X53.557 Y50.133 E8.09894
G1 X53.557 Y69.868 E8.79348
G1 X56.444 Y69.868 E8.89507
G1 X56.449 Y63.188 E9.13015
G1 X56.575 Y62.556 E9.15284
G1 X56.845 Y61.97 E9.17555
G1 X57.123 Y61.587 E9.19219
G1 X57.597 Y61.149 E9.2149
M73 P2 R12
G1 X58.16 Y60.834 E9.2376
G1 X58.594 Y60.693 E9.25368
G1 X59.251 Y60.589 E9.2771
G1 X58.866 Y60.186 E9.29675
G1 X58.627 Y59.825 E9.31196
G1 X58.458 Y59.427 E9.32717
G1 X58.361 Y59.006 E9.34238
G1 X58.342 Y58.575 E9.35758
G1 X58.4 Y58.146 E9.37279
G1 X58.534 Y57.735 E9.388
G1 X58.738 Y57.355 E9.40321
G1 X59.008 Y57.017 E9.41842
G1 X59.333 Y56.733 E9.43362
G1 X59.704 Y56.511 E9.44883
G1 X60.109 Y56.359 E9.46404
G1 X60.516 Y56.285 E9.47861
G1 X64.786 Y56.276 E9.62889
G1 X65.181 Y56.311 E9.64283
G1 X65.581 Y56.422 E9.65744
G1 X65.814 Y56.522 E9.66639
G1 X66.447 Y56.906 E9.69242
G1 X66.447 Y54.438 E9.77928
G1 X65.973 Y54.756 E9.79937
G1 X65.599 Y54.939 E9.81403
G1 X65.401 Y54.993 E9.82125
G1 X65.346 Y55.483 E9.83857
G1 X65.99 Y55.305 E9.86207
G1 X65.99 Y56.1 E9.89007
G1 X65.733 Y55.99 E9.89991
G1 X65.126 Y55.822 E9.92207
G1 X65.126 Y55.772 E9.92382
;WIDTH:0.347957
G1 X64.953 Y55.075 E9.94142
;WIDTH:0.5
G1 X64.786 Y55.09 E9.94731
G1 X60.714 Y55.09 E10.09064
G1 X60.32 Y55.054 E10.10456
G1 X59.903 Y54.939 E10.11977
G1 X59.514 Y54.752 E10.13498
G1 X59.164 Y54.498 E10.15019
G1 X58.866 Y54.185 E10.1654
G1 X58.627 Y53.825 E10.1806
G1 X58.458 Y53.427 E10.19581
G1 X58.361 Y53.006 E10.21102
G1 X58.342 Y52.575 E10.22623
G1 X58.4 Y52.146 E10.24144
G1 X58.534 Y51.735 E10.25664
G1 X58.73 Y51.371 E10.27121
G1 X58.878 Y51.167 E10.28009
G1 X59.164 Y50.867 E10.29466
G1 X59.514 Y50.613 E10.30987
G1 X59.715 Y50.516 E10.31774
G1 X59.65 Y50.232 E10.32801
G1 X59.892 Y50.345 F12000
;TYPE:Gap fill
;WIDTH:0.709196
G1 F1800
G1 X60.041 Y50.317 E10.33578
;WIDTH:0.648626
G1 X60.338 Y50.271 E10.34981
;WIDTH:0.613115
G1 X60.519 Y50.262 E10.35777
;WIDTH:0.580554
G1 X64.981 Y50.263 E10.54244
;WIDTH:0.61316
G1 X65.213 Y50.275 E10.55269
;WIDTH:0.640054
G1 X65.408 Y50.302 E10.5617
;WIDTH:0.710345
G1 X65.602 Y50.328 E10.57178
;WIDTH:0.739583
G1 X65.666 Y50.34 E10.57526
;WIDTH:0.794433
G1 X65.853 Y50.383 E10.58639
G1 X66.01 Y50.494 E10.59749
;WIDTH:0.767484
G1 X66.137 Y50.597 E10.6066
;WIDTH:0.716358
G1 X66.366 Y50.802 E10.62258
;WIDTH:0.644367
G1 X66.438 Y50.961 E10.63065
;WIDTH:0.509201
G1 X66.491 Y51.085 E10.63549
;WIDTH:0.423482
G1 X66.552 Y51.268 E10.64113
;WIDTH:0.286052
G1 X66.615 Y51.456 E10.64484
;WIDTH:0.224019
G1 X66.661 Y51.631 E10.64737
;WIDTH:0.137095
G1 X66.699 Y51.798 E10.64861
G92 E0
G1 E-0.5 F3000
G1 X64.915 Y55.683 F12000
G1 E0 F1800
;WIDTH:0.814271
G1 X60.999 Y55.683 E0.23258
G1 X60.617 Y55.698 E0.25529
G92 E0
G1 E-0.5 F3000
G1 X56.846 Y52.415 F12000
G1 E0 F1800
;TYPE:Solid infill
;WIDTH:0.517044
G1 F2400
G1 X56.077 Y51.646 E0.03958
G1 X55.43 Y51.645 F12000
G1 F2400
G1 X56.854 Y53.07 E0.11292
G1 X57.013 Y53.875 F12000
G1 F2400
G1 X55.065 Y51.927 E0.21314
G1 X55.065 Y52.574 F12000
G1 F2400
G1 X58.206 Y55.714 E0.37478
G1 X57.87 Y56.025 F12000
G1 F2400
G1 X55.065 Y53.22 E0.51912
G1 X55.065 Y53.867 F12000
G1 F2400
G1 X57.583 Y56.384 E0.6487
G1 X57.334 Y56.782 F12000
G1 F2400
G1 X55.065 Y54.513 E0.76546
G1 X55.065 Y55.159 F12000
G1 F2400
G1 X57.118 Y57.212 E0.87109
G1 X56.959 Y57.7 F12000
G1 F2400
G1 X55.065 Y55.806 E0.96856
G1 X55.065 Y56.452 F12000
G1 F2400
G1 X56.864 Y58.251 E1.06112
G1 X56.846 Y58.879 F12000
G1 F2400
G1 X55.065 Y57.099 E1.15276
G1 X55.065 Y57.745 F12000
G1 F2400
G1 X56.959 Y59.638 E1.2502
G1 X56.647 Y59.973 F12000
G1 F2400
G1 X55.065 Y58.391 E1.33161
G1 X55.065 Y59.038 F12000
G1 F2400
G1 X56.311 Y60.284 E1.39573
G1 X55.978 Y60.597 F12000
G1 F2400
G1 X55.065 Y59.684 E1.44271
G1 X55.065 Y60.331 F12000
G1 F2400
G1 X55.706 Y60.971 E1.47568
G1 X55.058 Y62.41 F12000
;TYPE:Gap fill
;WIDTH:0.766722
G1 F1800
G1 X55.045 Y62.649 E1.489
;WIDTH:0.741543
G1 X55.019 Y62.888 E1.50193
;WIDTH:0.691062
G1 X55.003 Y63.077 E1.5114
G1 X55.001 Y68.743 E1.79418
G92 E0
G1 E-0.5 F3000
G1 X65.238 Y60.824 F12000
G1 E0 F1800
;WIDTH:0.137177
G1 X65.401 Y60.802 E0.00119
;WIDTH:0.203982
G1 X65.638 Y60.762 E0.00417
;WIDTH:0.298192
G1 X65.767 Y60.735 E0.00677
;WIDTH:0.352207
G1 X65.944 Y60.685 E0.01115
;WIDTH:0.379411
G1 X66.093 Y60.569 E0.01605
;WIDTH:0.329756
G1 X66.424 Y60.249 E0.02622
;WIDTH:0.358382
G1 X66.554 Y60.11 E0.03083
;WIDTH:0.2508
G1 X66.638 Y59.914 E0.03425
G1 X66.747 Y59.558 E0.0402
M106 S255
;LAYER_CHANGE
;Z:0.4
;HEIGHT:0.2
; stop printing object x stop switch mount option2.stl id:0 copy 0
EXCLUDE_OBJECT_END NAME=x_stop_switch_mount_option2_stl_id_0_copy_0
M204 S4000
G1 Z0.4 F12000
G92 E0
G1 E-0.5 F3000
G1 Z0.6 F12000
; printing object x stop switch mount option2.stl id:0 copy 0
EXCLUDE_OBJECT_START NAME=x_stop_switch_mount_option2_stl_id_0_copy_0
G1 X58.217 Y50.918
G1 Z0.4
G1 E0 F1800
;TYPE:Internal perimeter
;WIDTH:0.46
G1 F3372
G1 X58.026 Y51.047 E0.00739
;TYPE:Unknown
G1 X57.675 Y51.283
;TYPE:Internal perimeter
G1 X57.484 Y51.412 E0.01477
G1 X57.325 Y51.901 E0.0313
G1 X57.241 Y52.525 E0.05152
G1 X57.269 Y53.154 E0.07175
G1 X57.409 Y53.768 E0.09197
G1 X57.657 Y54.347 E0.1122
G1 X58.004 Y54.873 E0.13242
G1 X58.439 Y55.328 E0.15264
G1 X58.937 Y55.69 E0.17243
G1 X58.685 Y55.841 E0.18187
G1 X58.211 Y56.255 E0.20209
G1 X57.818 Y56.748 E0.22231
G1 X57.52 Y57.302 E0.24254
G1 X57.325 Y57.901 E0.26276
G1 X57.241 Y58.525 E0.28298
G1 X57.269 Y59.154 E0.30321
G1 X57.409 Y59.768 E0.32343
G1 X57.488 Y59.952 E0.32986
G1 X56.947 Y60.255 E0.34977
G1 X56.298 Y60.855 E0.37813
G1 X55.893 Y61.412 E0.40026
G1 X55.523 Y62.214 E0.42863
G1 X55.351 Y63.08 E0.45697
G1 X55.347 Y68.97 E0.64613
G1 X54.655 Y68.97 E0.66834
G1 X54.655 Y51.032 E1.24439
G1 X57.663 Y51.036 E1.34099
;WIDTH:0.402969
G1 X58.063 Y50.696 E1.35576
;WIDTH:0.46
G1 X58.258 Y50.329 E1.36911
G1 X58.367 Y50.368 E1.37283
G1 X58.432 Y49.948 E1.38647
;WIDTH:0.4
G1 X58.464 Y49.549 E1.39749
;TYPE:External perimeter
G1 X58.913 Y49.667 E1.41023
G1 X59.149 Y49.689 E1.41676
G1 X66.14 Y49.692 E1.60896
M106 S252.45
G1 X66.983 Y50.535 E1.64177
G1 X66.983 Y60.315 E1.91064
G1 X66.139 Y61.158 E1.94345
G1 X59.072 Y61.165 E2.13776
G1 X58.721 Y61.22 E2.14754
G1 X58.377 Y61.332 E2.15747
G1 X57.917 Y61.59 E2.17199
G1 X57.529 Y61.948 E2.1865
G1 X57.314 Y62.245 E2.19658
G1 X57.093 Y62.724 E2.21109
G1 X56.99 Y63.242 E2.22561
G1 X56.984 Y70.608 E2.42815
G1 X53.017 Y70.608 E2.53721
G1 X53.017 Y49.392 E3.12054
G1 X58.141 Y49.398 E3.26143
;TYPE:Internal perimeter
G1 X58.049 Y49.785 E3.27237
;WIDTH:0.46
G1 X53.404 Y49.779 E3.42155
G1 X53.404 Y70.221 E4.07801
G1 X56.597 Y70.221 E4.18055
G1 X56.602 Y63.203 E4.40593
M73 P3 R11
G1 X56.722 Y62.604 E4.42557
G1 X56.978 Y62.048 E4.44522
G1 X57.238 Y61.69 E4.45943
G1 X57.687 Y61.274 E4.47908
G1 X58.221 Y60.975 E4.49873
G1 X58.63 Y60.843 E4.51253
G1 X59.041 Y60.777 E4.52591
G1 X59.417 Y60.777 E4.53799
G1 X59.428 Y60.745 E4.53907
;WIDTH:0.326043
G1 X59.953 Y60.363 E4.55384
;TYPE:External perimeter
;WIDTH:0.4
G1 X60.094 Y60.431 E4.55814
G1 X60.416 Y60.52 E4.56735
