; HEADER_BLOCK_START
; generated by OrcaSlicer 1.6.2 on 2023-05-21 at 19:47:12
; total layer number: 80
; HEADER_BLOCK_END

; THUMBNAIL_BLOCK_START
; THUMBNAIL_BLOCK_END

; external perimeters extrusion width = 0.40mm
; perimeters extrusion width = 0.45mm
; infill extrusion width = 0.45mm
; solid infill extrusion width = 0.40mm
; top infill extrusion width = 0.40mm
; first layer extrusion width = 0.50mm

; EXECUTABLE_BLOCK_START
EXCLUDE_OBJECT_DEFINE NAME=x-left_motormount_bottom.stl_id_0_copy_0 CENTER=60,60 POLYGON=[[28.85,33.7642],[28.8623,33.6078],[28.8652,33.5906],[28.892,33.4774],[28.8989,33.4552],[28.952,33.3241],[28.959,33.3102],[29.0365,33.1827],[29.041,33.1764],[29.1429,33.0571],[30.5571,31.6429],[30.6764,31.541],[30.7041,31.5216],[30.8102,31.459],[30.8714,31.4304],[30.9552,31.399],[31.053,31.3726],[31.1078,31.3623],[31.158,31.3557],[31.2642,31.35],[88.9784,31.35],[91.15,33.5216],[91.15,86.15],[91.112,86.5841],[90.9992,87.005],[90.8151,87.4],[90.5651,87.757],[90.257,88.0651],[89.9,88.3151],[89.505,88.4992],[89.0841,88.612],[88.65,88.65],[51.35,88.65],[50.9159,88.612],[50.4949,88.4992],[50.1,88.3151],[49.743,88.0651],[49.4349,87.757],[49.1849,87.4],[28.959,46.6898],[28.9039,46.5595],[28.8989,46.5448],[28.8635,46.3999],[28.8623,46.3922],[28.85,46.2358],[28.85,33.7642]]
M73 P0 R37
;TYPE:Custom
START_PRINT T_BED=110 T_EXTRUDER=260
G90
G21
M83 ; use relative distances for extrusion
; Filament gcode

    PRESSURE_ADVANCE_SELECT FILAMENT=ABS
M106 S0
;LAYER_CHANGE
;Z:0.2
;HEIGHT:0.2
;BEFORE_LAYER_CHANGE
;0.2
G92 E0

;AFTER_LAYER_CHANGE
;0.2
M204 S1000
G1 E-.5 F3000
G1 Z.2 F21000
G1 X28.836 Y31.35
G1 E.5 F1800
;TYPE:Skirt
;WIDTH:0.5
G1 F3000
G1 X29.229 Y29.888 E.05327
G1 X30.302 Y28.821 E.05327
G1 X31.75 Y28.436 E.05272
G1 X86.291 Y28.436 E1.91952
G1 X88.352 Y29.289 E.0785
G1 X93.211 Y34.148 E.24182
G1 X94.064 Y36.209 E.0785
G1 X94.064 Y86.15 E1.75763
G1 X94.015 Y86.838 E.02428
G1 X93.814 Y87.759 E.03318
G1 X93.202 Y89.071 E.05095
G1 X92.318 Y90.126 E.04844
G1 X91.132 Y90.956 E.05095
G1 X89.838 Y91.427 E.04844
G1 X88.65 Y91.564 E.0421
G1 X51.35 Y91.564 E1.31273
G1 X50.662 Y91.515 E.02428
G1 X49.741 Y91.314 E.03317
G1 X48.428 Y90.702 E.05097
G1 X47.374 Y89.818 E.04843
G1 X46.544 Y88.632 E.05096
G1 X29.092 Y49.845 E1.49684
G1 X28.836 Y48.65 E.04303
G1 X28.836 Y31.41 E.60674
G1 X29.293 Y31.41 F21000
G1 F3000
G1 X29.293 Y31.35 E.00211
G1 X29.685 Y30.019 E.04884
G1 X30.735 Y29.112 E.04884
G1 X31.75 Y28.893 E.03653
G1 X86.291 Y28.893 E1.91952
G1 X88.029 Y29.613 E.06618
G1 X92.887 Y34.471 E.24182
G1 X93.607 Y36.209 E.06618
G1 X93.607 Y86.15 E1.75763
G1 X93.56 Y86.798 E.02288
G1 X93.373 Y87.641 E.03038
G1 X92.828 Y88.809 E.04537
G1 X91.994 Y89.803 E.04563
G1 X90.938 Y90.542 E.04537
G1 X89.72 Y90.985 E.04564
G1 X88.65 Y91.107 E.0379
G1 X51.35 Y91.107 E1.31273
G1 X50.702 Y91.06 E.02288
G1 X49.859 Y90.873 E.03037
G1 X48.691 Y90.328 E.04538
G1 X47.698 Y89.494 E.04563
G1 X46.958 Y88.438 E.04537
G1 X29.509 Y49.658 E1.49662
G1 X29.293 Y48.65 E.03628
G1 X29.293 Y31.47 E.60463
; printing object x-left_motormount_bottom.stl id:0 copy 0
EXCLUDE_OBJECT_START NAME=x-left_motormount_bottom.stl_id_0_copy_0
G1 E-.5
G1 Z.4 F21000
G1 X50.498 Y48.118
G1 Z.2
G1 E.5 F1800
;TYPE:Inner wall
;WIDTH:0.499999
G1 F3000
G1 X50.396 Y47.8 E.01176
G1 X50.138 Y47.434 E.01579
G1 X49.81 Y47.166 E.01489
G1 X49.377 Y46.981 E.01657
G1 X48.971 Y46.929 E.0144
G1 X33.471 Y46.929 E.54551
G1 X33.471 Y33.071 E.4877
G1 X54.008 Y33.068 E.72275
;WIDTH:0.493059
G1 X54.647 Y33.06 E.02216
;WIDTH:0.521078
G1 X55.312 Y33.082 E.02451
G1 X55.983 Y33.071 E.02468
;WIDTH:0.499999
G1 X85.013 Y33.068 E1.02169
;WIDTH:0.492819
G1 X85.584 Y33.059 E.01977
;WIDTH:0.474997
G1 X86.068 Y33.543 E.02278
G1 X85.972 Y33.526 E.00323
;WIDTH:0.47843
G1 X85.362 Y33.495 E.0205
;WIDTH:0.501893
G1 X84.762 Y33.559 E.02132
G1 X84.167 Y33.744 E.02202
;WIDTH:0.499999
G1 X83.621 Y34.025 E.02159
G1 X83.133 Y34.397 E.02159
G1 X82.717 Y34.847 E.02158
G1 X82.386 Y35.363 E.02158
G1 X82.149 Y35.929 E.02158
G1 X82.015 Y36.517 E.02124
G1 X81.984 Y37.139 E.02192
G1 X82.062 Y37.748 E.02159
G1 X82.244 Y38.333 E.02158
G1 X82.525 Y38.879 E.02158
G1 X82.897 Y39.367 E.02159
G1 X83.347 Y39.783 E.02158
G1 X83.863 Y40.114 E.02158
G1 X84.429 Y40.351 E.02158
G1 X84.93 Y40.475 E.01818
G1 X85.436 Y40.52 E.01788
G1 X85.973 Y40.486 E.01893
G1 X86.571 Y40.351 E.02159
G1 X87.137 Y40.114 E.02158
G1 X87.653 Y39.783 E.02158
G1 X88.103 Y39.367 E.02159
G1 X88.475 Y38.879 E.02158
G1 X88.756 Y38.333 E.02158
;WIDTH:0.503366
G1 X88.97 Y37.61 E.02673
G1 X89.009 Y37.005 E.0215
;WIDTH:0.474998
G1 X88.957 Y36.432 E.01914
G1 X89.441 Y36.916 E.02278
G1 X89.441 Y37.006 E.00298
;WIDTH:0.493058
G1 X89.432 Y37.492 E.01687
;WIDTH:0.499999
G1 X89.429 Y67.188 E1.04508
;WIDTH:0.498631
G1 X89.441 Y68 E.02852
;WIDTH:0.494917
G1 X89.431 Y68.513 E.01785
;WIDTH:0.499999
G1 X89.431 Y78.097 E.33727
;WIDTH:0.495717
G1 X89.44 Y78.807 E.02479
;WIDTH:0.506042
G1 X89.429 Y79.92 E.03967
;WIDTH:0.499999
G1 X89.429 Y86.036 E.21524
G1 X89.376 Y86.414 E.01344
G1 X89.194 Y86.694 E.01174
G1 X88.914 Y86.876 E.01174
G1 X88.575 Y86.929 E.01209
G1 X51.468 Y86.929 E1.30593
G1 X51.086 Y86.876 E.01358
G1 X50.806 Y86.694 E.01173
G1 X50.624 Y86.414 E.01175
G1 X50.571 Y86.072 E.01217
G1 X50.569 Y79.203 E.24174
;WIDTH:0.495715
G1 X50.559 Y78.65 E.0193
;WIDTH:0.496777
G1 X50.57 Y78.085 E.01974
;WIDTH:0.499999
G1 X50.571 Y69.483 E.30275
;WIDTH:0.503366
G1 X50.559 Y68 E.05258
;WIDTH:0.494916
G1 X50.569 Y67.487 E.01785
;WIDTH:0.499999
G1 X50.571 Y49.198 E.64364
G1 X50.553 Y48.287 E.03206
G1 X50.517 Y48.176 E.00413
G1 X50.082 Y48.317 F21000
G1 F3000
G1 X50.064 Y48.193 E.0044
G1 X49.87 Y47.822 E.01473
G1 X49.678 Y47.631 E.00952
G1 X49.356 Y47.452 E.01298
G1 X48.971 Y47.386 E.01373
G1 X33.014 Y47.386 E.5616
G1 X33.014 Y32.614 E.51987
G1 X85.768 Y32.614 E1.8566
G1 X86.917 Y33.763 E.05719
G1 X87.129 Y33.95 E.00994
;WIDTH:0.463529
G1 X87.341 Y34.136 E.00915
;WIDTH:0.427059
G1 X87.748 Y34.515 E.01644
;WIDTH:0.397753
G1 X88.137 Y34.911 E.01517
;WIDTH:0.431835
G1 X88.258 Y35.056 E.00565
;WIDTH:0.465917
G1 X88.379 Y35.201 E.00615
;WIDTH:0.499999
G1 X88.5 Y35.346 E.00664
G1 X89.886 Y36.732 E.06898
G1 X89.886 Y37.006 E.00963
G1 X89.886 Y86.036 E1.72555
G1 X89.862 Y86.364 E.01157
G1 X89.716 Y86.766 E.01505
G1 X89.441 Y87.093 E.01505
G1 X89.071 Y87.307 E.01505
G1 X88.595 Y87.386 E.01699
G1 X51.468 Y87.386 E1.30663
G1 X51.136 Y87.362 E.01171
G1 X50.735 Y87.216 E.01504
G1 X50.407 Y86.941 E.01505
G1 X50.193 Y86.571 E.01505
G1 X50.114 Y86.093 E.01705
G1 X50.114 Y48.529 E1.32204
G1 X50.091 Y48.376 E.00542
G1 X49.631 Y48.434 F21000
G1 F3000
G1 X49.627 Y48.327 E.00375
G1 X49.51 Y48.105 E.00884
G1 X49.261 Y47.907 E.01119
G1 X48.971 Y47.843 E.01044
G1 X32.557 Y47.843 E.57768
G1 X32.557 Y32.157 E.55204
G1 X85.957 Y32.157 E1.87935
G1 X90.343 Y36.543 E.21829
G1 X90.343 Y37.006 E.01629
G1 X90.343 Y86.036 E1.72555
M73 P1 R37
G1 X90.276 Y86.586 E.01949
G1 X90.113 Y86.995 E.0155
G1 X89.84 Y87.34 E.0155
G1 X89.495 Y87.613 E.0155
G1 X89.086 Y87.776 E.0155
G1 X88.615 Y87.843 E.01674
G1 X51.464 Y87.843 E1.30747
G1 X50.914 Y87.776 E.01949
G1 X50.505 Y87.613 E.0155
G1 X50.16 Y87.341 E.01549
G1 X49.887 Y86.995 E.01551
G1 X49.724 Y86.588 E.01543
G1 X49.657 Y86.114 E.01685
G1 X49.657 Y49.198 E1.29919
G1 X49.633 Y48.494 E.02481
G1 X49.197 Y48.494 F21000
;TYPE:Outer wall
G1 F3000
G1 X49.123 Y48.358 E.00546
G1 X48.971 Y48.3 E.00572
G1 X32.1 Y48.3 E.59377
G1 X32.1 Y31.7 E.58422
G1 X86.146 Y31.7 E1.9021
G1 X90.8 Y36.354 E.23161
G1 X90.8 Y37.006 E.02296
G1 X90.8 Y86.135 E1.72903
G1 X90.718 Y86.704 E.02024
G1 X90.511 Y87.224 E.01971
G1 X90.164 Y87.664 E.01971
G1 X89.724 Y88.011 E.0197
G1 X89.204 Y88.218 E.01971
G1 X88.635 Y88.3 E.02024
G1 X51.365 Y88.3 E1.31165
G1 X50.796 Y88.218 E.02025
G1 X50.276 Y88.011 E.0197
G1 X49.836 Y87.663 E.01972
G1 X49.489 Y87.224 E.01969
G1 X49.283 Y86.706 E.01964
G1 X49.2 Y86.134 E.02033
G1 X49.197 Y48.554 E1.32259
G1 X49.218 Y48.471
G1 E-.5
G1 Z.4 F21000
G1 X83.794 Y39.529
G1 Z.2
G1 E.5 F1800
;TYPE:Inner wall
G1 F3000
G1 X83.609 Y39.408 E.00776
G1 X83.22 Y39.043 E.01878
G1 X82.9 Y38.616 E.01878
G1 X82.658 Y38.14 E.01878
G1 X82.504 Y37.63 E.01878
G1 X82.44 Y37.099 E.01879
G1 X82.471 Y36.558 E.01908
G1 X82.59 Y36.047 E.01848
G1 X82.8 Y35.556 E.01878
G1 X83.092 Y35.109 E.01878
G1 X83.457 Y34.72 E.01878
G1 X83.884 Y34.4 E.01878
G1 X84.36 Y34.158 E.01879
G1 X84.879 Y34.002 E.01908
G1 X85.4 Y33.94 E.01848
G1 X85.933 Y33.969 E.01878
G1 X86.453 Y34.09 E.01878
G1 X86.937 Y34.314 E.01877
;WIDTH:0.469167
G1 X87.149 Y34.474 E.00872
;WIDTH:0.433459
G1 X87.362 Y34.634 E.00799
;WIDTH:0.397751
G1 X87.741 Y34.996 E.01433
;WIDTH:0.435915
G1 X87.917 Y35.192 E.00798
;WIDTH:0.483717
G1 X88.094 Y35.388 E.00895
;WIDTH:0.499999
G1 X88.342 Y35.86 E.01875
G1 X88.496 Y36.371 E.01878
G1 X88.56 Y36.9 E.01878
G1 X88.531 Y37.433 E.01878
G1 X88.41 Y37.953 E.01878
G1 X88.2 Y38.444 E.01878
G1 X87.908 Y38.891 E.01878
G1 X87.543 Y39.28 E.01878
G1 X87.116 Y39.6 E.01878
G1 X86.64 Y39.842 E.01878
G1 X86.129 Y39.996 E.01878
G1 X85.6 Y40.06 E.01878
G1 X85.067 Y40.031 E.01878
G1 X84.547 Y39.91 E.01878
G1 X84.056 Y39.7 E.01878
G1 X83.844 Y39.562 E.00892
G1 X84.069 Y39.166 F21000
G1 F3000
G1 X84.031 Y39.146 E.00151
G1 X83.78 Y38.957 E.01107
G1 X83.466 Y38.629 E.01599
G1 X83.214 Y38.251 E.01598
G1 X83.032 Y37.835 E.01598
G1 X82.924 Y37.394 E.01598
G1 X82.895 Y36.938 E.01606
G1 X82.946 Y36.484 E.0161
G1 X83.073 Y36.053 E.01579
G1 X83.274 Y35.646 E.01599
G1 X83.543 Y35.28 E.01598
G1 X83.871 Y34.966 E.01598
G1 X84.249 Y34.714 E.01599
G1 X84.667 Y34.531 E.01606
G1 X85.112 Y34.424 E.0161
G1 X85.56 Y34.395 E.01579
G1 X86.011 Y34.445 E.01598
G1 X86.447 Y34.573 E.01598
G1 X86.854 Y34.774 E.01599
G1 X87.22 Y35.043 E.01598
G1 X87.534 Y35.371 E.01598
G1 X87.786 Y35.749 E.01599
G1 X87.968 Y36.165 E.01598
G1 X88.076 Y36.607 E.01599
G1 X88.105 Y37.06 E.01598
G1 X88.055 Y37.511 E.01598
G1 X87.968 Y37.835 E.01179
G1 X87.726 Y38.354 E.02017
G1 X87.457 Y38.72 E.01598
G1 X87.129 Y39.034 E.01599
G1 X86.751 Y39.286 E.01598
G1 X86.335 Y39.468 E.01598
G1 X85.893 Y39.576 E.01599
G1 X85.44 Y39.605 E.01598
G1 X84.989 Y39.555 E.01598
G1 X84.553 Y39.427 E.01598
G1 X84.122 Y39.195 E.01724
G1 X84.375 Y38.815 F21000
;TYPE:Outer wall
G1 F3000
G1 X84.293 Y38.771 E.00327
G1 X83.866 Y38.397 E.02
G1 X83.628 Y38.058 E.01458
G1 X83.473 Y37.716 E.01319
G1 X83.38 Y37.354 E.01319
G1 X83.35 Y36.979 E.01322
G1 X83.388 Y36.602 E.01335
G1 X83.487 Y36.246 E.013
G1 X83.648 Y35.908 E.01319
G1 X83.866 Y35.603 E.01319
G1 X84.134 Y35.341 E.01319
G1 X84.442 Y35.128 E.01319
G1 X84.784 Y34.973 E.01322
G1 X85.152 Y34.879 E.01335
G1 X85.52 Y34.85 E.013
G1 X85.893 Y34.887 E.01319
G1 X86.254 Y34.987 E.01319
G1 X86.592 Y35.148 E.01319
G1 X86.897 Y35.366 E.01319
G1 X87.159 Y35.634 E.01319
G1 X87.372 Y35.942 E.01319
G1 X87.527 Y36.284 E.01319
G1 X87.62 Y36.646 E.01319
G1 X87.65 Y37.02 E.01319
G1 X87.613 Y37.393 E.01319
G1 X87.527 Y37.716 E.01179
G1 X87.352 Y38.092 E.01458
G1 X87.134 Y38.397 E.01319
G1 X86.866 Y38.659 E.01319
G1 X86.558 Y38.872 E.01319
G1 X86.216 Y39.027 E.01319
G1 X85.854 Y39.12 E.01319
G1 X85.48 Y39.15 E.01319
G1 X85.107 Y39.113 E.01319
G1 X84.746 Y39.013 E.01319
G1 X84.428 Y38.844 E.01268
G1 X84.36 Y38.826
G1 E-.5
G1 Z.4 F21000
G1 X83.504 Y54.902
G1 Z.2
G1 E.5 F1800
;TYPE:Inner wall
G1 F3000
G1 X83.483 Y55.019 E.0042
G1 X82.936 Y57.06 E.07436
G1 X82.841 Y57.322 E.00981
G1 X81.948 Y59.237 E.07436
G1 X81.521 Y59.889 E.02741
G1 X80.596 Y61.209 E.05674
G1 X79.789 Y62.052 E.04107
G1 X78.923 Y62.917 E.04308
G1 X78.317 Y63.371 E.02666
G1 X76.979 Y64.308 E.0575
G1 X76.103 Y64.743 E.03441
G1 X74.814 Y65.344 E.05004
G1 X74.132 Y65.551 E.02508
G1 X72.519 Y65.983 E.05878
G1 X71.906 Y66.061 E.02175
G1 X70.139 Y66.216 E.06241
G1 X69.168 Y66.155 E.03427
G1 X67.756 Y66.031 E.04988
G1 X66.758 Y65.789 E.03612
G1 X65.44 Y65.436 E.04803
G1 X65.178 Y65.341 E.00981
G1 X63.263 Y64.448 E.07436
G1 X62.582 Y64.001 E.02868
G1 X61.291 Y63.096 E.05548
G1 X60.448 Y62.289 E.04107
G1 X59.583 Y61.423 E.04308
G1 X59.129 Y60.817 E.02664
G1 X58.192 Y59.479 E.05751
G1 X57.934 Y58.984 E.01962
G1 X57.159 Y57.322 E.06454
G1 X57.064 Y57.06 E.00981
G1 X56.517 Y55.019 E.07436
G1 X56.469 Y54.744 E.00981
G1 X56.284 Y52.639 E.07436
G1 X56.284 Y52.361 E.00981
G1 X56.469 Y50.256 E.07436
G1 X56.69 Y49.334 E.03336
G1 X57.064 Y47.94 E.05079
G1 X57.159 Y47.678 E.00981
G1 X58.052 Y45.763 E.07436
G1 X58.499 Y45.082 E.02868
G1 X59.404 Y43.791 E.05548
G1 X60.211 Y42.948 E.04107
G1 X61.077 Y42.083 E.04308
G1 X61.683 Y41.629 E.02666
G1 X63.195 Y40.586 E.06463
G1 X65.178 Y39.659 E.07703
G1 X65.44 Y39.564 E.00981
G1 X67.481 Y39.017 E.07436
G1 X67.756 Y38.969 E.00981
G1 X69.861 Y38.784 E.07436
G1 X70.139 Y38.784 E.00981
G1 X72.244 Y38.969 E.07436
G1 X72.519 Y39.017 E.00981
G1 X74.56 Y39.564 E.07436
G1 X74.822 Y39.659 E.00981
G1 X76.737 Y40.552 E.07436
G1 X77.418 Y40.999 E.02868
G1 X78.709 Y41.904 E.05548
G1 X79.552 Y42.711 E.04107
G1 X80.417 Y43.577 E.04308
G1 X80.871 Y44.183 E.02666
G1 X81.808 Y45.521 E.0575
G1 X82.066 Y46.016 E.01962
G1 X82.841 Y47.678 E.06453
G1 X82.936 Y47.94 E.00981
G1 X83.483 Y49.981 E.07436
G1 X83.531 Y50.256 E.00981
G1 X83.716 Y52.361 E.07436
G1 X83.716 Y52.639 E.00981
G1 X83.531 Y54.744 E.07436
G1 X83.514 Y54.843 E.00351
G1 X83.055 Y54.822 F21000
G1 F3000
G1 X83.042 Y54.901 E.0028
G1 X82.495 Y56.942 E.07436
G1 X82.427 Y57.129 E.00701
G1 X81.534 Y59.044 E.07436
G1 X81.147 Y59.627 E.02461
G1 X80.222 Y60.947 E.05674
G1 X78.6 Y62.594 E.08135
G1 X78.055 Y62.997 E.02386
G1 X76.716 Y63.934 E.0575
G1 X74.623 Y64.929 E.08157
G1 X72.401 Y65.542 E.08114
G1 X71.866 Y65.606 E.01895
G1 X70.1 Y65.76 E.06241
G1 X67.795 Y65.576 E.08135
G1 X66.877 Y65.348 E.03332
G1 X65.558 Y64.995 E.04803
G1 X65.371 Y64.927 E.00701
G1 X63.456 Y64.034 E.07436
G1 X61.553 Y62.722 E.08135
G1 X59.906 Y61.1 E.08135
G1 X59.503 Y60.555 E.02384
G1 X58.566 Y59.216 E.05751
G1 X58.348 Y58.791 E.01682
G1 X57.573 Y57.129 E.06454
G1 X57.505 Y56.942 E.00701
G1 X56.958 Y54.901 E.07436
G1 X56.924 Y54.705 E.00701
G1 X56.74 Y52.6 E.07436
G1 X56.74 Y52.4 E.00701
G1 X56.924 Y50.295 E.07436
G1 X57.132 Y49.452 E.03056
G1 X57.505 Y48.058 E.05079
G1 X57.573 Y47.871 E.00701
G1 X58.466 Y45.956 E.07436
G1 X59.778 Y44.053 E.08135
G1 X61.4 Y42.406 E.08135
G1 X61.945 Y42.003 E.02386
G1 X63.408 Y40.991 E.06259
G1 X65.371 Y40.073 E.07627
G1 X65.558 Y40.005 E.00701
G1 X67.599 Y39.458 E.07436
G1 X67.795 Y39.424 E.00701
G1 X69.9 Y39.24 E.07436
G1 X70.1 Y39.24 E.00701
G1 X72.205 Y39.424 E.07436
G1 X72.401 Y39.458 E.00701
G1 X74.442 Y40.005 E.07436
G1 X74.629 Y40.073 E.00701
G1 X76.544 Y40.966 E.07436
G1 X78.447 Y42.278 E.08135
G1 X80.094 Y43.9 E.08135
G1 X80.497 Y44.445 E.02386
G1 X81.434 Y45.784 E.0575
G1 X81.652 Y46.209 E.01682
G1 X82.427 Y47.871 E.06453
G1 X82.495 Y48.058 E.00701
G1 X83.042 Y50.099 E.07436
G1 X83.076 Y50.295 E.00701
G1 X83.26 Y52.4 E.07436
G1 X83.26 Y52.6 E.00701
G1 X83.076 Y54.705 E.07436
G1 X83.066 Y54.763 E.0021
G1 X82.607 Y54.711 F21000
G1 F3000
G1 X82.6 Y54.782 E.00251
G1 X82.012 Y56.936 E.07856
G1 X81.119 Y58.851 E.07436
G1 X80.772 Y59.364 E.02182
G1 X79.848 Y60.685 E.05674
G1 X78.277 Y62.271 E.07856
G1 X76.454 Y63.56 E.07856
G1 X74.432 Y64.514 E.07868
G1 X72.282 Y65.1 E.07843
G1 X70.06 Y65.305 E.07856
G1 X67.835 Y65.121 E.07855
G1 X66.995 Y64.906 E.03052
G1 X65.564 Y64.512 E.05222
G1 X63.649 Y63.619 E.07436
G1 X61.815 Y62.348 E.07855
G1 X60.229 Y60.777 E.07856
G1 X58.94 Y58.954 E.07855
G1 X57.988 Y56.936 E.07856
G1 X57.379 Y54.665 E.08274
G1 X57.195 Y52.44 E.07856
G1 X57.379 Y50.335 E.07436
G1 X57.573 Y49.571 E.02776
G1 X57.988 Y48.064 E.05499
G1 X58.881 Y46.149 E.07436
G1 X60.152 Y44.315 E.07856
G1 X61.723 Y42.729 E.07855
G1 X63.62 Y41.395 E.08161
G1 X65.677 Y40.447 E.0797
G1 X67.835 Y39.879 E.07855
G1 X70.06 Y39.695 E.07856
G1 X72.282 Y39.9 E.07856
G1 X74.323 Y40.447 E.07436
G1 X76.351 Y41.381 E.07855
G1 X78.185 Y42.652 E.07856
G1 X79.771 Y44.223 E.07855
G1 X81.06 Y46.046 E.07856
G1 X82.012 Y48.064 E.07855
G1 X82.6 Y50.218 E.07856
G1 X82.805 Y52.56 E.08274
G1 X82.612 Y54.652 E.07393
G1 X82.16 Y54.644 F21000
;TYPE:Outer wall
G1 F3000
