; HEADER_BLOCK_START
; generated by OrcaSlicer 1.6.2 on 2023-05-21 at 19:47:03
; total layer number: 80
; HEADER_BLOCK_END

; THUMBNAIL_BLOCK_START
; THUMBNAIL_BLOCK_END

; external perimeters extrusion width = 0.40mm
; perimeters extrusion width = 0.45mm
; infill extrusion width = 0.45mm
; solid infill extrusion width = 0.40mm
; top infill extrusion width = 0.40mm
; first layer extrusion width = 0.50mm

; EXECUTABLE_BLOCK_START
EXCLUDE_OBJECT_DEFINE NAME=x-left_motormount_top.stl_id_0_copy_0 CENTER=60,60 POLYGON=[[28.85,51.35],[48.85,31.35],[91.15,31.35],[91.15,86.4784],[88.9784,88.65],[28.85,88.65],[28.85,51.35]]
M73 P0 R36
;TYPE:Custom
START_PRINT T_BED=110 T_EXTRUDER=260
G90
G21
M83 ; use relative distances for extrusion
; Filament gcode

    PRESSURE_ADVANCE_SELECT FILAMENT=ABS
M106 S0
;LAYER_CHANGE
;Z:0.2
;HEIGHT:0.2
;BEFORE_LAYER_CHANGE
;0.2
G92 E0

;AFTER_LAYER_CHANGE
;0.2
M204 S1000
G1 E-.5 F3000
G1 Z.2 F21000
G1 X39.439 Y39.439
G1 E.5 F1800
;TYPE:Skirt
;WIDTH:0.5
G1 F3000
G1 X48.189 Y30.689 E.4355
G1 X50.25 Y29.836 E.0785
G1 X89.75 Y29.836 E1.39016
G1 X91.212 Y30.229 E.05327
G1 X92.279 Y31.302 E.05327
G1 X92.664 Y32.75 E.05272
G1 X92.664 Y85.899 E1.8705
G1 X91.811 Y87.959 E.0785
G1 X90.459 Y89.311 E.06726
G1 X88.399 Y90.164 E.0785
G1 X30.25 Y90.164 E2.04647
G1 X28.788 Y89.771 E.05327
G1 X27.721 Y88.698 E.05327
G1 X27.336 Y87.25 E.05272
G1 X27.336 Y52.75 E1.21419
G1 X28.189 Y50.689 E.0785
G1 X39.397 Y39.482 E.55782
G1 X39.72 Y39.805 F21000
G1 F3000
G1 X48.513 Y31.013 E.43761
G1 X50.25 Y30.293 E.06618
G1 X89.75 Y30.293 E1.39016
G1 X91.081 Y30.685 E.04884
G1 X91.988 Y31.735 E.04884
G1 X92.207 Y32.75 E.03653
G1 X92.207 Y85.899 E1.8705
G1 X91.487 Y87.636 E.06618
G1 X90.136 Y88.987 E.06726
G1 X88.399 Y89.707 E.06618
G1 X30.25 Y89.707 E2.04647
M73 P0 R35
G1 X28.919 Y89.315 E.04884
G1 X28.012 Y88.265 E.04884
G1 X27.793 Y87.25 E.03653
G1 X27.793 Y52.75 E1.21419
G1 X28.513 Y51.013 E.06618
G1 X39.678 Y39.847 E.55571
; printing object x-left_motormount_top.stl id:0 copy 0
EXCLUDE_OBJECT_START NAME=x-left_motormount_top.stl_id_0_copy_0
G1 E-.5
G1 Z.4 F21000
G1 X80.404 Y82.64
G1 Z.2
G1 E.5 F1800
;TYPE:Inner wall
;WIDTH:0.499999
G1 F3000
G1 X80.261 Y82.497 E.00708
G1 X79.899 Y82.225 E.01595
G1 X79.494 Y82.071 E.01524
G1 X79.13 Y82.029 E.0129
G1 X61.301 Y82.029 E.62748
G1 X60.658 Y82.043 E.02264
G1 X60.101 Y82.225 E.02061
G1 X59.869 Y82.38 E.00981
G1 X59.596 Y82.64 E.01325
G1 X59.514 Y81.974 E.02359
G1 X59.355 Y81.381 E.02161
G1 X59.182 Y80.954 E.01623
G1 X58.861 Y80.321 E.02496
G1 X58.329 Y79.605 E.03139
G1 X57.681 Y78.992 E.03139
G1 X56.937 Y78.5 E.0314
G1 X56.119 Y78.145 E.03139
G1 X55.251 Y77.938 E.03139
G1 X54.361 Y77.884 E.0314
G1 X53.474 Y77.986 E.03139
G1 X52.609 Y78.245 E.03179
G1 X51.821 Y78.639 E.03099
G1 X51.105 Y79.171 E.03139
G1 X50.492 Y79.819 E.03139
G1 X50.139 Y80.321 E.02161
G1 X49.917 Y80.742 E.01675
G1 X49.689 Y81.243 E.01938
G1 X49.548 Y81.745 E.01833
G1 X49.431 Y82.329 E.02096
G1 X49.384 Y83.139 E.02858
G1 X49.486 Y84.026 E.0314
G1 X49.741 Y84.881 E.03139
G1 X50.054 Y85.53 E.02537
G1 X31.971 Y85.529 E.63639
G1 X31.971 Y54.471 E1.09304
G1 X50.371 Y54.471 E.64757
G1 X50.773 Y54.42 E.01425
G1 X51.229 Y54.222 E.01749
G1 X51.515 Y53.99 E.01297
G1 X51.735 Y53.708 E.01256
G1 X51.914 Y53.295 E.01587
G1 X51.971 Y52.871 E.01503
G1 X51.975 Y43.945 E.31417
G1 X52.472 Y44.401 E.02373
G1 X53.038 Y44.768 E.02374
G1 X53.659 Y45.03 E.02372
G1 X54.316 Y45.181 E.02373
G1 X54.989 Y45.216 E.02373
G1 X55.659 Y45.133 E.02373
G1 X56.303 Y44.935 E.02372
G1 X56.904 Y44.628 E.02374
G1 X57.442 Y44.222 E.02373
G1 X57.901 Y43.728 E.02373
G1 X58.267 Y43.162 E.02373
G1 X58.53 Y42.541 E.02373
G1 X58.681 Y41.884 E.02373
G1 X58.716 Y41.211 E.02373
G1 X58.633 Y40.541 E.02373
G1 X58.435 Y39.897 E.02373
G1 X58.128 Y39.296 E.02373
G1 X57.722 Y38.758 E.02373
G1 X57.228 Y38.299 E.02373
G1 X56.662 Y37.932 E.02374
G1 X56.041 Y37.67 E.02372
G1 X55.379 Y37.518 E.0239
G1 X54.704 Y37.485 E.02378
G1 X54.179 Y37.537 E.01857
G1 X53.659 Y37.67 E.0189
G1 X53.038 Y37.933 E.02372
G1 X52.472 Y38.299 E.02374
G1 X51.975 Y38.755 E.02373
G1 X51.971 Y34.471 E.15078
G1 X88.029 Y34.471 E1.269
G1 X88.025 Y38.756 E.15078
G1 X87.528 Y38.299 E.02374
G1 X86.962 Y37.933 E.02373
G1 X86.341 Y37.67 E.02372
G1 X85.679 Y37.518 E.0239
G1 X85.004 Y37.485 E.02378
G1 X84.341 Y37.567 E.02351
G1 X83.697 Y37.765 E.02372
G1 X83.096 Y38.072 E.02373
G1 X82.558 Y38.478 E.02373
G1 X82.099 Y38.972 E.02373
G1 X81.733 Y39.538 E.02373
G1 X81.47 Y40.159 E.02373
G1 X81.319 Y40.816 E.02373
G1 X81.284 Y41.489 E.02373
G1 X81.369 Y42.163 E.02389
G1 X81.568 Y42.809 E.02379
G1 X81.872 Y43.404 E.0235
G1 X82.278 Y43.942 E.02373
G1 X82.772 Y44.401 E.02373
G1 X83.238 Y44.717 E.01982
G1 X83.762 Y44.963 E.02036
G1 X84.341 Y45.133 E.02126
G1 X85.011 Y45.216 E.02373
G1 X85.684 Y45.181 E.02373
G1 X86.341 Y45.03 E.02373
G1 X86.962 Y44.768 E.02372
G1 X87.528 Y44.401 E.02374
G1 X88.025 Y43.944 E.02374
G1 X88.029 Y54.207 E.36118
G1 X85.456 Y56.779 E.12803
G1 X84.8 Y57.479 E.03376
G1 X84.601 Y57.893 E.01618
G1 X84.529 Y58.37 E.01696
G1 X84.529 Y76.199 E.62749
G1 X84.543 Y76.842 E.02264
G1 X84.726 Y77.399 E.02061
G1 X84.88 Y77.631 E.00981
G1 X85.14 Y77.904 E.01325
G1 X84.474 Y77.986 E.02359
G1 X83.881 Y78.145 E.02161
G1 X83.454 Y78.318 E.01624
G1 X82.821 Y78.639 E.02496
G1 X82.105 Y79.171 E.03139
G1 X81.492 Y79.819 E.03139
G1 X81 Y80.563 E.03139
G1 X80.645 Y81.381 E.03139
G1 X80.486 Y81.974 E.02161
G1 X80.411 Y82.58 E.02148
G1 E-.5
G1 Z.4 F21000
G1 X80.907 Y83.789
G1 Z.2
G1 E.5 F1800
G1 F3000
G1 X79.938 Y82.821 E.04822
G1 X79.679 Y82.626 E.01139
G1 X79.39 Y82.516 E.01089
G1 X79.13 Y82.486 E.00921
G1 X61.301 Y82.486 E.62748
G1 X60.718 Y82.496 E.0205
G1 X60.321 Y82.626 E.01472
G1 X60.062 Y82.821 E.01139
G1 X59.093 Y83.789 E.04822
G1 X59.16 Y82.9 E.03138
G1 X59.072 Y82.093 E.0286
G1 X58.913 Y81.5 E.02161
G1 X58.768 Y81.147 E.01343
G1 X58.486 Y80.584 E.02216
G1 X58.006 Y79.928 E.0286
G1 X57.419 Y79.366 E.02859
G1 X56.744 Y78.914 E.0286
G1 X56 Y78.587 E.0286
G1 X55.211 Y78.393 E.02859
G1 X54.4 Y78.34 E.0286
G1 X53.593 Y78.428 E.02859
G1 X52.802 Y78.66 E.029
G1 X52.084 Y79.014 E.02819
G1 X51.428 Y79.494 E.0286
G1 X50.866 Y80.081 E.02859
G1 X50.414 Y80.756 E.0286
G1 X50.155 Y81.313 E.02161
G1 X49.989 Y81.863 E.02023
G1 X49.886 Y82.368 E.01816
G1 X49.84 Y83.1 E.02578
G1 X49.928 Y83.907 E.0286
G1 X50.155 Y84.687 E.0286
G1 X50.514 Y85.416 E.0286
G1 X50.923 Y85.987 E.02471
G1 X31.514 Y85.986 E.68307
G1 X31.514 Y54.014 E1.12521
G1 X50.371 Y54.014 E.66366
G1 X50.635 Y53.983 E.00934
G1 X50.984 Y53.836 E.01333
G1 X51.274 Y53.572 E.01381
G1 X51.444 Y53.267 E.01228
G1 X51.514 Y52.871 E.01414
G1 X51.514 Y42.647 E.35985
G1 X51.501 Y41.94 E.02489
;WIDTH:0.479575
G1 X51.519 Y42.038 E.00335
;WIDTH:0.499999
G1 X51.679 Y42.61 E.02092
G1 X51.946 Y43.141 E.02093
G1 X52.302 Y43.618 E.02093
G1 X52.734 Y44.026 E.02093
G1 X53.231 Y44.353 E.02093
G1 X53.777 Y44.589 E.02093
G1 X54.356 Y44.726 E.02093
G1 X54.95 Y44.76 E.02093
G1 X55.54 Y44.691 E.02093
G1 X56.11 Y44.521 E.02092
G1 X56.641 Y44.254 E.02093
G1 X57.118 Y43.898 E.02093
G1 X57.526 Y43.466 E.02093
G1 X57.853 Y42.969 E.02093
G1 X58.089 Y42.423 E.02093
G1 X58.226 Y41.844 E.02093
G1 X58.26 Y41.25 E.02093
G1 X58.191 Y40.66 E.02093
G1 X58.021 Y40.09 E.02093
G1 X57.754 Y39.559 E.02093
G1 X57.398 Y39.082 E.02093
G1 X56.966 Y38.674 E.02093
G1 X56.469 Y38.347 E.02093
G1 X55.923 Y38.111 E.02093
G1 X55.341 Y37.974 E.02105
G1 X54.744 Y37.94 E.02103
G1 X54.085 Y38.029 E.0234
G1 X53.59 Y38.179 E.0182
G1 X53.059 Y38.446 E.02093
G1 X52.582 Y38.802 E.02093
G1 X52.174 Y39.234 E.02093
G1 X51.847 Y39.731 E.02093
G1 X51.611 Y40.277 E.02093
G1 X51.494 Y40.858 E.02084
G1 X51.514 Y40.264 E.02089
G1 X51.514 Y34.014 E.21997
G1 X88.486 Y34.014 E1.30117
G1 X88.486 Y40.255 E.21963
G1 X88.506 Y40.857 E.02122
;WIDTH:0.480134
G1 X88.481 Y40.659 E.00674
;WIDTH:0.499999
G1 X88.318 Y40.084 E.02103
G1 X88.054 Y39.559 E.02071
G1 X87.698 Y39.082 E.02093
G1 X87.266 Y38.674 E.02093
G1 X86.769 Y38.347 E.02093
G1 X86.223 Y38.111 E.02093
G1 X85.641 Y37.974 E.02105
G1 X85.044 Y37.94 E.02103
G1 X84.46 Y38.009 E.02071
G1 X83.89 Y38.179 E.02093
G1 X83.359 Y38.446 E.02093
G1 X82.882 Y38.802 E.02093
G1 X82.474 Y39.234 E.02093
G1 X82.147 Y39.731 E.02093
G1 X81.911 Y40.277 E.02093
G1 X81.774 Y40.856 E.02093
G1 X81.74 Y41.45 E.02093
G1 X81.81 Y42.044 E.02105
G1 X81.982 Y42.616 E.02103
G1 X82.246 Y43.141 E.0207
G1 X82.602 Y43.618 E.02093
G1 X83.034 Y44.026 E.02093
G1 X83.46 Y44.317 E.01814
G1 X83.936 Y44.541 E.01852
G1 X84.46 Y44.691 E.01917
G1 X85.05 Y44.76 E.02093
G1 X85.644 Y44.726 E.02093
G1 X86.223 Y44.589 E.02093
G1 X86.769 Y44.353 E.02092
G1 X87.266 Y44.026 E.02093
G1 X87.698 Y43.618 E.02093
G1 X88.054 Y43.141 E.02093
G1 X88.321 Y42.61 E.02093
G1 X88.481 Y42.038 E.02092
G1 X88.486 Y54.396 E.43495
G1 X85.241 Y57.651 E.16174
G1 X85.054 Y57.98 E.01331
G1 X84.986 Y58.37 E.01394
G1 X84.996 Y76.782 E.64798
M73 P1 R35
G1 X85.126 Y77.179 E.01472
G1 X85.321 Y77.438 E.01139
G1 X86.29 Y78.408 E.04825
G1 X85.37 Y78.342 E.03244
G1 X84.593 Y78.428 E.02754
G1 X84 Y78.587 E.02161
G1 X83.647 Y78.732 E.01344
G1 X83.084 Y79.014 E.02216
G1 X82.428 Y79.494 E.0286
G1 X81.866 Y80.081 E.0286
G1 X81.414 Y80.756 E.0286
G1 X81.087 Y81.5 E.0286
G1 X80.928 Y82.093 E.02161
G1 X80.877 Y82.479 E.01372
G1 X80.84 Y83.1 E.02188
G1 X80.901 Y83.73 E.02228
G1 E-.5
G1 Z.4 F21000
G1 X81.812 Y85.208
G1 Z.2
G1 E.5 F1800
;WIDTH:0.68731
G1 F3000
G1 X81.752 Y85.171 E.0035
;WIDTH:0.654857
G1 X81.691 Y85.134 E.00333
;WIDTH:0.622403
G1 X81.532 Y85.003 E.00918
;WIDTH:0.581602
G1 X81.373 Y84.873 E.00853
;WIDTH:0.540801
G1 X81.214 Y84.743 E.00788
;WIDTH:0.499999
G1 X79.914 Y83.443 E.0647
G1 X79.46 Y83.027 E.02168
G1 X79.13 Y82.943 E.01197
G1 X60.87 Y82.943 E.64265
G1 X60.54 Y83.027 E.01197
G1 X60.385 Y83.144 E.00684
G1 X58.786 Y84.743 E.07959
;WIDTH:0.546829
G1 X58.637 Y84.859 E.00734
;WIDTH:0.593658
G1 X58.487 Y84.975 E.00803
;WIDTH:0.640487
G1 X58.338 Y85.092 E.00871
;WIDTH:0.687316
G1 X58.188 Y85.208 E.00939
G1 X58.208 Y85.142 E.0034
;WIDTH:0.654862
G1 X58.227 Y85.077 E.00322
;WIDTH:0.622408
G1 X58.309 Y84.845 E.01095
;WIDTH:0.581605
G1 X58.39 Y84.614 E.01018
;WIDTH:0.540802
G1 X58.472 Y84.382 E.00941
;WIDTH:0.499999
G1 X58.651 Y83.671 E.0258
G1 X58.705 Y82.94 E.0258
G1 X58.631 Y82.211 E.0258
G1 X58.472 Y81.618 E.02161
G1 X58.354 Y81.34 E.01063
G1 X58.112 Y80.846 E.01936
G1 X57.683 Y80.251 E.0258
G1 X57.157 Y79.74 E.0258
G1 X56.551 Y79.329 E.0258
G1 X55.882 Y79.028 E.0258
G1 X55.171 Y78.849 E.0258
G1 X54.44 Y78.795 E.0258
G1 X53.711 Y78.869 E.0258
G1 X52.995 Y79.074 E.0262
G1 X52.346 Y79.388 E.0254
G1 X51.751 Y79.817 E.0258
G1 X51.312 Y80.257 E.02188
G1 X50.995 Y80.694 E.01899
G1 X50.745 Y81.128 E.01764
G1 X50.528 Y81.618 E.01885
G1 X50.342 Y82.408 E.02858
G1 X50.295 Y83.06 E.02298
G1 X50.369 Y83.789 E.0258
G1 X50.569 Y84.494 E.0258
G1 X50.888 Y85.154 E.0258
G1 X51.318 Y85.749 E.02582
G1 X51.752 Y86.183 E.02161
G1 X52.118 Y86.446 E.01585
G1 X31.057 Y86.443 E.7412
G1 X31.057 Y53.557 E1.15738
G1 X49.589 Y53.557 E.65221
G1 X50.53 Y53.539 E.03311
G1 X50.803 Y53.404 E.01072
G1 X50.989 Y53.168 E.01058
G1 X51.057 Y52.871 E.01072
G1 X51.057 Y33.557 E.67975
G1 X88.943 Y33.557 E1.33335
G1 X88.943 Y54.586 E.74008
G1 X85.644 Y57.885 E.16421
G1 X85.514 Y58.066 E.00783
G1 X85.443 Y58.37 E.01099
G1 X85.443 Y76.63 E.64265
G1 X85.527 Y76.96 E.01197
G1 X85.644 Y77.115 E.00684
G1 X87.243 Y78.714 E.07959
;WIDTH:0.546821
G1 X87.359 Y78.863 E.00734
;WIDTH:0.593643
G1 X87.475 Y79.013 E.00803
;WIDTH:0.640465
G1 X87.592 Y79.162 E.00871
;WIDTH:0.687286
G1 X87.708 Y79.312 E.00939
G1 X87.642 Y79.292 E.0034
;WIDTH:0.654829
G1 X87.577 Y79.273 E.00323
;WIDTH:0.622372
G1 X87.345 Y79.191 E.01095
;WIDTH:0.581581
G1 X87.114 Y79.11 E.01018
;WIDTH:0.54079
G1 X86.882 Y79.028 E.00941
;WIDTH:0.499999
G1 X86.166 Y78.848 E.02599
G1 X85.41 Y78.798 E.02664
G1 X84.711 Y78.869 E.02474
G1 X84.118 Y79.028 E.02161
G1 X83.346 Y79.388 E.02999
G1 X82.751 Y79.817 E.0258
G1 X82.24 Y80.343 E.0258
G1 X81.829 Y80.949 E.0258
G1 X81.528 Y81.618 E.0258
G1 X81.369 Y82.211 E.02161
G1 X81.295 Y83.06 E.02999
G1 X81.369 Y83.789 E.0258
G1 X81.569 Y84.494 E.0258
;WIDTH:0.546827
G1 X81.63 Y84.673 E.00731
;WIDTH:0.593655
G1 X81.69 Y84.851 E.00799
;WIDTH:0.640483
G1 X81.751 Y85.03 E.00867
;WIDTH:0.68731
G1 X81.792 Y85.151 E.00637
G1 E-.5
G1 Z.4 F21000
G1 X50.6 Y52.871
G1 Z.2
G1 E.5 F1800
;TYPE:Outer wall
;WIDTH:0.499999
G1 F3000
G1 X50.6 Y33.1 E.69583
G1 X89.4 Y33.1 E1.36552
G1 X89.4 Y54.775 E.76283
G1 X85.967 Y58.208 E.17087
G1 X85.9 Y58.37 E.00616
G1 X85.9 Y76.63 E.64265
G1 X85.967 Y76.792 E.00616
G1 X89.402 Y80.226 E.17094
G1 X89.413 Y81.07 E.02969
;WIDTH:0.513653
G1 X89.516 Y82.508 E.05226
;WIDTH:0.467164
G1 X89.525 Y83.036 E.01725
;WIDTH:0.474051
G1 X89.509 Y83.672 E.02113
;WIDTH:0.514202
G1 X89.413 Y84.925 E.04559
;WIDTH:0.499999
G1 X89.402 Y85.752 E.02912
G1 X88.252 Y86.902 E.05722
G1 X87.408 Y86.913 E.0297
;WIDTH:0.513783
G1 X86.132 Y87.011 E.04641
;WIDTH:0.471416
G1 X85.465 Y87.025 E.02199
;WIDTH:0.470166
G1 X84.816 Y87.003 E.02136
;WIDTH:0.504956
G1 X83.554 Y86.912 E.04505
;WIDTH:0.499999
G1 X82.726 Y86.902 E.02912
G1 X79.292 Y83.467 E.17094
G1 X79.13 Y83.4 E.00616
G1 X60.87 Y83.4 E.64265
G1 X60.708 Y83.467 E.00616
G1 X57.274 Y86.902 E.17095
G1 X56.412 Y86.914 E.03034
;WIDTH:0.5141
G1 X55.132 Y87.012 E.04657
;WIDTH:0.472143
G1 X54.465 Y87.026 E.02203
;WIDTH:0.471407
G1 X53.816 Y87.005 E.02142
;WIDTH:0.505804
G1 X52.495 Y86.91 E.04721
;WIDTH:0.499999
G1 X30.6 Y86.9 E.77057
G1 X30.6 Y53.1 E1.18955
G1 X50.371 Y53.1 E.69583
G1 X50.535 Y53.031 E.00624
G1 X50.577 Y52.927 E.00396
G1 X50.677 Y52.851
G1 E-.5
G1 Z.4 F21000
G1 X87.371 Y86.238
G1 Z.2
G1 E.5 F1800
;WIDTH:0.514203
G1 F3000
G1 X86.769 Y86.482 E.02358
G1 X86.133 Y86.582 E.02337
;WIDTH:0.474052
G1 X85.518 Y86.622 E.02046
;WIDTH:0.468701
G1 X84.888 Y86.582 E.02069
;WIDTH:0.506324
G1 X84.273 Y86.489 E.02216
G1 X83.703 Y86.272 E.02179
;WIDTH:0.499999
G1 X83.229 Y85.969 E.01979
G1 X82.641 Y85.426 E.0282
G1 X82.263 Y84.892 E.02301
G1 X81.983 Y84.301 E.023
G1 X81.811 Y83.671 E.023
G1 X81.75 Y83.02 E.023
G1 X81.804 Y82.369 E.023
G1 X81.97 Y81.736 E.023
G1 X82.243 Y81.142 E.023
G1 X82.615 Y80.605 E.023
G1 X83.075 Y80.14 E.023
G1 X83.608 Y79.763 E.023
G1 X84.199 Y79.483 E.023
G1 X84.829 Y79.311 E.023
G1 X85.45 Y79.253 E.02195
G1 X86.13 Y79.304 E.02398
G1 X86.764 Y79.47 E.02307
G1 X87.358 Y79.743 E.023
G1 X87.895 Y80.115 E.023
G1 X88.359 Y80.575 E.02301
G1 X88.732 Y81.115 E.0231
;WIDTH:0.510661
G1 X88.98 Y81.732 E.02393
G1 X89.082 Y82.367 E.02319
;WIDTH:0.474538
G1 X89.123 Y82.982 E.02048
;WIDTH:0.446454
G1 X89.123 Y83.001 E.00057
;WIDTH:0.471414
G1 X89.083 Y83.612 E.02023
;WIDTH:0.513782
G1 X88.993 Y84.227 E.02251
G1 X88.785 Y84.764 E.0209
;WIDTH:0.499999
G1 X88.359 Y85.425 E.02766
G1 X87.925 Y85.859 E.02161
G1 X87.422 Y86.207 E.02152
G1 X87.368 Y86.318
G1 E-.5
G1 Z.4 F21000
G1 X88.898 Y85.54
G1 Z.2
G1 E.5 F1800
;TYPE:Inner wall
;WIDTH:0.597938
G1 F3000
G1 X88.267 Y86.202 E.03908
G1 X88.04 Y86.398 E.01286
G1 E-.5
G1 Z.4 F21000
G1 X82.941 Y86.392
G1 Z.2
G1 E.5 F1800
;WIDTH:0.609644
G1 F3000
G1 X82.293 Y85.773 E.03909
;WIDTH:0.608364
G1 X82.133 Y85.585 E.01078
;WIDTH:0.647837
G1 X81.972 Y85.396 E.01153
;WIDTH:0.68731
G1 X81.812 Y85.208 E.01228
G1 E-.5
G1 Z.4 F21000
G1 X87.708 Y79.312
G1 Z.2
G1 E.5 F1800
;WIDTH:0.687286
G1 F3000
G1 X87.865 Y79.444 E.01019
;WIDTH:0.65149
G1 X88.023 Y79.576 E.00963
;WIDTH:0.615693
G1 X88.18 Y79.708 E.00906
;WIDTH:0.579896
G1 X88.707 Y80.228 E.03062
;WIDTH:0.609634
G1 X88.892 Y80.441 E.01232
G1 E-.5
G1 Z.4 F21000
G1 X66.127 Y71.816
G1 Z.2
G1 E.5 F1800
;WIDTH:0.499999
G1 F3000
G1 X58.49 Y64.681 E.36782
G1 X58.194 Y64.307 E.01679
G1 X58.037 Y63.926 E.0145
G1 X57.983 Y63.534 E.01393
G1 X58.033 Y63.116 E.0148
G1 X58.22 Y62.631 E.01831
G1 X58.484 Y62.258 E.01606
G1 X58.693 Y62.074 E.00981
G1 X59.133 Y61.844 E.01748
G1 X59.536 Y61.764 E.01445
G1 X62.768 Y61.764 E.11374
G1 X63.266 Y61.817 E.01763
G1 X63.633 Y61.916 E.0134
G1 X63.924 Y62.033 E.01104
G1 X64.419 Y61.863 E.0184
G1 X65.16 Y61.795 E.0262
G1 X68.134 Y61.776 E.10466
