; generated by SuperSlicer 2.5.59 on 2023-01-12 at 00:11:18 UTC


;
;

;
;
; 

; external perimeters extrusion width = 0.40mm
; perimeters extrusion width = 0.46mm
; infill extrusion width = 0.64mm
; solid infill extrusion width = 0.56mm
; top infill extrusion width = 0.40mm
; first layer extrusion width = 0.50mm

; object:{"name":"X_carriage_B","id":"X_carriage_B.stl id:0 copy 0","object_center":[59.995542,59.999407,0.000000],"boundingbox_center":[59.995542,59.999407,10.864792],"boundingbox_size":[38.504256,72.310878,21.729583]}
; plater:{"center":[59.995542,59.999407,0.000000],"boundingbox_center":[59.995542,59.999407,10.864792],"boundingbox_size":[38.504256,72.310878,21.729583]}

M73 P0 R52
;TYPE:Custom
; custom gcode: start_gcode
START_PRINT T_BED=110 T_EXTRUDER=240
; custom gcode end: start_gcode
M107
G21 ; set units to millimeters
G90 ; use absolute coordinates
M83 ; use relative distances for extrusion
; custom gcode: start_filament_gcode
; Filament gcode

    PRESSURE_ADVANCE_SELECT FILAMENT=ABS
; custom gcode end: start_filament_gcode
;_TOOLCHANGE 0
M104 S240 ; set temperature
M109 S240 ; set temperature and wait for it to be reached
M190 S110 ; set bed temperature and wait for it to be reached
;LAYER_CHANGE
;Z:0.2
;HEIGHT:0.2
G1 Z0.2 F12000
G92 E0
G1 E-0.5 F1800
M204 S2000
G1 X42.471 Y27.156 F12000
G1 E0.5 F1800
;TYPE:Skirt
;WIDTH:0.52
G1 X37.725 Y34.578 E0.32852
G1 X37.14 Y36.579 E0.07773
G1 X37.128 Y87.163 E1.88624
G1 X37.834 Y89.343 E0.08545
G1 X39.131 Y90.461 E0.06386
G1 X55.683 Y99.058 E0.69548
G1 X57.028 Y99.458 E0.05233
G1 X58.052 Y99.554 E0.03834
G1 X66.829 Y99.67 E0.32733
G1 X68.55 Y99.271 E0.06587
G1 X69.388 Y98.754 E0.03673
G1 X70.299 Y97.873 E0.04729
G1 X81.605 Y82.394 E0.71475
G1 X82.106 Y81.445 E0.04003
G1 X82.349 Y80.229 E0.04621
G1 X82.448 Y76.91 E0.12385
G1 X82.45 Y72.031 E0.18193
G1 X82.345 Y69.948 E0.07776
G1 X82.061 Y68.709 E0.04741
G1 X81.852 Y68.236 E0.01928
G1 X58.737 Y22.877 E1.89834
G1 X57.932 Y21.821 E0.04953
G1 X56.871 Y21.047 E0.04898
G1 X55.192 Y20.641 E0.06442
G1 X53.752 Y20.637 E0.05369
G1 X48.631 Y20.661 E0.19098
G1 X46.758 Y21.183 E0.0725
G1 X45.528 Y22.375 E0.06386
G1 X42.471 Y27.156 E0.2116
G1 X42.873 Y27.413 F12000
G1 F1800
G1 X38.127 Y34.835 E0.32852
G1 X37.617 Y36.579 E0.06775
G1 X37.605 Y87.163 E1.88624
M73 P0 R52
G1 X38.159 Y88.975 E0.07065
G1 X39.351 Y90.038 E0.05956
G1 X55.903 Y98.634 E0.69548
G1 X57.075 Y98.983 E0.04561
G1 X58.074 Y99.078 E0.0374
G1 X66.834 Y99.193 E0.32671
G1 X68.345 Y98.84 E0.05784
G1 X69.12 Y98.36 E0.034
G1 X69.914 Y97.591 E0.04121
G1 X81.22 Y82.113 E0.71475
G1 X81.657 Y81.285 E0.03489
G1 X81.872 Y80.215 E0.0407
G1 X81.972 Y76.895 E0.12385
G1 X81.973 Y72.031 E0.1814
G1 X81.868 Y69.973 E0.07682
G1 X81.621 Y68.893 E0.04132
G1 X81.427 Y68.452 E0.01795
G1 X58.312 Y23.094 E1.89834
G1 X57.611 Y22.173 E0.04317
G1 X56.654 Y21.471 E0.04422
G1 X55.191 Y21.118 E0.05615
G1 X53.751 Y21.114 E0.05369
G1 X48.634 Y21.138 E0.1908
G1 X47.095 Y21.54 E0.05931
G1 X45.93 Y22.632 E0.05956
G1 X42.873 Y27.413 E0.2116
G1 E-0.5
; printing object X_carriage_B.stl id:0 copy 0
; acceleration to travel
M204 S4000
G1 X66.248 Y56.18 F12000
; decel to extrusion
M204 S2000
G1 X77.936 Y70.564
; end travel
G1 E0.5 F1800
;TYPE:Internal perimeter
;WIDTH:0.5
G1 X77.953 Y71.42 E0.03058
G1 X77.364 Y71.039 E0.02507
G1 X77.013 Y70.835 E0.01448
G1 X77.086 Y70.564 E0.01001
G1 X77.936 Y70.564 E0.03035
G1 E-0.5
; acceleration to travel
M204 S4000
G1 X55.726 Y61.899 F12000
; decel to extrusion
M204 S2000
G1 X44.621 Y57.566
; end travel
G1 E0.5 F1800
G1 X44.621 Y58.913 E0.04811
G1 X42.471 Y58.912 E0.07681
G1 X42.472 Y57.566 E0.04811
G1 X44.621 Y57.566 E0.0768
G1 X45.078 Y57.109 F12000
G1 F1800
G1 X45.079 Y59.37 E0.08077
G1 X42.014 Y59.369 E0.10948
G1 X42.015 Y57.108 E0.08077
G1 X45.078 Y57.109 E0.10945
G1 E-0.5
; acceleration to travel
M204 S4000
G1 X49.482 Y71.624 F12000
; decel to extrusion
M204 S2000
G1 X51.683 Y78.881
; end travel
G1 E0.5 F1800
G1 X52.766 Y78.256 E0.04466
G1 X52.767 Y73.319 E0.17639
G1 X57.761 Y73.322 E0.17843
G1 X57.171 Y74.161 E0.03664
G1 X56.713 Y75.342 E0.04527
G1 X56.558 Y76.589 E0.04489
G1 X56.714 Y77.842 E0.04508
G1 X57.223 Y79.154 E0.05027
G1 X51.756 Y79.152 E0.19531
G1 X51.683 Y78.881 E0.01002
G1 E-0.5
; acceleration to travel
M204 S4000
G1 X56.994 Y81.609 F12000
; decel to extrusion
M204 S2000
G1 X59.65 Y82.973
; end travel
G1 E0.5 F1800
G1 X59.642 Y84.353 E0.04929
G1 X62.63 Y84.352 E0.10675
G1 X62.629 Y86.174 E0.06511
G1 X62.583 Y86.728 E0.01985
G1 X58.644 Y86.727 E0.14073
G1 X58.645 Y84.047 E0.09574
G1 X58.304 Y84.138 E0.01258
G1 X58.305 Y80.394 E0.13378
G1 X58.909 Y80.908 E0.02834
G1 X59.348 Y81.09 E0.01699
G1 X59.689 Y81.204 E0.01282
G1 X59.657 Y81.697 E0.01765
G1 X59.65 Y82.973 E0.04558
G1 E-0.5
; acceleration to travel
M204 S4000
G1 X58.448 Y83.587 F12000
; decel to extrusion
M204 S2000
G1 X57.847 Y83.894
; end travel
G1 E0.5 F1800
G1 X57.848 Y79.626 E0.1525
G1 X57.895 Y79.611 E0.00174
G1 X50.068 Y79.609 E0.27964
G1 X50.067 Y81.312 E0.06084
G1 X50.067 Y83.892 E0.09219
G1 X57.847 Y83.894 E0.27797
G1 X57.39 Y83.437 F12000
G1 F1800
G1 X57.391 Y80.068 E0.12037
G1 X50.525 Y80.066 E0.24532
G1 X50.524 Y81.312 E0.04451
G1 X50.524 Y83.435 E0.07586
G1 X57.39 Y83.437 E0.24532
G1 X56.933 Y82.98 F12000
;TYPE:External perimeter
G1 F1800
G1 X56.934 Y80.525 E0.08771
G1 X50.982 Y80.523 E0.21266
G1 X50.981 Y81.312 E0.02818
G1 X50.981 Y82.978 E0.05953
G1 X56.933 Y82.98 E0.21266
;WIPE_START
M204 S4000
G1 X57.333 Y82.98 F12000
;WIPE_END
G1 E-0.5 F1800
; acceleration to travel
G1 X51.275 Y81.571 F12000
; decel to extrusion
M204 S2000
G1 X48.245 Y80.866
; end travel
G1 E0.5 F1800
;TYPE:Internal perimeter
G1 X49.61 Y80.078 E0.05633
G1 X49.61 Y81.312 E0.04407
G1 X49.609 Y84.349 E0.10852
G1 X56.285 Y84.351 E0.23848
G1 X56.327 Y84.669 E0.01145
G1 X53.055 Y85.546 E0.12101
G1 X42.465 Y85.543 E0.37834
G1 X42.469 Y67.381 E0.64887
G1 X44.622 Y67.381 E0.07692
G1 X44.623 Y72.516 E0.18346
G1 X43.726 Y73.032 E0.03698
G1 X43.724 Y78.254 E0.18657
G1 X48.245 Y80.866 E0.18653
G1 X48.245 Y80.339 F12000
G1 F1800
G1 X50.068 Y79.286 E0.07519
G1 X52.309 Y77.992 E0.09245
G1 X52.31 Y73.299 E0.16769
G1 X52.021 Y73.133 E0.01189
G1 X52.094 Y72.861 E0.01003
G1 X58.908 Y72.866 E0.24342
G1 X58.227 Y73.454 E0.03213
G1 X57.577 Y74.379 E0.04037
G1 X57.159 Y75.455 E0.04125
G1 X57.019 Y76.589 E0.04084
G1 X57.161 Y77.729 E0.04103
G1 X57.577 Y78.803 E0.04113
G1 X58.15 Y79.611 E0.0354
G1 X58.239 Y79.736 E0.0055
G1 X59.15 Y80.514 E0.04279
G1 X59.508 Y80.662 E0.01384
G1 X60.193 Y80.891 E0.0258
G1 X60.147 Y81.19 E0.01079
G1 X60.114 Y81.713 E0.01873
G1 X60.102 Y83.895 E0.07797
G1 X63.087 Y83.894 E0.10666
G1 X63.086 Y86.193 E0.08213
G1 X62.788 Y89.762 E0.12793
G1 X62.74 Y91.278 E0.05419
G1 X62.38 Y91.272 E0.01286
G1 X62.381 Y87.185 E0.14601
G1 X58.187 Y87.184 E0.14983
G1 X58.187 Y84.643 E0.09078
G1 X53.115 Y86.003 E0.18761
G1 X42.008 Y86 E0.39682
G1 X42.012 Y66.923 E0.68153
G1 X45.079 Y66.924 E0.10957
G1 X45.08 Y72.781 E0.20923
M73 P1 R52
G1 X44.183 Y73.297 E0.03699
G1 X44.181 Y77.991 E0.1677
G1 X48.245 Y80.339 E0.16767
G1 E-0.5
; acceleration to travel
M204 S4000
G1 X56.093 Y88.212 F12000
; decel to extrusion
M204 S2000
G1 X60.017 Y92.149
; end travel
G1 E0.5 F1800
G1 X61.922 Y92.149 E0.06808
G1 X61.923 Y87.642 E0.16102
G1 X58.701 Y87.641 E0.11511
G1 X58.701 Y88.93 E0.04606
G1 X58.7 Y92.148 E0.11496
G1 X60.017 Y92.149 E0.04703
G1 X60.017 Y91.691 F12000
;TYPE:External perimeter
G1 F1800
G1 X61.465 Y91.692 E0.05175
G1 X61.466 Y88.099 E0.12836
G1 X59.158 Y88.098 E0.08246
G1 X59.158 Y88.93 E0.02973
G1 X59.157 Y91.691 E0.09863
G1 X60.017 Y91.691 E0.0307
;WIPE_START
M204 S4000
G1 X60.217 Y92.038 F12000
;WIPE_END
; acceleration to travel
G1 X60.217 Y92.721
; decel to extrusion
M204 S2000
G1 X60.217 Y93.063
; end travel
;TYPE:Internal perimeter
G1 F1800
G1 X62.225 Y93.063 E0.07176
G1 X62.212 Y93.47 E0.01454
G1 X65.845 Y92.994 E0.1309
G1 X65.841 Y94.322 E0.04746
G1 X58.642 Y94.241 E0.25718
G1 X58.643 Y93.062 E0.0421
G1 X60.217 Y93.063 E0.05623
G1 X60.217 Y92.606 F12000
G1 F1800
G1 X62.697 Y92.606 E0.08862
G1 X62.686 Y92.947 E0.01217
G1 X66.304 Y92.473 E0.13035
G1 X66.296 Y94.784 E0.08259
G1 X58.689 Y94.699 E0.27178
G1 X58.185 Y94.66 E0.01806
G1 X58.186 Y92.605 E0.0734
G1 X60.217 Y92.606 E0.07256
G1 E-0.5
; acceleration to travel
M204 S4000
G1 X59.689 Y78.913 F12000
; decel to extrusion
M204 S2000
G1 X59.424 Y72.067
; end travel
G1 E0.5 F1800
G1 X59.419 Y71.453 E0.02193
G1 X60.376 Y71.454 E0.0342
G1 X60.422 Y71.767 E0.01127
G1 X59.424 Y72.067 E0.03723
G1 E-0.5
; acceleration to travel
M204 S4000
G1 X63.917 Y76.795 F12000
; decel to extrusion
M204 S2000
G1 X66.164 Y79.158
; end travel
G1 E0.5 F1800
G1 X66.676 Y77.838 E0.05059
G1 X66.831 Y76.591 E0.0449
G1 X66.676 Y75.34 E0.04503
G1 X66.215 Y74.154 E0.04547
G1 X65.494 Y73.134 E0.04463
G1 X64.484 Y72.272 E0.04743
G1 X64.017 Y72.077 E0.01809
G1 X62.981 Y71.771 E0.03861
G1 X63.026 Y71.457 E0.01131
G1 X71.225 Y71.466 E0.2929
G1 X71.224 Y76.873 E0.19315
G1 X75.698 Y79.458 E0.18461
G1 X68.108 Y81.51 E0.2809
G1 X68.126 Y79.15 E0.08431
G1 X66.164 Y79.158 E0.07013
; acceleration to travel
M204 S4000
G1 X65.545 Y79.466 F12000
; decel to extrusion
M204 S2000
G1 X65.236 Y79.619
; end travel
G1 F1800
G1 X65.812 Y78.802 E0.03572
G1 X66.23 Y77.726 E0.04124
G1 X66.37 Y76.591 E0.04085
G1 X66.23 Y75.453 E0.04097
G1 X65.809 Y74.372 E0.04143
G1 X65.154 Y73.444 E0.04059
G1 X64.243 Y72.666 E0.04281
G1 X63.864 Y72.509 E0.01464
G1 X62.104 Y71.988 E0.06557
G1 X61.69 Y71.933 E0.01494
G1 X61.272 Y71.988 E0.01505
G1 X59.513 Y72.518 E0.06564
G1 X58.973 Y72.741 E0.02086
G1 X58.958 Y70.996 E0.06236
G1 X72.71 Y71.011 E0.49129
G1 X72.782 Y71.282 E0.01002
G1 X71.682 Y71.916 E0.04537
G1 X71.681 Y76.609 E0.16765
G1 X75.747 Y78.958 E0.16776
G1 X77.475 Y77.953 E0.07144
G1 X77.472 Y79.452 E0.05355
G1 X67.646 Y82.108 E0.36364
G1 X67.66 Y81.781 E0.01168
G1 X67.666 Y79.609 E0.07761
G1 X65.236 Y79.619 E0.0868
G1 E-0.5
; acceleration to travel
M204 S4000
G1 X51.492 Y59.121 F12000
; decel to extrusion
M204 S2000
G1 X44.62 Y48.872
; end travel
G1 E0.5 F1800
G1 X42.474 Y48.871 E0.07669
G1 X42.476 Y38.201 E0.38119
G1 X43.734 Y38.202 E0.04493
G1 X43.734 Y38.812 E0.0218
G1 X50.276 Y38.813 E0.23374
G1 X50.279 Y25.992 E0.45806
G1 X53.808 Y25.981 E0.12609
G1 X53.789 Y41.596 E0.55785
G1 X48.539 Y41.666 E0.18755
G1 X44.619 Y41.659 E0.14005
G1 X44.62 Y48.872 E0.25767
G1 X45.077 Y49.329 F12000
G1 F1800
G1 X42.016 Y49.328 E0.10935
G1 X42.019 Y37.744 E0.41385
G1 X44.191 Y37.745 E0.07759
G1 X44.191 Y38.355 E0.0218
G1 X49.819 Y38.356 E0.20108
G1 X49.822 Y25.536 E0.458
G1 X54.266 Y25.523 E0.15877
G1 X54.245 Y42.047 E0.59034
G1 X48.542 Y42.123 E0.20377
G1 X45.076 Y42.117 E0.12381
G1 X45.077 Y49.329 E0.25764
G1 E-0.5
; acceleration to travel
M204 S4000
G1 X47.189 Y69.65 F12000
; decel to extrusion
M204 S2000
G1 X48.245 Y79.811
; end travel
G1 E0.5 F1800
G1 X51.852 Y77.728 E0.14878
G1 X51.853 Y73.563 E0.14882
G1 X50.309 Y72.674 E0.06364
G1 X50.381 Y72.403 E0.01003
G1 X58.513 Y72.409 E0.29052
M73 P1 R52
G1 X58.497 Y70.538 E0.06683
G1 X74.148 Y70.544 E0.55915
G1 X74.428 Y70.556 E0.01001
G1 X74.493 Y70.822 E0.00981
G1 X72.139 Y72.18 E0.09711
G1 X72.138 Y76.345 E0.1488
G1 X75.746 Y78.43 E0.14886
G1 X77.362 Y77.49 E0.06681
G1 X77.97 Y77.097 E0.02583
G1 X77.933 Y77.73 E0.02263
G1 X77.928 Y79.802 E0.07403
G1 X67.915 Y82.498 E0.37048
G1 X67.162 Y82.712 E0.02795
G1 X67.203 Y81.771 E0.03366
G1 X67.207 Y80.068 E0.06083
G1 X64.047 Y80.082 E0.1129
G1 X64.82 Y79.417 E0.03642
G1 X65.406 Y78.584 E0.03637
G1 X65.504 Y78.348 E0.00914
G1 X65.783 Y77.613 E0.02809
G1 X65.91 Y76.591 E0.0368
G1 X65.783 Y75.565 E0.03691
G1 X65.501 Y74.826 E0.02829
G1 X65.403 Y74.59 E0.00911
G1 X64.813 Y73.755 E0.03654
G1 X64.001 Y73.06 E0.03819
G1 X63.711 Y72.94 E0.0112
G1 X62.009 Y72.436 E0.06342
G1 X61.689 Y72.394 E0.01151
G1 X61.368 Y72.436 E0.01157
G1 X59.667 Y72.949 E0.06349
G1 X59.368 Y73.073 E0.01155
G1 X58.569 Y73.763 E0.03773
G1 X57.983 Y74.596 E0.03637
G1 X57.886 Y74.831 E0.00907
G1 X57.606 Y75.567 E0.02816
G1 X57.48 Y76.589 E0.03679
G1 X57.607 Y77.617 E0.03699
G1 X57.982 Y78.585 E0.03708
G1 X58.579 Y79.426 E0.03684
G1 X59.392 Y80.119 E0.03817
G1 X59.668 Y80.233 E0.01069
G1 X60.703 Y80.58 E0.03897
G1 X60.602 Y81.239 E0.02381
G1 X60.571 Y81.729 E0.01754
G1 X60.561 Y83.438 E0.06107
G1 X63.544 Y83.437 E0.10657
G1 X63.544 Y86.212 E0.09915
G1 X63.244 Y89.788 E0.12819
G1 X63.16 Y92.424 E0.09422
G1 X66.469 Y91.99 E0.11921
G1 X66.655 Y92.057 E0.00706
G1 X66.762 Y92.246 E0.00777
G1 X66.752 Y95.247 E0.10719
G1 X58.669 Y95.155 E0.28878
G1 X58.275 Y95.137 E0.01411
G1 X57.728 Y95.083 E0.01962
G1 X57.73 Y85.239 E0.35169
G1 X53.175 Y86.46 E0.16847
G1 X41.551 Y86.457 E0.4153
G1 X41.562 Y37.287 E1.75664
G1 X44.648 Y37.288 E0.11024
G1 X44.648 Y37.898 E0.0218
G1 X49.362 Y37.899 E0.16842
G1 X49.365 Y25.081 E0.45795
G1 X54.724 Y25.064 E0.19144
G1 X54.702 Y42.498 E0.62284
G1 X48.545 Y42.58 E0.21998
G1 X45.534 Y42.575 E0.10758
G1 X45.534 Y49.786 E0.25762
G1 X42.174 Y49.785 E0.12005
G1 X42.174 Y51.07 E0.04589
G1 X42.173 Y56.651 E0.19941
G1 X45.535 Y56.652 E0.12014
G1 X45.536 Y59.827 E0.11342
G1 X42.172 Y59.826 E0.12018
G1 X42.171 Y61.09 E0.04516
G1 X42.17 Y66.466 E0.19207
G1 X45.536 Y66.467 E0.12026
G1 X45.537 Y72.412 E0.21239
G1 X46.099 Y72.408 E0.02008
G1 X46.173 Y72.68 E0.01008
G1 X44.64 Y73.561 E0.06319
G1 X44.639 Y77.727 E0.14882
G1 X48.245 Y79.811 E0.14881
G1 E-0.5
; acceleration to travel
M204 S4000
G1 X56.975 Y80.084 F12000
; decel to extrusion
M204 S2000
G1 X61.339 Y80.221
; end travel
G1 E0.5 F1800
;TYPE:External perimeter
G1 X62.056 Y80.219 E0.0256
G1 X62.241 Y80.195 E0.00667
G1 X62.751 Y80.062 E0.01885
G1 X63.77 Y79.717 E0.03842
G1 X64.479 Y79.107 E0.03342
G1 X65.003 Y78.362 E0.03254
G1 X65.079 Y78.179 E0.00709
G1 X65.336 Y77.502 E0.02587
G1 X65.449 Y76.591 E0.03282
G1 X65.336 Y75.677 E0.03291
G1 X65.076 Y74.995 E0.02608
G1 X65.001 Y74.812 E0.00706
G1 X64.473 Y74.065 E0.03267
G1 X63.759 Y73.455 E0.03356
G1 X63.558 Y73.372 E0.00776
G1 X61.914 Y72.885 E0.06127
G1 X61.689 Y72.855 E0.00808
G1 X61.465 Y72.885 E0.0081
G1 X59.82 Y73.38 E0.06135
G1 X59.611 Y73.467 E0.0081
G1 X58.91 Y74.072 E0.03308
G1 X58.386 Y74.817 E0.03255
G1 X58.311 Y74.999 E0.00703
G1 X58.053 Y75.678 E0.02596
G1 X57.94 Y76.589 E0.03279
G1 X58.054 Y77.504 E0.03294
G1 X58.388 Y78.366 E0.03304
G1 X58.919 Y79.115 E0.03278
G1 X59.633 Y79.724 E0.03355
G1 X59.829 Y79.805 E0.00754
G1 X60.703 Y80.098 E0.03296
G1 X61.339 Y80.221 E0.02314
;WIPE_START
M204 S4000
G1 X61.517 Y80.579 F12000
;WIPE_END
G1 E-0.5 F1800
; acceleration to travel
G1 X61.186 Y82.18 F12000
; decel to extrusion
M204 S2000
G1 X61.021 Y82.981
; end travel
G1 E0.5 F1800
G1 X65.49 Y82.979 E0.15964
G1 X66.695 Y82.93 E0.04311
G1 X66.746 Y81.76 E0.04182
G1 X66.749 Y80.527 E0.04406
G1 X63.187 Y80.543 E0.12727
G1 X62.275 Y80.626 E0.0327
G1 X61.158 Y80.626 E0.03991
G1 X61.057 Y81.288 E0.02392
G1 X61.028 Y81.745 E0.01636
G1 X61.021 Y82.981 E0.04417
;WIPE_START
M204 S4000
G1 X61.02 Y83.381 F12000
;WIPE_END
G1 E-0.5 F1800
; acceleration to travel
G1 X52.504 Y80.649 F12000
; decel to extrusion
M204 S2000
G1 X48.245 Y79.283
; end travel
G1 E0.5 F1800
G1 X51.395 Y77.464 E0.12992
G1 X51.396 Y73.827 E0.12995
G1 X49.616 Y72.803 E0.07336
G1 X49.199 Y72.581 E0.01689
G1 X48.248 Y72.137 E0.03749
G1 X47.717 Y72.381 E0.02086
G1 X46.88 Y72.801 E0.03346
G1 X45.097 Y73.826 E0.07348
G1 X45.096 Y77.463 E0.12995
G1 X48.245 Y79.283 E0.12996
;WIPE_START
M204 S4000
G1 X48.502 Y79.589 F12000
;WIPE_END
G1 E-0.5 F1800
; acceleration to travel
G1 X46.222 Y70.536 F12000
; decel to extrusion
M204 S2000
G1 X45.082 Y66.01
; end travel
G1 E0.5 F1800
G1 X45.084 Y60.284 E0.20457
G1 X42.629 Y60.283 E0.08771
G1 X42.629 Y61.09 E0.02883
G1 X42.627 Y66.009 E0.17574
G1 X45.082 Y66.01 E0.08771
;WIPE_START
M204 S4000
G1 X45.482 Y66.01 F12000
;WIPE_END
G1 E-0.5 F1800
; acceleration to travel
G1 X45.217 Y59.467 F12000
; decel to extrusion
M204 S2000
G1 X45.085 Y56.195
; end travel
G1 E0.5 F1800
G1 X45.086 Y50.243 E0.21264
G1 X42.631 Y50.242 E0.08771
G1 X42.631 Y51.07 E0.02956
