; generated by PrusaSlicer 2.6.0-beta2+win64 on 2023-05-23 at 00:31:22 UTC


;
;

;
;
; TODO: check the size of the extruder and the y-bar clearance. Optimize & test supports.

; external perimeters extrusion width = 0.42mm
; perimeters extrusion width = 0.44mm
; infill extrusion width = 0.44mm
; solid infill extrusion width = 0.44mm
; top infill extrusion width = 0.44mm
; first layer extrusion width = 0.56mm

; external perimeters extrusion width = 0.42mm
; perimeters extrusion width = 0.44mm
; infill extrusion width = 0.44mm
; solid infill extrusion width = 0.44mm
; top infill extrusion width = 0.44mm
; first layer extrusion width = 0.56mm

; external perimeters extrusion width = 0.42mm
; perimeters extrusion width = 0.44mm
; infill extrusion width = 0.44mm
; solid infill extrusion width = 0.44mm
; top infill extrusion width = 0.44mm
; first layer extrusion width = 0.56mm

M190 S110 ; set bed temperature and wait for it to be reached
M104 S250 ; set temperature
;TYPE:Custom
START_PRINT T_BED=110 T_EXTRUDER=250
M109 S250 ; set temperature and wait for it to be reached
G21 ; set units to millimeters
G90 ; use absolute coordinates
M83 ; use relative distances for extrusion
M107
;LAYER_CHANGE
;Z:0.2
;HEIGHT:0.2
;BEFORE_LAYER_CHANGE
;0.2
G92 E0

G1 Z.2 F12000
;AFTER_LAYER_CHANGE
;0.2
G1 E-.5 F3000
G1 Z.6 F12000
M204 S3000
G1 X29.792 Y27.238
G1 Z.2
G1 E.5 F1800
M204 S1000
;TYPE:Skirt/Brim
;WIDTH:0.56
G1 X30.805 Y26.226 E.05787
G1 X31.937 Y25.351 E.05782
G1 X33.171 Y24.625 E.05786
G1 X34.278 Y24.137 E.04889
G1 X36.032 Y23.63 E.07379
G1 X37.992 Y23.404 E.07974
G1 X65.987 Y23.401 E1.13144
G1 X68.021 Y23.563 E.08247
G1 X70.008 Y24.093 E.08311
G1 X71.839 Y24.959 E.08186
G1 X73.335 Y26.005 E.07378
G1 X99.497 Y51.76 E1.48374
G1 X100.54 Y53.346 E.07672
G1 X100.851 Y55 E.06802
G1 X100.851 Y65 E.40416
G1 X100.456 Y66.856 E.07669
G1 X99.497 Y68.24 E.06805
G1 X73.881 Y93.513 E1.45435
G1 X72.457 Y94.653 E.07372
G1 X70.679 Y95.636 E.08211
G1 X68.644 Y96.312 E.08666
G1 X66.518 Y96.593 E.08667
G1 X38.174 Y96.599 E1.14554
G1 X37.096 Y96.536 E.04364
G1 X35.873 Y96.338 E.05007
G1 X34.648 Y95.996 E.0514
G1 X33.622 Y95.591 E.04458
G1 X32.554 Y95.039 E.04859
G1 X31.369 Y94.238 E.05781
G1 X30.358 Y93.357 E.0542
G1 X29.619 Y92.562 E.04387
G1 X20.074 Y80.01 E.63731
G1 X19.268 Y78.293 E.07666
G1 X19.149 Y77.259 E.04207
G1 X19.149 Y42.777 E1.39361
G1 X19.544 Y40.921 E.07669
G1 X20.071 Y40.031 E.0418
G1 X29.755 Y27.286 E.64692
M204 S2000
M204 S3000
G1 X30.166 Y27.597 F12000
M204 S1000
G1 F1800
G1 X31.14 Y26.62 E.05576
G1 X32.221 Y25.783 E.05525
G1 X33.398 Y25.089 E.05522
G1 X34.654 Y24.548 E.05527
G1 X36.465 Y24.074 E.07566
G1 X38.002 Y23.921 E.06243
G1 X65.985 Y23.918 E1.13095
G1 X67.934 Y24.073 E.07902
G1 X69.828 Y24.578 E.07922
G1 X71.584 Y25.408 E.0785
G1 X72.999 Y26.398 E.0698
G1 X99.134 Y52.128 E1.48225
G1 X100.095 Y53.633 E.07217
G1 X100.334 Y55 E.05609
G1 X100.334 Y65 E.40416
G1 X99.939 Y66.741 E.07215
G1 X99.134 Y67.872 E.05611
G1 X73.521 Y93.142 E1.45418
G1 X72.173 Y94.22 E.06976
G1 X70.469 Y95.164 E.07873
G1 X68.525 Y95.809 E.08278
G1 X66.495 Y96.076 E.08275
G1 X38.174 Y96.082 E1.14461
G1 X37.159 Y96.023 E.04109
G1 X35.979 Y95.832 E.04831
G1 X34.808 Y95.504 E.04915
G1 X33.843 Y95.124 E.04192
G1 X32.81 Y94.589 E.04702
G1 X31.678 Y93.824 E.05522
G1 X30.652 Y92.922 E.05521
G1 X29.747 Y91.898 E.05523
G1 X20.486 Y79.698 E.61904
G1 X19.666 Y77.259 E.104
G1 X19.666 Y42.777 E1.39361
G1 X20.483 Y40.343 E.10377
G1 X30.129 Y27.645 E.64448
M204 S2000
M204 S3000
G1 X30.539 Y27.956 F12000
M204 S1000
G1 F1800
G1 X31.475 Y27.014 E.05367
G1 X32.504 Y26.216 E.05263
G1 X33.626 Y25.553 E.05267
G1 X34.822 Y25.037 E.05264
G1 X36.562 Y24.582 E.07269
G1 X38.011 Y24.437 E.05885
G1 X65.983 Y24.435 E1.13051
G1 X67.848 Y24.583 E.07561
G1 X69.732 Y25.094 E.07889
G1 X71.41 Y25.905 E.07532
G1 X72.924 Y27.014 E.07585
G1 X98.77 Y52.497 E1.46693
G1 X99.645 Y53.914 E.06731
G1 X99.817 Y55 E.04444
G1 X99.817 Y65 E.40416
G1 X99.423 Y66.618 E.0673
G1 X98.77 Y67.503 E.04445
G1 X73.16 Y92.772 E1.45406
G1 X71.89 Y93.788 E.06573
G1 X70.259 Y94.691 E.07535
G1 X68.407 Y95.305 E.07886
G1 X66.472 Y95.56 E.07888
G1 X38.174 Y95.565 E1.14368
G1 X37.223 Y95.51 E.0385
G1 X36.084 Y95.326 E.04663
G1 X34.968 Y95.012 E.04686
G1 X34.065 Y94.657 E.03921
G1 X33.065 Y94.14 E.0455
G1 X31.987 Y93.409 E.05264
G1 X31.01 Y92.549 E.0526
G1 X30.149 Y91.573 E.0526
G1 X20.898 Y79.385 E.61841
G1 X20.183 Y77.259 E.09065
G1 X20.183 Y42.777 E1.39361
G1 X20.895 Y40.655 E.09046
G1 X30.503 Y28.004 E.64204
M204 S2000
; printing object Y_gantry_top_right.stl id:1 copy 0
G1 E-.5 F3000
G1 Z.6 F12000
M204 S3000
G1 X39.079 Y63.633
G1 Z.2
G1 E.5 F1800
M204 S1000
;TYPE:Perimeter
;WIDTH:0.559999
G1 X38.935 Y63.635 E.00582
G1 X38.268 Y63.496 E.02754
G1 X37.834 Y63.336 E.01869
G1 X37.269 Y63.031 E.02595
G1 X36.823 Y62.657 E.02352
G1 X36.474 Y62.3 E.02018
G1 X36.096 Y61.717 E.02808
G1 X35.824 Y62.175 E.02153
G1 X35.455 Y62.582 E.0222
G1 X35.082 Y62.923 E.02043
G1 X34.617 Y63.21 E.02208
G1 X34.152 Y63.422 E.02065
G1 X33.548 Y63.594 E.02538
G1 X32.783 Y63.644 E.03098
G1 X32.322 Y63.599 E.01872
G1 X31.656 Y63.433 E.02774
G1 X31.021 Y63.12 E.02861
G1 X30.641 Y62.855 E.01872
G1 X30.296 Y62.542 E.01883
G1 X29.996 Y62.19 E.01869
G1 X29.742 Y61.799 E.01884
G1 X29.541 Y61.382 E.01871
G1 X29.329 Y60.683 E.02952
G1 X29.276 Y60.021 E.02684
G1 X29.306 Y59.559 E.01871
G1 X29.395 Y59.102 E.01882
G1 X29.541 Y58.662 E.01874
G1 X29.743 Y58.243 E.0188
G1 X29.995 Y57.855 E.0187
G1 X30.463 Y57.329 E.02845
G1 X31.022 Y56.922 E.02795
G1 X31.432 Y56.708 E.01869
G1 X32.102 Y56.479 E.02862
G1 X32.769 Y56.4 E.02715
G1 X33.353 Y56.421 E.02362
G1 X34.074 Y56.598 E.03
G1 X34.489 Y56.759 E.01799
G1 X34.974 Y57.05 E.02286
G1 X35.336 Y57.338 E.0187
G1 X35.802 Y57.838 E.02762
G1 X36.099 Y58.333 E.02333
G1 X36.395 Y57.855 E.02272
G1 X36.823 Y57.366 E.02626
G1 X37.348 Y56.974 E.02648
G1 X37.778 Y56.729 E.02
G1 X38.27 Y56.547 E.0212
G1 X38.718 Y56.444 E.01858
G1 X39.509 Y56.399 E.03202
G1 X40.106 Y56.488 E.02439
G1 X40.552 Y56.621 E.01881
G1 X40.976 Y56.808 E.01873
G1 X41.374 Y57.05 E.01883
G1 X41.736 Y57.338 E.0187
G1 X42.06 Y57.673 E.01884
G1 X42.337 Y58.044 E.01871
G1 X42.565 Y58.45 E.01882
G1 X42.739 Y58.879 E.01871
G1 X42.776 Y59.182 E.01234
;WIDTH:0.515859
G1 X42.813 Y59.485 E.01128
;WIDTH:0.471719
G1 X42.85 Y59.789 E.01026
;WIDTH:0.442245
G1 X42.831 Y60.557 E.02398
;WIDTH:0.481497
G1 X42.801 Y60.759 E.007
;WIDTH:0.520748
G1 X42.77 Y60.962 E.00767
;WIDTH:0.559999
G1 X42.739 Y61.164 E.00826
G1 X42.567 Y61.591 E.0186
G1 X42.345 Y61.987 E.01835
G1 X42.073 Y62.354 E.01846
G1 X41.742 Y62.699 E.01932
G1 X41.374 Y62.993 E.01904
G1 X40.976 Y63.235 E.01883
G1 X40.552 Y63.422 E.01873
G1 X40.106 Y63.555 E.01881
G1 X39.649 Y63.629 E.01871
G1 X39.139 Y63.633 E.02061
M204 S2000
G1 E-.5 F3000
G1 Z.6 F12000
M204 S3000
G1 X32.638 Y63.115
G1 Z.2
G1 E.5 F1800
M204 S1000
G1 X32.437 Y63.095 E.00816
G1 X31.831 Y62.947 E.02521
G1 X31.26 Y62.662 E.02579
G1 X30.989 Y62.473 E.01335
G1 X30.429 Y61.908 E.03215
G1 X30.032 Y61.219 E.03214
G1 X29.839 Y60.593 E.02648
G1 X29.792 Y59.988 E.02453
G1 X29.813 Y59.658 E.01336
G1 X30.006 Y58.887 E.03212
G1 X30.389 Y58.19 E.03214
G1 X30.81 Y57.713 E.02571
G1 X31.318 Y57.346 E.02533
G1 X31.611 Y57.193 E.01336
G1 X32.214 Y56.984 E.02579
G1 X32.82 Y56.915 E.02465
G1 X33.338 Y56.939 E.02096
G1 X33.927 Y57.093 E.0246
G1 X34.308 Y57.25 E.01665
G1 X34.815 Y57.566 E.02414
G1 X35.289 Y58.033 E.02689
G1 X35.715 Y58.704 E.03212
G1 X35.892 Y59.214 E.02182
G1 X35.951 Y59.462 E.0103
;WIDTH:0.546546
G1 X35.94 Y59.64 E.00702
;WIDTH:0.496974
G1 X35.929 Y59.817 E.00629
;WIDTH:0.447402
G1 X35.918 Y59.994 E.00561
;WIDTH:0.444713
G1 X35.921 Y60.284 E.00911
;WIDTH:0.491596
G1 X35.924 Y60.574 E.01017
;WIDTH:0.525798
G1 X35.882 Y60.803 E.00879
;WIDTH:0.559999
G1 X35.839 Y61.033 E.00946
G1 X35.597 Y61.549 E.02303
G1 X35.289 Y62.011 E.02244
G1 X34.873 Y62.431 E.02389
G1 X34.348 Y62.768 E.02521
G1 X33.917 Y62.953 E.01896
G1 X33.339 Y63.104 E.02414
G1 X32.698 Y63.12 E.02591
M204 S2000
G1 E-.5 F3000
G1 Z.6 F12000
M204 S3000
G1 X32.717 Y62.489
G1 X34.441 Y85.597
G1 X34.495 Y85.941
G1 X34.583 Y86.277
G1 X34.706 Y86.602
G1 X34.861 Y86.913
G1 X35.048 Y87.207
G1 X35.264 Y87.479
G1 X35.506 Y87.728
G1 X38.082 Y90.136
G1 Z.2
G1 E.5 F1800
M204 S1000
;WIDTH:0.488362
G1 X37.727 Y90.131 E.01236
;WIDTH:0.450511
G1 X37.198 Y90.053 E.01704
;WIDTH:0.432766
G1 X36.488 Y89.854 E.02247
;WIDTH:0.39047
G1 X35.969 Y89.625 E.01541
;WIDTH:0.408444
G1 X35.923 Y89.572 E.002
;WIDTH:0.456065
G1 X35.877 Y89.518 E.00229
;WIDTH:0.503686
G1 X35.831 Y89.464 E.00255
;WIDTH:0.551307
G1 X35.785 Y89.411 E.00279
;WIDTH:0.598928
G1 X35.738 Y89.357 E.00311
;WIDTH:0.646548
G1 X35.692 Y89.304 E.00331
G1 X35.757 Y89.309 E.00308
;WIDTH:0.60009
G1 X35.823 Y89.314 E.00288
;WIDTH:0.553631
G1 X35.888 Y89.319 E.0026
;WIDTH:0.507173
G1 X35.953 Y89.324 E.00237
;WIDTH:0.460714
G1 X36.018 Y89.329 E.00213
;WIDTH:0.414256
G1 X36.083 Y89.334 E.00189
;WIDTH:0.387381
G1 X36.454 Y89.473 E.01067
;WIDTH:0.407706
G1 X36.952 Y89.618 E.01479
;WIDTH:0.436215
G1 X37.506 Y89.704 E.01723
;WIDTH:0.483442
G1 X38.176 Y89.713 E.02307
;WIDTH:0.513528
G1 X38.787 Y89.643 E.02262
;WIDTH:0.539415
G1 X39.328 Y89.499 E.02173
;WIDTH:0.573819
G1 X39.787 Y89.317 E.02049
;WIDTH:0.611773
G1 X40.499 Y88.914 E.03638
;WIDTH:0.63568
G1 X41 Y88.507 E.02991
;WIDTH:0.670444
G1 X41.478 Y87.97 E.03526
;WIDTH:0.685883
G1 X41.782 Y87.528 E.02696
;WIDTH:0.699042
G1 X42.023 Y87.059 E.02704
;WIDTH:0.704658
G1 X42.167 Y86.689 E.02054
;WIDTH:0.715139
G1 X42.338 Y86.047 E.03491
;WIDTH:0.724524
G1 X42.39 Y85.549 E.02668
;WIDTH:0.735312
G1 X42.393 Y84.818 E.03956
;WIDTH:0.778632
G1 X42.328 Y84.262 E.03219
G1 X42.288 Y84.193 E.00459
;WIDTH:0.734906
G1 X42.247 Y84.124 E.00434
;WIDTH:0.691179
G1 X42.206 Y84.056 E.00402
;WIDTH:0.647453
G1 X42.166 Y83.987 E.00377
;WIDTH:0.603726
G1 X42.125 Y83.919 E.00348
;WIDTH:0.559999
G1 X41.762 Y83.062 E.03762
G1 X41.23 Y82.298 E.03763
G1 X40.554 Y81.659 E.0376
G1 X39.761 Y81.171 E.03763
G1 X38.885 Y80.856 E.03762
G1 X38.05 Y80.727 E.03415
G1 X37.485 Y80.736 E.02284
G1 X36.941 Y80.807 E.02217
G1 X36.58 Y80.892 E.01499
G1 X36.052 Y81.076 E.0226
G1 X35.715 Y81.234 E.01504
G1 X35.235 Y81.522 E.02262
G1 X34.937 Y81.745 E.01504
G1 X34.281 Y82.405 E.03761
G1 X33.773 Y83.185 E.03762
G1 X33.436 Y84.052 E.03759
G1 X33.283 Y84.97 E.03761
G1 X33.321 Y85.9 E.03762
G1 X33.549 Y86.802 E.0376
;WIDTH:0.57434
G1 X33.767 Y87.318 E.02327
G1 X33.422 Y86.877 E.02326
;WIDTH:0.559999
G1 X25.631 Y76.609 E.52092
G1 X25.631 Y43.425 E1.34115
G1 X33.578 Y32.922 E.5323
G1 X33.856 Y32.523 E.01965
;WIDTH:0.521273
G1 X34.134 Y32.123 E.01821
;WIDTH:0.482546
G1 X34.603 Y31.529 E.02601
;WIDTH:0.474858
G1 X35.061 Y31.064 E.02203
G1 X35.537 Y30.694 E.02035
;WIDTH:0.470637
G1 X36.017 Y30.405 E.01873
G1 X36.424 Y30.216 E.015
;WIDTH:0.470106
G1 X36.978 Y30.025 E.01957
;WIDTH:0.475139
G1 X37.551 Y29.899 E.01982
G1 X38.257 Y29.845 E.02392
;WIDTH:0.469528
G1 X38.869 Y29.875 E.02043
;WIDTH:0.473316
G1 X39.383 Y29.964 E.01755
G1 X39.865 Y30.105 E.01689
;WIDTH:0.468218
G1 X40.41 Y30.323 E.01951
;WIDTH:0.473847
G1 X40.873 Y30.569 E.01766
G1 X41.612 Y31.125 E.03115
;WIDTH:0.472073
G1 X42.005 Y31.531 E.01895
;WIDTH:0.471016
G1 X42.282 Y31.891 E.0152
;WIDTH:0.470331
G1 X42.781 Y32.748 E.03313
G1 X42.973 Y33.303 E.01962
;WIDTH:0.473351
G1 X43.112 Y33.79 E.01704
G1 X43.182 Y34.292 E.01705
;WIDTH:0.475918
G1 X43.211 Y34.815 E.01773
;WIDTH:0.501148
G1 X43.198 Y35.25 E.01559
;WIDTH:0.526377
G1 X43.186 Y35.685 E.01644
;WIDTH:0.559999
G1 X43.169 Y36.245 E.02264
G1 X43.169 Y58.824 E.91254
G1 X43.191 Y59.145 E.013
;WIDTH:0.515859
G1 X43.213 Y59.467 E.01193
;WIDTH:0.471719
G1 X43.235 Y59.789 E.01082
;WIDTH:0.442245
G1 X43.228 Y60.592 E.02506
;WIDTH:0.481497
G1 X43.208 Y60.801 E.0072
;WIDTH:0.520748
G1 X43.188 Y61.01 E.00784
;WIDTH:0.559999
G1 X43.169 Y61.22 E.00852
G1 X43.169 Y83.728 E.90967
;WIDTH:0.603726
G1 X43.147 Y83.824 E.00432
;WIDTH:0.647453
G1 X43.125 Y83.919 E.00461
;WIDTH:0.691179
G1 X43.103 Y84.014 E.00494
;WIDTH:0.734906
G1 X43.081 Y84.11 E.00533
;WIDTH:0.778632
G1 X43.059 Y84.205 E.00561
G1 X43.074 Y84.657 E.02601
;WIDTH:0.750291
G1 X43.088 Y85.11 E.02506
;WIDTH:0.724524
G1 X43.068 Y85.611 E.02671
G1 X42.966 Y86.312 E.03774
;WIDTH:0.714969
G1 X42.801 Y86.878 E.03097
;WIDTH:0.704658
G1 X42.603 Y87.367 E.02729
;WIDTH:0.699042
G1 X42.349 Y87.83 E.02708
;WIDTH:0.685883
G1 X42.099 Y88.189 E.02199
;WIDTH:0.667715
G1 X41.74 Y88.619 E.02736
;WIDTH:0.659928
G1 X41.305 Y89.025 E.0287
;WIDTH:0.634913
G1 X40.847 Y89.364 E.02637
;WIDTH:0.611773
G1 X40.416 Y89.609 E.02204
;WIDTH:0.588952
G1 X39.68 Y89.92 E.0341
;WIDTH:0.552454
G1 X39.107 Y90.063 E.02352
;WIDTH:0.530351
G1 X38.45 Y90.141 E.02521
;WIDTH:0.488362
G1 X38.142 Y90.136 E.01072
M204 S2000
G1 E-.5 F3000
G1 Z.6 F12000
M204 S3000
G1 X40.448 Y87.346
G1 X40.649 Y87.062
G1 X40.82 Y86.76
G1 X40.96 Y86.441
G1 X41.065 Y86.11
G1 X41.137 Y85.77
G1 X41.172 Y85.424
G1 X41.172 Y85.076
G1 X41.137 Y84.73
G1 X36.868 Y60.495
G1 X36.828 Y60.18
G1 X36.828 Y59.863
G1 X38.212 Y39.271
G1 Z.2
G1 E.5 F1800
M204 S1000
;WIDTH:0.559999
G1 X37.998 Y39.266 E.00865
G1 X37.442 Y39.194 E.02266
G1 X37.08 Y39.108 E.01504
G1 X36.552 Y38.924 E.0226
G1 X36.215 Y38.767 E.01503
G1 X35.735 Y38.478 E.02264
G1 X35.437 Y38.255 E.01504
G1 X35.026 Y37.875 E.02262
G1 X34.456 Y37.139 E.03762
G1 X34.049 Y36.302 E.03762
G1 X33.821 Y35.4 E.0376
G1 X33.783 Y34.47 E.03762
G1 X33.936 Y33.552 E.03761
G1 X34.049 Y33.198 E.01502
G1 X34.293 Y32.693 E.02267
;WIDTH:0.516888
G1 X34.695 Y32.096 E.02666
;WIDTH:0.477288
G1 X35.057 Y31.658 E.01929
;WIDTH:0.469692
G1 X35.468 Y31.279 E.01865
;WIDTH:0.470472
G1 X35.758 Y31.06 E.01214
;WIDTH:0.470637
G1 X36.238 Y30.772 E.01871
G1 X36.566 Y30.618 E.01211
;WIDTH:0.470106
G1 X37.095 Y30.435 E.01869
;WIDTH:0.475139
G1 X37.605 Y30.328 E.0176
G1 X38.172 Y30.269 E.01926
;WIDTH:0.467444
G1 X38.634 Y30.277 E.01533
;WIDTH:0.473316
G1 X39.283 Y30.382 E.02212
;WIDTH:0.474546
G1 X39.892 Y30.567 E.02147
G1 X40.376 Y30.774 E.01776
;WIDTH:0.469369
G1 X41.028 Y31.196 E.02589
;WIDTH:0.472073
G1 X41.312 Y31.432 E.01239
G1 X41.703 Y31.834 E.01881
;WIDTH:0.471008
G1 X41.922 Y32.115 E.01192
;WIDTH:0.467074
G1 X42.22 Y32.588 E.01853
;WIDTH:0.474413
G1 X42.434 Y33.033 E.01665
G1 X42.616 Y33.552 E.01855
;WIDTH:0.475425
G1 X42.738 Y34.166 E.02116
G1 X42.78 Y34.701 E.01814
;WIDTH:0.487672
G1 X42.76 Y35.26 E.01944
;WIDTH:0.526377
G1 X42.723 Y35.626 E.0139
;WIDTH:0.559999
G1 X42.597 Y36.171 E.02261
G1 X42.215 Y37.02 E.03763
G1 X41.668 Y37.773 E.03762
G1 X40.979 Y38.398 E.0376
G1 X40.176 Y38.869 E.03762
G1 X39.294 Y39.165 E.0376
G1 X38.37 Y39.275 E.03761
G1 X38.272 Y39.273 E.00396
M204 S2000
M204 S3000
G1 X38.166 Y38.744 F12000
M204 S1000
G1 F1800
G1 X37.509 Y38.681 E.02667
G1 X36.722 Y38.436 E.03331
G1 X36.001 Y38.035 E.03334
G1 X35.378 Y37.495 E.03332
G1 X34.878 Y36.84 E.0333
G1 X34.523 Y36.095 E.03335
G1 X34.327 Y35.294 E.03333
G1 X34.3 Y34.47 E.03332
G1 X34.442 Y33.658 E.03332
G1 X34.747 Y32.892 E.03332
G1 X35.083 Y32.372 E.02502
G1 X35.43 Y31.956 E.02189
G1 X35.869 Y31.556 E.024
G1 X36.481 Y31.177 E.02909
G1 X37.193 Y30.9 E.03088
G1 X37.666 Y30.799 E.01955
G1 X38.184 Y30.738 E.02108
G1 X38.601 Y30.747 E.01686
G1 X39.198 Y30.848 E.02447
G1 X39.713 Y31.007 E.02178
G1 X40.215 Y31.222 E.02207
G1 X40.765 Y31.588 E.0267
G1 X41.36 Y32.159 E.03333
G1 X41.825 Y32.839 E.03329
G1 X42.141 Y33.601 E.03334
G1 X42.269 Y34.24 E.02634
G1 X42.304 Y34.779 E.02183
G1 X42.262 Y35.392 E.02483
G1 X42.097 Y36.039 E.02699
G1 X41.753 Y36.789 E.03335
G1 X41.263 Y37.452 E.03332
G1 X40.647 Y38.001 E.03335
G1 X39.933 Y38.412 E.0333
G1 X39.149 Y38.669 E.03334
G1 X38.33 Y38.76 E.0333
G1 X38.226 Y38.75 E.00422
M204 S2000
M204 S3000
G1 X38.205 Y38.235 F12000
M204 S1000
G1 F1800
G1 X37.575 Y38.168 E.02561
G1 X36.891 Y37.948 E.02904
G1 X36.267 Y37.592 E.02903
G1 X35.729 Y37.116 E.02903
G1 X35.299 Y36.54 E.02905
G1 X34.997 Y35.888 E.02904
G1 X34.834 Y35.189 E.02901
G1 X34.817 Y34.47 E.02907
G1 X34.948 Y33.764 E.02902
G1 X35.221 Y33.099 E.02905
G1 X35.504 Y32.671 E.02074
