; HEADER_BLOCK_START
; generated by OrcaSlicer 1.6.3-beta on 2023-05-29 at 20:04:19
; total layer number: 65
; HEADER_BLOCK_END

; THUMBNAIL_BLOCK_START
; THUMBNAIL_BLOCK_END

; external perimeters extrusion width = 0.40mm
; perimeters extrusion width = 0.45mm
; infill extrusion width = 0.45mm
; solid infill extrusion width = 0.40mm
; top infill extrusion width = 0.40mm
; first layer extrusion width = 0.40mm

; EXECUTABLE_BLOCK_START
EXCLUDE_OBJECT_DEFINE NAME=Y_limit_switch_mount.stl_id_0_copy_0 CENTER=60,60 POLYGON=[[48,51],[49,50],[67,50],[68,51],[71.9999,62.45],[72,68.1],[72,69.6],[71.6,70],[49,70],[48,69],[48,51]]
M73 P0 R6
;TYPE:Custom
START_PRINT T_BED=110 T_EXTRUDER=260
G90
G21
M83 ; use relative distances for extrusion
; Filament gcode

    PRESSURE_ADVANCE_SELECT FILAMENT=ABS
M106 S0
;LAYER_CHANGE
;Z:0.2
;HEIGHT:0.2
;BEFORE_LAYER_CHANGE
;0.2
G92 E0

;AFTER_LAYER_CHANGE
;0.2
SET_VELOCITY_LIMIT ACCEL_TO_DECEL=500
M204 S1000
G1 E-.5 F3000
G1 Z.2 F21000
G1 X47.081 Y48.081
G1 E.5 F1800
;TYPE:Skirt
;WIDTH:0.4
G1 F3000
G1 X49 Y47.286 E.05711
G1 X67 Y47.286 E.49489
G1 X68.919 Y48.081 E.05711
G1 X69.919 Y49.081 E.03888
G1 X70.562 Y50.105 E.03325
G1 X74.562 Y61.555 E.33346
G1 X74.714 Y62.45 E.02496
G1 X74.714 Y69.6 E.19658
G1 X73.919 Y71.519 E.05712
G1 X73.519 Y71.919 E.01555
G1 X71.6 Y72.714 E.05711
G1 X49 Y72.714 E.62137
G1 X47.081 Y71.919 E.05711
G1 X46.081 Y70.919 E.03888
G1 X45.286 Y69 E.05711
G1 X45.286 Y51 E.49489
G1 X46.081 Y49.081 E.05711
G1 X47.038 Y48.123 E.03723
G1 X47.291 Y48.376 F21000
G1 F3000
G1 X47.333 Y48.333 E.00165
G1 X49 Y47.643 E.0496
G1 X67 Y47.643 E.49489
G1 X68.667 Y48.333 E.0496
G1 X69.667 Y49.333 E.03888
G1 X70.225 Y50.223 E.02887
G1 X74.225 Y61.673 E.33346
G1 X74.357 Y62.45 E.02168
G1 X74.357 Y69.6 E.19658
G1 X73.667 Y71.267 E.0496
G1 X73.267 Y71.667 E.01555
G1 X71.6 Y72.357 E.0496
G1 X49 Y72.357 E.62137
M73 P1 R6
G1 X47.333 Y71.667 E.0496
G1 X46.333 Y70.667 E.03888
G1 X45.643 Y69 E.0496
G1 X45.643 Y51 E.49489
G1 X46.333 Y49.333 E.0496
G1 X47.248 Y48.418 E.03558
; printing object Y limit switch mount.stl id:0 copy 0
EXCLUDE_OBJECT_START NAME=Y_limit_switch_mount.stl_id_0_copy_0
G1 E-.5
G1 Z.4 F21000
G1 X60.896 Y66.145
G1 Z.2
G1 E.5 F1800
;TYPE:Inner wall
G1 F3000
G1 X60.847 Y66.559 E.01147
G1 X60.727 Y66.993 E.01237
G1 X60.546 Y67.391 E.01204
G1 X60.417 Y67.604 E.00683
G1 X60.156 Y67.941 E.01172
G1 X59.982 Y68.118 E.00683
G1 X59.641 Y68.393 E.01204
G1 X59.261 Y68.612 E.01206
G1 X59.029 Y68.712 E.00695
G1 X58.614 Y68.836 E.01191
G1 X58.169 Y68.897 E.01236
G1 X57.731 Y68.888 E.01204
G1 X57.485 Y68.855 E.00683
G1 X57.06 Y68.746 E.01206
G1 X56.643 Y68.565 E.01249
G1 X56.277 Y68.334 E.01191
G1 X56.083 Y68.178 E.00683
G1 X55.774 Y67.861 E.01217
G1 X55.522 Y67.509 E.01191
G1 X55.402 Y67.292 E.00682
G1 X55.237 Y66.886 E.01204
G1 X55.136 Y66.46 E.01204
G1 X55.108 Y66.225 E.00651
G1 X55.099 Y65.988 E.00651
G1 X55.133 Y65.552 E.01204
G1 X55.237 Y65.114 E.01236
G1 X55.402 Y64.708 E.01204
G1 X55.522 Y64.491 E.00683
G1 X55.771 Y64.144 E.01174
G1 X55.941 Y63.957 E.00695
G1 X56.267 Y63.672 E.01191
G1 X56.648 Y63.433 E.01236
G1 X57.05 Y63.259 E.01204
G1 X57.288 Y63.188 E.00684
G1 X57.724 Y63.111 E.01217
G1 X58.157 Y63.103 E.01191
G1 X58.404 Y63.127 E.00682
G1 X58.821 Y63.218 E.01172
G1 X59.056 Y63.298 E.00684
G1 X59.455 Y63.49 E.01217
G1 X59.812 Y63.735 E.01191
G1 X59.999 Y63.898 E.00682
G1 X60.286 Y64.214 E.01172
G1 X60.43 Y64.416 E.00683
G1 X60.642 Y64.799 E.01205
G1 X60.792 Y65.211 E.01204
G1 X60.849 Y65.452 E.00683
G1 X60.898 Y65.876 E.01172
G1 X60.898 Y66.085 E.00575
G1 X60.498 Y66.107 F21000
;TYPE:Outer wall
G1 F3000
G1 X60.454 Y66.482 E.01038
G1 X60.35 Y66.855 E.01066
G1 X60.191 Y67.205 E.01055
G1 X60.087 Y67.377 E.00554
G1 X59.854 Y67.677 E.01044
G1 X59.713 Y67.821 E.00555
G1 X59.414 Y68.062 E.01055
G1 X59.082 Y68.254 E.01056
G1 X58.893 Y68.335 E.00566
G1 X58.529 Y68.444 E.01042
G1 X58.145 Y68.496 E.01066
G1 X57.762 Y68.489 E.01055
G1 X57.562 Y68.462 E.00554
G1 X57.19 Y68.366 E.01055
G1 X56.831 Y68.21 E.01078
G1 X56.51 Y68.008 E.01043
G1 X56.353 Y67.881 E.00555
G1 X56.082 Y67.604 E.01067
G1 X55.861 Y67.295 E.01042
G1 X55.764 Y67.119 E.00554
G1 X55.619 Y66.764 E.01055
G1 X55.53 Y66.39 E.01055
G1 X55.507 Y66.194 E.00544
G1 X55.5 Y65.996 E.00544
G1 X55.529 Y65.614 E.01055
G1 X55.619 Y65.236 E.01066
G1 X55.764 Y64.881 E.01055
G1 X55.861 Y64.705 E.00554
G1 X56.082 Y64.396 E.01045
G1 X56.221 Y64.243 E.00566
G1 X56.507 Y63.994 E.01042
G1 X56.835 Y63.787 E.01065
G1 X57.187 Y63.636 E.01055
G1 X57.38 Y63.578 E.00555
G1 X57.762 Y63.511 E.01067
G1 X58.142 Y63.504 E.01043
G1 X58.342 Y63.523 E.00555
G1 X58.713 Y63.604 E.01044
G1 X58.904 Y63.669 E.00555
G1 X59.254 Y63.837 E.01067
G1 X59.567 Y64.051 E.01043
G1 X59.719 Y64.184 E.00554
G1 X59.974 Y64.465 E.01044
G1 X60.091 Y64.629 E.00555
G1 X60.277 Y64.965 E.01055
G1 X60.408 Y65.326 E.01055
G1 X60.454 Y65.522 E.00554
G1 X60.498 Y65.899 E.01044
G1 X60.498 Y66.047 E.00407
G1 X60.561 Y66.148
G1 E-.5
G1 Z.4 F21000
G1 X58.331 Y57.956
G1 Z.2
G1 E.5 F1800
;TYPE:Inner wall
G1 F3000
G1 X58.841 Y57.886 E.01415
G1 X59.395 Y57.721 E.01589
G1 X59.742 Y57.572 E.01038
G1 X60.249 Y57.279 E.01609
G1 X60.703 Y56.913 E.01605
G1 X60.965 Y56.646 E.01026
G1 X61.302 Y56.211 E.01515
G1 X61.495 Y55.891 E.01026
G1 X61.737 Y55.36 E.01605
G1 X61.902 Y54.766 E.01695
G1 X61.97 Y54.187 E.01605
G1 X61.97 Y53.813 E.01026
G1 X61.906 Y53.266 E.01515
G1 X61.82 Y52.903 E.01026
G1 X61.62 Y52.355 E.01605
G1 X61.298 Y51.771 E.01832
G1 X66.229 Y51.771 E.13557
G1 X66.229 Y63.821 E.3313
G1 X70.229 Y63.821 E.10997
G1 X70.229 Y68.229 E.12118
G1 X61.291 Y68.229 E.24572
G1 X61.495 Y67.891 E.01083
G1 X61.737 Y67.36 E.01605
G1 X61.902 Y66.766 E.01695
G1 X61.97 Y66.187 E.01605
G1 X61.97 Y65.813 E.01026
G1 X61.906 Y65.266 E.01515
G1 X61.82 Y64.903 E.01026
G1 X61.62 Y64.355 E.01605
G1 X61.338 Y63.843 E.01605
G1 X61.121 Y63.54 E.01026
G1 X60.751 Y63.132 E.01515
G1 X60.47 Y62.887 E.01025
G1 X59.993 Y62.56 E.0159
G1 X59.463 Y62.305 E.01618
G1 X59.109 Y62.184 E.01029
G1 X58.57 Y62.067 E.01515
G1 X58.199 Y62.031 E.01025
G1 X57.621 Y62.042 E.0159
G1 X57.041 Y62.143 E.01618
G1 X56.683 Y62.251 E.01029
G1 X56.147 Y62.482 E.01605
G1 X55.626 Y62.81 E.01693
G1 X55.19 Y63.19 E.01588
G1 X54.936 Y63.469 E.01038
G1 X54.615 Y63.919 E.0152
G1 X54.434 Y64.246 E.01026
G1 X54.214 Y64.786 E.01605
G1 X54.071 Y65.386 E.01694
G1 X54.026 Y65.968 E.01605
G1 X54.039 Y66.308 E.00936
G1 X54.079 Y66.646 E.00936
G1 X54.214 Y67.214 E.01605
G1 X54.434 Y67.754 E.01605
G1 X54.696 Y68.229 E.0149
G1 X49.771 Y68.229 E.1354
G1 X49.771 Y51.771 E.45249
M73 P2 R6
G1 X54.696 Y51.771 E.1354
G1 X54.434 Y52.246 E.0149
G1 X54.214 Y52.786 E.01605
G1 X54.071 Y53.386 E.01694
G1 X54.026 Y53.968 E.01605
G1 X54.039 Y54.308 E.00936
G1 X54.079 Y54.646 E.00936
G1 X54.214 Y55.214 E.01605
G1 X54.434 Y55.754 E.01605
G1 X54.614 Y56.081 E.01025
G1 X54.95 Y56.551 E.0159
G1 X55.362 Y56.972 E.01618
G1 X55.653 Y57.207 E.01028
G1 X56.142 Y57.515 E.0159
G1 X56.712 Y57.762 E.01707
G1 X57.278 Y57.908 E.01608
G1 X57.648 Y57.958 E.01026
G1 X58.231 Y57.97 E.01605
G1 X58.272 Y57.964 E.00113
G1 X58.286 Y57.602 F21000
G1 F3000
G1 X58.766 Y57.536 E.01331
G1 X59.273 Y57.385 E.01456
G1 X59.582 Y57.252 E.00924
G1 X60.046 Y56.984 E.01475
G1 X60.463 Y56.648 E.01471
G1 X60.695 Y56.411 E.00911
G1 X61.007 Y56.008 E.01401
G1 X61.179 Y55.725 E.00911
G1 X61.4 Y55.238 E.01471
G1 X61.55 Y54.697 E.01542
G1 X61.613 Y54.166 E.01471
G1 X61.613 Y53.834 E.00911
G1 X61.553 Y53.328 E.01401
G1 X61.477 Y53.006 E.00911
G1 X61.294 Y52.503 E.01471
G1 X61.035 Y52.034 E.01472
G1 X60.843 Y51.765 E.00911
G1 X60.525 Y51.414 E.01301
G1 X66.414 Y51.414 E.16193
G1 X66.586 Y51.586 E.00667
G1 X66.586 Y63.464 E.32659
G1 X70.586 Y63.464 E.10997
G1 X70.586 Y68.586 E.14082
G1 X60.56 Y68.586 E.27566
G1 X61.007 Y68.008 E.02008
G1 X61.179 Y67.725 E.00911
G1 X61.4 Y67.238 E.01471
G1 X61.55 Y66.697 E.01542
G1 X61.613 Y66.166 E.01471
G1 X61.613 Y65.834 E.00911
G1 X61.553 Y65.328 E.01401
G1 X61.477 Y65.006 E.00911
G1 X61.294 Y64.503 E.01471
G1 X61.035 Y64.034 E.01472
G1 X60.843 Y63.765 E.00911
G1 X60.5 Y63.387 E.01401
G1 X60.251 Y63.169 E.0091
G1 X59.814 Y62.87 E.01457
G1 X59.327 Y62.636 E.01484
G1 X59.013 Y62.528 E.00914
G1 X58.515 Y62.421 E.01401
G1 X58.185 Y62.388 E.00911
G1 X57.655 Y62.398 E.01457
G1 X57.124 Y62.491 E.01484
G1 X56.805 Y62.587 E.00914
G1 X56.314 Y62.799 E.01472
G1 X55.84 Y63.098 E.01541
G1 X55.44 Y63.446 E.01456
G1 X55.214 Y63.694 E.00924
G1 X54.917 Y64.11 E.01405
G1 X54.757 Y64.4 E.00911
G1 X54.555 Y64.895 E.01471
G1 X54.425 Y65.441 E.01542
G1 X54.384 Y65.974 E.01471
G1 X54.431 Y66.584 E.01681
G1 X54.555 Y67.105 E.01471
G1 X54.757 Y67.6 E.01471
G1 X54.917 Y67.89 E.00911
G1 X55.225 Y68.321 E.01457
G1 X55.484 Y68.586 E.01017
G1 X49.586 Y68.586 E.16216
G1 X49.414 Y68.414 E.00667
G1 X49.414 Y51.586 E.46268
G1 X49.586 Y51.414 E.00667
G1 X55.469 Y51.414 E.16176
G1 X55.214 Y51.694 E.01041
G1 X54.917 Y52.11 E.01405
G1 X54.757 Y52.4 E.00911
G1 X54.555 Y52.895 E.01471
G1 X54.425 Y53.441 E.01542
G1 X54.384 Y53.974 E.01471
G1 X54.431 Y54.584 E.01681
G1 X54.555 Y55.105 E.01471
G1 X54.757 Y55.6 E.01471
G1 X54.917 Y55.89 E.00911
G1 X55.225 Y56.321 E.01457
G1 X55.602 Y56.707 E.01484
G1 X55.861 Y56.916 E.00913
G1 X56.309 Y57.198 E.01457
G1 X56.828 Y57.423 E.01555
G1 X57.347 Y57.557 E.01474
G1 X57.675 Y57.602 E.00911
G1 X58.21 Y57.612 E.01471
G1 X58.227 Y57.61 E.00045
G1 X58.138 Y57.254 F21000
G1 F3000
G1 X58.19 Y57.255 E.00142
G1 X58.69 Y57.186 E.01389
G1 X59.151 Y57.048 E.01323
G1 X59.422 Y56.932 E.00809
G1 X59.844 Y56.688 E.01341
G1 X60.223 Y56.383 E.01338
G1 X60.426 Y56.176 E.00797
G1 X60.712 Y55.806 E.01287
G1 X60.862 Y55.558 E.00797
G1 X61.063 Y55.115 E.01338
G1 X61.199 Y54.628 E.01389
G1 X61.255 Y54.145 E.01338
G1 X61.255 Y53.855 E.00797
G1 X61.201 Y53.39 E.01287
G1 X61.134 Y53.108 E.00797
G1 X60.968 Y52.651 E.01338
G1 X60.733 Y52.225 E.01338
G1 X60.564 Y51.989 E.00797
G1 X60.237 Y51.629 E.01338
G1 X59.858 Y51.323 E.01338
G1 X59.682 Y51.212 E.00574
G1 X59.726 Y51.057 E.00443
G1 X66.562 Y51.057 E.18794
G1 X66.943 Y51.438 E.01481
G1 X66.943 Y63.107 E.32084
G1 X70.943 Y63.107 E.10997
G1 X70.943 Y68.943 E.16045
G1 X59.721 Y68.943 E.30854
G1 X59.678 Y68.784 E.00452
G1 X59.844 Y68.688 E.00526
G1 X60.223 Y68.383 E.01338
G1 X60.426 Y68.176 E.00797
G1 X60.712 Y67.806 E.01287
G1 X60.862 Y67.558 E.00797
G1 X61.063 Y67.115 E.01338
G1 X61.199 Y66.628 E.01389
M73 P3 R6
G1 X61.255 Y66.145 E.01338
G1 X61.255 Y65.855 E.00797
G1 X61.201 Y65.39 E.01287
G1 X61.134 Y65.108 E.00797
G1 X60.968 Y64.651 E.01338
G1 X60.733 Y64.225 E.01338
G1 X60.564 Y63.989 E.00797
G1 X60.25 Y63.643 E.01287
G1 X60.031 Y63.452 E.00796
G1 X59.634 Y63.18 E.01324
G1 X59.192 Y62.967 E.0135
G1 X58.917 Y62.873 E.00799
G1 X58.46 Y62.774 E.01286
G1 X58.171 Y62.746 E.00797
G1 X57.69 Y62.755 E.01324
G1 X57.206 Y62.84 E.0135
G1 X56.928 Y62.923 E.00799
G1 X56.481 Y63.116 E.01338
G1 X56.053 Y63.385 E.01389
G1 X55.691 Y63.701 E.01323
G1 X55.492 Y63.919 E.00809
G1 X55.22 Y64.3 E.01289
G1 X55.08 Y64.554 E.00797
G1 X54.896 Y65.005 E.01338
G1 X54.779 Y65.496 E.01389
G1 X54.741 Y65.981 E.01338
G1 X54.783 Y66.522 E.01491
G1 X54.896 Y66.995 E.01338
G1 X55.08 Y67.446 E.01338
G1 X55.22 Y67.699 E.00797
G1 X55.499 Y68.091 E.01324
G1 X55.843 Y68.442 E.0135
G1 X56.069 Y68.625 E.00798
G1 X56.328 Y68.788 E.00842
G1 X56.283 Y68.943 E.00443
G1 X49.438 Y68.943 E.1882
G1 X49.057 Y68.562 E.01481
G1 X49.057 Y51.438 E.47082
G1 X49.438 Y51.057 E.01481
G1 X56.283 Y51.057 E.18821
G1 X56.328 Y51.212 E.00443
G1 X56.053 Y51.385 E.00892
G1 X55.691 Y51.701 E.01323
G1 X55.492 Y51.919 E.00809
G1 X55.22 Y52.3 E.01289
G1 X55.08 Y52.554 E.00797
G1 X54.896 Y53.005 E.01338
G1 X54.779 Y53.496 E.01389
G1 X54.741 Y53.981 E.01338
G1 X54.783 Y54.522 E.01491
G1 X54.896 Y54.995 E.01338
G1 X55.08 Y55.446 E.01338
G1 X55.22 Y55.699 E.00797
G1 X55.499 Y56.091 E.01324
G1 X55.843 Y56.442 E.0135
G1 X56.069 Y56.625 E.00798
G1 X56.476 Y56.882 E.01324
G1 X56.944 Y57.084 E.01402
G1 X57.416 Y57.206 E.0134
G1 X57.703 Y57.245 E.00797
G1 X58.078 Y57.252 E.01031
G1 X58.195 Y56.893 F21000
G1 F3000
G1 X58.169 Y56.897 E.00074
G1 X57.731 Y56.888 E.01204
G1 X57.485 Y56.855 E.00683
G1 X57.06 Y56.746 E.01206
G1 X56.643 Y56.565 E.01249
G1 X56.277 Y56.334 E.01191
G1 X56.083 Y56.178 E.00683
G1 X55.774 Y55.861 E.01217
G1 X55.522 Y55.509 E.01191
G1 X55.402 Y55.292 E.00682
G1 X55.237 Y54.886 E.01204
G1 X55.136 Y54.46 E.01204
G1 X55.108 Y54.225 E.00651
G1 X55.099 Y53.988 E.00651
G1 X55.133 Y53.552 E.01204
G1 X55.237 Y53.114 E.01236
G1 X55.402 Y52.708 E.01204
G1 X55.522 Y52.491 E.00683
G1 X55.771 Y52.144 E.01174
G1 X55.941 Y51.957 E.00695
G1 X56.267 Y51.672 E.01191
G1 X56.648 Y51.433 E.01236
G1 X57.05 Y51.259 E.01204
G1 X57.288 Y51.188 E.00684
G1 X57.724 Y51.111 E.01217
G1 X58.157 Y51.103 E.01191
G1 X58.404 Y51.127 E.00682
G1 X58.821 Y51.218 E.01172
G1 X59.056 Y51.298 E.00683
G1 X59.44 Y51.482 E.01172
G1 X59.65 Y51.614 E.00683
G1 X59.991 Y51.889 E.01204
G1 X60.286 Y52.214 E.01204
G1 X60.43 Y52.416 E.00683
G1 X60.642 Y52.799 E.01205
G1 X60.792 Y53.211 E.01204
G1 X60.849 Y53.452 E.00683
G1 X60.898 Y53.876 E.01172
G1 X60.898 Y54.124 E.00683
G1 X60.847 Y54.559 E.01204
G1 X60.727 Y54.993 E.01237
G1 X60.546 Y55.391 E.01204
G1 X60.417 Y55.604 E.00683
G1 X60.156 Y55.941 E.01172
G1 X59.982 Y56.118 E.00683
G1 X59.641 Y56.393 E.01204
G1 X59.261 Y56.612 E.01206
G1 X59.029 Y56.712 E.00695
G1 X58.614 Y56.836 E.01191
G1 X58.255 Y56.885 E.00997
G1 X58.139 Y56.496 F21000
;TYPE:Outer wall
G1 F3000
G1 X57.762 Y56.489 E.01038
G1 X57.562 Y56.462 E.00554
G1 X57.19 Y56.366 E.01055
G1 X56.831 Y56.21 E.01078
G1 X56.51 Y56.008 E.01043
G1 X56.353 Y55.881 E.00555
G1 X56.082 Y55.604 E.01067
G1 X55.861 Y55.295 E.01042
G1 X55.764 Y55.119 E.00554
G1 X55.619 Y54.764 E.01055
G1 X55.53 Y54.39 E.01055
G1 X55.507 Y54.194 E.00544
G1 X55.5 Y53.996 E.00544
G1 X55.529 Y53.614 E.01055
G1 X55.619 Y53.236 E.01066
G1 X55.764 Y52.881 E.01055
G1 X55.861 Y52.705 E.00554
G1 X56.082 Y52.396 E.01045
G1 X56.221 Y52.243 E.00566
G1 X56.507 Y51.994 E.01042
G1 X56.835 Y51.787 E.01065
G1 X57.187 Y51.636 E.01055
G1 X57.38 Y51.578 E.00555
G1 X57.762 Y51.511 E.01067
G1 X58.142 Y51.504 E.01043
G1 X58.342 Y51.523 E.00554
G1 X58.713 Y51.604 E.01044
G1 X58.904 Y51.669 E.00554
G1 X59.247 Y51.833 E.01044
G1 X59.417 Y51.94 E.00555
G1 X59.716 Y52.181 E.01055
G1 X59.974 Y52.465 E.01055
G1 X60.091 Y52.629 E.00555
G1 X60.277 Y52.965 E.01055
G1 X60.408 Y53.326 E.01055
G1 X60.454 Y53.522 E.00554
G1 X60.498 Y53.899 E.01044
G1 X60.498 Y54.101 E.00554
G1 X60.454 Y54.482 E.01055
G1 X60.35 Y54.855 E.01066
G1 X60.191 Y55.205 E.01055
G1 X60.087 Y55.377 E.00554
G1 X59.854 Y55.677 E.01044
G1 X59.713 Y55.821 E.00555
G1 X59.414 Y56.062 E.01055
G1 X59.082 Y56.254 E.01056
G1 X58.893 Y56.335 E.00566
G1 X58.529 Y56.444 E.01042
G1 X58.199 Y56.489 E.00918
G1 X58.105 Y56.564
G1 E-.5
G1 Z.4 F21000
G1 X67.3 Y62.75
G1 Z.2
G1 E.5 F1800
;TYPE:Inner wall
G1 F3000
G1 X71.3 Y62.75 E.10997
G1 X71.3 Y69.3 E.18009
G1 X49.29 Y69.3 E.60515
G1 X48.7 Y68.71 E.02294
G1 X48.7 Y51.29 E.47895
G1 X49.29 Y50.7 E.02294
G1 X66.71 Y50.7 E.47895
G1 X66.838 Y50.828 E.00499
G1 X67.3 Y51.29 E.01795
G1 X67.3 Y62.69 E.31343
M73 P4 R6
G1 X67.7 Y62.35 F21000
;TYPE:Outer wall
G1 F3000
G1 X71.476 Y62.35 E.10381
G1 X71.7 Y62.574 E.00872
G1 X71.7 Y69.476 E.18975
G1 X71.476 Y69.7 E.00872
G1 X49.124 Y69.7 E.61453
G1 X48.3 Y68.876 E.03205
G1 X48.3 Y51.124 E.48806
G1 X49.124 Y50.3 E.03205
G1 X66.876 Y50.3 E.48806
G1 X67.121 Y50.545 E.00954
G1 X67.7 Y51.124 E.02251
G1 X67.7 Y62.29 E.30699
G1 X67.701 Y62.43
G1 E-.5
G1 Z.4 F21000
G1 X60.337 Y68.548
G1 Z.2
G1 E.5 F1800
;TYPE:Gap infill
;WIDTH:0.0909198
G1 F3000
G1 X60.124 Y68.764 E.00112
G1 X59.53 Y68.923 F21000
;WIDTH:0.296612
G1 F3000
G1 X59.125 Y68.998 E.00805
;WIDTH:0.289308
G1 X58.973 Y69.021 E.00292
;WIDTH:0.244729
G1 X58.821 Y69.043 E.00239
;WIDTH:0.197772
G1 X58.66 Y69.066 E.00194
;WIDTH:0.153722
G1 X58.417 Y69.083 E.00208
;WIDTH:0.122322
G1 X58.174 Y69.099 E.00149
G1 X58.084 Y69.098 F21000
;WIDTH:0.0942069
G1 F3000
G1 X57.439 Y69.075 E.00255
;WIDTH:0.135466
G1 X57.284 Y69.056 E.00111
;WIDTH:0.174572
