; HEADER_BLOCK_START
; generated by OrcaSlicer 1.6.2 on 2023-05-21 at 18:01:31
; total layer number: 80
; HEADER_BLOCK_END

; THUMBNAIL_BLOCK_START
; THUMBNAIL_BLOCK_END

; external perimeters extrusion width = 0.40mm
; perimeters extrusion width = 0.45mm
; infill extrusion width = 0.45mm
; solid infill extrusion width = 0.40mm
; top infill extrusion width = 0.40mm
; first layer extrusion width = 0.50mm

; EXECUTABLE_BLOCK_START
EXCLUDE_OBJECT_DEFINE NAME=y-right_motormount_top.stl_id_0_copy_0 CENTER=60,60 POLYGON=[[28.85,31.349],[71.152,31.349],[91.15,51.351],[91.15,88.649],[38,88.651],[31.022,88.649],[28.852,86.479],[28.85,31.349]]
M73 P0 R35
;TYPE:Custom
START_PRINT T_BED=110 T_EXTRUDER=260
G90
G21
M83 ; use relative distances for extrusion
; Filament gcode

    PRESSURE_ADVANCE_SELECT FILAMENT=ABS
M106 S0
;LAYER_CHANGE
;Z:0.2
;HEIGHT:0.2
;BEFORE_LAYER_CHANGE
;0.2
G92 E0

;AFTER_LAYER_CHANGE
;0.2
M204 S1000
G1 E-.5 F3000
G1 Z.2 F21000
G1 X29.542 Y89.311
G1 E.5 F1800
;TYPE:Skirt
;WIDTH:0.5
G1 F3000
G1 X28.19 Y87.959 E.06731
G1 X27.336 Y85.898 E.0785
G1 X27.336 Y32.749 E1.87053
G1 X27.729 Y31.287 E.05327
G1 X28.802 Y30.22 E.05327
G1 X30.25 Y29.835 E.05272
G1 X69.75 Y29.835 E1.39015
G1 X71.811 Y30.689 E.0785
G1 X91.811 Y50.689 E.99543
G1 X92.664 Y52.749 E.0785
G1 X92.664 Y87.251 E1.21424
G1 X92.271 Y88.713 E.05327
G1 X91.198 Y89.78 E.05327
G1 X89.75 Y90.165 E.05272
G1 X31.603 Y90.165 E2.04643
G1 X29.597 Y89.334 E.07638
G1 X29.865 Y88.988 F21000
G1 F3000
G1 X28.513 Y87.636 E.06731
G1 X27.793 Y85.898 E.06618
G1 X27.793 Y32.749 E1.87053
G1 X28.185 Y31.418 E.04884
G1 X29.236 Y30.511 E.04884
G1 X30.25 Y30.292 E.03653
G1 X69.75 Y30.292 E1.39015
G1 X71.487 Y31.012 E.06618
G1 X91.487 Y51.012 E.99543
G1 X92.207 Y52.749 E.06618
G1 X92.207 Y87.251 E1.21424
G1 X91.815 Y88.582 E.04884
G1 X90.765 Y89.489 E.04884
G1 X89.75 Y89.708 E.03653
G1 X31.603 Y89.708 E2.04643
G1 X29.921 Y89.011 E.06407
; printing object y-right_motormount_top.stl id:0 copy 0
EXCLUDE_OBJECT_START NAME=y-right_motormount_top.stl_id_0_copy_0
G1 E-.5
G1 Z.4 F21000
G1 X68.079 Y53.2
G1 Z.2
G1 E.5 F1800
;TYPE:Inner wall
;WIDTH:0.499999
G1 F3000
G1 X68.172 Y53.533 E.01215
G1 X68.421 Y53.92 E.01619
G1 X68.788 Y54.232 E.01699
G1 X69.184 Y54.408 E.01523
G1 X69.629 Y54.471 E.0158
G1 X88.029 Y54.471 E.64757
G1 X88.029 Y65.611 E.39206
G1 X88.029 Y85.53 E.70102
G1 X69.947 Y85.531 E.63637
G1 X70.355 Y84.621 E.0351
G1 X70.564 Y83.753 E.03141
G1 X70.618 Y82.861 E.03144
G1 X70.564 Y82.248 E.02167
G1 X70.452 Y81.739 E.01834
G1 X70.261 Y81.121 E.02275
G1 X70.002 Y80.564 E.02163
G1 X69.768 Y80.187 E.0156
G1 X69.331 Y79.605 E.02563
G1 X68.681 Y78.991 E.03146
G1 X67.937 Y78.5 E.03138
G1 X67.122 Y78.146 E.03129
G1 X66.468 Y77.971 E.02381
G1 X65.917 Y77.909 E.01953
G1 X65.367 Y77.885 E.01935
G1 X64.473 Y77.986 E.03168
G1 X63.622 Y78.24 E.03125
G1 X62.819 Y78.64 E.03157
G1 X62.106 Y79.17 E.03127
G1 X61.494 Y79.817 E.03135
G1 X61 Y80.564 E.03151
G1 X60.647 Y81.379 E.03128
G1 X60.458 Y82.103 E.02633
G1 X60.405 Y82.641 E.01902
G1 X60.012 Y82.294 E.01846
G1 X59.493 Y82.071 E.01989
G1 X59.131 Y82.03 E.01281
G1 X40.871 Y82.03 E.64264
G1 X40.509 Y82.071 E.01281
G1 X39.99 Y82.294 E.01989
G1 X39.597 Y82.641 E.01845
G1 X39.515 Y81.972 E.02372
G1 X39.355 Y81.379 E.0216
G1 X39.183 Y80.953 E.01619
G1 X38.861 Y80.318 E.02504
G1 X38.331 Y79.605 E.03127
G1 X37.684 Y78.993 E.03135
G1 X36.937 Y78.499 E.03151
G1 X36.122 Y78.146 E.03128
G1 X35.398 Y77.957 E.02633
G1 X34.86 Y77.904 E.01901
G1 X35.207 Y77.511 E.01845
G1 X35.43 Y76.992 E.01989
G1 X35.471 Y76.63 E.01281
G1 X35.471 Y59.136 E.61566
G1 X35.441 Y58.058 E.03798
G1 X35.275 Y57.602 E.01708
G1 X35.003 Y57.239 E.01596
G1 X31.972 Y54.207 E.15088
G1 X31.976 Y43.944 E.36122
G1 X32.469 Y44.397 E.02357
G1 X33.041 Y44.769 E.02401
G1 X33.664 Y45.032 E.02382
G1 X34.311 Y45.18 E.02335
G1 X34.995 Y45.216 E.02409
G1 X35.655 Y45.133 E.02343
G1 X36.302 Y44.936 E.02378
G1 X36.906 Y44.628 E.02386
G1 X37.485 Y44.18 E.02579
G1 X37.898 Y43.732 E.02145
G1 X38.27 Y43.16 E.024
G1 X38.533 Y42.537 E.02382
G1 X38.682 Y41.881 E.02366
G1 X38.716 Y41.215 E.02348
G1 X38.634 Y40.546 E.0237
G1 X38.437 Y39.899 E.02379
G1 X38.127 Y39.291 E.02403
G1 X37.727 Y38.764 E.02329
G1 X37.231 Y38.3 E.02389
G1 X36.654 Y37.927 E.02419
G1 X36.046 Y37.672 E.02321
G1 X35.39 Y37.52 E.02367
G1 X34.704 Y37.484 E.02417
G1 X34.186 Y37.537 E.01832
G1 X33.661 Y37.671 E.01909
G1 X33.048 Y37.927 E.02338
G1 X32.469 Y38.303 E.02429
G1 X31.976 Y38.756 E.02357
G1 X31.971 Y34.47 E.15083
G1 X68.029 Y34.47 E1.269
G1 X68.028 Y38.763 E.15107
G1 X67.531 Y38.3 E.02389
G1 X66.954 Y37.927 E.02419
G1 X66.346 Y37.672 E.02321
G1 X65.69 Y37.52 E.02367
G1 X65.004 Y37.484 E.02417
G1 X64.349 Y37.567 E.02325
G1 X63.708 Y37.762 E.0236
G1 X63.093 Y38.074 E.02427
G1 X62.56 Y38.479 E.02352
G1 X62.1 Y38.974 E.0238
G1 X61.737 Y39.533 E.02345
G1 X61.469 Y40.163 E.02411
G1 X61.321 Y40.811 E.02339
G1 X61.285 Y41.497 E.02416
G1 X61.368 Y42.154 E.02333
G1 X61.568 Y42.808 E.02406
G1 X61.812 Y43.308 E.01956
G1 X62.1 Y43.726 E.01788
G1 X62.369 Y44.031 E.01432
G1 X62.769 Y44.397 E.01908
G1 X63.341 Y44.769 E.02401
G1 X63.822 Y44.987 E.01859
G1 X64.347 Y45.133 E.01917
G1 X65.004 Y45.216 E.02333
G1 X65.69 Y45.18 E.02417
G1 X66.338 Y45.032 E.02338
G1 X66.961 Y44.769 E.02381
G1 X67.531 Y44.4 E.02391
G1 X68.028 Y43.937 E.02389
G1 X68.04 Y53.06 E.32107
G1 X68.063 Y53.142 E.003
G1 X68.511 Y52.958 F21000
G1 F3000
G1 X68.516 Y53.13 E.00608
G1 X68.654 Y53.467 E.0128
G1 X68.909 Y53.758 E.01365
G1 X69.266 Y53.954 E.01433
G1 X69.629 Y54.013 E.01294
G1 X88.486 Y54.013 E.66366
G1 X88.486 Y65.611 E.40815
G1 X88.486 Y85.987 E.71711
G1 X69.077 Y85.988 E.68305
M73 P0 R34
G1 X69.587 Y85.243 E.03176
G1 X69.914 Y84.502 E.02851
G1 X70.108 Y83.713 E.02861
G1 X70.162 Y82.901 E.02863
G1 X70.073 Y82.091 E.02869
G1 X69.883 Y81.401 E.02519
G1 X69.672 Y80.937 E.01791
G1 X69.394 Y80.45 E.01974
G1 X69.007 Y79.929 E.02285
G1 X68.419 Y79.365 E.02866
G1 X67.744 Y78.914 E.02859
G1 X67.003 Y78.587 E.02851
G1 X66.21 Y78.392 E.02875
G1 X65.406 Y78.34 E.02835
G1 X64.592 Y78.427 E.02881
G1 X63.815 Y78.654 E.02849
G1 X63.082 Y79.014 E.02873
G1 X62.43 Y79.494 E.0285
G1 X61.868 Y80.08 E.02857
G1 X61.414 Y80.756 E.02867
G1 X61.088 Y81.498 E.02852
G1 X60.928 Y82.091 E.0216
G1 X60.878 Y82.478 E.01375
G1 X60.841 Y83.098 E.02183
G1 X60.908 Y83.79 E.02448
G1 X60.242 Y83.124 E.03314
G1 X59.76 Y82.676 E.02316
G1 X59.389 Y82.516 E.01421
G1 X59.131 Y82.487 E.00915
G1 X40.72 Y82.497 E.64796
G1 X40.324 Y82.626 E.01465
G1 X40.063 Y82.821 E.01148
G1 X39.094 Y83.79 E.04821
G1 X39.161 Y82.905 E.03124
G1 X39.074 Y82.091 E.02881
G1 X38.914 Y81.498 E.0216
G1 X38.769 Y81.145 E.01343
G1 X38.487 Y80.581 E.0222
G1 X38.007 Y79.929 E.0285
G1 X37.421 Y79.367 E.02857
G1 X36.745 Y78.913 E.02867
G1 X36.003 Y78.587 E.02852
G1 X35.41 Y78.427 E.0216
G1 X35.023 Y78.376 E.01375
G1 X34.404 Y78.34 E.02183
G1 X33.711 Y78.407 E.02448
G1 X34.377 Y77.741 E.03314
G1 X34.825 Y77.259 E.02316
G1 X34.985 Y76.888 E.01421
G1 X35.014 Y76.63 E.00915
G1 X35.014 Y59.136 E.61566
G1 X34.992 Y58.147 E.03483
G1 X34.874 Y57.821 E.0122
G1 X34.68 Y57.562 E.0114
G1 X31.514 Y54.397 E.15754
G1 X31.514 Y42.651 E.41339
G1 X31.501 Y41.939 E.02504
;WIDTH:0.480289
G1 X31.519 Y42.035 E.00326
;WIDTH:0.499999
G1 X31.682 Y42.613 E.02116
G1 X31.948 Y43.141 E.02081
G1 X32.303 Y43.617 E.0209
G1 X32.733 Y44.024 E.02082
G1 X33.233 Y44.355 E.02113
G1 X33.782 Y44.59 E.021
G1 X34.353 Y44.725 E.02065
G1 X34.953 Y44.761 E.02118
G1 X35.538 Y44.692 E.02072
G1 X36.109 Y44.522 E.02096
G1 X36.643 Y44.254 E.02102
G1 X37.161 Y43.858 E.02294
G1 X37.525 Y43.468 E.01877
G1 X37.856 Y42.968 E.02112
G1 X38.091 Y42.419 E.021
G1 X38.227 Y41.842 E.02088
G1 X38.26 Y41.254 E.02074
G1 X38.193 Y40.663 E.02092
G1 X38.023 Y40.092 E.02097
G1 X37.753 Y39.555 E.02115
G1 X37.402 Y39.086 E.02062
G1 X36.969 Y38.674 E.02104
G1 X36.463 Y38.343 E.02128
G1 X35.926 Y38.113 E.02055
G1 X35.349 Y37.975 E.02089
G1 X34.746 Y37.939 E.02126
G1 X34.086 Y38.03 E.02345
G1 X33.598 Y38.178 E.01794
G1 X33.056 Y38.448 E.02131
G1 X32.583 Y38.802 E.02078
G1 X32.174 Y39.236 E.021
G1 X31.851 Y39.727 E.02071
G1 X31.611 Y40.28 E.02121
G1 X31.495 Y40.854 E.0206
G1 X31.514 Y40.268 E.02065
G1 X31.514 Y34.013 E.22012
G1 X68.486 Y34.013 E1.30117
M73 P1 R34
G1 X68.489 Y40.664 E.23407
G1 X68.323 Y40.092 E.02097
G1 X68.053 Y39.555 E.02115
G1 X67.702 Y39.086 E.02062
G1 X67.269 Y38.674 E.02104
G1 X66.763 Y38.343 E.02128
G1 X66.226 Y38.113 E.02055
G1 X65.649 Y37.975 E.02089
G1 X65.046 Y37.939 E.02126
G1 X64.467 Y38.009 E.02051
G1 X63.898 Y38.178 E.0209
G1 X63.356 Y38.448 E.02131
G1 X62.883 Y38.802 E.02078
G1 X62.474 Y39.236 E.02099
G1 X62.151 Y39.727 E.02071
G1 X61.911 Y40.28 E.02121
G1 X61.776 Y40.852 E.02068
G1 X61.74 Y41.455 E.02125
G1 X61.809 Y42.037 E.02063
G1 X61.981 Y42.613 E.02116
G1 X62.248 Y43.141 E.02081
G1 X62.603 Y43.617 E.0209
G1 X63.032 Y44.024 E.02082
G1 X63.474 Y44.325 E.01883
G1 X63.98 Y44.558 E.01958
G1 X64.464 Y44.692 E.01767
G1 X65.046 Y44.761 E.02063
G1 X65.649 Y44.725 E.02125
G1 X66.22 Y44.59 E.02067
G1 X66.768 Y44.355 E.02099
G1 X67.269 Y44.026 E.02107
G1 X67.702 Y43.614 E.02104
G1 X68.053 Y43.145 E.02062
G1 X68.323 Y42.608 E.02115
G1 X68.482 Y42.034 E.02096
G1 X68.486 Y52.117 E.35487
G1 X68.509 Y52.898 E.02747
G1 X68.952 Y52.91 F21000
G1 F3000
G1 X68.953 Y52.988 E.00276
G1 X69.075 Y53.276 E.01101
G1 X69.316 Y53.481 E.01115
G1 X69.629 Y53.556 E.0113
G1 X88.943 Y53.556 E.67974
G1 X88.943 Y65.611 E.42424
G1 X88.943 Y86.444 E.7332
G1 X67.875 Y86.452 E.74144
G1 X68.248 Y86.183 E.01617
G1 X68.761 Y85.656 E.02588
G1 X69.173 Y85.05 E.0258
G1 X69.473 Y84.383 E.02573
G1 X69.653 Y83.672 E.0258
G1 X69.707 Y82.941 E.02581
G1 X69.632 Y82.209 E.02588
G1 X69.472 Y81.614 E.02171
G1 X69.257 Y81.13 E.01862
G1 X69.02 Y80.713 E.01689
G1 X68.684 Y80.252 E.02008
G1 X68.157 Y79.74 E.02585
G1 X67.551 Y79.328 E.0258
G1 X66.884 Y79.028 E.02573
G1 X66.171 Y78.848 E.02589
G1 X65.444 Y78.796 E.02564
G1 X64.711 Y78.869 E.02595
G1 X64.007 Y79.069 E.02573
G1 X63.345 Y79.388 E.02589
G1 X62.753 Y79.817 E.02572
G1 X62.242 Y80.342 E.0258
G1 X61.829 Y80.949 E.02583
G1 X61.529 Y81.617 E.02576
G1 X61.37 Y82.21 E.0216
G1 X61.297 Y83.059 E.03
G1 X61.37 Y83.79 E.02587
G1 X61.57 Y84.495 E.02577
G1 X61.889 Y85.153 E.02574
;WIDTH:0.540374
G1 X62.048 Y85.416 E.01179
;WIDTH:0.580748
G1 X62.208 Y85.68 E.01275
G1 X61.976 Y85.477 E.01275
;WIDTH:0.540374
G1 X61.745 Y85.274 E.01179
;WIDTH:0.499999
G1 X59.918 Y83.447 E.0909
G1 X59.459 Y83.027 E.02191
G1 X59.131 Y82.944 E.01192
G1 X40.871 Y82.944 E.64264
G1 X40.543 Y83.027 E.01192
G1 X40.386 Y83.145 E.00689
G1 X38.257 Y85.274 E.10596
;WIDTH:0.540358
G1 X38.026 Y85.477 E.01179
;WIDTH:0.580716
G1 X37.794 Y85.68 E.01275
G1 X37.984 Y85.365 E.01521
;WIDTH:0.540358
G1 X38.173 Y85.05 E.01407
;WIDTH:0.499999
G1 X38.473 Y84.383 E.02573
G1 X38.653 Y83.67 E.02589
G1 X38.705 Y82.943 E.02564
G1 X38.632 Y82.21 E.02595
G1 X38.473 Y81.617 E.0216
G1 X38.113 Y80.844 E.03002
G1 X37.684 Y80.252 E.02572
G1 X37.159 Y79.741 E.0258
G1 X36.552 Y79.328 E.02583
G1 X35.884 Y79.028 E.02576
G1 X35.291 Y78.869 E.0216
G1 X34.984 Y78.832 E.01088
G1 X34.442 Y78.796 E.01912
G1 X33.711 Y78.869 E.02587
G1 X33.006 Y79.069 E.02577
G1 X32.348 Y79.388 E.02574
;WIDTH:0.540324
G1 X32.085 Y79.547 E.01179
;WIDTH:0.580648
G1 X31.822 Y79.707 E.01275
G1 X32.024 Y79.475 E.01275
;WIDTH:0.540324
G1 X32.227 Y79.244 E.01179
;WIDTH:0.499999
G1 X34.054 Y77.418 E.0909
G1 X34.474 Y76.958 E.02191
G1 X34.557 Y76.63 E.01192
G1 X34.557 Y58.37 E.64264
G1 X34.524 Y58.159 E.00753
G1 X34.356 Y57.885 E.01129
G1 X31.057 Y54.586 E.1642
G1 X31.057 Y33.556 E.74012
G1 X68.943 Y33.556 E1.33334
G1 X68.943 Y52.117 E.65324
G1 X68.951 Y52.85 E.02577
G1 X69.4 Y52.871 F21000
;TYPE:Outer wall
G1 F3000
G1 X69.47 Y53.035 E.0063
G1 X69.629 Y53.099 E.00601
G1 X89.4 Y53.099 E.69583
G1 X89.4 Y65.611 E.44032
G1 X89.4 Y86.901 E.74928
G1 X68.001 Y86.902 E.7531
G1 X67.482 Y86.932 E.0183
;WIDTH:0.516259
G1 X66.032 Y87.016 E.05294
;WIDTH:0.468997
G1 X65.468 Y87.026 E.01852
;WIDTH:0.474845
G1 X64.828 Y87.011 E.02127
;WIDTH:0.511193
G1 X63.573 Y86.914 E.04541
;WIDTH:0.499999
G1 X62.727 Y86.902 E.02976
G1 X59.293 Y83.468 E.17094
G1 X59.131 Y83.401 E.00616
G1 X40.871 Y83.401 E.64264
G1 X40.709 Y83.468 E.00616
G1 X37.275 Y86.902 E.17094
G1 X36.432 Y86.913 E.02969
;WIDTH:0.513863
G1 X34.993 Y87.017 E.05228
;WIDTH:0.467431
G1 X34.465 Y87.025 E.01727
;WIDTH:0.474123
G1 X33.828 Y87.01 E.02116
;WIDTH:0.510934
G1 X32.576 Y86.913 E.04524
;WIDTH:0.499999
G1 X31.749 Y86.902 E.02912
G1 X30.599 Y85.752 E.05726
G1 X30.587 Y84.908 E.0297
;WIDTH:0.513997
G1 X30.49 Y83.631 E.04645
;WIDTH:0.471398
G1 X30.475 Y82.968 E.0219
;WIDTH:0.470205
G1 X30.497 Y82.316 E.02146
;WIDTH:0.505138
G1 X30.589 Y81.053 E.04504
;WIDTH:0.499999
G1 X30.599 Y80.226 E.02912
G1 X34.033 Y76.792 E.17094
G1 X34.1 Y76.63 E.00616
G1 X34.1 Y58.37 E.64264
G1 X34.033 Y58.209 E.00616
G1 X30.6 Y54.775 E.17087
G1 X30.6 Y33.099 E.76287
G1 X69.4 Y33.099 E1.36551
G1 X69.4 Y52.811 E.69373
G1 X69.386 Y52.904
G1 E-.5
G1 Z.4 F21000
G1 X77.341 Y80.587
G1 Z.2
G1 E.5 F1800
;TYPE:Inner wall
G1 F3000
G1 X77.288 Y80.16 E.01514
G1 X77.32 Y79.469 E.02433
G1 X77.428 Y78.968 E.01803
G1 X77.568 Y78.542 E.01578
G1 X77.808 Y78.048 E.01932
G1 X78.099 Y77.624 E.01811
G1 X78.554 Y77.133 E.02356
G1 X79.102 Y76.72 E.02415
G1 X79.693 Y76.417 E.02337
G1 X80.357 Y76.215 E.02443
G1 X81.004 Y76.134 E.02295
G1 X81.69 Y76.17 E.02416
G1 X82.338 Y76.318 E.02339
G1 X82.968 Y76.586 E.0241
G1 X83.525 Y76.946 E.02334
G1 X84.027 Y77.414 E.02415
G1 X84.428 Y77.947 E.02349
G1 X84.734 Y78.542 E.02354
G1 X84.934 Y79.196 E.02407
G1 X85.022 Y79.999 E.02843
G1 X84.982 Y80.53 E.01875
G1 X84.833 Y81.187 E.0237
G1 X84.565 Y81.817 E.0241
G1 X84.267 Y82.286 E.01955
G1 X84.023 Y82.592 E.0138
G1 X83.531 Y83.05 E.02364
G1 X82.961 Y83.419 E.0239
G1 X82.338 Y83.682 E.02381
G1 X81.821 Y83.813 E.01874
G1 X81.286 Y83.865 E.01892
G1 X80.62 Y83.831 E.02348
G1 X79.964 Y83.682 E.02366
G1 X79.341 Y83.419 E.02381
G1 X78.771 Y83.05 E.0239
G1 X78.279 Y82.592 E.02365
G1 X77.871 Y82.049 E.02393
G1 X77.568 Y81.458 E.02336
G1 X77.368 Y80.804 E.02407
G1 X77.348 Y80.646 E.0056
G1 X77.8 Y80.622 F21000
G1 F3000
G1 X77.781 Y80.545 E.00279
G1 X77.737 Y80 E.01927
G1 X77.78 Y79.466 E.01882
G1 X77.911 Y78.93 E.01942
G1 X78.151 Y78.377 E.02121
G1 X78.474 Y77.886 E.0207
G1 X78.879 Y77.455 E.02081
G1 X79.363 Y77.095 E.02123
G1 X79.888 Y76.83 E.02068
G1 X80.473 Y76.657 E.02149
G1 X81.046 Y76.589 E.0203
G1 X81.649 Y76.625 E.02125
G1 X82.221 Y76.76 E.02068
G1 X82.774 Y77 E.0212
G1 X83.264 Y77.321 E.02066
G1 X83.703 Y77.736 E.02123
G1 X84.054 Y78.209 E.02074
G1 X84.321 Y78.737 E.02081
G1 X84.493 Y79.313 E.02117
G1 X84.565 Y79.999 E.02427
G1 X84.514 Y80.591 E.02092
G1 X84.321 Y81.263 E.02461
G1 X84.056 Y81.788 E.02068
G1 X83.7 Y82.269 E.02108
G1 X83.269 Y82.676 E.02086
G1 X82.769 Y83.005 E.02106
G1 X82.22 Y83.24 E.02099
G1 X81.642 Y83.376 E.0209
G1 X81.052 Y83.409 E.02081
G1 X80.464 Y83.342 E.02083
G1 X79.893 Y83.172 E.02097
G1 X79.359 Y82.904 E.02102
G1 X78.882 Y82.548 E.02095
G1 X78.472 Y82.113 E.02103
G1 X78.151 Y81.622 E.02065
G1 X77.911 Y81.07 E.0212
G1 X77.815 Y80.68 E.01412
G1 X78.246 Y80.515 F21000
G1 F3000
G1 X78.231 Y80.452 E.00228
G1 X78.197 Y79.943 E.01797
G1 X78.251 Y79.43 E.01814
G1 X78.395 Y78.931 E.01828
G1 X78.623 Y78.471 E.01807
G1 X78.924 Y78.058 E.01799
G1 X79.288 Y77.704 E.01789
G1 X79.723 Y77.413 E.0184
G1 X80.187 Y77.205 E.01789
G1 X80.701 Y77.08 E.01862
G1 X81.212 Y77.044 E.01804
G1 X81.721 Y77.1 E.01802
G1 X82.22 Y77.244 E.01827
G1 X82.678 Y77.47 E.01799
G1 X83.099 Y77.777 E.01832
G1 X83.453 Y78.148 E.01806
G1 X83.738 Y78.572 E.01797
G1 X83.949 Y79.047 E.01831
G1 X84.071 Y79.547 E.01811
G1 X84.108 Y79.999 E.01595
G1 X84.063 Y80.512 E.01813
G1 X83.907 Y81.069 E.02034
G1 X83.681 Y81.527 E.01799
G1 X83.376 Y81.946 E.01822
G1 X83.006 Y82.302 E.01807
G1 X82.576 Y82.59 E.01823
G1 X82.103 Y82.798 E.01817
G1 X81.603 Y82.92 E.01811
G1 X81.091 Y82.954 E.01806
G1 X80.581 Y82.9 E.01805
G1 X80.086 Y82.757 E.01815
G1 X79.621 Y82.53 E.01819
G1 X79.205 Y82.225 E.01817
G1 X78.847 Y81.852 E.01817
