; HEADER_BLOCK_START
; generated by OrcaSlicer 1.6.2 on 2023-05-21 at 19:00:09
; total layer number: 80
; HEADER_BLOCK_END

; THUMBNAIL_BLOCK_START
; THUMBNAIL_BLOCK_END

; external perimeters extrusion width = 0.40mm
; perimeters extrusion width = 0.45mm
; infill extrusion width = 0.45mm
; solid infill extrusion width = 0.40mm
; top infill extrusion width = 0.40mm
; first layer extrusion width = 0.50mm

; EXECUTABLE_BLOCK_START
EXCLUDE_OBJECT_DEFINE NAME=y-right_motormount_bottom.stl_id_0_copy_0 CENTER=60,60 POLYGON=[[28.85,33.5216],[31.0216,31.35],[88.7358,31.35],[88.8922,31.3623],[88.9692,31.3776],[89.0448,31.399],[89.1686,31.4485],[89.1898,31.459],[89.314,31.5341],[89.3236,31.541],[89.4429,31.6429],[90.8571,33.0571],[90.959,33.1764],[90.9692,33.1906],[91.0302,33.2896],[91.041,33.3102],[91.0961,33.4405],[91.1011,33.4552],[91.1365,33.6001],[91.1377,33.6078],[91.15,33.7642],[91.15,46.2358],[91.1377,46.3922],[91.1348,46.4094],[91.108,46.5226],[91.1011,46.5448],[91.048,46.6759],[70.8151,87.4],[70.5651,87.757],[70.257,88.0651],[69.9,88.3151],[69.5051,88.4992],[69.0841,88.612],[68.65,88.65],[31.35,88.65],[30.9159,88.612],[30.495,88.4992],[30.1,88.3151],[29.743,88.0651],[29.4349,87.757],[29.1849,87.4],[29.0008,87.005],[28.888,86.5841],[28.85,86.15],[28.85,33.5216]]
M73 P0 R37
;TYPE:Custom
START_PRINT T_BED=110 T_EXTRUDER=260
G90
G21
M83 ; use relative distances for extrusion
; Filament gcode

    PRESSURE_ADVANCE_SELECT FILAMENT=ABS
M106 S0
;LAYER_CHANGE
;Z:0.2
;HEIGHT:0.2
;BEFORE_LAYER_CHANGE
;0.2
G92 E0

;AFTER_LAYER_CHANGE
;0.2
M204 S1000
; printing object y-right_motormount_bottom.stl id:0 copy 0
EXCLUDE_OBJECT_START NAME=y-right_motormount_bottom.stl_id_0_copy_0
G1 E-.5 F3000
G1 Z.2 F21000
G1 X70.804 Y46.958
G1 E.5 F1800
;TYPE:Inner wall
;WIDTH:0.499999
G1 F3000
G1 X70.623 Y46.981 E.00644
G1 X70.19 Y47.166 E.01656
G1 X69.862 Y47.434 E.01489
G1 X69.604 Y47.8 E.01579
G1 X69.499 Y48.059 E.00981
G1 X69.429 Y48.529 E.01672
G1 X69.429 Y67.188 E.65668
;WIDTH:0.49863
G1 X69.44 Y67.843 E.02298
;WIDTH:0.493058
G1 X69.432 Y68.492 E.02253
;WIDTH:0.499999
G1 X69.431 Y78.097 E.338
;WIDTH:0.495717
G1 X69.44 Y78.807 E.02479
;WIDTH:0.506042
G1 X69.429 Y79.92 E.03967
;WIDTH:0.499999
G1 X69.429 Y86.032 E.21511
G1 X69.376 Y86.414 E.01358
G1 X69.194 Y86.694 E.01173
G1 X68.914 Y86.876 E.01175
G1 X68.575 Y86.929 E.01209
G1 X31.464 Y86.929 E1.30607
G1 X31.086 Y86.876 E.01345
G1 X30.806 Y86.694 E.01174
G1 X30.624 Y86.414 E.01174
G1 X30.571 Y86.075 E.01208
G1 X30.569 Y79.203 E.24183
;WIDTH:0.495716
G1 X30.569 Y78.097 E.03859
;WIDTH:0.499999
G1 X30.571 Y69.483 E.30316
;WIDTH:0.502824
G1 X30.561 Y68.168 E.04656
;WIDTH:0.493058
G1 X30.568 Y67.508 E.02289
;WIDTH:0.499999
G1 X30.568 Y37.492 E1.05635
;WIDTH:0.493052
G1 X30.559 Y36.916 E.01997
;WIDTH:0.474998
G1 X31.043 Y36.432 E.02278
G1 X31.026 Y36.528 E.00323
;WIDTH:0.478429
G1 X30.995 Y37.138 E.0205
;WIDTH:0.50199
G1 X31.061 Y37.748 E.02167
G1 X31.244 Y38.333 E.02168
;WIDTH:0.499999
G1 X31.525 Y38.879 E.02158
G1 X31.897 Y39.367 E.02158
G1 X32.347 Y39.783 E.02158
G1 X32.863 Y40.114 E.02158
G1 X33.429 Y40.351 E.02158
G1 X34.027 Y40.486 E.02158
G1 X34.639 Y40.516 E.02158
G1 X35.248 Y40.438 E.02158
G1 X35.833 Y40.256 E.02158
G1 X36.379 Y39.975 E.02158
G1 X36.867 Y39.604 E.02159
G1 X37.283 Y39.153 E.02159
G1 X37.614 Y38.637 E.02158
G1 X37.851 Y38.071 E.02158
G1 X37.975 Y37.57 E.01818
G1 X38.02 Y37.064 E.01788
G1 X37.986 Y36.527 E.01893
G1 X37.851 Y35.929 E.02159
G1 X37.614 Y35.363 E.02158
G1 X37.283 Y34.847 E.02158
G1 X36.867 Y34.397 E.02159
G1 X36.379 Y34.025 E.02158
G1 X35.833 Y33.744 E.02159
G1 X35.248 Y33.563 E.02158
;WIDTH:0.49863
G1 X34.505 Y33.491 E.02617
;WIDTH:0.474998
G1 X33.932 Y33.543 E.01916
G1 X34.416 Y33.059 E.0228
;WIDTH:0.493058
G1 X34.992 Y33.068 E.01997
;WIDTH:0.499999
G1 X65.008 Y33.068 E1.05634
;WIDTH:0.493059
G1 X65.647 Y33.06 E.02216
;WIDTH:0.521078
G1 X66.312 Y33.082 E.02451
G1 X66.983 Y33.071 E.02468
;WIDTH:0.499999
G1 X86.529 Y33.071 E.6879
G1 X86.529 Y35.118 E.07204
G1 X86.529 Y46.929 E.41566
G1 X71.029 Y46.929 E.54551
G1 X70.864 Y46.95 E.00585
G1 X70.919 Y47.402 F21000
G1 F3000
G1 X70.806 Y47.408 E.00397
G1 X70.43 Y47.555 E.01423
G1 X70.132 Y47.82 E.014
G1 X69.936 Y48.193 E.01484
G1 X69.886 Y48.529 E.01194
G1 X69.886 Y86.032 E1.31989
G1 X69.861 Y86.369 E.01189
G1 X69.716 Y86.766 E.01486
G1 X69.441 Y87.093 E.01505
G1 X69.071 Y87.307 E.01505
G1 X68.595 Y87.386 E.01699
G1 X31.464 Y87.386 E1.30677
G1 X31.136 Y87.362 E.01157
G1 X30.735 Y87.216 E.01504
G1 X30.407 Y86.941 E.01505
G1 X30.193 Y86.571 E.01505
G1 X30.114 Y86.095 E.01699
G1 X30.114 Y36.732 E1.73726
G1 X31.263 Y35.583 E.05719
G1 X31.45 Y35.371 E.00994
;WIDTH:0.463529
G1 X31.636 Y35.159 E.00915
;WIDTH:0.427059
G1 X32.015 Y34.752 E.01644
;WIDTH:0.397753
G1 X32.411 Y34.363 E.01517
;WIDTH:0.431835
G1 X32.556 Y34.242 E.00565
;WIDTH:0.465917
G1 X32.701 Y34.121 E.00615
;WIDTH:0.499999
G1 X32.846 Y34 E.00664
G1 X34.232 Y32.614 E.06898
G1 X86.986 Y32.614 E1.8566
G1 X86.986 Y35.118 E.08813
G1 X86.986 Y47.386 E.43175
G1 X71.236 Y47.386 E.5543
G1 X70.979 Y47.399 E.00907
G1 X70.975 Y47.853 F21000
G1 F3000
G1 X70.895 Y47.856 E.00281
G1 X70.604 Y47.99 E.01126
G1 X70.418 Y48.216 E.01032
G1 X70.343 Y48.529 E.0113
G1 X70.343 Y86.032 E1.31989
G1 X70.276 Y86.588 E.01969
G1 X70.113 Y86.995 E.01543
G1 X69.841 Y87.34 E.01549
G1 X69.495 Y87.613 E.01551
G1 X69.086 Y87.776 E.01549
G1 X68.615 Y87.843 E.01674
G1 X31.464 Y87.843 E1.30747
G1 X30.914 Y87.776 E.01949
G1 X30.505 Y87.613 E.0155
G1 X30.16 Y87.34 E.0155
G1 X29.887 Y86.995 E.0155
G1 X29.724 Y86.586 E.0155
G1 X29.657 Y86.115 E.01674
G1 X29.657 Y36.543 E1.74462
G1 X34.043 Y32.157 E.21829
G1 X87.443 Y32.157 E1.87935
G1 X87.443 Y35.118 E.10421
G1 X87.443 Y47.843 E.44783
G1 X71.236 Y47.843 E.57039
G1 X71.035 Y47.851 E.00709
G1 X71.024 Y48.3 F21000
;TYPE:Outer wall
G1 F3000
G1 X70.862 Y48.372 E.00623
G1 X70.8 Y48.529 E.00592
G1 X70.8 Y86.134 E1.32349
G1 X70.717 Y86.706 E.02033
G1 X70.511 Y87.224 E.01964
G1 X70.163 Y87.664 E.01971
G1 X69.724 Y88.011 E.0197
G1 X69.204 Y88.218 E.01971
G1 X68.635 Y88.3 E.02024
G1 X31.365 Y88.3 E1.31165
G1 X30.796 Y88.218 E.02024
G1 X30.276 Y88.011 E.01971
G1 X29.836 Y87.664 E.0197
G1 X29.489 Y87.224 E.01971
G1 X29.282 Y86.704 E.01971
G1 X29.2 Y86.135 E.02024
G1 X29.2 Y36.354 E1.75199
G1 X33.854 Y31.7 E.23161
G1 X87.9 Y31.7 E1.9021
G1 X87.9 Y35.118 E.1203
G1 X87.9 Y48.3 E.46392
M73 P0 R36
G1 X71.084 Y48.3 E.59183
G1 X70.993 Y48.282
G1 E-.5
G1 Z.4 F21000
G1 X83.69 Y37.1
G1 Z.2
G1 E.5 F1800
;TYPE:Inner wall
G1 F3000
G1 X84.022 Y37.408 E.01593
G1 X84.428 Y37.947 E.02373
G1 X84.735 Y38.547 E.02373
G1 X84.933 Y39.191 E.02373
G1 X85.022 Y40 E.02863
G1 X84.981 Y40.534 E.01885
G1 X84.826 Y41.201 E.02411
G1 X84.567 Y41.812 E.02334
G1 X84.201 Y42.378 E.02372
G1 X83.742 Y42.872 E.02373
G1 X83.308 Y43.205 E.01925
G1 X82.962 Y43.417 E.01428
G1 X82.341 Y43.68 E.02373
G1 X81.821 Y43.813 E.0189
G1 X81.289 Y43.866 E.0188
G1 X80.616 Y43.831 E.02373
G1 X79.949 Y43.676 E.02411
G1 X79.338 Y43.417 E.02334
G1 X78.772 Y43.051 E.02373
G1 X78.278 Y42.592 E.02373
G1 X77.872 Y42.053 E.02373
G1 X77.565 Y41.453 E.02372
G1 X77.367 Y40.809 E.02373
G1 X77.287 Y40.166 E.02278
G1 X77.31 Y39.563 E.02126
G1 X77.426 Y38.974 E.02113
G1 X77.568 Y38.541 E.01603
G1 X77.872 Y37.946 E.0235
G1 X78.278 Y37.408 E.02373
G1 X78.772 Y36.949 E.02373
G1 X79.338 Y36.583 E.02373
G1 X79.963 Y36.319 E.02389
G1 X80.485 Y36.186 E.01895
G1 X81.011 Y36.134 E.01857
G1 X81.684 Y36.169 E.02373
G1 X82.341 Y36.32 E.02373
G1 X82.962 Y36.583 E.02373
G1 X83.528 Y36.949 E.02373
G1 X83.646 Y37.059 E.00568
G1 X83.319 Y37.378 F21000
G1 F3000
G1 X83.418 Y37.452 E.00436
G1 X83.826 Y37.884 E.02093
G1 X84.153 Y38.381 E.02093
G1 X84.389 Y38.927 E.02093
G1 X84.526 Y39.506 E.02093
G1 X84.565 Y40 E.01744
G1 X84.513 Y40.592 E.02092
G1 X84.385 Y41.082 E.01781
G1 X84.153 Y41.619 E.02059
G1 X83.827 Y42.116 E.02093
G1 X83.418 Y42.548 E.02093
G1 X82.941 Y42.904 E.02093
G1 X82.41 Y43.171 E.02093
G1 X81.84 Y43.341 E.02093
G1 X81.25 Y43.41 E.02093
G1 X80.656 Y43.376 E.02093
G1 X80.068 Y43.235 E.02126
G1 X79.531 Y43.003 E.02059
G1 X79.034 Y42.676 E.02093
G1 X78.602 Y42.268 E.02093
G1 X78.246 Y41.791 E.02093
G1 X77.979 Y41.26 E.02093
G1 X77.809 Y40.69 E.02093
G1 X77.742 Y40.127 E.01998
G1 X77.766 Y39.603 E.01846
G1 X77.867 Y39.093 E.01828
G1 X77.982 Y38.734 E.01327
G1 X78.246 Y38.209 E.0207
G1 X78.602 Y37.732 E.02093
G1 X79.034 Y37.324 E.02093
G1 X79.531 Y36.997 E.02093
G1 X80.08 Y36.76 E.02105
G1 X80.662 Y36.624 E.02103
G1 X81.25 Y36.59 E.02071
G1 X81.84 Y36.659 E.02093
G1 X82.41 Y36.829 E.02093
G1 X82.941 Y37.096 E.02093
G1 X83.271 Y37.342 E.01446
G1 X83.043 Y37.737 F21000
G1 F3000
G1 X83.095 Y37.775 E.00228
G1 X83.452 Y38.146 E.01813
G1 X83.739 Y38.574 E.01813
G1 X83.947 Y39.045 E.01813
G1 X84.07 Y39.546 E.01813
G1 X84.108 Y40 E.01604
G1 X84.063 Y40.513 E.01813
G1 X83.904 Y41.073 E.02047
G1 X83.679 Y41.529 E.0179
G1 X83.375 Y41.945 E.01813
G1 X83.004 Y42.302 E.01813
G1 X82.576 Y42.589 E.01813
G1 X82.105 Y42.797 E.01813
G1 X81.604 Y42.92 E.01813
G1 X81.09 Y42.955 E.01813
G1 X80.576 Y42.899 E.01821
G1 X80.077 Y42.754 E.01828
G1 X79.621 Y42.529 E.0179
G1 X79.205 Y42.225 E.01813
G1 X78.848 Y41.854 E.01813
G1 X78.561 Y41.426 E.01813
G1 X78.353 Y40.955 E.01813
G1 X78.23 Y40.454 E.01813
G1 X78.195 Y39.94 E.01813
G1 X78.251 Y39.426 E.01821
G1 X78.396 Y38.927 E.01828
G1 X78.621 Y38.471 E.0179
G1 X78.925 Y38.055 E.01813
G1 X79.296 Y37.698 E.01813
G1 X79.724 Y37.411 E.01813
G1 X80.198 Y37.202 E.0182
G1 X80.702 Y37.079 E.01828
G1 X81.21 Y37.045 E.01791
G1 X81.722 Y37.1 E.01813
G1 X82.217 Y37.244 E.01813
G1 X82.679 Y37.471 E.01813
G1 X82.994 Y37.701 E.01374
G1 X82.783 Y38.109 F21000
;TYPE:Outer wall
G1 F3000
G1 X83.078 Y38.409 E.01479
G1 X83.325 Y38.767 E.01533
G1 X83.506 Y39.164 E.01533
G1 X83.615 Y39.586 E.01534
G1 X83.65 Y40 E.01464
G1 X83.608 Y40.455 E.01607
G1 X83.489 Y40.879 E.01553
G1 X83.305 Y41.267 E.01511
G1 X83.052 Y41.622 E.01534
G1 X82.741 Y41.928 E.01534
G1 X82.383 Y42.175 E.01533
G1 X81.986 Y42.356 E.01533
G1 X81.564 Y42.465 E.01533
G1 X81.13 Y42.5 E.01533
G1 X80.696 Y42.458 E.01536
G1 X80.271 Y42.339 E.01553
G1 X79.883 Y42.155 E.01511
G1 X79.528 Y41.902 E.01533
G1 X79.222 Y41.591 E.01534
G1 X78.975 Y41.233 E.01533
G1 X78.794 Y40.836 E.01533
G1 X78.685 Y40.414 E.01533
G1 X78.65 Y39.98 E.01533
G1 X78.692 Y39.546 E.01536
G1 X78.811 Y39.121 E.01553
G1 X78.995 Y38.733 E.01511
G1 X79.248 Y38.378 E.01533
G1 X79.559 Y38.072 E.01534
G1 X79.917 Y37.825 E.01533
G1 X80.315 Y37.644 E.01536
G1 X80.742 Y37.534 E.01553
G1 X81.17 Y37.5 E.01511
G1 X81.604 Y37.542 E.01533
G1 X82.024 Y37.658 E.01533
G1 X82.521 Y37.918 E.01976
G1 X82.736 Y38.072 E.0093
G1 X82.858 Y38.082
G1 E-.5
G1 Z.4 F21000
G1 X62.061 Y36.315
G1 Z.2
G1 E.5 F1800
;TYPE:Inner wall
G1 F3000
G1 X62.149 Y35.929 E.01394
G1 X62.386 Y35.363 E.02159
G1 X62.724 Y34.84 E.02192
G1 X63.133 Y34.396 E.02124
G1 X63.621 Y34.025 E.02158
G1 X64.167 Y33.744 E.02158
;WIDTH:0.501993
G1 X64.752 Y33.561 E.02168
G1 X65.356 Y33.495 E.02148
;WIDTH:0.492812
G1 X65.968 Y33.517 E.02121
;WIDTH:0.521078
G1 X66.25 Y33.552 E.01047
G1 X66.833 Y33.744 E.0226
;WIDTH:0.499999
G1 X67.379 Y34.025 E.02158
G1 X67.867 Y34.397 E.02158
G1 X68.283 Y34.847 E.02159
G1 X68.614 Y35.363 E.02158
G1 X68.851 Y35.929 E.02158
G1 X68.986 Y36.527 E.02158
G1 X69.018 Y37.112 E.02063
G1 X68.963 Y37.641 E.01872
M73 P1 R36
G1 X68.828 Y38.149 E.01849
G1 X68.626 Y38.613 E.01781
G1 X68.283 Y39.153 E.02253
G1 X67.867 Y39.603 E.02158
G1 X67.379 Y39.975 E.02159
G1 X66.833 Y40.256 E.02158
G1 X66.248 Y40.438 E.02158
G1 X65.639 Y40.516 E.02158
G1 X65.027 Y40.486 E.02158
G1 X64.429 Y40.351 E.02159
G1 X63.863 Y40.114 E.02158
G1 X63.347 Y39.783 E.02158
G1 X62.896 Y39.367 E.02159
G1 X62.525 Y38.879 E.02158
G1 X62.244 Y38.333 E.02158
G1 X62.062 Y37.748 E.02158
G1 X61.984 Y37.139 E.02159
G1 X62.014 Y36.527 E.02158
G1 X62.048 Y36.373 E.00553
G1 X62.489 Y36.491 F21000
G1 F3000
G1 X62.504 Y36.371 E.00427
G1 X62.658 Y35.86 E.01878
G1 X62.901 Y35.381 E.0189
G1 X63.224 Y34.953 E.01885
G1 X63.609 Y34.592 E.01859
G1 X64.056 Y34.3 E.01878
G1 X64.547 Y34.09 E.01878
G1 X65.067 Y33.969 E.01878
G1 X65.591 Y33.94 E.01848
G1 X66.129 Y34.003 E.01908
G1 X66.64 Y34.158 E.01879
G1 X67.116 Y34.4 E.01878
G1 X67.543 Y34.72 E.01878
G1 X67.908 Y35.109 E.01878
G1 X68.2 Y35.556 E.01878
G1 X68.41 Y36.047 E.01878
G1 X68.531 Y36.567 E.01878
G1 X68.562 Y37.08 E.0181
G1 X68.496 Y37.629 E.01947
G1 X68.342 Y38.14 E.01878
G1 X68.1 Y38.616 E.01878
G1 X67.78 Y39.043 E.01878
G1 X67.391 Y39.408 E.01878
G1 X66.944 Y39.7 E.01878
G1 X66.453 Y39.91 E.01878
G1 X65.933 Y40.031 E.01878
G1 X65.4 Y40.06 E.01878
G1 X64.87 Y39.996 E.01879
G1 X64.36 Y39.842 E.01878
G1 X63.884 Y39.6 E.01878
G1 X63.457 Y39.28 E.01878
G1 X63.092 Y38.891 E.01878
G1 X62.8 Y38.444 E.01878
G1 X62.59 Y37.953 E.01878
G1 X62.469 Y37.433 E.01879
G1 X62.44 Y36.9 E.01878
G1 X62.482 Y36.551 E.0124
G1 X62.938 Y36.552 F21000
G1 F3000
G1 X62.945 Y36.489 E.00225
G1 X63.073 Y36.053 E.01599
G1 X63.275 Y35.644 E.01606
G1 X63.547 Y35.276 E.0161
G1 X63.871 Y34.966 E.0158
G1 X64.249 Y34.714 E.01599
G1 X64.665 Y34.532 E.01598
G1 X65.106 Y34.424 E.01598
G1 X65.552 Y34.395 E.01573
G1 X66.011 Y34.445 E.01623
G1 X66.447 Y34.573 E.01599
G1 X66.854 Y34.774 E.01598
G1 X67.22 Y35.043 E.01599
G1 X67.534 Y35.371 E.01598
G1 X67.786 Y35.749 E.01598
G1 X67.968 Y36.165 E.01598
G1 X68.076 Y36.607 E.01598
G1 X68.106 Y37.048 E.01557
G1 X68.055 Y37.511 E.0164
G1 X67.927 Y37.947 E.01598
G1 X67.726 Y38.354 E.01598
G1 X67.457 Y38.72 E.01599
G1 X67.129 Y39.034 E.01599
G1 X66.724 Y39.298 E.01699
G1 X66.335 Y39.468 E.01496
G1 X65.877 Y39.577 E.01657
G1 X65.44 Y39.605 E.01539
G1 X64.989 Y39.555 E.01599
G1 X64.553 Y39.427 E.01598
G1 X64.031 Y39.146 E.02086
G1 X63.78 Y38.957 E.01107
G1 X63.466 Y38.629 E.01599
G1 X63.214 Y38.251 E.01598
G1 X63.032 Y37.835 E.01598
G1 X62.924 Y37.393 E.01599
G1 X62.895 Y36.94 E.01598
G1 X62.931 Y36.612 E.01162
G1 X63.419 Y36.49 F21000
;TYPE:Outer wall
G1 F3000
G1 X63.487 Y36.246 E.00892
G1 X63.649 Y35.907 E.01322
G1 X63.87 Y35.599 E.01335
G1 X64.134 Y35.341 E.013
G1 X64.442 Y35.128 E.01319
G1 X64.784 Y34.973 E.01319
G1 X65.146 Y34.88 E.01319
G1 X65.514 Y34.851 E.01298
G1 X65.893 Y34.886 E.01339
G1 X66.254 Y34.987 E.01319
G1 X66.592 Y35.148 E.01319
G1 X66.897 Y35.366 E.01319
G1 X67.159 Y35.634 E.01319
G1 X67.372 Y35.942 E.01319
G1 X67.527 Y36.284 E.01319
G1 X67.62 Y36.646 E.01319
G1 X67.65 Y37.016 E.01305
G1 X67.613 Y37.393 E.01333
G1 X67.513 Y37.754 E.01319
G1 X67.241 Y38.249 E.01989
G1 X66.897 Y38.634 E.01817
G1 X66.531 Y38.884 E.01559
G1 X66.216 Y39.027 E.01217
G1 X65.837 Y39.122 E.01377
G1 X65.48 Y39.15 E.01259
G1 X65.107 Y39.113 E.01319
G1 X64.746 Y39.013 E.01319
G1 X64.293 Y38.771 E.01806
G1 X63.866 Y38.397 E.02
G1 X63.628 Y38.058 E.01458
G1 X63.473 Y37.717 E.01319
G1 X63.38 Y37.354 E.01319
G1 X63.35 Y36.98 E.01319
G1 X63.387 Y36.607 E.01319
G1 X63.403 Y36.548 E.00216
G1 X63.382 Y36.456
G1 E-.5
G1 Z.4 F21000
G1 X35.051 Y40.004
G1 Z.2
G1 E.5 F1800
;TYPE:Inner wall
G1 F3000
G1 X34.933 Y40.031 E.00427
G1 X34.4 Y40.06 E.01878
G1 X33.871 Y39.996 E.01878
G1 X33.36 Y39.842 E.01878
G1 X32.884 Y39.6 E.01878
G1 X32.457 Y39.28 E.01878
G1 X32.092 Y38.891 E.01878
G1 X31.8 Y38.444 E.01878
G1 X31.59 Y37.953 E.01878
G1 X31.469 Y37.433 E.01879
G1 X31.44 Y36.9 E.01878
G1 X31.504 Y36.371 E.01878
G1 X31.658 Y35.86 E.01878
G1 X31.794 Y35.632 E.00932
;WIDTH:0.463529
G1 X31.929 Y35.405 E.00858
;WIDTH:0.427059
G1 X32.259 Y34.996 E.01553
;WIDTH:0.397753
G1 X32.639 Y34.634 E.01434
;WIDTH:0.431835
G1 X32.778 Y34.522 E.00534
;WIDTH:0.465917
G1 X32.917 Y34.411 E.0058
;WIDTH:0.499999
G1 X33.056 Y34.3 E.00627
G1 X33.55 Y34.089 E.0189
G1 X34.072 Y33.968 E.01885
G1 X34.6 Y33.94 E.01859
G1 X35.129 Y34.004 E.01878
G1 X35.64 Y34.158 E.01878
G1 X36.116 Y34.4 E.01878
G1 X36.543 Y34.72 E.01878
G1 X36.908 Y35.109 E.01878
G1 X37.2 Y35.556 E.01878
G1 X37.41 Y36.047 E.01878
G1 X37.531 Y36.567 E.01879
G1 X37.56 Y37.1 E.01878
G1 X37.496 Y37.629 E.01878
G1 X37.342 Y38.14 E.01878
G1 X37.1 Y38.616 E.01878
G1 X36.78 Y39.043 E.01878
G1 X36.392 Y39.408 E.01875
