; HEADER_BLOCK_START
; generated by OrcaSlicer 1.6.2 on 2023-05-22 at 17:24:47
; total layer number: 72
; HEADER_BLOCK_END

; THUMBNAIL_BLOCK_START
; THUMBNAIL_BLOCK_END

; external perimeters extrusion width = 0.40mm
; perimeters extrusion width = 0.45mm
; infill extrusion width = 0.45mm
; solid infill extrusion width = 0.40mm
; top infill extrusion width = 0.40mm
; first layer extrusion width = 0.50mm

; external perimeters extrusion width = 0.40mm
; perimeters extrusion width = 0.45mm
; infill extrusion width = 0.45mm
; solid infill extrusion width = 0.40mm
; top infill extrusion width = 0.40mm
; first layer extrusion width = 0.50mm

; external perimeters extrusion width = 0.40mm
; perimeters extrusion width = 0.45mm
; infill extrusion width = 0.45mm
; solid infill extrusion width = 0.40mm
; top infill extrusion width = 0.40mm
; first layer extrusion width = 0.50mm

; EXECUTABLE_BLOCK_START
EXCLUDE_OBJECT_DEFINE NAME=Y_gantry_top_left.stl_id_0_copy_0 CENTER=57.6,60 POLYGON=[[46.7,42.1139],[55.5582,30.4058],[55.8401,30.0565],[56.1431,29.7255],[56.4662,29.4139],[56.8081,29.1231],[57.1674,28.8542],[57.5428,28.6081],[57.9327,28.386],[58.3358,28.1885],[58.7504,28.0166],[59.1749,27.8708],[59.6076,27.7518],[60.047,27.6599],[60.4912,27.5956],[60.9385,27.5591],[61.3873,27.5506],[61.8357,27.57],[62.282,27.6173],[62.7245,27.6924],[63.1615,27.7948],[63.5912,27.9243],[64.012,28.0803],[64.4223,28.2623],[64.8205,28.4694],[65.205,28.701],[65.5743,28.956],[65.927,29.2336],[66.2617,29.5326],[66.5772,29.8519],[66.8721,30.1902],[67.1454,30.5463],[67.3959,30.9186],[67.6228,31.3059],[67.8251,31.7065],[68.0021,32.119],[68.153,32.5417],[68.2773,32.973],[68.3744,33.4112],[68.4441,33.8546],[68.486,34.3014],[68.5,34.75],[68.5,85.25],[68.486,85.6984],[68.4442,86.145],[68.3746,86.5881],[68.2775,87.0261],[68.1534,87.4571],[68.0026,87.8796],[67.8259,88.2919],[67.6238,88.6924],[67.3972,89.0795],[67.1469,89.4517],[66.8739,89.8077],[66.5793,90.1459],[66.2641,90.4652],[65.9297,90.7642],[65.5774,91.0418],[65.2084,91.2969],[64.8243,91.5285],[64.4265,91.7358],[64.0166,91.9179],[63.5961,92.0741],[63.1667,92.2039],[62.73,92.3066],[62.2878,92.382],[61.8418,92.4296],[61.3937,92.4494],[60.9452,92.4413],[60.498,92.4052],[60.054,92.3414],[59.6149,92.2501],[59.1822,92.1315],[58.7578,91.9863],[58.3433,91.8149],[57.9402,91.6181],[57.5502,91.3965],[57.1747,91.1511],[56.8153,90.8827],[56.4732,90.5925],[56.1499,90.2816],[55.8466,89.9511],[55.5644,89.6024],[46.7,77.9208],[46.7,42.1139]]
EXCLUDE_OBJECT_DEFINE NAME=Y_gantry_top_right.stl_id_1_copy_0 CENTER=84.4,60 POLYGON=[[73.5,42.1139],[82.3582,30.4058],[82.6401,30.0565],[82.9431,29.7255],[83.2662,29.4139],[83.6081,29.1231],[83.9674,28.8542],[84.3428,28.6081],[84.7327,28.386],[85.1358,28.1885],[85.5504,28.0166],[85.9749,27.8708],[86.4076,27.7518],[86.847,27.6599],[87.2912,27.5956],[87.7385,27.5591],[88.1873,27.5506],[88.6357,27.57],[89.082,27.6173],[89.5245,27.6924],[89.9615,27.7948],[90.3912,27.9243],[90.812,28.0803],[91.2223,28.2623],[91.6205,28.4694],[92.005,28.701],[92.3743,28.956],[92.727,29.2336],[93.0617,29.5326],[93.3772,29.8519],[93.6721,30.1902],[93.9454,30.5463],[94.1959,30.9186],[94.4228,31.3059],[94.6251,31.7065],[94.8021,32.119],[94.953,32.5417],[95.0773,32.973],[95.1744,33.4112],[95.2441,33.8546],[95.286,34.3014],[95.3,34.75],[95.3,85.25],[95.286,85.6984],[95.2442,86.145],[95.1746,86.5881],[95.0775,87.0261],[94.9534,87.4571],[94.8026,87.8796],[94.6259,88.2919],[94.4238,88.6924],[94.1972,89.0795],[93.9469,89.4517],[93.6739,89.8077],[93.3793,90.1459],[93.0641,90.4652],[92.7298,90.7642],[92.3774,91.0418],[92.0084,91.2969],[91.6243,91.5285],[91.2265,91.7358],[90.8166,91.9179],[90.3961,92.0741],[89.9667,92.2039],[89.53,92.3066],[89.0878,92.382],[88.6418,92.4296],[88.1937,92.4494],[87.7452,92.4413],[87.298,92.4052],[86.854,92.3414],[86.4149,92.2501],[85.9822,92.1315],[85.5578,91.9863],[85.1433,91.8149],[84.7402,91.6181],[84.3502,91.3965],[83.9747,91.1511],[83.6153,90.8827],[83.2732,90.5925],[82.9499,90.2816],[82.6466,89.9511],[82.3644,89.6024],[73.5,77.9208],[73.5,42.1139]]
EXCLUDE_OBJECT_DEFINE NAME=XendStop.stl_id_2_copy_0 CENTER=33.2,60 POLYGON=[[24.7,57],[26.7,55],[41.7,55],[41.7,65],[26.7,65],[24.7,63],[24.7,57]]
M73 P0 R28
;TYPE:Custom
START_PRINT T_BED=110 T_EXTRUDER=260
G90
G21
M83 ; use relative distances for extrusion
; Filament gcode

    PRESSURE_ADVANCE_SELECT FILAMENT=ABS
M106 S0
;LAYER_CHANGE
;Z:0.2
;HEIGHT:0.2
;BEFORE_LAYER_CHANGE
;0.2
G92 E0

;AFTER_LAYER_CHANGE
;0.2
M204 S1000
G1 E-.5 F3000
G1 Z.2 F21000
G1 X36.299 Y43.107
G1 E.5 F1800
;TYPE:Skirt
;WIDTH:0.5
G1 F3000
G1 X55.209 Y27.184 E.87002
G1 X56.215 Y26.474 E.04334
G1 X57.306 Y25.896 E.04346
G1 X58.462 Y25.461 E.04346
G1 X59.663 Y25.176 E.04346
G1 X60.904 Y25.045 E.04392
G1 X88.494 Y25.045 E.971
G1 X90.328 Y25.296 E.06513
G1 X92.027 Y25.867 E.0631
G1 X93.641 Y26.773 E.06513
G1 X94.745 Y27.666 E.04997
G1 X95.968 Y29.055 E.06513
G1 X96.838 Y30.508 E.05961
G1 X97.477 Y32.216 E.06417
G1 X97.787 Y34.04 E.06513
G1 X97.788 Y85.954 E1.82705
G1 X97.654 Y87 E.03712
G1 X97.354 Y88.202 E.04359
G1 X96.907 Y89.347 E.04328
G1 X96.316 Y90.431 E.04343
G1 X95.593 Y91.431 E.04343
G1 X94.985 Y92.101 E.03182
G1 X94.141 Y92.856 E.03985
G1 X93.128 Y93.56 E.04343
G1 X92.033 Y94.131 E.04343
G1 X90.753 Y94.593 E.04791
G1 X89.666 Y94.837 E.0392
G1 X88.331 Y94.96 E.04718
G1 X61.032 Y94.96 E.96078
G1 X59.248 Y94.744 E.06322
G1 X57.486 Y94.183 E.0651
G1 X56.363 Y93.615 E.04428
G1 X55.218 Y92.824 E.04898
G1 X24.823 Y67.229 E1.39847
G1 X22.639 Y65.061 E.1083
G1 X21.786 Y63 E.0785
G1 X21.786 Y57 E.21116
G1 X22.639 Y54.939 E.0785
G1 X24.823 Y52.771 E.1083
G1 X36.253 Y43.146 E.5259
G1 X36.548 Y43.496 F21000
G1 F3000
G1 X55.503 Y27.534 E.87213
G1 X56.597 Y26.778 E.0468
G1 X57.622 Y26.256 E.04049
G1 X58.755 Y25.851 E.04234
G1 X59.905 Y25.6 E.04141
G1 X60.932 Y25.501 E.03631
G1 X88.465 Y25.501 E.96902
G1 X90.213 Y25.739 E.06207
G1 X91.852 Y26.289 E.06085
G1 X93.389 Y27.154 E.06207
G1 X94.425 Y27.992 E.0469
G1 X95.592 Y29.314 E.06207
G1 X96.43 Y30.714 E.05741
G1 X97.038 Y32.345 E.06125
G1 X97.332 Y34.084 E.06207
G1 X97.333 Y85.911 E1.82401
G1 X97.203 Y86.928 E.03607
G1 X96.915 Y88.072 E.04152
G1 X96.488 Y89.164 E.04126
G1 X95.924 Y90.196 E.04139
G1 X95.234 Y91.148 E.04139
G1 X94.666 Y91.773 E.02971
G1 X93.865 Y92.492 E.03788
G1 X92.9 Y93.164 E.04139
G1 X91.858 Y93.709 E.04139
G1 X90.638 Y94.151 E.04565
G1 X89.59 Y94.386 E.03782
G1 X88.329 Y94.503 E.04455
G1 X61.04 Y94.503 E.96041
G1 X59.335 Y94.295 E.06045
G1 X57.656 Y93.759 E.06203
G1 X56.589 Y93.218 E.0421
G1 X55.512 Y92.474 E.04607
G1 X25.117 Y66.879 E1.39844
G1 X22.963 Y64.737 E.10693
G1 X22.243 Y63 E.06618
G1 X22.243 Y57 E.21116
G1 X22.963 Y55.263 E.06618
G1 X25.117 Y53.121 E.10693
G1 X36.502 Y43.534 E.52378
; printing object Y_gantry_top_right.stl id:1 copy 0
EXCLUDE_OBJECT_START NAME=Y_gantry_top_right.stl_id_1_copy_0
G1 E-.5
G1 Z.4 F21000
G1 X75.264 Y76.666
G1 Z.2
G1 E.5 F1800
;TYPE:Inner wall
;WIDTH:0.499999
G1 F3000
G1 X75.264 Y43.369 E1.17183
G1 X83.247 Y32.817 E.46566
;WIDTH:0.539824
G1 X83.459 Y32.571 E.01242
;WIDTH:0.579649
G1 X83.67 Y32.325 E.01341
;WIDTH:0.619473
G1 X84.351 Y31.485 E.048
;WIDTH:0.611849
G1 X84.818 Y31.01 E.02919
G1 X85.306 Y30.633 E.02702
;WIDTH:0.607649
G1 X85.827 Y30.322 E.02637
;WIDTH:0.611922
G1 X86.408 Y30.072 E.02771
G1 X87.014 Y29.891 E.02771
;WIDTH:0.610798
G1 X87.605 Y29.799 E.02613
G1 X88.064 Y29.778 E.0201
;WIDTH:0.604146
G1 X88.695 Y29.814 E.02731
G1 X89.354 Y29.938 E.02898
;WIDTH:0.611853
G1 X89.856 Y30.094 E.023
G1 X90.565 Y30.431 E.03442
;WIDTH:0.611408
G1 X90.992 Y30.702 E.02214
G1 X91.487 Y31.103 E.02785
;WIDTH:0.609022
G1 X91.852 Y31.48 E.02287
;WIDTH:0.608019
G1 X92.143 Y31.859 E.0208
;WIDTH:0.607456
G1 X92.645 Y32.724 E.04347
G1 X92.854 Y33.283 E.02595
;WIDTH:0.610111
G1 X92.98 Y33.772 E.02207
G1 X93.05 Y34.284 E.02254
;WIDTH:0.612929
G1 X93.079 Y34.816 E.02339
G1 X93.097 Y35.69 E.03837
;WIDTH:0.578366
G1 X93.116 Y35.965 E.01138
;WIDTH:0.539183
G1 X93.136 Y36.241 E.01055
;WIDTH:0.499999
G1 X93.136 Y58.829 E.79497
;WIDTH:0.548707
G1 X93.111 Y59.057 E.00891
;WIDTH:0.597414
G1 X93.087 Y59.284 E.00977
G1 X93.104 Y59.794 E.02179
;WIDTH:0.579516
G1 X93.096 Y60.594 E.03303
G1 X93.116 Y60.904 E.01285
;WIDTH:0.539758
G1 X93.136 Y61.214 E.0119
;WIDTH:0.499999
G1 X93.134 Y85.254 E.84605
G1 X93.088 Y85.855 E.02121
G1 X93.003 Y86.373 E.01848
G1 X92.829 Y86.95 E.02121
G1 X92.621 Y87.46 E.01939
G1 X92.333 Y87.971 E.02063
G1 X91.939 Y88.505 E.02336
G1 X91.591 Y88.866 E.01766
G1 X91.206 Y89.204 E.01801
G1 X90.511 Y89.666 E.02939
;WIDTH:0.543823
G1 X90.422 Y89.684 E.0035
;WIDTH:0.587646
G1 X90.333 Y89.701 E.00381
;WIDTH:0.631469
G1 X90.244 Y89.719 E.00412
;WIDTH:0.675292
G1 X90.154 Y89.737 E.00442
;WIDTH:0.719115
G1 X90.065 Y89.755 E.00473
G1 X89.818 Y89.868 E.01418
;WIDTH:0.710802
G1 X89.265 Y90.047 E.02987
;WIDTH:0.676293
G1 X88.523 Y90.192 E.0369
;WIDTH:0.639925
G1 X87.977 Y90.221 E.02511
;WIDTH:0.620439
G1 X87.234 Y90.16 E.03315
;WIDTH:0.573088
G1 X86.664 Y90.041 E.02379
;WIDTH:0.54504
G1 X86.088 Y89.85 E.02347
;WIDTH:0.524351
G1 X85.372 Y89.487 E.02976
;WIDTH:0.481673
G1 X84.903 Y89.157 E.01935
;WIDTH:0.454632
G1 X84.493 Y88.802 E.01719
;WIDTH:0.440987
G1 X83.953 Y88.188 E.02508
;WIDTH:0.446151
G1 X83.404 Y87.436 E.0289
;WIDTH:0.473075
G1 X83.248 Y87.209 E.00913
;WIDTH:0.499999
G1 X83.092 Y86.981 E.0097
G1 X75.3 Y76.713 E.45363
G1 X74.807 Y76.819 F21000
G1 F3000
G1 X74.807 Y43.216 E1.18264
G1 X83.695 Y31.468 E.51844
G1 X84.115 Y30.981 E.02262
G1 X84.474 Y30.628 E.01772
G1 X84.975 Y30.236 E.02239
G1 X85.515 Y29.911 E.02219
G1 X85.984 Y29.695 E.01816
G1 X86.598 Y29.48 E.02292
G1 X87.099 Y29.362 E.0181
G1 X87.739 Y29.28 E.02273
G1 X88.429 Y29.278 E.02427
G1 X89.014 Y29.34 E.02072
G1 X89.863 Y29.553 E.03079
G1 X90.445 Y29.798 E.02222
G1 X90.9 Y30.04 E.01814
G1 X91.44 Y30.404 E.02292
G1 X91.854 Y30.747 E.01894
G1 X92.498 Y31.464 E.03391
G1 X92.864 Y32.065 E.02477
G1 X93.111 Y32.514 E.01803
G1 X93.347 Y33.153 E.02395
G1 X93.485 Y33.686 E.0194
G1 X93.559 Y34.251 E.02006
G1 X93.593 Y34.816 E.0199
G1 X93.593 Y84.76 E1.75774
G1 X93.591 Y85.273 E.01805
G1 X93.517 Y86.093 E.02897
G1 X93.398 Y86.688 E.02136
G1 X93.216 Y87.233 E.02022
G1 X93.007 Y87.707 E.01825
G1 X92.67 Y88.285 E.02354
G1 X92.258 Y88.834 E.02414
G1 X91.899 Y89.204 E.01817
G1 X91.471 Y89.576 E.01996
G1 X90.933 Y89.952 E.0231
G1 X90.297 Y90.272 E.02506
G1 X89.661 Y90.514 E.02393
G1 X89.068 Y90.653 E.02143
G1 X88.542 Y90.719 E.01865
G1 X87.948 Y90.738 E.02092
G1 X87.156 Y90.648 E.02806
G1 X86.531 Y90.502 E.0226
G1 X85.874 Y90.268 E.02453
G1 X85.133 Y89.866 E.02969
G1 X84.636 Y89.499 E.02172
G1 X84.191 Y89.107 E.02087
G1 X83.7 Y88.538 E.02645
G1 X74.843 Y76.867 E.51563
G1 X74.35 Y76.973 F21000
G1 F3000
G1 X74.35 Y43.062 E1.19346
M73 P1 R28
G1 X83.34 Y31.181 E.52436
G1 X83.812 Y30.632 E.02549
G1 X84.176 Y30.281 E.01778
G1 X84.715 Y29.859 E.0241
G1 X85.365 Y29.468 E.02668
G1 X86.057 Y29.164 E.02661
G1 X86.782 Y28.95 E.02662
G1 X87.529 Y28.829 E.02664
G1 X88.284 Y28.805 E.02658
G1 X89.037 Y28.876 E.0266
G1 X89.567 Y28.996 E.01912
G1 X90.198 Y29.184 E.02317
G1 X90.896 Y29.5 E.02696
G1 X91.54 Y29.898 E.02666
G1 X92.13 Y30.375 E.02669
G1 X92.553 Y30.812 E.02143
G1 X92.874 Y31.201 E.01773
G1 X93.403 Y32.071 E.03585
G1 X93.623 Y32.537 E.01814
G1 X93.789 Y33.036 E.01849
G1 X93.935 Y33.609 E.02084
G1 X94.015 Y34.222 E.02175
G1 X94.05 Y34.816 E.02092
G1 X94.05 Y85.112 E1.77012
G1 X94.03 Y85.697 E.02059
G1 X93.95 Y86.309 E.02174
G1 X93.838 Y86.813 E.01817
G1 X93.619 Y87.471 E.0244
G1 X93.405 Y87.932 E.01788
G1 X93.038 Y88.556 E.02551
G1 X92.596 Y89.142 E.0258
G1 X92.207 Y89.542 E.01966
G1 X91.735 Y89.949 E.02192
G1 X91.158 Y90.35 E.02474
G1 X90.659 Y90.611 E.0198
G1 X90.032 Y90.872 E.02393
G1 X89.493 Y91.023 E.01969
G1 X88.831 Y91.15 E.02373
G1 X88.286 Y91.186 E.01922
G1 X87.607 Y91.176 E.02386
G1 X87.084 Y91.099 E.01863
G1 X86.404 Y90.941 E.02456
G1 X85.772 Y90.722 E.02353
G1 X85.318 Y90.497 E.01785
G1 X84.776 Y90.181 E.02209
G1 X84.355 Y89.859 E.01865
G1 X83.861 Y89.424 E.02316
G1 X83.345 Y88.826 E.02781
G1 X74.386 Y77.021 E.52156
G1 X73.85 Y77.141 F21000
;TYPE:Outer wall
;WIDTH:0.585841
G1 F3000
G1 X73.85 Y42.894 E1.43164
G1 X82.95 Y30.866 E.63051
G1 X83.434 Y30.305 E.03095
G1 X83.85 Y29.901 E.02426
G1 X84.431 Y29.446 E.03085
G1 X85.134 Y29.023 E.03431
G1 X85.885 Y28.693 E.03427
G1 X86.671 Y28.461 E.03428
G1 X87.481 Y28.331 E.03431
G1 X88.3 Y28.304 E.03424
G1 X89.116 Y28.382 E.03426
G1 X89.833 Y28.543 E.03071
G1 X90.381 Y28.718 E.02407
G1 X91.131 Y29.058 E.03442
G1 X91.83 Y29.489 E.03433
G1 X92.468 Y30.005 E.0343
G1 X92.924 Y30.477 E.02744
G1 X93.284 Y30.913 E.02364
G1 X93.886 Y31.904 E.04846
G1 X94.108 Y32.409 E.02306
G1 X94.272 Y32.908 E.02196
G1 X94.428 Y33.525 E.02662
G1 X94.514 Y34.19 E.02804
G1 X94.55 Y34.816 E.02618
G1 X94.55 Y85.201 E2.10627
G1 X94.529 Y85.74 E.02255
G1 X94.445 Y86.375 E.02675
G1 X94.32 Y86.95 E.02463
G1 X94.117 Y87.559 E.02681
G1 X93.885 Y88.099 E.02457
G1 X93.523 Y88.741 E.03082
G1 X93.094 Y89.323 E.03021
G1 X92.705 Y89.764 E.0246
G1 X92.16 Y90.261 E.03081
G1 X91.567 Y90.682 E.03039
G1 X91.063 Y90.978 E.02444
G1 X90.467 Y91.244 E.02728
G1 X89.923 Y91.436 E.02414
G1 X89.285 Y91.585 E.02736
G1 X88.717 Y91.67 E.02402
G1 X88.06 Y91.695 E.0275
G1 X87.49 Y91.671 E.02384
G1 X86.677 Y91.54 E.03444
G1 X86.042 Y91.357 E.0276
G1 X85.513 Y91.158 E.02365
G1 X84.919 Y90.855 E.02787
G1 X84.44 Y90.561 E.02351
G1 X83.912 Y90.148 E.02799
G1 X83.5 Y89.771 E.02336
G1 X82.956 Y89.141 E.0348
G1 X73.886 Y77.189 E.6272
G1 X73.909 Y77.087
G1 E-.5
G1 Z.4 F21000
G1 X74.186 Y76.191
G1 X84.883 Y34.078
G1 X84.969 Y33.751
G1 X85.088 Y33.434
G1 X85.24 Y33.131
G1 X85.421 Y32.846
G1 X85.631 Y32.58
G1 X85.867 Y32.338
G1 X87.932 Y30.351
G1 Z.2
G1 E.5 F1800
;TYPE:Inner wall
;WIDTH:0.610798
G1 F3000
G1 X88.239 Y30.338 E.01341
;WIDTH:0.611497
G1 X88.788 Y30.397 E.02417
G1 X89.364 Y30.518 E.02578
;WIDTH:0.605866
G1 X90.013 Y30.776 E.03029
;WIDTH:0.611408
G1 X90.655 Y31.159 E.03269
G1 X91.062 Y31.479 E.02266
;WIDTH:0.608019
G1 X91.446 Y31.873 E.02397
G1 X91.667 Y32.155 E.01556
;WIDTH:0.603957
G1 X91.96 Y32.621 E.0238
;WIDTH:0.613213
G1 X92.192 Y33.111 E.0238
G1 X92.283 Y33.356 E.01149
;WIDTH:0.611826
G1 X92.42 Y33.864 E.02302
;WIDTH:0.610111
G1 X92.507 Y34.502 E.02813
;WIDTH:0.624552
G1 X92.492 Y35.252 E.03361
;WIDTH:0.638637
G1 X92.475 Y35.465 E.00981
G1 X92.396 Y35.685 E.01071
;WIDTH:0.592425
G1 X92.316 Y35.905 E.00988
;WIDTH:0.546212
G1 X92.236 Y36.124 E.00905
;WIDTH:0.499999
G1 X91.868 Y36.941 E.03155
G1 X91.344 Y37.661 E.03132
G1 X90.677 Y38.265 E.03168
G1 X89.901 Y38.719 E.03164
G1 X89.051 Y39.004 E.03155
G1 X88.161 Y39.108 E.03154
G1 X87.815 Y39.099 E.0122
G1 X87.268 Y39.029 E.01939
G1 X86.931 Y38.949 E.0122
G1 X86.411 Y38.768 E.01939
G1 X86.097 Y38.621 E.0122
G1 X85.625 Y38.338 E.01938
G1 X85.347 Y38.13 E.0122
G1 X84.943 Y37.755 E.01939
G1 X84.395 Y37.046 E.03155
G1 X84.004 Y36.24 E.03155
G1 X83.786 Y35.37 E.03155
G1 X83.75 Y34.475 E.03155
G1 X83.898 Y33.591 E.03155
;WIDTH:0.545681
G1 X84.04 Y33.164 E.01741
;WIDTH:0.591362
G1 X84.182 Y32.737 E.01899
;WIDTH:0.634432
G1 X84.209 Y32.631 E.00502
G1 X84.551 Y32.136 E.02735
;WIDTH:0.614292
G1 X84.907 Y31.705 E.02459
;WIDTH:0.606903
G1 X85.312 Y31.332 E.02392
;WIDTH:0.607412
G1 X85.597 Y31.116 E.01554
;WIDTH:0.607594
G1 X86.069 Y30.833 E.02395
;WIDTH:0.611922
G1 X86.582 Y30.613 E.02444
G1 X87.118 Y30.444 E.02464
;WIDTH:0.610798
G1 X87.686 Y30.361 E.02511
G1 X87.872 Y30.353 E.00814
G1 X87.961 Y30.863 F21000
;WIDTH:0.499999
G1 F3000
G1 X88.336 Y30.851 E.0132
G1 X89.069 Y30.97 E.02614
G1 X89.822 Y31.248 E.02825
G1 X90.369 Y31.584 E.0226
G1 X90.714 Y31.854 E.01543
G1 X91.083 Y32.234 E.01863
G1 X91.533 Y32.893 E.02808
G1 X91.803 Y33.537 E.02459
G1 X91.914 Y33.943 E.01478
G1 X92.001 Y34.534 E.02104
G1 X91.974 Y35.225 E.02435
G1 X91.794 Y36.008 E.02825
G1 X91.459 Y36.737 E.02824
G1 X90.986 Y37.377 E.02802
G1 X90.384 Y37.915 E.0284
G1 X89.687 Y38.316 E.02831
G1 X88.924 Y38.565 E.02825
G1 X88.126 Y38.653 E.02824
G1 X87.327 Y38.575 E.02825
G1 X86.561 Y38.336 E.02824
