; HEADER_BLOCK_START
; generated by OrcaSlicer 1.6.3 on 2023-08-02 at 20:47:24
; total layer number: 140
; HEADER_BLOCK_END

; THUMBNAIL_BLOCK_START
; THUMBNAIL_BLOCK_END

; external perimeters extrusion width = 0.40mm
; perimeters extrusion width = 0.45mm
; infill extrusion width = 0.45mm
; solid infill extrusion width = 0.40mm
; top infill extrusion width = 0.40mm
; first layer extrusion width = 0.50mm

; EXECUTABLE_BLOCK_START
EXCLUDE_OBJECT_DEFINE NAME=Y_mount_CNC_Beam_Bottom.stl_id_0_copy_0 CENTER=60,60 POLYGON=[[45.5,45.7785],[62.166,29.7021],[62.4989,29.3845],[62.8514,29.0889],[63.222,28.8163],[63.6093,28.568],[64.0116,28.3449],[64.4274,28.1479],[64.855,27.978],[65.2925,27.8356],[65.7381,27.7215],[66.1902,27.6361],[66.6468,27.5798],[67.1061,27.5527],[67.5662,27.555],[68.0251,27.5867],[68.4811,27.6476],[68.9323,27.7376],[69.3769,27.8561],[69.8129,28.0028],[70.2387,28.1771],[70.6525,28.3782],[71.0526,28.6053],[71.4374,28.8575],[71.8053,29.1338],[72.1547,29.433],[72.4844,29.7539],[72.7929,30.0952],[73.079,30.4555],[73.3415,30.8334],[73.5793,31.2272],[73.7914,31.6354],[73.9771,32.0564],[74.1355,32.4883],[74.266,32.9295],[74.3681,33.3781],[74.4413,33.8323],[74.4853,34.2902],[74.5,34.7501],[74.5,85.2501],[74.4853,85.7102],[74.4412,86.1684],[74.3679,86.6229],[74.2658,87.0717],[74.1351,87.5131],[73.9765,87.9453],[73.7907,88.3664],[73.5782,88.7748],[73.3402,89.1688],[73.0774,89.5468],[72.791,89.9072],[72.4822,90.2485],[72.1522,90.5695],[71.8024,90.8687],[71.4341,91.1449],[71.049,91.397],[70.6485,91.624],[70.2344,91.825],[69.8082,91.9991],[69.3718,92.1456],[68.927,92.2639],[68.4754,92.3535],[68.0191,92.4141],[67.5599,92.4454],[67.0995,92.4473],[66.64,92.4198],[66.1832,92.3629],[65.731,92.277],[65.2851,92.1624],[64.8475,92.0195],[64.42,91.849],[64.0042,91.6515],[63.6018,91.4278],[63.2146,91.1788],[62.8441,90.9056],[62.4918,90.6093],[62.1592,90.2911],[45.5,74.1785],[45.5,45.7785]]
M73 P0 R28
;TYPE:Custom
START_PRINT T_BED=110 T_EXTRUDER=260
G90
G21
M83 ; use relative distances for extrusion
; Filament gcode

    PRESSURE_ADVANCE_SELECT FILAMENT=ABS
M106 S0
;LAYER_CHANGE
;Z:0.2
;HEIGHT:0.2
;BEFORE_LAYER_CHANGE
;0.2
G92 E0

;AFTER_LAYER_CHANGE
;0.2
SET_VELOCITY_LIMIT ACCEL_TO_DECEL=500
M204 S1000
G1 E-.5 F3000
G1 X45.394 Y43.581 F21000
G1 Z.2
G1 E.5 F1800
;TYPE:Skirt
;WIDTH:0.5
G1 F3000
G1 X60.81 Y27.523 E.78341
G1 X62.375 Y26.379 E.06823
G1 X64.135 Y25.568 E.06822
G1 X65.702 Y25.17 E.0569
G1 X67.637 Y25.043 E.06823
G1 X69.368 Y25.26 E.06142
G1 X70.88 Y25.723 E.05564
G1 X72.524 Y26.561 E.06494
G1 X73.904 Y27.628 E.06141
G1 X74.914 Y28.72 E.05234
G1 X75.931 Y30.295 E.06598
G1 X76.507 Y31.656 E.05202
G1 X76.913 Y33.363 E.06173
G1 X77.014 Y34.75 E.04895
G1 X77.014 Y85.25 E1.77729
G1 X76.838 Y87.085 E.06486
G1 X76.283 Y88.944 E.06827
G1 X75.88 Y89.803 E.03341
G1 X75.304 Y90.753 E.0391
G1 X74.118 Y92.167 E.06495
G1 X72.895 Y93.189 E.0561
G1 X71.208 Y94.142 E.0682
G1 X69.377 Y94.739 E.06778
G1 X68.274 Y94.914 E.03929
G1 X67.382 Y94.963 E.03145
G1 X65.693 Y94.829 E.05963
G1 X64.125 Y94.429 E.05693
G1 X62.487 Y93.688 E.06328
G1 X60.925 Y92.579 E.06743
G1 X43.393 Y74.292 E.89157
G1 X42.586 Y72.278 E.07634
G1 X42.586 Y47.678 E.86577
G1 X43.396 Y45.663 E.07646
G1 X45.353 Y43.624 E.09945
G1 X45.682 Y43.941 F21000
G1 F3000
G1 X61.123 Y27.856 E.7847
G1 X62.719 Y26.707 E.06921
G1 X64.294 Y25.996 E.06082
G1 X65.767 Y25.622 E.05348
G1 X67.61 Y25.499 E.06502
G1 X69.282 Y25.709 E.05928
G1 X70.706 Y26.145 E.05242
G1 X72.269 Y26.941 E.06173
G1 X73.601 Y27.971 E.05927
G1 X74.549 Y28.996 E.04913
G1 X75.53 Y30.514 E.06362
G1 X76.071 Y31.793 E.04886
G1 X76.463 Y33.439 E.05954
G1 X76.557 Y34.75 E.04627
G1 X76.557 Y85.25 E1.77729
G1 X76.387 Y87.009 E.06218
G1 X75.856 Y88.78 E.06506
G1 X75.48 Y89.581 E.03118
G1 X74.929 Y90.492 E.03746
G1 X73.792 Y91.847 E.06226
G1 X72.641 Y92.81 E.05281
G1 X71.034 Y93.72 E.06499
G1 X69.288 Y94.29 E.06464
G1 X67.38 Y94.505 E.06757
G1 X65.758 Y94.376 E.05727
G1 X64.285 Y94.001 E.05351
G1 X62.709 Y93.288 E.06085
G1 X61.219 Y92.229 E.06435
G1 X43.724 Y73.976 E.88982
G1 X43.043 Y72.278 E.06437
G1 X43.043 Y47.678 E.86577
G1 X43.726 Y45.979 E.06447
G1 X45.641 Y43.984 E.09732
; printing object Y_mount_CNC_Beam_Bottom.stl id:0 copy 0
EXCLUDE_OBJECT_START NAME=Y_mount_CNC_Beam_Bottom.stl_id_0_copy_0
G1 E-.5
G1 X69.898 Y89.75 F21000
G1 E.5 F1800
;TYPE:Outer wall
G1 F3000
G1 X64.702 Y89.75 E.18287
G1 X62.104 Y85.25 E.18287
G1 X64.702 Y80.75 E.18287
G1 X69.898 Y80.75 E.18287
G1 X72.496 Y85.25 E.18287
G1 X69.928 Y89.698 E.18076
G1 X69.898 Y89.83
G1 E-.5
G1 X73.037 Y85.313 F21000
G1 E.5 F1800
;TYPE:Inner wall
G1 F3000
G1 X73.244 Y85.373 E.00757
G1 X73.197 Y86.041 E.02355
G1 X73.131 Y86.429 E.01386
G1 X73.015 Y86.899 E.01705
G1 X72.781 Y87.564 E.02482
G1 X72.574 Y88.002 E.01703
G1 X72.424 Y88.273 E.0109
G1 X72.211 Y88.608 E.01399
G1 X71.923 Y88.994 E.01693
G1 X71.447 Y89.515 E.02484
G1 X71.087 Y89.838 E.01703
G1 X70.775 Y90.079 E.01385
G1 X70.376 Y90.347 E.01692
G1 X70.217 Y90.198 E.00767
G1 X73.007 Y85.365 E.1964
G1 E-.5
G1 X71.08 Y88.223 F21000
G1 X70.81 Y88.594
G1 X70.52 Y88.953
G1 X69.879 Y89.717
G1 X68.897 Y89.89
G1 X68.441 Y89.961
G1 X67.984 Y90.01
G1 X64.479 Y90.25
G1 E.5 F1800
G1 F3000
G1 X70.126 Y90.25 E.19874
G1 X70.176 Y90.462 E.00766
G1 X69.747 Y90.673 E.01683
G1 X69.004 Y90.95 E.02789
G1 X68.232 Y91.126 E.02787
G1 X67.841 Y91.175 E.01386
G1 X67.357 Y91.198 E.01705
G1 X66.653 Y91.164 E.02482
G1 X66.174 Y91.091 E.01703
G1 X65.872 Y91.025 E.01089
G1 X65.489 Y90.917 E.014
G1 X65.037 Y90.752 E.01693
G1 X64.428 Y90.458 E.02381
G1 X64.465 Y90.308 E.00544
G1 E-.5
G1 X71.672 Y89.771 F21000
G1 X73.414 Y82.915
G1 X73.036 Y34.581
G1 E.5 F1800
G1 F3000
G1 X70.317 Y29.871 E.19139
G1 X70.478 Y29.722 E.0077
G1 X70.846 Y29.974 E.0157
G1 X71.386 Y30.426 E.02481
G1 X71.724 Y30.773 E.01702
G1 X71.925 Y31.008 E.01089
G1 X72.164 Y31.325 E.014
G1 X72.425 Y31.729 E.01692
G1 X72.614 Y32.075 E.01386
G1 X72.78 Y32.435 E.01395
G1 X73.015 Y33.102 E.02491
G1 X73.132 Y33.572 E.01704
G1 X73.197 Y33.96 E.01383
G1 X73.242 Y34.522 E.01984
G1 X73.094 Y34.564 E.00542
G1 E-.5
G1 X71.092 Y31.748 F21000
G1 X70.821 Y31.378
G1 X70.531 Y31.018
G1 X69.898 Y30.268
G1 X68.932 Y30.094
G1 X68.476 Y30.022
G1 X68.02 Y29.971
G1 X64.563 Y29.707
G1 E.5 F1800
G1 F3000
G1 X64.511 Y29.499 E.00754
G1 X65.046 Y29.245 E.02084
G1 X65.416 Y29.107 E.01391
G1 X65.878 Y28.974 E.01692
G1 X66.263 Y28.892 E.01386
G1 X66.656 Y28.836 E.01396
G1 X67.05 Y28.806 E.01391
G1 X67.447 Y28.803 E.01398
G1 X67.843 Y28.825 E.01395
G1 X68.236 Y28.875 E.01393
G1 X68.625 Y28.95 E.01396
G1 X69.008 Y29.051 E.01395
G1 X69.384 Y29.178 E.01395
G1 X69.75 Y29.329 E.01394
G1 X70.088 Y29.495 E.01323
G1 X70.038 Y29.707 E.00766
G1 X64.623 Y29.707 E.1906
G1 X64.737 Y30.207 F21000
;TYPE:Outer wall
G1 F3000
G1 X69.934 Y30.207 E.18287
G1 X72.532 Y34.707 E.18287
G1 X69.934 Y39.207 E.18287
G1 X64.737 Y39.207 E.18287
G1 X64.397 Y38.617 E.02398
G1 X62.139 Y34.707 E.1589
G1 X64.707 Y30.259 E.18076
G1 X64.739 Y30.127
G1 E-.5
G1 X63.829 Y31.365 F21000
G1 X63.556 Y31.734
G1 X63.299 Y32.113
G1 X63.046 Y32.494
G1 X62.805 Y32.882
G1 X61.752 Y34.707
G1 X64.544 Y39.543
G1 X65.1 Y62.75
G1 E.5 F1800
;TYPE:Inner wall
G1 F3000
G1 X64.548 Y63.128 E.02354
G1 X61.902 Y64.664 E.1077
G1 X57.843 Y62.321 E.16494
G1 X57.843 Y57.636 E.16487
G1 X60.873 Y55.887 E.12315
G1 X61.902 Y55.293 E.04179
G1 X64.548 Y56.829 E.1077
G1 X65.097 Y57.205 E.02339
G1 X65.748 Y56.771 E.02753
G1 X68.3 Y55.294 E.10379
G1 X72.357 Y57.636 E.16487
G1 X72.357 Y62.321 E.16487
G1 X68.298 Y64.664 E.16494
G1 X65.652 Y63.128 E.1077
G1 X65.149 Y62.784 E.02143
G1 X65.1 Y62.167 F21000
G1 F3000
G1 X64.731 Y62.459 E.01656
G1 X64.307 Y62.739 E.01789
G1 X61.901 Y64.136 E.09792
G1 X58.3 Y62.057 E.14634
G1 X58.3 Y57.9 E.1463
G1 X61.102 Y56.282 E.11386
G1 X61.901 Y55.821 E.03248
G1 X64.307 Y57.218 E.09791
G1 X64.731 Y57.498 E.0179
G1 X65.095 Y57.786 E.01632
G1 X65.19 Y57.691 E.00475
G1 X65.989 Y57.159 E.03377
G1 X68.3 Y55.822 E.09397
G1 X71.9 Y57.9 E.1463
G1 X71.9 Y62.057 E.1463
G1 X68.299 Y64.136 E.14634
G1 X65.893 Y62.739 E.09792
G1 X65.469 Y62.459 E.01789
G1 X65.147 Y62.204 E.01445
G1 X64.897 Y61.69 F21000
;TYPE:Outer wall
G1 F3000
G1 X64.437 Y62.053 E.02061
G1 X64.043 Y62.314 E.01663
G1 X61.9 Y63.558 E.08721
G1 X58.8 Y61.768 E.12599
G1 X58.8 Y58.189 E.12598
G1 X61.352 Y56.715 E.1037
G1 X61.9 Y56.399 E.02229
G1 X64.043 Y57.643 E.08721
G1 X64.437 Y57.904 E.01663
G1 X64.9 Y58.27 E.02077
G1 X64.9 Y61.631 E.11831
G1 X64.934 Y61.761
G1 E-.5
G1 X65.302 Y58.285 F21000
G1 E.5 F1800
G1 F3000
G1 X65.508 Y58.081 E.01022
G1 X66.253 Y57.584 E.03152
G1 X67.752 Y56.716 E.06095
G1 X68.3 Y56.399 E.02229
G1 X71.4 Y58.189 E.12598
G1 X71.4 Y61.768 E.12598
G1 X68.3 Y63.558 E.12599
G1 X66.157 Y62.314 E.08721
G1 X65.763 Y62.053 E.01663
G1 X65.3 Y61.687 E.02077
G1 X65.3 Y58.344 E.11765
G1 X65.271 Y58.236
M73 P1 R28
G1 E-.5
G1 X60.725 Y35.085 F21000
G1 E.5 F1800
;TYPE:Inner wall
G1 F3000
G1 X63.172 Y39.324 E.17228
G1 X63.921 Y40.621 E.05271
G1 X70.75 Y40.621 E.24034
G1 X72.133 Y38.226 E.09731
G1 X72.336 Y38.281 E.00741
G1 X72.336 Y57.096 E.66218
G1 X68.3 Y54.766 E.16401
G1 X65.506 Y56.383 E.1136
G1 X65.105 Y56.65 E.01695
G1 X64.789 Y56.441 E.01333
G1 X61.902 Y54.765 E.11749
G1 X57.386 Y57.372 E.18354
G1 X57.386 Y62.585 E.18345
G1 X61.902 Y65.192 E.18354
G1 X64.789 Y63.516 E.11749
G1 X65.1 Y63.311 E.01311
G1 X65.411 Y63.516 E.01311
G1 X68.298 Y65.192 E.11749
G1 X72.336 Y62.861 E.1641
G1 X72.336 Y81.738 E.66434
G1 X72.133 Y81.792 E.00741
G1 X70.715 Y79.336 E.09981
G1 X63.885 Y79.336 E.24034
G1 X60.694 Y84.865 E.22467
G1 X49.836 Y70.514 E.6333
G1 X47.264 Y70.514 E.09052
G1 X47.264 Y49.443 E.74159
G1 X49.829 Y49.443 E.09027
G1 X60.688 Y35.132 E.63222
G1 E-.5
G1 X61.692 Y33.054 F21000
G1 E.5 F1800
G1 F3000
G1 X61.906 Y33.196 E.00906
G1 X61.034 Y34.707 E.06138
G1 X64.185 Y40.164 E.22177
G1 X70.486 Y40.164 E.22177
G1 X72.59 Y36.521 E.14806
G1 X72.793 Y36.575 E.00741
G1 X72.793 Y83.443 E1.64948
G1 X72.59 Y83.498 E.00741
G1 X70.451 Y79.793 E.15056
G1 X64.149 Y79.793 E.22177
G1 X60.999 Y85.25 E.22177
G1 X61.849 Y86.723 E.05987
G1 X61.634 Y86.866 E.00907
G1 X49.609 Y70.971 E.70145
G1 X46.807 Y70.971 E.09861
G1 X46.807 Y48.986 E.77377
G1 X49.602 Y48.986 E.09837
G1 X61.655 Y33.102 E.70174
G1 E-.5
G1 X64.202 Y30.134 F21000
G1 E.5 F1800
G1 F3000
G1 X61.562 Y34.707 E.18585
G1 X64.449 Y39.707 E.20319
G1 X70.222 Y39.707 E.20319
G1 X73.047 Y34.815 E.19881
G1 X73.25 Y34.869 E.00741
G1 X73.25 Y85.149 E1.76955
G1 X73.047 Y85.204 E.00741
G1 X70.187 Y80.25 E.20131
G1 X64.413 Y80.25 E.20319
G1 X61.527 Y85.25 E.20319
G1 X64.377 Y90.188 E.20067
G1 X64.225 Y90.337 E.0075
G1 X63.989 Y90.193 E.00974
G1 X63.428 Y89.765 E.02482
G1 X63.072 Y89.436 E.01705
G1 X62.805 Y89.148 E.01383
G1 X62.547 Y88.829 E.01446
G1 X49.382 Y71.429 E.76791
G1 X46.35 Y71.429 E.10669
G1 X46.35 Y48.528 E.80594
G1 X49.375 Y48.528 E.10647
G1 X62.552 Y31.165 E.76713
G1 X62.811 Y30.846 E.01445
G1 X63.08 Y30.556 E.01395
G1 X63.369 Y30.284 E.01396
G1 X63.675 Y30.033 E.01393
G1 X64.242 Y29.65 E.02408
G1 X64.396 Y29.799 E.00753
G1 X64.232 Y30.082 E.0115
G1 E-.5
G1 X49.094 Y48.028 F21000
G1 E.5 F1800
;TYPE:Outer wall
G1 F3000
G1 X49.127 Y48.028 E.00117
G1 X62.158 Y30.856 E.75868
G1 X62.433 Y30.518 E.01533
G1 X62.726 Y30.203 E.01512
G1 X63.039 Y29.908 E.01514
G1 X63.37 Y29.636 E.0151
G1 X63.72 Y29.385 E.01513
G1 X64.086 Y29.159 E.01515
G1 X64.464 Y28.958 E.01508
G1 X64.856 Y28.782 E.01513
G1 X65.26 Y28.632 E.01514
G1 X65.757 Y28.488 E.01821
G1 X66.176 Y28.399 E.01509
G1 X66.602 Y28.338 E.01513
G1 X67.029 Y28.306 E.01509
G1 X67.459 Y28.302 E.01515
G1 X67.889 Y28.327 E.01512
G1 X68.314 Y28.381 E.0151
G1 X68.737 Y28.462 E.01514
G1 X69.152 Y28.572 E.01512
G1 X69.559 Y28.709 E.01512
G1 X69.956 Y28.873 E.01512
G1 X70.342 Y29.063 E.01512
G1 X70.713 Y29.277 E.01508
G1 X71.141 Y29.57 E.01824
G1 X71.41 Y29.78 E.01202
G1 X71.732 Y30.064 E.01511
G1 X72.093 Y30.436 E.01824
G1 X72.574 Y31.039 E.02716
G1 X72.855 Y31.474 E.01821
G1 X73.061 Y31.85 E.01509
G1 X73.241 Y32.24 E.01512
G1 X73.395 Y32.641 E.01514
G1 X73.497 Y32.967 E.01202
G1 X73.621 Y33.471 E.01824
G1 X73.693 Y33.893 E.01508
G1 X73.735 Y34.321 E.01512
G1 X73.75 Y34.756 E.01533
G1 X73.75 Y85.243 E1.77683
G1 X73.727 Y85.767 E.01845
G1 X73.693 Y86.107 E.01205
G1 X73.621 Y86.53 E.0151
G1 X73.497 Y87.034 E.01825
G1 X73.395 Y87.36 E.01203
G1 X73.241 Y87.761 E.01512
G1 X73.019 Y88.23 E.01825
G1 X72.622 Y88.892 E.02717
G1 X72.313 Y89.307 E.01822
G1 X71.793 Y89.876 E.02713
G1 X71.407 Y90.223 E.01825
G1 X71.068 Y90.485 E.0151
G1 X70.711 Y90.724 E.01513
G1 X70.338 Y90.939 E.01513
G1 X69.953 Y91.129 E.01513
G1 X69.636 Y91.26 E.01205
G1 X69.147 Y91.43 E.0182
G1 X68.646 Y91.556 E.01821
G1 X68.31 Y91.62 E.01204
G1 X67.884 Y91.673 E.0151
G1 X67.366 Y91.698 E.01825
G1 X67.025 Y91.694 E.01202
G1 X66.596 Y91.661 E.01512
G1 X66.083 Y91.583 E.01825
G1 X65.75 Y91.51 E.012
G1 X65.335 Y91.393 E.01518
G1 X64.849 Y91.215 E.01822
G1 X64.457 Y91.039 E.01513
G1 X64.155 Y90.88 E.01201
G1 X63.712 Y90.61 E.01825
G1 X63.364 Y90.359 E.01511
G1 X63.099 Y90.142 E.01203
G1 X62.719 Y89.79 E.01825
G1 X62.427 Y89.476 E.01509
G1 X62.153 Y89.137 E.01534
G1 X49.133 Y71.928 E.75945
G1 X45.85 Y71.928 E.11554
G1 X45.85 Y48.028 E.84113
G1 X49.034 Y48.028 E.11205
G1 X49.099 Y48.032
G1 E-.5
G1 X61.926 Y32.935 F21000
G1 E.5 F1800
;TYPE:Gap infill
;WIDTH:0.637163
G1 F3000
G1 X62.168 Y32.573 E.01992
;WIDTH:0.58837
G1 X62.41 Y32.211 E.01829
;WIDTH:0.539577
G1 X62.652 Y31.849 E.01665
;WIDTH:0.490783
G1 X62.894 Y31.487 E.01501
;WIDTH:0.44199
G1 X63.136 Y31.125 E.01338
;WIDTH:0.400501
G1 X63.245 Y30.977 E.00508
;WIDTH:0.359012
G1 X63.355 Y30.829 E.00449
;WIDTH:0.322477
G1 X63.433 Y30.73 E.0027
;WIDTH:0.285942
G1 X63.511 Y30.632 E.00235
;WIDTH:0.249407
G1 X63.588 Y30.533 E.00199
;WIDTH:0.199978
G1 X63.683 Y30.423 E.00176
;WIDTH:0.150549
G1 X63.777 Y30.312 E.0012
;WIDTH:0.10112
G1 X63.872 Y30.202 E.00065
G1 E-.5
G1 X65.211 Y29.454 F21000
G1 E.5 F1800
;WIDTH:0.151785
G1 F3000
G1 X65.362 Y29.427 E.00129
;WIDTH:0.200648
G1 X65.512 Y29.399 E.00186
;WIDTH:0.243766
G1 X65.664 Y29.378 E.00237
;WIDTH:0.286884
G1 X65.816 Y29.356 E.00288
;WIDTH:0.330002
G1 X65.968 Y29.335 E.00339
;WIDTH:0.368403
G1 X66.152 Y29.316 E.00462
;WIDTH:0.406802
G1 X66.335 Y29.296 E.00516
;WIDTH:0.433008
G1 X66.519 Y29.283 E.00555
;WIDTH:0.459216
G1 X66.703 Y29.27 E.00592
;WIDTH:0.481895
G1 X67.436 Y29.255 E.02477
G1 X67.803 Y29.265 E.0124
;WIDTH:0.423028
G1 X68.17 Y29.288 E.01077
;WIDTH:0.387538
G1 X68.355 Y29.306 E.00493
;WIDTH:0.352046
G1 X68.54 Y29.324 E.00442
;WIDTH:0.30386
G1 X68.726 Y29.348 E.00377
;WIDTH:0.255674
G1 X68.912 Y29.372 E.00307
;WIDTH:0.217084
G1 X69.032 Y29.392 E.00163
;WIDTH:0.178495
G1 X69.152 Y29.413 E.00127
;WIDTH:0.139905
G1 X69.272 Y29.433 E.00091
;WIDTH:0.101316
G1 X69.392 Y29.454 E.00055
G1 E-.5
G1 X70.86 Y30.305 F21000
G1 E.5 F1800
;WIDTH:0.125539
G1 F3000
G1 X70.918 Y30.372 E.00057
;WIDTH:0.166014
G1 X70.998 Y30.47 E.00119
;WIDTH:0.206489
G1 X71.077 Y30.567 E.00159
;WIDTH:0.246963
G1 X71.157 Y30.665 E.00198
;WIDTH:0.288925
G1 X71.269 Y30.816 E.00356
;WIDTH:0.330886
G1 X71.38 Y30.968 E.00417
;WIDTH:0.372847
G1 X71.492 Y31.119 E.00478
;WIDTH:0.414807
G1 X71.604 Y31.271 E.00539
;WIDTH:0.459697
G1 X71.806 Y31.576 E.01175
;WIDTH:0.466314
G1 X72.04 Y31.959 E.01462
G1 X72.386 Y32.601 E.0238
;WIDTH:0.411297
G1 X72.466 Y32.767 E.00523
;WIDTH:0.382388
G1 X72.545 Y32.934 E.00482
;WIDTH:0.333641
G1 X72.618 Y33.109 E.00425
;WIDTH:0.284894
G1 X72.691 Y33.284 E.00353
;WIDTH:0.236148
G1 X72.764 Y33.459 E.00282
;WIDTH:0.187401
G1 X72.837 Y33.634 E.00211
;WIDTH:0.145162
G1 X72.882 Y33.76 E.00105
;WIDTH:0.102921
G1 X72.928 Y33.886 E.00062
G1 E-.5
G1 X72.199 Y63.837 F21000
G1 E.5 F1800
;TYPE:Bottom surface
;WIDTH:0.504884
G1 F6300
G1 X71.881 Y63.519 E.01599
M73 P2 R28
G1 X71.467 Y63.759 E.01701
G1 X71.993 Y64.285 E.02647
G1 X71.993 Y64.938 E.02324
G1 X71.053 Y63.998 E.04731
G1 X70.638 Y64.237 E.01701
G1 X71.993 Y65.591 E.06814
G1 X71.993 Y66.245 E.02324
G1 X70.224 Y64.476 E.08898
G1 X69.81 Y64.715 E.01701
G1 X71.993 Y66.898 E.10981
G1 X71.993 Y67.551 E.02324
