; generated by SuperSlicer 2.5.59 on 2023-08-03 at 00:23:37 UTC


;
;

;
;
; 

; external perimeters extrusion width = 0.40mm
; perimeters extrusion width = 0.46mm
; infill extrusion width = 0.64mm
; solid infill extrusion width = 0.56mm
; top infill extrusion width = 0.40mm
; first layer extrusion width = 0.50mm

; external perimeters extrusion width = 0.40mm
; perimeters extrusion width = 0.46mm
; infill extrusion width = 0.64mm
; solid infill extrusion width = 0.56mm
; top infill extrusion width = 0.40mm
; first layer extrusion width = 0.50mm

; object:{"name":"Y_mount_CNC_Beam_Top","id":"Y_mount_CNC_Beam_Top.stl id:0 copy 0","object_center":[77.500000,60.000007,0.000000],"boundingbox_center":[77.500000,60.000007,3.000000],"boundingbox_size":[21.800003,64.899246,6.000000]}
EXCLUDE_OBJECT_DEFINE NAME=Y_mount_CNC_Beam_Top_stl_id_0_copy_0 CENTER=77.500000,60.000007 POLYGON=[[66.600000,42.113792],[75.458200,30.405782],[75.732904,30.064772],[76.027808,29.741102],[76.341896,29.435954],[76.673896,29.150466],[77.022696,28.885684],[77.386896,28.642596],[77.765208,28.422094],[78.156200,28.225004],[78.558496,28.052034],[78.970496,27.903854],[79.390800,27.780984],[79.817800,27.683892],[80.249904,27.612930],[80.685512,27.568382],[81.123008,27.550384],[81.560800,27.559022],[81.997304,27.594254],[82.430808,27.655952],[82.859792,27.743896],[83.282600,27.857742],[83.697704,27.997094],[84.103600,28.161414],[84.498696,28.350104],[84.881704,28.562464],[85.251000,28.797712],[85.605312,29.054972],[85.943400,29.333304],[86.263912,29.631662],[86.565696,29.948966],[86.847600,30.284014],[87.108608,30.635584],[87.347800,31.002364],[87.564200,31.383012],[87.757104,31.776114],[87.925808,32.180222],[88.069600,32.593826],[88.187904,33.015404],[88.280496,33.443406],[88.346792,33.876236],[88.386696,34.312296],[88.400000,34.749976],[88.400000,85.249968],[88.386696,85.687408],[88.346792,86.123224],[88.280600,86.555816],[88.188192,86.983576],[88.069912,87.404936],[87.926304,87.818328],[87.757896,88.222248],[87.565208,88.615176],[87.349008,88.995664],[87.110008,89.362320],[86.849296,89.713784],[86.567696,90.048752],[86.266200,90.366008],[85.946008,90.664344],[85.608296,90.942688],[85.254296,91.200000],[84.885304,91.435320],[84.502712,91.647784],[84.107904,91.836624],[83.702400,92.001120],[83.287608,92.140688],[82.865104,92.254792],[82.436504,92.343016],[82.003200,92.405032],[81.567104,92.440616],[81.129512,92.449632],[80.692208,92.432056],[80.256800,92.387936],[79.824896,92.317448],[79.398096,92.220856],[78.977896,92.098504],[78.565896,91.950848],[78.163704,91.778432],[77.772696,91.581912],[77.394296,91.361984],[77.030008,91.119488],[76.681096,90.855296],[76.348904,90.570408],[76.034600,90.265848],[75.739400,89.942768],[75.464408,89.602344],[66.600000,77.920744],[66.600000,42.113792]]
; object:{"name":"Y_mount_CNC_Beam_Bottom","id":"Y_mount_CNC_Beam_Bottom.stl id:1 copy 0","object_center":[46.099998,60.000015,0.000000],"boundingbox_center":[46.099998,60.000015,14.000000],"boundingbox_size":[29.000000,64.894600,28.000000]}
EXCLUDE_OBJECT_DEFINE NAME=Y_mount_CNC_Beam_Bottom_stl_id_1_copy_0 CENTER=46.099998,60.000015 POLYGON=[[31.599998,45.778516],[48.266000,29.702126],[48.598900,29.384544],[48.951392,29.088866],[49.322000,28.816306],[49.709296,28.567974],[50.111596,28.344884],[50.527396,28.147956],[50.954996,27.977974],[51.392496,27.835648],[51.838096,27.721542],[52.290200,27.636146],[52.746804,27.579796],[53.206092,27.552716],[53.666192,27.555024],[54.125100,27.586704],[54.581092,27.647644],[55.032296,27.737576],[55.476904,27.856144],[55.912896,28.002864],[56.338692,28.177124],[56.752496,28.378226],[57.152596,28.605344],[57.537392,28.857544],[57.905296,29.133814],[58.254692,29.433014],[58.584404,29.753914],[58.892892,30.095224],[59.178992,30.455534],[59.441504,30.833386],[59.679300,31.227224],[59.891396,31.635444],[60.077096,32.056386],[60.235496,32.488328],[60.366004,32.929496],[60.468100,33.378106],[60.541300,33.832312],[60.585304,34.290264],[60.600000,34.750108],[60.600000,85.250104],[60.585304,85.710192],[60.541192,86.168408],[60.467904,86.622880],[60.365792,87.071728],[60.235100,87.513120],[60.076500,87.945280],[59.890692,88.366408],[59.678200,88.774808],[59.440192,89.168808],[59.177392,89.546776],[58.891000,89.907184],[58.582192,90.248552],[58.252204,90.569496],[57.902396,90.868696],[57.534096,91.144912],[57.148996,91.397056],[56.748496,91.624056],[56.334404,91.825008],[55.908196,91.999088],[55.471796,92.145576],[55.027000,92.263872],[54.575400,92.353504],[54.119104,92.414112],[53.659904,92.445416],[53.199500,92.447312],[52.739996,92.419784],[52.283196,92.362960],[51.831000,92.277056],[51.385092,92.162432],[50.947504,92.019544],[50.519996,91.849000],[50.104196,91.651464],[49.701804,91.427784],[49.314600,91.178824],[48.944100,90.905640],[48.591804,90.609344],[48.259192,90.291144],[31.599998,74.178512],[31.599998,45.778516]]
; plater:{"center":[60.000000,60.000007,0.000000],"boundingbox_center":[60.000000,60.000007,14.000000],"boundingbox_size":[56.800004,64.899246,28.000000]}

M73 P0 R44
;TYPE:Custom
; custom gcode: start_gcode
START_PRINT T_BED=110 T_EXTRUDER=260
; custom gcode end: start_gcode
M107
G21 ; set units to millimeters
G90 ; use absolute coordinates
M82 ; use absolute distances for extrusion
G92 E0
; custom gcode: start_filament_gcode
; filament start gcode

    PRESSURE_ADVANCE_SELECT FILAMENT=ABS
; custom gcode end: start_filament_gcode
;_TOOLCHANGE 0
M104 S260 ; set temperature
M109 S260 ; set temperature and wait for it to be reached
M190 S110 ; set bed temperature and wait for it to be reached
;LAYER_CHANGE
;Z:0.2
;HEIGHT:0.2
G1 Z0.2 F12000
G1 E-0.5 F2400
M204 S2000
G1 X37.691 Y35.985 F12000
G1 E0 F1800
;TYPE:Skirt
;WIDTH:0.52
G1 X28.94 Y45.151 E0.4655
G1 X28.306 Y46.05 E0.50591
G1 X27.912 Y47.717 E0.56882
G1 X27.912 Y72.24 E1.46966
G1 X28.073 Y73.324 E1.50991
G1 X28.937 Y74.803 E1.57282
G1 X45.963 Y92.68 E2.47971
G1 X47.524 Y93.991 E2.55458
G1 X49.262 Y94.951 E2.62752
G1 X50.113 Y95.281 E2.66106
G1 X51.251 Y95.59 E2.70437
G1 X53.1 Y95.82 E2.7728
G1 X81.061 Y95.825 E3.79992
G1 X82.293 Y95.768 E3.84522
G1 X83.712 Y95.524 E3.89811
G1 X84.867 Y95.165 E3.94255
G1 X86.174 Y94.576 E3.9952
G1 X87.318 Y93.86 E4.04478
G1 X88.553 Y92.814 E4.10425
G1 X89.228 Y92.086 E4.1407
G1 X89.941 Y91.128 E4.18458
G1 X90.66 Y89.849 E4.23845
G1 X90.998 Y89.046 E4.27049
G1 X91.449 Y87.496 E4.32978
G1 X91.668 Y85.375 E4.40811
G1 X91.668 Y34.625 E6.27235
M73 P0 R44
G1 X91.562 Y33.154 E6.32652
G1 X91.1 Y31.231 E6.39915
G1 X90.297 Y29.452 E6.47087
G1 X89.432 Y28.17 E6.5277
G1 X88.064 Y26.733 E6.60057
G1 X86.767 Y25.77 E6.6599
G1 X84.999 Y24.884 E6.73254
G1 X83.157 Y24.359 E6.80292
G1 X81.396 Y24.177 E6.86793
G1 X52.999 Y24.186 E7.91107
G1 X51.493 Y24.358 E7.96674
G1 X49.618 Y24.899 E8.03841
G1 X48.545 Y25.395 E8.08186
G1 X47.534 Y26.002 E8.12518
G1 X45.973 Y27.31 E8.2
G1 X37.691 Y35.985 E8.64057
G1 X38.036 Y36.315 F12000
G1 F1800
G1 X29.285 Y45.48 E9.10607
G1 X28.782 Y46.169 E9.13738
G1 X28.389 Y47.717 E9.19605
G1 X28.389 Y72.24 E10.0969
G1 X28.5 Y73.081 E10.12806
G1 X29.282 Y74.474 E10.18673
G1 X46.309 Y92.351 E11.09363
G1 X47.802 Y93.604 E11.16522
G1 X49.47 Y94.522 E11.23514
G1 X51.369 Y95.128 E11.30837
G1 X53.106 Y95.343 E11.37268
G1 X82.233 Y95.295 E12.44262
G1 X83.588 Y95.063 E12.49314
G1 X84.71 Y94.715 E12.53629
G1 X85.939 Y94.16 E12.5858
G1 X87.029 Y93.48 E12.63302
G1 X88.231 Y92.462 E12.69088
G1 X88.856 Y91.787 E12.72465
G1 X89.549 Y90.855 E12.76732
G1 X90.224 Y89.655 E12.81789
G1 X90.546 Y88.895 E12.84822
G1 X90.985 Y87.387 E12.90592
G1 X91.191 Y85.375 E12.98021
G1 X91.191 Y34.625 E14.84446
G1 X91.092 Y33.233 E14.89569
G1 X90.653 Y31.398 E14.96503
G1 X89.888 Y29.696 E15.03355
G1 X89.068 Y28.478 E15.0875
G1 X87.765 Y27.105 E15.15704
G1 X86.503 Y26.168 E15.21477
G1 X84.815 Y25.323 E15.28411
G1 X83.05 Y24.824 E15.35148
G1 X81.396 Y24.654 E15.41256
G1 X53.007 Y24.663 E16.45539
G1 X51.153 Y24.917 E16.52413
G1 X49.781 Y25.347 E16.57695
G1 X48.752 Y25.825 E16.61862
G1 X47.812 Y26.39 E16.65892
G1 X46.318 Y27.64 E16.73047
G1 X38.036 Y36.315 E17.17105
G92 E0
G1 E-0.5 F2400
; printing object Y_mount_CNC_Beam_Top.stl id:0 copy 0
EXCLUDE_OBJECT_START NAME=Y_mount_CNC_Beam_Top_stl_id_0_copy_0
G1 X79.008 Y58.809 F12000
G1 E0 F1800
;TYPE:Internal perimeter
;WIDTH:0.5
G1 X79.215 Y58.368 E0.01716
G1 X79.446 Y58.004 E0.03233
G1 X79.721 Y57.672 E0.0475
G1 X80.035 Y57.376 E0.06267
G1 X80.384 Y57.123 E0.07785
G1 X80.762 Y56.915 E0.09303
G1 X81.163 Y56.757 E0.1082
G1 X81.58 Y56.649 E0.12338
G1 X81.781 Y56.624 E0.1305
G1 X81.81 Y57.081 E0.14662
G1 X81.666 Y57.099 E0.15173
G1 X81.304 Y57.192 E0.16488
G1 X80.957 Y57.33 E0.17803
G1 X80.629 Y57.51 E0.19118
G1 X80.327 Y57.729 E0.20433
G1 X80.055 Y57.985 E0.21748
G1 X79.817 Y58.273 E0.23062
G1 X79.616 Y58.588 E0.24378
G1 X79.457 Y58.926 E0.25692
G1 X79.342 Y59.282 E0.27007
G1 X79.272 Y59.649 E0.28323
G1 X79.248 Y60.022 E0.29637
G1 X79.272 Y60.394 E0.30952
G1 X79.342 Y60.762 E0.32268
G1 X79.457 Y61.117 E0.33583
G1 X79.616 Y61.455 E0.34897
G1 X79.817 Y61.77 E0.36212
G1 X80.055 Y62.058 E0.37527
G1 X80.327 Y62.314 E0.38842
G1 X80.629 Y62.534 E0.40157
G1 X80.957 Y62.714 E0.41472
G1 X81.304 Y62.851 E0.42787
G1 X81.666 Y62.944 E0.44102
G1 X82.037 Y62.991 E0.45417
G1 X82.41 Y62.991 E0.46731
G1 X82.781 Y62.944 E0.48046
G1 X83.143 Y62.851 E0.49361
G1 X83.49 Y62.714 E0.50676
G1 X83.818 Y62.534 E0.51991
G1 X84.12 Y62.314 E0.53307
G1 X84.392 Y62.058 E0.54621
G1 X84.631 Y61.771 E0.55936
G1 X84.831 Y61.455 E0.57251
G1 X84.99 Y61.117 E0.58566
G1 X85.105 Y60.762 E0.59881
G1 X85.175 Y60.395 E0.61196
G1 X85.199 Y60.022 E0.62511
G1 X85.175 Y59.649 E0.63826
G1 X85.105 Y59.282 E0.65141
G1 X84.99 Y58.926 E0.66456
G1 X84.831 Y58.588 E0.67771
G1 X84.631 Y58.273 E0.69086
G1 X84.392 Y57.985 E0.704
G1 X84.12 Y57.729 E0.71715
G1 X83.818 Y57.51 E0.7303
G1 X83.49 Y57.33 E0.74345
G1 X83.143 Y57.192 E0.7566
G1 X82.72 Y57.091 E0.7719
G1 X82.608 Y57.538 E0.78811
G1 X83.001 Y57.628 E0.8023
G1 X83.295 Y57.744 E0.81342
G1 X83.572 Y57.896 E0.82455
G1 X83.828 Y58.082 E0.83567
G1 X84.059 Y58.299 E0.8468
G1 X84.26 Y58.542 E0.85792
G1 X84.429 Y58.809 E0.86905
G1 X84.564 Y59.095 E0.88017
G1 X84.662 Y59.396 E0.8913
G1 X84.721 Y59.706 E0.90242
G1 X84.741 Y60.022 E0.91355
G1 X84.721 Y60.337 E0.92467
G1 X84.662 Y60.648 E0.9358
G1 X84.564 Y60.948 E0.94693
G1 X84.429 Y61.234 E0.95805
G1 X84.26 Y61.501 E0.96918
G1 X84.059 Y61.745 E0.9803
G1 X83.828 Y61.961 E0.99142
G1 X83.572 Y62.147 E1.00255
G1 X83.295 Y62.299 E1.01368
G1 X83.001 Y62.416 E1.0248
G1 X82.608 Y62.505 E1.03899
G1 X82.58 Y62.048 E1.05511
;TYPE:External perimeter
G1 X82.86 Y61.98 E1.06526
G1 X83.1 Y61.885 E1.07436
G1 X83.327 Y61.76 E1.08347
G1 X83.536 Y61.608 E1.09257
G1 X83.725 Y61.431 E1.10167
G1 X83.89 Y61.232 E1.11077
G1 X84.028 Y61.014 E1.11987
G1 X84.138 Y60.78 E1.12897
G1 X84.218 Y60.534 E1.13807
G1 X84.267 Y60.28 E1.14717
G1 X84.283 Y60.022 E1.15627
G1 X84.267 Y59.764 E1.16538
G1 X84.218 Y59.51 E1.17448
G1 X84.138 Y59.264 E1.18358
G1 X84.028 Y59.03 E1.19268
G1 X83.89 Y58.811 E1.20178
G1 X83.725 Y58.612 E1.21088
G1 X83.536 Y58.435 E1.21998
G1 X83.327 Y58.283 E1.22908
G1 X83.1 Y58.158 E1.23819
G1 X82.86 Y58.063 E1.24729
G1 X82.609 Y57.999 E1.25639
G1 X82.353 Y57.967 E1.26549
G1 X82.094 Y57.967 E1.27459
G1 X81.838 Y57.999 E1.28369
G1 X81.587 Y58.063 E1.29279
G1 X81.347 Y58.158 E1.30189
G1 X81.12 Y58.283 E1.31099
G1 X80.911 Y58.435 E1.32009
G1 X80.723 Y58.612 E1.32919
G1 X80.558 Y58.811 E1.3383
G1 X80.419 Y59.03 E1.3474
G1 X80.309 Y59.264 E1.3565
G1 X80.229 Y59.51 E1.3656
G1 X80.181 Y59.764 E1.3747
G1 X80.164 Y60.022 E1.3838
G1 X80.181 Y60.28 E1.3929
G1 X80.229 Y60.534 E1.40201
G1 X80.309 Y60.78 E1.41111
G1 X80.419 Y61.014 E1.42021
G1 X80.558 Y61.232 E1.42931
G1 X80.723 Y61.431 E1.43841
G1 X80.911 Y61.608 E1.44751
G1 X81.12 Y61.76 E1.45661
G1 X81.347 Y61.885 E1.46571
G1 X81.587 Y61.98 E1.47481
G1 X81.838 Y62.044 E1.48392
G1 X82.124 Y62.077 E1.49406
;TYPE:Internal perimeter
G1 X82.153 Y62.534 E1.51018
G1 X81.752 Y62.494 E1.52437
G1 X81.446 Y62.416 E1.53549
G1 X81.152 Y62.299 E1.54662
G1 X80.875 Y62.147 E1.55774
G1 X80.619 Y61.961 E1.56887
G1 X80.389 Y61.745 E1.57999
G1 X80.187 Y61.501 E1.59112
G1 X80.018 Y61.234 E1.60224
G1 X79.883 Y60.948 E1.61337
G1 X79.785 Y60.648 E1.62449
G1 X79.726 Y60.337 E1.63562
G1 X79.706 Y60.022 E1.64675
G1 X79.726 Y59.706 E1.65787
G1 X79.785 Y59.396 E1.669
G1 X79.883 Y59.095 E1.68012
G1 X80.018 Y58.809 E1.69125
G1 X80.187 Y58.542 E1.70237
G1 X80.389 Y58.299 E1.7135
G1 X80.619 Y58.082 E1.72462
G1 X80.875 Y57.896 E1.73575
G1 X81.152 Y57.744 E1.74688
G1 X81.446 Y57.628 E1.758
G1 X81.752 Y57.549 E1.76913
G1 X82.153 Y57.509 E1.78331
G1 X82.265 Y57.052 E1.79987
G1 X82.237 Y56.595 E1.81599
G1 X82.439 Y56.595 E1.82312
G1 X82.867 Y56.649 E1.83829
G1 X83.284 Y56.757 E1.85347
G1 X83.685 Y56.915 E1.86864
G1 X84.063 Y57.123 E1.88382
G1 X84.412 Y57.376 E1.89899
G1 X84.726 Y57.672 E1.91416
G1 X85.001 Y58.004 E1.92933
G1 X85.232 Y58.368 E1.94451
G1 X85.416 Y58.758 E1.95968
G1 X85.549 Y59.168 E1.97485
G1 X85.63 Y59.591 E1.99003
G1 X85.642 Y59.794 E1.99716
;WIDTH:0.366123
G1 X86.325 Y59.793 E2.01476
;WIDTH:0.5
G1 X86.319 Y34.285 E2.91246
G1 X86.291 Y33.986 E2.92306
G1 X86.227 Y33.611 E2.93644
G1 X86.071 Y33.017 E2.95805
G1 X85.946 Y32.684 E2.97058
G1 X85.678 Y32.125 E2.99239
G1 X85.31 Y31.561 E3.01609
G1 X84.913 Y31.092 E3.0377
G1 X84.659 Y30.843 E3.05023
G1 X84.18 Y30.459 E3.07184
G1 X83.883 Y30.262 E3.08437
G1 X83.341 Y29.975 E3.10597
G1 X82.998 Y29.831 E3.11905
G1 X82.644 Y29.717 E3.13215
G1 X82.064 Y29.584 E3.15307
G1 X81.439 Y29.522 E3.17521
G1 X81.213 Y29.526 E3.18313
G1 X81.218 Y29.776 E3.19193
;TYPE:Unknown
G1 X81.223 Y30.042
;TYPE:Internal perimeter
G1 X81.227 Y30.292 E3.20073
G1 X81.187 Y30.749 E3.21688
G1 X81.274 Y31.206 E3.23326
G1 X81.737 Y31.241 E3.24959
G1 X82.076 Y31.311 E3.26179
G1 X82.407 Y31.415 E3.27399
G1 X82.725 Y31.552 E3.28618
G1 X83.028 Y31.72 E3.29838
G1 X83.313 Y31.918 E3.31058
G1 X83.576 Y32.143 E3.32277
G1 X83.814 Y32.395 E3.33497
G1 X84.027 Y32.669 E3.34717
G1 X84.21 Y32.963 E3.35936
G1 X84.362 Y33.274 E3.37156
G1 X84.483 Y33.599 E3.38376
G1 X84.57 Y33.934 E3.39595
G1 X84.622 Y34.277 E3.40815
G1 X84.64 Y34.623 E3.42035
G1 X84.622 Y34.969 E3.43254
G1 X84.57 Y35.312 E3.44474
G1 X84.483 Y35.647 E3.45694
G1 X84.362 Y35.972 E3.46914
G1 X84.21 Y36.283 E3.48133
G1 X84.027 Y36.577 E3.49353
G1 X83.814 Y36.852 E3.50573
G1 X83.576 Y37.103 E3.51792
G1 X83.313 Y37.328 E3.53012
G1 X83.028 Y37.526 E3.54232
G1 X82.725 Y37.695 E3.55451
G1 X82.407 Y37.831 E3.56671
G1 X82.076 Y37.935 E3.57891
G1 X81.619 Y38.017 E3.59524
G1 X81.596 Y37.56 E3.61135
;TYPE:External perimeter
G1 X81.961 Y37.492 E3.62442
G1 X82.248 Y37.402 E3.63499
G1 X82.524 Y37.284 E3.64555
G1 X82.786 Y37.138 E3.65612
G1 X83.033 Y36.967 E3.66668
G1 X83.26 Y36.771 E3.67725
G1 X83.467 Y36.553 E3.68781
G1 X83.651 Y36.316 E3.69838
G1 X83.81 Y36.061 E3.70894
G1 X83.942 Y35.792 E3.71951
G1 X84.046 Y35.51 E3.73007
G1 X84.121 Y35.22 E3.74064
G1 X84.167 Y34.923 E3.75121
G1 X84.182 Y34.623 E3.76177
G1 X84.167 Y34.323 E3.77233
G1 X84.121 Y34.027 E3.7829
G1 X84.046 Y33.736 E3.79347
G1 X83.942 Y33.454 E3.80403
G1 X83.81 Y33.185 E3.8146
G1 X83.651 Y32.93 E3.82516
G1 X83.467 Y32.693 E3.83573
G1 X83.26 Y32.475 E3.84629
G1 X83.033 Y32.28 E3.85686
G1 X82.786 Y32.108 E3.86742
G1 X82.524 Y31.962 E3.87799
G1 X82.248 Y31.844 E3.88855
G1 X81.961 Y31.754 E3.89912
G1 X81.667 Y31.694 E3.90968
G1 X81.369 Y31.663 E3.92025
G1 X81.068 Y31.663 E3.93081
G1 X80.77 Y31.694 E3.94138
G1 X80.476 Y31.754 E3.95194
G1 X80.189 Y31.844 E3.96251
G1 X79.913 Y31.962 E3.97307
G1 X79.651 Y32.108 E3.98364
G1 X79.405 Y32.28 E3.99421
G1 X79.177 Y32.475 E4.00477
G1 X78.97 Y32.693 E4.01534
G1 X78.786 Y32.93 E4.0259
G1 X78.627 Y33.185 E4.03647
G1 X78.495 Y33.454 E4.04703
G1 X78.391 Y33.736 E4.0576
G1 X78.316 Y34.027 E4.06816
G1 X78.27 Y34.323 E4.07873
G1 X78.255 Y34.623 E4.08929
G1 X78.27 Y34.923 E4.09986
G1 X78.316 Y35.22 E4.11042
G1 X78.391 Y35.51 E4.12099
G1 X78.495 Y35.792 E4.13155
G1 X78.627 Y36.061 E4.14212
G1 X78.786 Y36.316 E4.15268
