; HEADER_BLOCK_START
; generated by OrcaSlicer 1.6.3 on 2023-08-02 at 20:12:23
; total layer number: 28
; HEADER_BLOCK_END

; THUMBNAIL_BLOCK_START
; THUMBNAIL_BLOCK_END

; external perimeters extrusion width = 0.40mm
; perimeters extrusion width = 0.45mm
; infill extrusion width = 0.45mm
; solid infill extrusion width = 0.40mm
; top infill extrusion width = 0.40mm
; first layer extrusion width = 0.50mm

; external perimeters extrusion width = 0.40mm
; perimeters extrusion width = 0.45mm
; infill extrusion width = 0.45mm
; solid infill extrusion width = 0.40mm
; top infill extrusion width = 0.40mm
; first layer extrusion width = 0.50mm

; EXECUTABLE_BLOCK_START
EXCLUDE_OBJECT_DEFINE NAME=Y_mount_CNC_Beam_Top.stl_id_0_copy_0 CENTER=73.4,60 POLYGON=[[62.5,42.1138],[71.3582,30.4058],[71.6329,30.0648],[71.9278,29.7411],[72.2419,29.436],[72.5739,29.1505],[72.9227,28.8857],[73.2869,28.6426],[73.6652,28.4221],[74.0562,28.225],[74.4585,28.052],[74.8705,27.9039],[75.2908,27.781],[75.7178,27.6839],[76.1499,27.6129],[76.5855,27.5684],[77.023,27.5504],[77.4608,27.559],[77.8973,27.5943],[78.3308,27.656],[78.7598,27.7439],[79.1826,27.8577],[79.5977,27.9971],[80.0036,28.1614],[80.3987,28.3501],[80.7817,28.5625],[81.151,28.7977],[81.5053,29.055],[81.8434,29.3333],[82.1639,29.6317],[82.4657,29.949],[82.7476,30.284],[83.0086,30.6356],[83.2478,31.0024],[83.4642,31.383],[83.6571,31.7761],[83.8258,32.1802],[83.9696,32.5938],[84.0879,33.0154],[84.1805,33.4434],[84.2468,33.8762],[84.2867,34.3123],[84.3,34.75],[84.3,85.25],[84.2867,85.6874],[84.2468,86.1232],[84.1806,86.5558],[84.0882,86.9836],[83.9699,87.4049],[83.8263,87.8183],[83.6579,88.2222],[83.4652,88.6152],[83.249,88.9957],[83.01,89.3623],[82.7493,89.7138],[82.4677,90.0488],[82.1662,90.366],[81.846,90.6643],[81.5083,90.9427],[81.1543,91.2],[80.7853,91.4353],[80.4027,91.6478],[80.0079,91.8366],[79.6024,92.0011],[79.1876,92.1407],[78.7651,92.2548],[78.3365,92.343],[77.9032,92.405],[77.4671,92.4406],[77.0295,92.4496],[76.5922,92.432],[76.1568,92.3879],[75.7249,92.3174],[75.2981,92.2209],[74.8779,92.0985],[74.4659,91.9508],[74.0637,91.7784],[73.6727,91.5819],[73.2943,91.362],[72.93,91.1195],[72.5811,90.8553],[72.2489,90.5704],[71.9346,90.2658],[71.6394,89.9428],[71.3644,89.6023],[62.5,77.9207],[62.5,42.1138]]
EXCLUDE_OBJECT_DEFINE NAME=Y_mount_CNC_Beam_Top.stl_id_1_copy_0 CENTER=46.6,60 POLYGON=[[35.7,42.1138],[44.5582,30.4058],[44.8329,30.0648],[45.1278,29.7411],[45.4419,29.436],[45.7739,29.1505],[46.1227,28.8857],[46.4869,28.6426],[46.8652,28.4221],[47.2562,28.225],[47.6585,28.052],[48.0705,27.9039],[48.4908,27.781],[48.9178,27.6839],[49.3499,27.6129],[49.7855,27.5684],[50.223,27.5504],[50.6608,27.559],[51.0973,27.5943],[51.5308,27.656],[51.9598,27.7439],[52.3826,27.8577],[52.7977,27.9971],[53.2036,28.1614],[53.5987,28.3501],[53.9817,28.5625],[54.351,28.7977],[54.7053,29.055],[55.0434,29.3333],[55.3639,29.6317],[55.6657,29.949],[55.9476,30.284],[56.2086,30.6356],[56.4478,31.0024],[56.6642,31.383],[56.8571,31.7761],[57.0258,32.1802],[57.1696,32.5938],[57.2879,33.0154],[57.3805,33.4434],[57.4468,33.8762],[57.4867,34.3123],[57.5,34.75],[57.5,85.25],[57.4867,85.6874],[57.4468,86.1232],[57.3806,86.5558],[57.2882,86.9836],[57.1699,87.4049],[57.0263,87.8183],[56.8579,88.2222],[56.6652,88.6152],[56.449,88.9957],[56.21,89.3623],[55.9493,89.7138],[55.6677,90.0488],[55.3662,90.366],[55.046,90.6643],[54.7083,90.9427],[54.3543,91.2],[53.9853,91.4353],[53.6027,91.6478],[53.2079,91.8366],[52.8024,92.0011],[52.3876,92.1407],[51.9651,92.2548],[51.5365,92.343],[51.1032,92.405],[50.6671,92.4406],[50.2295,92.4496],[49.7922,92.432],[49.3568,92.3879],[48.9249,92.3174],[48.4981,92.2209],[48.0779,92.0985],[47.6659,91.9508],[47.2637,91.7784],[46.8727,91.5819],[46.4943,91.362],[46.13,91.1195],[45.7811,90.8553],[45.4489,90.5704],[45.1346,90.2658],[44.8394,89.9428],[44.5644,89.6023],[35.7,77.9207],[35.7,42.1138]]
M73 P0 R20
;TYPE:Custom
START_PRINT T_BED=110 T_EXTRUDER=260
G90
G21
M83 ; use relative distances for extrusion
; Filament gcode

    PRESSURE_ADVANCE_SELECT FILAMENT=ABS
M106 S0
;LAYER_CHANGE
;Z:0.2
;HEIGHT:0.2
;BEFORE_LAYER_CHANGE
;0.2
G92 E0

;AFTER_LAYER_CHANGE
;0.2
SET_VELOCITY_LIMIT ACCEL_TO_DECEL=500
M204 S1000
G1 E-.5 F3000
G1 X40.927 Y31.073 F21000
G1 Z.2
G1 E.5 F1800
;TYPE:Skirt
;WIDTH:0.5
G1 F3000
G1 X43.001 Y28.342 E.12071
G1 X43.849 Y27.488 E.04235
G1 X44.839 Y26.718 E.04415
G1 X45.897 Y26.093 E.04324
G1 X46.866 Y25.664 E.0373
G1 X48.326 Y25.24 E.05352
G1 X50.135 Y25.038 E.06406
G1 X76.947 Y25.038 E.94362
G1 X78.61 Y25.155 E.05867
G1 X80.394 Y25.613 E.06481
G1 X82.059 Y26.398 E.0648
G1 X83.546 Y27.485 E.06481
G1 X84.802 Y28.832 E.06482
G1 X85.639 Y30.121 E.05407
G1 X86.302 Y31.64 E.05834
G1 X86.723 Y33.432 E.0648
G1 X86.814 Y34.75 E.04648
G1 X86.814 Y85.25 E1.77729
G1 X86.621 Y87.172 E.06799
G1 X86.357 Y88.192 E.03707
G1 X85.915 Y89.328 E.04289
G1 X85.33 Y90.408 E.04323
G1 X84.535 Y91.5 E.04755
G1 X83.687 Y92.388 E.04323
G1 X82.734 Y93.162 E.04321
G1 X81.69 Y93.81 E.04322
G1 X80.567 Y94.324 E.04347
G1 X79.401 Y94.687 E.04297
G1 X78.192 Y94.901 E.04322
G1 X76.942 Y94.962 E.04406
G1 X50.142 Y94.962 E.9432
G1 X49.268 Y94.908 E.0308
G1 X48.156 Y94.723 E.03969
G1 X46.294 Y94.098 E.0691
G1 X45.21 Y93.522 E.04321
G1 X44.212 Y92.818 E.04299
G1 X43.43 Y92.117 E.03696
G1 X42.619 Y91.195 E.04322
G1 X33.379 Y79.021 E.53789
G1 X32.786 Y77.259 E.06541
G1 X32.786 Y42.777 E1.21356
G1 X33.376 Y41.018 E.06527
G1 X40.891 Y31.121 E.43735
G1 X41.253 Y31.397 F21000
G1 F3000
G1 X43.338 Y28.651 E.12132
G1 X44.147 Y27.834 E.04045
G1 X45.087 Y27.101 E.04197
G1 X46.095 Y26.505 E.0412
G1 X47.169 Y26.04 E.04121
G1 X48.832 Y25.611 E.06044
G1 X50.135 Y25.495 E.04604
G1 X76.945 Y25.495 E.94355
G1 X78.549 Y25.608 E.05658
G1 X80.249 Y26.046 E.06176
G1 X81.835 Y26.796 E.06175
G1 X83.251 Y27.833 E.06176
G1 X84.445 Y29.119 E.06176
G1 X85.232 Y30.329 E.05082
G1 X85.872 Y31.796 E.05631
G1 X86.272 Y33.504 E.06175
G1 X86.357 Y34.75 E.04394
G1 X86.357 Y85.25 E1.77729
G1 X86.175 Y87.072 E.06444
G1 X85.919 Y88.062 E.036
G1 X85.496 Y89.145 E.04091
G1 X84.938 Y90.174 E.0412
G1 X84.178 Y91.214 E.04532
G1 X83.369 Y92.059 E.04119
G1 X82.46 Y92.796 E.04118
G1 X81.465 Y93.412 E.04119
G1 X80.395 Y93.9 E.0414
G1 X79.283 Y94.245 E.04097
G1 X78.131 Y94.449 E.04119
G1 X76.942 Y94.505 E.04189
G1 X50.142 Y94.505 E.9432
G1 X48.266 Y94.28 E.06647
G1 X46.492 Y93.686 E.06585
G1 X45.458 Y93.138 E.04118
G1 X44.505 Y92.468 E.041
G1 X43.746 Y91.786 E.03591
G1 X42.974 Y90.907 E.04119
G1 X33.743 Y78.744 E.53738
G1 X33.243 Y77.259 E.05515
G1 X33.243 Y42.777 E1.21356
G1 X33.741 Y41.294 E.05504
G1 X41.217 Y31.444 E.43521
; printing object Y_mount_CNC_Beam_Top.stl id:0 copy 0
EXCLUDE_OBJECT_START NAME=Y_mount_CNC_Beam_Top.stl_id_0_copy_0
G1 E-.5
G1 X74.548 Y58.051 F21000
G1 E.5 F1800
;TYPE:Inner wall
G1 F3000
G1 X74.739 Y58.351 E.0125
G1 X74.9 Y58.694 E.01334
G1 X75.057 Y58.36 E.01299
G1 X75.293 Y57.986 E.01555
G1 X75.572 Y57.648 E.01544
G1 X75.89 Y57.35 E.01532
G1 X76.242 Y57.094 E.01533
G1 X76.624 Y56.884 E.01533
G1 X77.029 Y56.724 E.01533
G1 X77.45 Y56.615 E.01533
G1 X77.882 Y56.561 E.01533
G1 X78.318 Y56.561 E.01532
G1 X78.74 Y56.614 E.01498
G1 X79.168 Y56.722 E.01555
G1 X79.576 Y56.884 E.01544
G1 X79.958 Y57.094 E.01533
G1 X80.31 Y57.35 E.01533
G1 X80.628 Y57.648 E.01532
G1 X80.905 Y57.983 E.01532
G1 X81.139 Y58.351 E.01533
G1 X81.324 Y58.745 E.01533
G1 X81.459 Y59.159 E.01533
G1 X81.54 Y59.587 E.01533
G1 X81.568 Y60.022 E.01533
G1 X81.54 Y60.456 E.01533
G1 X81.459 Y60.884 E.01533
G1 X81.324 Y61.298 E.01533
G1 X81.139 Y61.692 E.01533
G1 X80.905 Y62.06 E.01533
G1 X80.628 Y62.395 E.01532
G1 X80.31 Y62.693 E.01532
G1 X79.958 Y62.949 E.01533
G1 X79.576 Y63.159 E.01533
G1 X79.171 Y63.32 E.01533
G1 X78.75 Y63.428 E.01533
G1 X78.318 Y63.482 E.01533
G1 X77.882 Y63.482 E.01532
G1 X77.46 Y63.429 E.01498
G1 X77.032 Y63.321 E.01555
G1 X76.624 Y63.159 E.01544
G1 X76.25 Y62.954 E.01499
G1 X75.892 Y62.696 E.01556
G1 X75.572 Y62.395 E.01543
G1 X75.301 Y62.067 E.01498
G1 X75.063 Y61.695 E.01555
G1 X74.9 Y61.349 E.01345
G1 X74.739 Y61.692 E.01333
G1 X74.511 Y62.052 E.01498
G1 X74.23 Y62.393 E.01555
G1 X73.91 Y62.693 E.01544
G1 X73.558 Y62.949 E.01533
G1 X73.176 Y63.159 E.01533
G1 X72.772 Y63.319 E.01532
G1 X72.359 Y63.425 E.01498
G1 X71.921 Y63.482 E.01555
G1 X71.482 Y63.482 E.01544
G1 X71.06 Y63.429 E.01498
G1 X70.632 Y63.321 E.01555
G1 X70.224 Y63.159 E.01544
G1 X69.842 Y62.949 E.01533
G1 X69.49 Y62.693 E.01533
G1 X69.172 Y62.395 E.01532
G1 X68.901 Y62.067 E.01498
G1 X68.663 Y61.695 E.01555
G1 X68.476 Y61.298 E.01544
G1 X68.341 Y60.884 E.01532
G1 X68.26 Y60.456 E.01533
G1 X68.232 Y60.022 E.01533
G1 X68.26 Y59.587 E.01533
G1 X68.341 Y59.159 E.01533
G1 X68.476 Y58.745 E.01532
G1 X68.661 Y58.351 E.01533
G1 X68.895 Y57.983 E.01533
G1 X69.172 Y57.648 E.01532
G1 X69.49 Y57.35 E.01532
G1 X69.834 Y57.099 E.01498
G1 X70.221 Y56.885 E.01555
G1 X70.628 Y56.724 E.01544
G1 X71.05 Y56.615 E.01533
G1 X71.482 Y56.561 E.01533
G1 X71.918 Y56.561 E.01532
G1 X72.35 Y56.615 E.01533
G1 X72.772 Y56.724 E.01533
G1 X73.176 Y56.884 E.01533
G1 X73.55 Y57.089 E.01499
G1 X73.908 Y57.348 E.01555
G1 X74.228 Y57.648 E.01544
G1 X74.505 Y57.983 E.01532
G1 X74.516 Y58.001 E.00072
G1 X74.1 Y58.211 F21000
G1 F3000
G1 X74.135 Y58.253 E.00191
G1 X74.337 Y58.572 E.0133
G1 X74.498 Y58.914 E.0133
G1 X74.615 Y59.273 E.0133
G1 X74.686 Y59.644 E.0133
G1 X74.71 Y60.022 E.0133
G1 X74.686 Y60.399 E.0133
G1 X74.615 Y60.77 E.0133
G1 X74.498 Y61.13 E.0133
G1 X74.337 Y61.472 E.0133
G1 X74.14 Y61.783 E.01299
G1 X73.896 Y62.08 E.01353
G1 X73.618 Y62.341 E.01338
G1 X73.313 Y62.563 E.0133
G1 X72.981 Y62.745 E.0133
G1 X72.63 Y62.884 E.0133
G1 X72.273 Y62.976 E.01299
G1 X71.891 Y63.025 E.01353
G1 X71.511 Y63.025 E.01338
G1 X71.145 Y62.979 E.01299
G1 X70.772 Y62.885 E.01353
G1 X70.419 Y62.745 E.01339
G1 X70.087 Y62.563 E.0133
G1 X69.782 Y62.341 E.0133
G1 X69.506 Y62.082 E.0133
G1 X69.271 Y61.798 E.01299
G1 X69.064 Y61.474 E.01353
G1 X68.902 Y61.13 E.01339
G1 X68.785 Y60.77 E.0133
G1 X68.714 Y60.399 E.01331
G1 X68.69 Y60.022 E.0133
G1 X68.714 Y59.644 E.0133
G1 X68.785 Y59.273 E.01331
G1 X68.902 Y58.914 E.0133
G1 X69.063 Y58.572 E.0133
G1 X69.265 Y58.252 E.0133
G1 X69.506 Y57.961 E.0133
G1 X69.782 Y57.703 E.0133
G1 X70.08 Y57.486 E.01299
G1 X70.416 Y57.299 E.01353
G1 X70.77 Y57.159 E.01339
G1 X71.136 Y57.065 E.0133
G1 X71.511 Y57.018 E.0133
G1 X71.889 Y57.018 E.0133
G1 X72.264 Y57.065 E.0133
G1 X72.63 Y57.159 E.0133
G1 X72.981 Y57.298 E.0133
G1 X73.305 Y57.476 E.01299
G1 X73.617 Y57.701 E.01353
G1 X73.894 Y57.961 E.01338
G1 X74.062 Y58.165 E.00928
G1 X73.746 Y58.5 F21000
G1 F3000
G1 X73.764 Y58.522 E.00099
G1 X73.936 Y58.792 E.01128
G1 X74.072 Y59.082 E.01128
G1 X74.172 Y59.387 E.01128
G1 X74.232 Y59.702 E.01128
G1 X74.252 Y60.022 E.01128
G1 X74.232 Y60.341 E.01128
G1 X74.172 Y60.656 E.01128
G1 X74.072 Y60.961 E.01128
G1 X73.936 Y61.251 E.01128
G1 X73.769 Y61.515 E.01099
G1 X73.561 Y61.767 E.0115
G1 X73.327 Y61.988 E.01133
G1 X73.067 Y62.176 E.01128
G1 X72.786 Y62.33 E.01128
G1 X72.488 Y62.448 E.01128
G1 X72.186 Y62.526 E.01099
G1 X71.862 Y62.568 E.0115
G1 X71.54 Y62.568 E.01133
G1 X71.23 Y62.529 E.01099
G1 X70.913 Y62.449 E.0115
G1 X70.614 Y62.33 E.01133
G1 X70.333 Y62.176 E.01128
G1 X70.074 Y61.988 E.01128
G1 X69.84 Y61.768 E.01128
G1 X69.641 Y61.528 E.01099
G1 X69.465 Y61.252 E.0115
G1 X69.328 Y60.961 E.01133
G1 X69.228 Y60.656 E.01128
G1 X69.168 Y60.341 E.01128
G1 X69.148 Y60.022 E.01128
G1 X69.168 Y59.702 E.01128
G1 X69.228 Y59.387 E.01128
G1 X69.328 Y59.082 E.01128
G1 X69.464 Y58.792 E.01128
G1 X69.636 Y58.522 E.01128
G1 X69.84 Y58.275 E.01128
G1 X70.073 Y58.055 E.01128
G1 X70.326 Y57.872 E.011
G1 X70.612 Y57.713 E.01151
G1 X70.912 Y57.595 E.01133
G1 X71.222 Y57.515 E.01128
G1 X71.54 Y57.475 E.01128
G1 X71.86 Y57.475 E.01127
G1 X72.178 Y57.515 E.01128
G1 X72.488 Y57.595 E.01128
G1 X72.786 Y57.713 E.01128
G1 X73.06 Y57.863 E.011
G1 X73.325 Y58.054 E.0115
G1 X73.56 Y58.275 E.01133
G1 X73.708 Y58.454 E.00818
G1 X73.354 Y58.811 F21000
;TYPE:Outer wall
G1 F3000
G1 X73.359 Y58.816 E.00026
G1 X73.497 Y59.034 E.00906
G1 X73.607 Y59.267 E.00906
G1 X73.686 Y59.512 E.00906
G1 X73.735 Y59.765 E.00906
G1 X73.751 Y60.022 E.00906
G1 X73.735 Y60.279 E.00906
G1 X73.686 Y60.532 E.00906
G1 X73.607 Y60.777 E.00906
G1 X73.497 Y61.009 E.00906
G1 X73.363 Y61.221 E.00881
G1 X73.195 Y61.425 E.00929
G1 X73.007 Y61.602 E.00909
G1 X72.799 Y61.753 E.00906
G1 X72.573 Y61.877 E.00906
G1 X72.334 Y61.972 E.00906
G1 X72.091 Y62.034 E.00881
G1 X71.829 Y62.068 E.00929
G1 X71.571 Y62.068 E.00908
G1 X71.323 Y62.037 E.00881
G1 X71.067 Y61.972 E.00929
G1 X70.827 Y61.877 E.00909
G1 X70.601 Y61.753 E.00906
G1 X70.393 Y61.602 E.00906
G1 X70.205 Y61.425 E.00906
G1 X70.046 Y61.232 E.00881
G1 X69.903 Y61.01 E.00929
G1 X69.793 Y60.776 E.00909
G1 X69.714 Y60.532 E.00906
G1 X69.665 Y60.279 E.00906
G1 X69.649 Y60.022 E.00906
G1 X69.665 Y59.765 E.00906
G1 X69.714 Y59.512 E.00906
G1 X69.793 Y59.267 E.00906
G1 X69.903 Y59.034 E.00906
G1 X70.041 Y58.816 E.00906
G1 X70.205 Y58.618 E.00906
G1 X70.393 Y58.441 E.00906
G1 X70.595 Y58.294 E.00881
G1 X70.826 Y58.166 E.00929
G1 X71.066 Y58.071 E.00909
G1 X71.316 Y58.007 E.00906
G1 X71.571 Y57.975 E.00906
G1 X71.829 Y57.975 E.00906
G1 X72.084 Y58.007 E.00906
G1 X72.334 Y58.071 E.00906
G1 X72.573 Y58.166 E.00906
G1 X72.793 Y58.287 E.00881
G1 X73.007 Y58.441 E.00929
G1 X73.195 Y58.618 E.00909
G1 X73.316 Y58.764 E.0067
G1 X73.356 Y58.81
G1 E-.5
G1 X73.575 Y58.55 F21000
G1 X77.653 Y57.677
G1 X77.95 Y57.639
G1 X78.25 Y57.639
G1 X78.54 Y57.676
G1 X78.836 Y57.751
G1 X79.116 Y57.862
G1 X79.379 Y58.006
G1 X79.622 Y58.182
G1 X79.84 Y58.388
G1 X80.031 Y58.618
G1 X80.192 Y58.872
G1 X81.089 Y60.345
M73 P1 R20
G1 E.5 F1800
;TYPE:Inner wall
G1 F3000
G1 X81.086 Y60.399 E.00191
G1 X81.015 Y60.77 E.01331
G1 X80.898 Y61.13 E.0133
G1 X80.737 Y61.472 E.0133
G1 X80.535 Y61.791 E.0133
G1 X80.294 Y62.082 E.0133
G1 X80.018 Y62.34 E.0133
G1 X79.713 Y62.563 E.0133
G1 X79.381 Y62.745 E.0133
G1 X79.03 Y62.884 E.0133
G1 X78.664 Y62.978 E.0133
G1 X78.289 Y63.025 E.0133
G1 X77.911 Y63.025 E.0133
G1 X77.545 Y62.979 E.01299
G1 X77.172 Y62.885 E.01353
G1 X76.819 Y62.745 E.01339
G1 X76.495 Y62.567 E.01299
G1 X76.183 Y62.342 E.01353
G1 X75.906 Y62.082 E.01338
G1 X75.671 Y61.797 E.01299
G1 X75.464 Y61.474 E.01353
G1 X75.302 Y61.13 E.01338
G1 X75.185 Y60.77 E.0133
G1 X75.114 Y60.399 E.01331
G1 X75.09 Y60.022 E.0133
G1 X75.114 Y59.653 E.01299
G1 X75.184 Y59.275 E.01353
G1 X75.302 Y58.914 E.01339
G1 X75.459 Y58.58 E.01299
G1 X75.664 Y58.254 E.01353
G1 X75.906 Y57.961 E.01339
G1 X76.181 Y57.703 E.0133
G1 X76.487 Y57.48 E.01331
G1 X76.819 Y57.298 E.0133
G1 X77.17 Y57.159 E.0133
G1 X77.536 Y57.065 E.0133
G1 X77.911 Y57.018 E.0133
G1 X78.289 Y57.018 E.0133
G1 X78.655 Y57.064 E.01299
G1 X79.028 Y57.158 E.01353
G1 X79.381 Y57.298 E.01339
G1 X79.713 Y57.48 E.0133
G1 X80.019 Y57.703 E.01331
G1 X80.294 Y57.961 E.0133
M73 P1 R19
G1 X80.535 Y58.252 E.0133
G1 X80.737 Y58.572 E.0133
G1 X80.898 Y58.914 E.0133
G1 X81.015 Y59.273 E.0133
G1 X81.086 Y59.644 E.0133
G1 X81.11 Y60.022 E.0133
G1 X81.093 Y60.285 E.00928
G1 X80.633 Y60.313 F21000
G1 F3000
G1 X80.632 Y60.341 E.00099
G1 X80.572 Y60.656 E.01128
G1 X80.472 Y60.961 E.01128
G1 X80.336 Y61.251 E.01128
G1 X80.164 Y61.521 E.01128
G1 X79.96 Y61.768 E.01128
G1 X79.727 Y61.988 E.01128
G1 X79.467 Y62.176 E.01128
G1 X79.186 Y62.33 E.01128
G1 X78.888 Y62.448 E.01128
G1 X78.578 Y62.528 E.01128
G1 X78.26 Y62.568 E.01128
G1 X77.94 Y62.568 E.01127
G1 X77.63 Y62.529 E.01099
G1 X77.313 Y62.449 E.0115
G1 X77.014 Y62.33 E.01133
G1 X76.74 Y62.18 E.011
G1 X76.475 Y61.989 E.01151
G1 X76.24 Y61.768 E.01133
G1 X76.041 Y61.528 E.01099
G1 X75.865 Y61.252 E.0115
G1 X75.728 Y60.961 E.01133
G1 X75.628 Y60.656 E.01128
G1 X75.568 Y60.341 E.01128
G1 X75.548 Y60.022 E.01128
G1 X75.568 Y59.71 E.01099
G1 X75.628 Y59.388 E.01151
G1 X75.728 Y59.082 E.01133
G1 X75.861 Y58.8 E.01099
G1 X76.035 Y58.523 E.0115
G1 X76.24 Y58.275 E.01133
G1 X76.473 Y58.056 E.01127
G1 X76.733 Y57.867 E.01128
G1 X77.014 Y57.713 E.01128
G1 X77.312 Y57.595 E.01128
