; generated by SuperSlicer 2.5.59 on 2023-05-30 at 05:55:22 UTC


;
;

;
;
; 

; external perimeters extrusion width = 0.40mm
; perimeters extrusion width = 0.46mm
; infill extrusion width = 0.64mm
; solid infill extrusion width = 0.56mm
; top infill extrusion width = 0.40mm
; first layer extrusion width = 0.50mm

; external perimeters extrusion width = 0.40mm
; perimeters extrusion width = 0.46mm
; infill extrusion width = 0.64mm
; solid infill extrusion width = 0.56mm
; top infill extrusion width = 0.40mm
; first layer extrusion width = 0.50mm

; external perimeters extrusion width = 0.40mm
; perimeters extrusion width = 0.46mm
; infill extrusion width = 0.64mm
; solid infill extrusion width = 0.56mm
; top infill extrusion width = 0.40mm
; first layer extrusion width = 0.50mm

; object:{"name":"YendStop","id":"YendStop.stl id:0 copy 0","object_center":[71.530334,49.577781,0.000000],"boundingbox_center":[71.530334,49.577781,4.500000],"boundingbox_size":[22.000000,25.099999,9.000000]}
EXCLUDE_OBJECT_DEFINE NAME=YendStop_stl_id_0_copy_0 CENTER=71.530334,49.577781 POLYGON=[[60.530336,38.027784],[61.530336,37.027784],[81.530336,37.027784],[82.530336,38.027784],[82.530336,61.127780],[81.530336,62.127780],[61.530336,62.127780],[60.530336,61.127780],[60.530336,38.027784]]
; object:{"name":"Motor_pully_gauge_8mm","id":"Motor_pully_gauge_8mm.stl id:1 copy 0","object_center":[82.999992,75.550000,0.000000],"boundingbox_center":[82.999992,75.550000,1.000000],"boundingbox_size":[44.939316,14.844440,2.000000]}
EXCLUDE_OBJECT_DEFINE NAME=Motor_pully_gauge_8mm_stl_id_1_copy_0 CENTER=82.999992,75.550000 POLYGON=[[60.530336,68.127776],[102.469648,68.127776],[105.469648,71.127776],[105.469648,79.972224],[102.469648,82.972224],[65.469652,82.972224],[60.530336,75.027784],[60.530336,68.127776]]
; object:{"name":"Motor_pully_gauge_17","id":"Motor_pully_gauge_17.25mm.stl id:2 copy 0","object_center":[34.530342,63.661525,0.000000],"boundingbox_center":[34.530342,63.661525,1.000000],"boundingbox_size":[39.999985,24.175653,2.000000]}
EXCLUDE_OBJECT_DEFINE NAME=Motor_pully_gauge_17_25mm_stl_id_2_copy_0 CENTER=34.530342,63.661525 POLYGON=[[14.530350,51.573700],[51.530336,51.573700],[54.530336,54.573700],[54.530336,68.280864],[54.523040,72.749360],[51.523040,75.749352],[19.458282,75.749352],[14.530350,58.473696],[14.530350,51.573700]]
; plater:{"center":[60.000000,60.000001,0.000000],"boundingbox_center":[60.000000,60.000001,4.500000],"boundingbox_size":[90.939300,45.944439,9.000000]}

M73 P0 R21
;TYPE:Custom
; custom gcode: start_gcode
START_PRINT T_BED=110 T_EXTRUDER=260
; custom gcode end: start_gcode
M107
G21 ; set units to millimeters
G90 ; use absolute coordinates
M82 ; use absolute distances for extrusion
G92 E0
; custom gcode: start_filament_gcode
; Filament gcode

    PRESSURE_ADVANCE_SELECT FILAMENT=ABS
; custom gcode end: start_filament_gcode
;_TOOLCHANGE 0
M104 S260 ; set temperature
M109 S260 ; set temperature and wait for it to be reached
M190 S110 ; set bed temperature and wait for it to be reached
;LAYER_CHANGE
;Z:0.2
;HEIGHT:0.2
G1 Z0.2 F12000
M73 P0 R21
G1 E-0.5 F3000
M204 S2000
G1 X14.442 Y48.252 F12000
G1 E0 F1800
;TYPE:Skirt
;WIDTH:0.52
G1 X13.565 Y48.514 E0.03361
G1 X12.409 Y49.095 E0.08112
G1 X11.309 Y50.407 E0.14403
G1 X10.915 Y52.074 E0.20693
G1 X10.915 Y58.374 E0.43836
G1 X11.064 Y59.415 E0.47699
G1 X15.99 Y76.291 E1.12279
G1 X17.395 Y78.272 E1.21202
G1 X18.98 Y78.921 E1.27493
G1 X64.994 Y86.143 E2.98586
G1 X102.263 Y86.188 E4.35489
G1 X103.433 Y85.999 E4.39843
G1 X104.89 Y85.1 E4.46133
M73 P0 R21
G1 X107.597 Y82.392 E4.60196
G1 X108.291 Y81.431 E4.6455
G1 X108.685 Y79.765 E4.70841
G1 X108.685 Y71.335 E5.01808
G1 X108.007 Y69.195 E5.10055
G1 X84.568 Y35.929 E6.5954
M73 P1 R21
G1 X84.116 Y35.4 E6.62093
G1 X83.156 Y34.707 E6.66445
G1 X81.489 Y34.312 E6.72735
G1 X61.57 Y34.309 E7.45908
G1 X60.504 Y34.465 E7.49865
G1 X14.442 Y48.252 E9.26485
G1 X14.578 Y48.709 F12000
G1 F1800
G1 X13.702 Y48.971 E9.29847
G1 X12.871 Y49.355 E9.33207
G1 X11.786 Y50.526 E9.39074
G1 X11.392 Y52.074 E9.4494
G1 X11.392 Y58.374 E9.68083
G1 X11.522 Y59.281 E9.7145
G1 X16.448 Y76.157 E10.3603
G1 X17.586 Y77.82 E10.43433
G1 X19.054 Y78.449 E10.493
G1 X65.068 Y85.672 E12.20393
G1 X102.263 Y85.711 E13.57024
G1 X103.18 Y85.578 E13.60428
G1 X104.553 Y84.762 E13.66295
G1 X107.26 Y82.055 E13.80358
G1 X107.814 Y81.313 E13.83762
G1 X108.208 Y79.765 E13.89628
G1 X108.208 Y71.335 E14.20596
G1 X107.617 Y69.47 E14.27784
G1 X84.178 Y36.204 E15.77269
G1 X83.779 Y35.738 E15.79522
G1 X83.037 Y35.183 E15.82924
G1 X81.489 Y34.789 E15.88791
G1 X61.57 Y34.786 E16.61963
G1 X60.641 Y34.922 E16.65412
G1 X14.578 Y48.709 E18.42033
G92 E0
M73 P1 R20
G1 E-0.5 F3000
; printing object YendStop.stl id:0 copy 0
EXCLUDE_OBJECT_START NAME=YendStop_stl_id_0_copy_0
G1 X62.03 Y60.978 F12000
G1 E0 F1800
;TYPE:External perimeter
;WIDTH:0.5
G1 X61.68 Y60.978 E0.01232
G1 X61.68 Y57.878 E0.12142
G1 X62.03 Y57.878 E0.13374
G1 X62.03 Y60.978 E0.24284
;WIPE_START
M204 S4000
G1 X61.684 Y60.778 F12000
;WIPE_END
G92 E0
G1 E-0.5 F3000
M204 S2000
G1 X62.03 Y39.179 F12000
G1 E0 F1800
G1 X62.03 Y42.381 E0.11268
G1 X62.006 Y42.566 E0.11925
G1 X61.704 Y42.566 E0.12987
G1 X61.68 Y42.394 E0.136
G1 X61.68 Y39.019 E0.25478
G1 X61.746 Y38.539 E0.27183
G1 X61.761 Y38.276 E0.28109
G1 X62.03 Y38.278 E0.29055
G1 X81.28 Y38.278 E0.96805
G1 X81.28 Y60.878 E1.76343
G1 X76.88 Y60.878 E1.91829
G1 X76.88 Y39.276 E2.67852
;TYPE:Internal perimeter
;WIDTH:0.451304
G1 X77.337 Y38.963 E2.69612
;WIDTH:0.5
G1 X77.337 Y60.421 E3.45129
G1 X80.823 Y60.421 E3.57397
G1 X80.823 Y38.735 E4.33718
G1 X78.023 Y38.735 E4.43573
;WIDTH:0.489206
G1 X78.252 Y39.192 E4.45332
;WIDTH:0.5
G1 X80.366 Y39.192 E4.52775
G1 X80.366 Y59.964 E5.25878
G1 X77.794 Y59.964 E5.34929
G1 X77.794 Y39.649 E6.06424
;WIDTH:0.386751
G1 X78.252 Y40.106 E6.08184
;WIDTH:0.5
G1 X78.252 Y59.507 E6.76461
G1 X79.909 Y59.507 E6.82295
G1 X79.909 Y39.649 E7.52181
G1 X78.709 Y39.649 E7.56406
;WIDTH:0.386751
G1 X79.166 Y40.106 E7.58166
;WIDTH:0.5
G1 X79.452 Y40.106 E7.59173
G1 X79.452 Y59.049 E8.25842
G1 X78.709 Y59.049 E8.28459
G1 X78.709 Y40.106 E8.95128
;WIDTH:0.386752
G1 X78.252 Y39.649 E8.96887
;WIDTH:0.386751
G1 X77.794 Y39.192 E8.98647
;WIDTH:0.489206
G1 X77.566 Y38.735 E9.00407
;WIDTH:0.5
G1 X77.329 Y38.816 E9.01287
;TYPE:Unknown
G1 X76.888 Y38.967
;TYPE:Internal perimeter
G1 X76.652 Y39.048 E9.02167
;TYPE:External perimeter
G1 X63.75 Y39.048 E9.47572
G1 X62.751 Y39.082 E9.51092
G1 X62.03 Y39.179 E9.5365
;WIPE_START
M204 S4000
G1 X61.631 Y39.197 F12000
;WIPE_END
M204 S2000
G1 X61.934 Y38.722
;TYPE:Gap fill
;WIDTH:0.495875
G1 F1800
G1 X62.436 Y38.699 E9.55406
;WIDTH:0.42837
G1 X63.234 Y38.671 E9.57774
;WIDTH:0.392785
G1 X77.127 Y38.663 E9.952
G1 X79.08 Y40.317 F12000
;WIDTH:0.365212
G1 F1800
G1 X79.08 Y58.839 E10.41164
G92 E0
G1 E-0.5 F3000
; stop printing object YendStop.stl id:0 copy 0
EXCLUDE_OBJECT_END NAME=YendStop_stl_id_0_copy_0
; printing object Motor_pully_gauge_8mm.stl id:1 copy 0
EXCLUDE_OBJECT_START NAME=Motor_pully_gauge_8mm_stl_id_1_copy_0
; acceleration to travel
M204 S1500
G1 X78.852 Y70.409 F12000
; decel to extrusion
M204 S1000
G1 X78.7 Y78.123
; end travel
G1 E0 F1800
;TYPE:Thin wall
;WIDTH:0.119672
M73 P2 R20
G1 X78.696 Y78.07 E0.00033
;WIDTH:0.013297
G1 X78.7 Y78.123 E0.00037
;WIDTH:0.034242
G1 X78.714 Y78.209 E0.00057
;WIDTH:0.045889
G1 X78.873 Y79.164 E0.00367
;WIDTH:0.041824
G1 X78.883 Y79.222 E0.00384
;WIDTH:0.020879
G1 X78.896 Y79.302 E0.00394
;WIDTH:0.20879
G1 X78.905 Y79.351
;TYPE:External perimeter
;WIDTH:0.5
M204 S2000
G1 X78.943 Y79.345 E0.00531
G1 X79.245 Y80.232 E0.03828
G1 X79.53 Y81.333 E0.07832
G1 X80.498 Y81.333 E0.11237
G1 X80.782 Y80.245 E0.15193
G1 X81.087 Y79.363 E0.18479
G1 X81.125 Y79.369 E0.18615
;TYPE:Thin wall
;WIDTH:0.020917
M204 S1000
G1 X81.133 Y79.32
;WIDTH:0.188257
G1 X81.147 Y79.239 E0.18709
;WIDTH:0.375659
G1 X81.156 Y79.182 E0.1886
;WIDTH:0.410804
G1 X81.325 Y78.177 E0.2178
;WIDTH:0.34777
G1 X81.331 Y78.138 E0.21873
;WIDTH:0.162769
G1 X81.353 Y78.04 E0.2197
;WIDTH:0.018085
G1 X81.331 Y78.138 E0.2198
;WIDTH:0.038641
G1 X81.325 Y78.177 E0.21991
;WIDTH:0.045645
G1 X81.156 Y79.182 E0.22315
;WIDTH:0.04174
G1 X81.147 Y79.239 E0.22332
;WIDTH:0.020917
G1 X81.133 Y79.32 E0.22342
;WIDTH:0.209174
G1 X81.125 Y79.369
;TYPE:External perimeter
;WIDTH:0.5
M204 S2000
G1 X81.163 Y79.376 E0.22478
G1 X81.165 Y80.522 E0.26513
G1 X81.114 Y81.283 E0.29197
G1 X81.688 Y81.306 E0.3122
G1 X81.951 Y81.257 E0.3216
;TYPE:Internal perimeter
G1 X82.201 Y81.257 E0.33039
;TYPE:Unknown
G1 X82.49 Y81.256
;TYPE:Internal perimeter
G1 X82.74 Y81.256 E0.33919
;TYPE:External perimeter
G1 X83.003 Y81.292 E0.34854
G1 X83.57 Y81.283 E0.3685
G1 X83.523 Y80.512 E0.39571
G1 X83.521 Y79.351 E0.43655
G1 X83.559 Y79.345 E0.43791
;TYPE:Thin wall
;WIDTH:0.020878
M204 S1000
G1 X83.551 Y79.296
;WIDTH:0.187906
G1 X83.538 Y79.216 E0.43885
;WIDTH:0.376408
G1 X83.528 Y79.158 E0.44037
;WIDTH:0.413004
G1 X83.369 Y78.203 E0.46827
;WIDTH:0.308175
G1 X83.355 Y78.117 E0.47008
;WIDTH:0.119673
G1 X83.351 Y78.064 E0.47041
;WIDTH:0.013297
G1 X83.355 Y78.117 E0.47045
;WIDTH:0.034242
G1 X83.369 Y78.203 E0.47065
;WIDTH:0.045889
G1 X83.528 Y79.158 E0.47375
;WIDTH:0.041823
G1 X83.538 Y79.216 E0.47392
;WIDTH:0.020878
G1 X83.551 Y79.296 E0.47402
;WIDTH:0.208785
G1 X83.559 Y79.345
;TYPE:External perimeter
;WIDTH:0.5
M204 S2000
G1 X83.598 Y79.339 E0.47539
G1 X83.9 Y80.225 E0.50836
G1 X84.185 Y81.327 E0.5484
G1 X85.153 Y81.327 E0.58245
G1 X85.437 Y80.239 E0.62201
G1 X85.742 Y79.357 E0.65487
G1 X85.78 Y79.363 E0.65623
;TYPE:Thin wall
;WIDTH:0.020918
M204 S1000
G1 X85.788 Y79.314
;WIDTH:0.188261
G1 X85.802 Y79.233 E0.65717
;WIDTH:0.375662
G1 X85.811 Y79.176 E0.65868
;WIDTH:0.410803
G1 X85.979 Y78.171 E0.68788
;WIDTH:0.34776
G1 X85.986 Y78.132 E0.68881
;WIDTH:0.162767
G1 X86.008 Y78.034 E0.68978
;WIDTH:0.018085
G1 X85.986 Y78.132 E0.68988
;WIDTH:0.03864
G1 X85.979 Y78.171 E0.68999
;WIDTH:0.045645
G1 X85.811 Y79.176 E0.69323
;WIDTH:0.04174
G1 X85.802 Y79.233 E0.6934
;WIDTH:0.020918
G1 X85.788 Y79.314 E0.6935
;WIDTH:0.209179
G1 X85.78 Y79.363
;TYPE:External perimeter
;WIDTH:0.5
M204 S2000
G1 X85.818 Y79.37 E0.69486
G1 X85.819 Y80.512 E0.73506
G1 X85.74 Y81.293 E0.7627
G1 X86.922 Y81.357 E0.80438
G1 X86.925 Y76.651 E0.97001
G1 X85.611 Y76.653 E1.01627
G1 X85.174 Y77.974 E1.06524
;TYPE:Internal perimeter
;WIDTH:0.354384
G1 X84.908 Y77.32 E1.08284
;WIDTH:0.5
G1 X85.4 Y75.835 E1.13791
G1 X84.242 Y75.835 E1.17864
;WIDTH:0.390952
G1 X83.603 Y75.835 E1.19624
;WIDTH:0.5
G1 X81.044 Y75.835 E1.28631
;WIDTH:0.490058
G1 X80.534 Y75.835 E1.3039
;WIDTH:0.5
G1 X69.313 Y75.835 E1.6988
G1 X69.431 Y76.283 E1.71509
G1 X69.773 Y77.851 E1.7716
G1 X69.005 Y77.752 E1.79884
G1 X69.034 Y78.068 E1.81002
;WIDTH:0.336147
G1 X69.738 Y78.308 E1.82762
;WIDTH:0.5
G1 X70.357 Y78.388 E1.8496
G1 X69.901 Y76.292 E1.9251
G1 X72.922 Y76.292 E2.03143
G1 X72.559 Y76.732 E2.05149
G1 X72.316 Y77.143 E2.06829
G1 X72.197 Y77.602 E2.085
G1 X72.145 Y78.107 E2.10285
G1 X72.303 Y78.738 E2.12573
G1 X72.116 Y79.07 E2.13915
G1 X72.021 Y79.502 E2.15471
G1 X71.99 Y79.879 E2.16804
G1 X72.039 Y80.34 E2.18434
G1 X72.17 Y80.827 E2.20209
G1 X72.449 Y81.308 E2.22166
G1 X70.034 Y81.308 E2.30663
G1 X70.43 Y79.832 E2.36042
G1 X69.528 Y79.832 E2.39218
G1 X69.527 Y78.964 E2.42273
;WIDTH:0.464226
G1 X69.979 Y79.256 E2.44032
;WIDTH:0.5
G1 X69.98 Y79.375 E2.44449
G1 X71.026 Y79.375 E2.48129
G1 X70.63 Y80.851 E2.53508
G1 X71.703 Y80.851 E2.57285
G1 X71.589 Y80.424 E2.58842
G1 X71.531 Y79.885 E2.60747
G1 X71.568 Y79.434 E2.62342
G1 X71.684 Y78.905 E2.64246
G1 X71.815 Y78.672 E2.65187
G1 X71.682 Y78.14 E2.67119
G1 X71.746 Y77.521 E2.69307
G1 X71.946 Y76.749 E2.72114
G1 X70.468 Y76.749 E2.77315
G1 X70.942 Y78.925 E2.85152
G1 X69.974 Y78.799 E2.88588
;WIDTH:0.461651
G1 X69.518 Y78.507 E2.90348
;WIDTH:0.5
G1 X69.061 Y78.524 E2.91956
G1 X69.062 Y78.558 E2.92077
G1 X68.605 Y78.566 E2.93686
;TYPE:External perimeter
G1 X68.515 Y77.227 E2.98408
G1 X69.188 Y77.314 E3.00796
G1 X68.987 Y76.389 E3.04128
G1 X68.72 Y75.378 E3.0781
G1 X104.72 Y75.378 E4.34508
G1 X104.72 Y79.662 E4.49584
G1 X102.321 Y82.061 E4.61524
;TYPE:Internal perimeter
G1 X102.131 Y81.604 E4.63266
G1 X104.263 Y79.472 E4.73873
G1 X104.263 Y75.835 E4.86675
G1 X87.383 Y75.835 E5.46082
G1 X87.379 Y81.765 E5.66952
G1 X101.284 Y81.765 E6.1589
G1 X101.323 Y81.308 E6.17504
G1 X87.836 Y81.308 E6.6497
G1 X87.839 Y76.292 E6.82624
G1 X103.805 Y76.292 E7.38814
G1 X103.805 Y79.054 E7.48536
G1 X103.348 Y78.865 E7.50277
G1 X103.348 Y76.749 E7.57724
G1 X88.296 Y76.749 E8.10699
G1 X88.294 Y80.851 E8.25135
G1 X101.591 Y80.851 E8.71933
G1 X102.864 Y79.578 E8.78267
G1 X102.568 Y79.227 E8.79882
G1 X101.402 Y80.394 E8.85687
G1 X88.751 Y80.394 E9.3021
G1 X88.753 Y77.206 E9.41429
G1 X102.891 Y77.206 E9.91187
G1 X102.891 Y78.904 E9.97163
G1 X103.187 Y79.255 E9.98778
G1 X103.644 Y79.445 E10.00519
G1 X101.78 Y81.308 E10.09794
G1 X101.741 Y81.765 E10.11409
G1 X101.93 Y82.222 E10.1315
;TYPE:External perimeter
G1 X68.843 Y82.222 E11.29597
G1 X69.239 Y80.746 E11.34976
G1 X68.615 Y80.746 E11.37172
G1 X68.613 Y79.023 E11.43237
;TYPE:Internal perimeter
G1 X69.07 Y79.015 E11.44846
G1 X69.071 Y80.289 E11.49328
G1 X69.834 Y80.289 E11.52014
G1 X69.439 Y81.765 E11.57393
G1 X73.236 Y81.765 E11.70757
G1 X73.318 Y81.512 E11.71694
G1 X73.063 Y81.328 E11.72802
G1 X72.8 Y81.003 E11.7427
G1 X72.596 Y80.65 E11.75706
G1 X72.49 Y80.256 E11.77143
G1 X72.449 Y79.873 E11.78497
G1 X72.474 Y79.57 E11.79569
G1 X72.548 Y79.235 E11.80776
G1 X72.81 Y78.769 E11.82657
G1 X72.71 Y78.526 E11.83582
G1 X72.608 Y78.079 E11.85196
G1 X72.649 Y77.683 E11.86594
G1 X72.743 Y77.32 E11.87916
G1 X72.935 Y76.995 E11.89244
G1 X73.176 Y76.702 E11.90579
G1 X73.502 Y76.473 E11.91983
G1 X73.849 Y76.3 E11.93348
G1 X74.265 Y76.216 E11.94842
G1 X74.564 Y76.191 E11.95896
G1 X74.917 Y76.22 E11.97143
G1 X75.289 Y76.303 E11.98484
G1 X75.635 Y76.476 E11.99845
G1 X75.96 Y76.707 E12.01248
G1 X76.202 Y76.997 E12.02579
G1 X76.395 Y77.319 E12.039
G1 X76.496 Y77.684 E12.05232
G1 X76.533 Y78.032 E12.06465
M73 P3 R20
G1 X76.511 Y78.316 E12.07467
G1 X76.432 Y78.582 E12.08442
G1 X76.336 Y78.776 E12.09205
G1 X76.601 Y79.253 E12.11125
G1 X76.676 Y79.578 E12.12302
G1 X76.703 Y79.881 E12.13371
G1 X76.662 Y80.264 E12.14727
G1 X76.556 Y80.657 E12.16158
G1 X76.351 Y81.007 E12.17585
G1 X76.091 Y81.327 E12.19038
G1 X76.02 Y81.378 E12.19345
G1 X75.687 Y81.055 E12.20979
;TYPE:External perimeter
G1 X75.775 Y80.992 E12.21358
G1 X75.974 Y80.746 E12.22474
G1 X76.13 Y80.479 E12.23562
G1 X76.211 Y80.18 E12.24653
G1 X76.244 Y79.877 E12.25726
G1 X76.224 Y79.65 E12.26526
G1 X76.17 Y79.418 E12.27363
G1 X75.947 Y79.017 E12.2898
G1 X75.681 Y78.843 E12.30097
G1 X75.835 Y78.758 E12.30714
G1 X76.005 Y78.414 E12.32065
G1 X76.059 Y78.232 E12.32732
G1 X76.074 Y78.039 E12.33414
G1 X76.046 Y77.77 E12.34367
G1 X75.971 Y77.501 E12.35349
G1 X75.828 Y77.263 E12.36327
G1 X75.647 Y77.045 E12.37323
G1 X75.399 Y76.869 E12.38394
G1 X75.135 Y76.737 E12.39433
G1 X74.849 Y76.673 E12.40465
G1 X74.564 Y76.65 E12.4147
G1 X74.33 Y76.669 E12.42298
G1 X73.999 Y76.736 E12.43485
G1 X73.737 Y76.866 E12.44514
G1 X73.49 Y77.041 E12.4558
G1 X73.31 Y77.258 E12.46574
G1 X73.169 Y77.497 E12.47549
G1 X73.1 Y77.765 E12.48522
G1 X73.07 Y78.05 E12.49533
G1 X73.147 Y78.387 E12.50749
G1 X73.237 Y78.606 E12.51582
G1 X73.501 Y78.816 E12.52768
G1 X73.213 Y78.984 E12.53942
G1 X72.98 Y79.4 E12.55619
G1 X72.927 Y79.638 E12.56478
G1 X72.908 Y79.868 E12.57289
G1 X72.941 Y80.172 E12.58366
G1 X73.022 Y80.474 E12.59465
G1 X73.178 Y80.744 E12.60563
G1 X73.38 Y80.993 E12.61691
G1 X73.653 Y81.19 E12.62878
G1 X73.944 Y81.338 E12.64027
G1 X74.261 Y81.41 E12.6517
G1 X74.578 Y81.437 E12.66291
G1 X74.895 Y81.409 E12.67411
G1 X75.211 Y81.337 E12.68553
G1 X75.298 Y81.293 E12.68896
;TYPE:Internal perimeter
;WIDTH:0.334373
G1 X75.905 Y81.729 E12.70656
;WIDTH:0.5
G1 X75.917 Y81.765 E12.70788
G1 X77.312 Y81.765 E12.75698
G1 X77.294 Y76.435 E12.94455
G1 X76.837 Y76.52 E12.96091
G1 X76.839 Y77.048 E12.97949
G1 X76.21 Y76.292 E13.01411
G1 X76.608 Y76.292 E13.02813
