; HEADER_BLOCK_START
; generated by OrcaSlicer 1.6.4-beta2 on 2023-08-10 at 22:47:43
; total layer number: 25
; HEADER_BLOCK_END

; THUMBNAIL_BLOCK_START
; THUMBNAIL_BLOCK_END

; external perimeters extrusion width = 0.40mm
; perimeters extrusion width = 0.46mm
; infill extrusion width = 0.64mm
; solid infill extrusion width = 0.56mm
; top infill extrusion width = 0.40mm
; support material extrusion width = 0.46mm
; first layer extrusion width = 0.50mm

; external perimeters extrusion width = 0.40mm
; perimeters extrusion width = 0.46mm
; infill extrusion width = 0.64mm
; solid infill extrusion width = 0.56mm
; top infill extrusion width = 0.40mm
; support material extrusion width = 0.46mm
; first layer extrusion width = 0.50mm

; EXECUTABLE_BLOCK_START
EXCLUDE_OBJECT_DEFINE NAME=Z_chain_Mount-Edited.stl_id_0_copy_0 CENTER=75.001,60.8142 POLYGON=[[63.601,30.7142],[63.7055,30.6097],[67.6009,26.7142],[67.601,26.7142],[83.4009,26.7142],[86.401,26.9542],[86.401,44.9221],[83.3329,94.913],[68.3081,94.9142],[63.601,42.7142],[63.601,30.7142]]
EXCLUDE_OBJECT_DEFINE NAME=Z_chain_Mount-Editeed.stl_id_1_copy_0 CENTER=43.6,60 POLYGON=[[33.599,44.8856],[33.5995,29.3785],[33.5995,29.2334],[33.5995,29.0856],[33.7041,28.9811],[33.8066,28.8785],[37.3925,25.2928],[37.4951,25.1903],[37.5997,25.0857],[37.6011,25.0856],[37.7489,25.0856],[37.894,25.0856],[49.3082,25.086],[49.6011,25.086],[49.7056,25.1905],[49.8082,25.2931],[53.3939,28.879],[53.4964,28.9816],[53.601,29.0861],[53.601,29.2339],[53.601,29.379],[53.599,94.9143],[53.5975,94.9144],[52.597,94.9144],[38.597,94.914],[37.5975,94.9139],[33.599,44.8856]]
M73 P0 R24
;TYPE:Custom
START_PRINT T_BED=105 T_EXTRUDER=260
G90
G21
M83 ; use relative distances for extrusion
; Filament gcode
M106 S0
;LAYER_CHANGE
;Z:0.2
;HEIGHT:0.2
;BEFORE_LAYER_CHANGE
;0.2
G92 E0

;AFTER_LAYER_CHANGE
;0.2
SET_VELOCITY_LIMIT ACCEL=1000 ACCEL_TO_DECEL=500
SET_VELOCITY_LIMIT SQUARE_CORNER_VELOCITY=9
G1 E-.5 F3000
G1 Z.2 F21000
G1 X32.649 Y27.19
G1 E.5 F1800
;TYPE:Skirt
;WIDTH:0.5
G1 F3000
G1 X35.912 Y23.947 E.1626
G1 X36.497 Y23.538 E.02523
G1 X37.16 Y23.249 E.02556
G1 X38.27 Y23.073 E.03971
G1 X48.934 Y23.079 E.37696
G1 X83.477 Y24.703 E1.22228
G1 X86.632 Y24.953 E.11188
G1 X88.058 Y25.461 E.0535
G1 X89.037 Y26.616 E.0535
G1 X89.315 Y27.858 E.045
G1 X89.31 Y45 E.6059
G1 X86.242 Y95.091 E1.77382
G1 X85.76 Y96.526 E.0535
G1 X84.623 Y97.526 E.0535
G1 X83.333 Y97.827 E.04683
G1 X38.499 Y97.828 E1.58469
G1 X37.038 Y97.435 E.0535
G1 X35.97 Y96.361 E.0535
G1 X35.594 Y95.146 E.04498
G1 X31.596 Y45.053 E1.7762
G1 X31.614 Y29.336 E.55555
G1 X31.763 Y28.641 E.02513
G1 X31.988 Y28.099 E.02073
G1 X32.625 Y27.222 E.03831
G1 X32.972 Y27.513 F21000
G1 F3000
G1 X36.203 Y24.3 E.16108
G1 X36.713 Y23.941 E.02205
G1 X37.291 Y23.687 E.02231
G1 X38.269 Y23.53 E.03501
G1 X48.934 Y23.536 E.37696
G1 X83.455 Y25.16 E1.22153
G1 X86.596 Y25.409 E.11136
G1 X87.892 Y25.905 E.04905
G1 X88.712 Y27.024 E.04905
G1 X88.858 Y27.858 E.02992
G1 X88.853 Y44.972 E.60492
G1 X85.785 Y95.063 E1.77382
G1 X85.313 Y96.368 E.04905
G1 X84.209 Y97.209 E.04905
G1 X83.333 Y97.37 E.03147
G1 X38.499 Y97.371 E1.58469
G1 X37.168 Y96.979 E.04905
G1 X36.262 Y95.928 E.04905
G1 X36.05 Y95.109 E.0299
G1 X32.051 Y45.017 E1.7762
G1 X32.069 Y29.379 E.55273
G1 X32.391 Y28.316 E.03927
G1 X32.948 Y27.546 E.03361
; printing object Z chain Mount-Edited.stl id:0 copy 0
EXCLUDE_OBJECT_START NAME=Z_chain_Mount-Edited.stl_id_0_copy_0
G1 E-.5
G1 Z.4 F21000
G1 X82.895 Y44.472
G1 Z.2
G1 E.5 F1800
;TYPE:Outer wall
G1 F3000
G1 X82.902 Y45.964 E.05274
G1 X82.942 Y45.964 E.00141
G1 X82.942 Y46.164 E.00707
G1 X82.983 Y46.164 E.00143
G1 X82.983 Y94.563 E1.7107
G1 X68.658 Y94.564 E.50632
G1 X68.658 Y45.5 E1.73422
G1 X68.195 Y45.456 E.01645
G1 X68.143 Y45.44 E.00192
G1 X67.994 Y45.339 E.00635
G1 X64.967 Y42.313 E.15129
G1 X64.919 Y42.254 E.00269
G1 X64.863 Y42.119 E.00517
G1 X64.851 Y31.408 E.37858
G1 X64.882 Y31.245 E.00588
G1 X64.976 Y31.107 E.00588
G1 X68.002 Y28.081 E.15129
G1 X68.061 Y28.032 E.00269
G1 X68.199 Y27.975 E.00528
G1 X83.326 Y27.964 E.53466
G1 X86.051 Y28.181 E.09663
G1 X86.051 Y44.472 E.57581
M73 P1 R24
G1 X82.935 Y44.472 E.11014
G1 X82.393 Y43.972 F21000
;TYPE:Inner wall
G1 F3000
G1 X82.405 Y46.464 E.08809
G1 X82.442 Y46.464 E.00132
G1 X82.442 Y46.664 E.00707
G1 X82.483 Y46.664 E.00143
G1 X82.483 Y94.063 E1.67535
G1 X75.373 Y94.064 E.25129
G1 X75.33 Y93.841 E.008
G1 X75.746 Y93.675 E.01584
G1 X76.188 Y93.413 E.01814
G1 X76.584 Y93.087 E.01814
G1 X76.927 Y92.705 E.01814
G1 X77.206 Y92.274 E.01814
G1 X77.417 Y91.806 E.01814
G1 X77.554 Y91.312 E.01814
G1 X77.614 Y90.802 E.01814
G1 X77.595 Y90.289 E.01814
G1 X77.498 Y89.785 E.01814
G1 X77.326 Y89.302 E.01814
G1 X77.086 Y88.858 E.01783
G1 X76.772 Y88.442 E.01841
G1 X76.402 Y88.085 E.01819
G1 X75.982 Y87.789 E.01814
G1 X75.523 Y87.56 E.01814
G1 X75.034 Y87.405 E.01814
G1 X74.527 Y87.325 E.01814
G1 X74.013 Y87.324 E.01814
G1 X73.515 Y87.401 E.01783
G1 X73.018 Y87.555 E.01841
G1 X72.556 Y87.783 E.01819
G1 X72.136 Y88.077 E.01814
G1 X71.772 Y88.426 E.01783
G1 X71.454 Y88.839 E.01841
G1 X71.207 Y89.291 E.01819
G1 X71.033 Y89.773 E.01814
G1 X70.934 Y90.277 E.01814
G1 X70.914 Y90.79 E.01814
G1 X70.972 Y91.3 E.01814
G1 X71.107 Y91.795 E.01814
G1 X71.316 Y92.264 E.01814
G1 X71.594 Y92.695 E.01814
G1 X71.935 Y93.079 E.01814
G1 X72.33 Y93.406 E.01814
G1 X72.771 Y93.669 E.01814
G1 X73.198 Y93.842 E.01626
G1 X73.154 Y94.064 E.00799
G1 X69.158 Y94.064 E.14125
G1 X69.158 Y45.045 E1.73262
G1 X68.328 Y44.966 E.02948
G1 X65.363 Y42.001 E.14822
G1 X65.358 Y37.637 E.15426
G1 X65.586 Y37.598 E.00818
G1 X65.713 Y37.957 E.01346
G1 X65.944 Y38.381 E.01707
G1 X66.249 Y38.775 E.01761
G1 X66.609 Y39.11 E.01741
G1 X67.018 Y39.383 E.01737
G1 X67.466 Y39.586 E.01736
G1 X67.931 Y39.713 E.01707
G1 X68.427 Y39.766 E.01761
G1 X68.919 Y39.738 E.01741
G1 X69.398 Y39.632 E.01737
G1 X69.855 Y39.45 E.01737
G1 X70.276 Y39.198 E.01737
G1 X70.645 Y38.886 E.01707
G1 X70.971 Y38.509 E.01761
G1 X71.227 Y38.088 E.01741
G1 X71.412 Y37.633 E.01737
G1 X71.522 Y37.154 E.01736
G1 X71.553 Y36.664 E.01737
G1 X71.506 Y36.175 E.01737
G1 X71.38 Y35.7 E.01737
G1 X71.18 Y35.251 E.01737
G1 X70.916 Y34.847 E.01707
G1 X70.58 Y34.479 E.01761
G1 X70.194 Y34.174 E.01741
G1 X69.764 Y33.935 E.01736
G1 X69.302 Y33.768 E.01737
G1 X68.819 Y33.678 E.01736
G1 X68.328 Y33.666 E.01737
G1 X67.85 Y33.732 E.01707
G1 X67.373 Y33.877 E.01761
G1 X66.931 Y34.096 E.01741
G1 X66.532 Y34.382 E.01737
G1 X66.183 Y34.728 E.01737
G1 X65.894 Y35.125 E.01736
G1 X65.673 Y35.564 E.01737
G1 X65.588 Y35.833 E.00998
G1 X65.356 Y35.798 E.00831
G1 X65.351 Y31.439 E.15406
G1 X68.317 Y28.473 E.14827
G1 X83.306 Y28.464 E.52978
G1 X85.551 Y28.643 E.07961
G1 X85.551 Y43.972 E.54182
G1 X82.433 Y43.972 E.11022
G1 X81.933 Y43.515 F21000
G1 F3000
G1 X81.95 Y46.921 E.1204
G1 X81.985 Y46.921 E.00124
G1 X81.985 Y47.121 E.00707
G1 X82.026 Y47.121 E.00143
G1 X82.026 Y93.606 E1.64304
G1 X76.733 Y93.606 E.18707
G1 X77.291 Y92.983 E.02955
G1 X77.609 Y92.494 E.02062
G1 X77.848 Y91.962 E.02062
G1 X78.004 Y91.4 E.02062
G1 X78.072 Y90.82 E.02062
G1 X78.051 Y90.237 E.02062
G1 X77.941 Y89.664 E.02062
G1 X77.744 Y89.115 E.02062
G1 X77.471 Y88.61 E.02028
G1 X77.115 Y88.139 E.02089
G1 X76.694 Y87.732 E.02069
G1 X76.217 Y87.395 E.02062
G1 X75.695 Y87.135 E.02062
G1 X75.139 Y86.958 E.02062
G1 X74.563 Y86.868 E.02062
G1 X73.979 Y86.867 E.02062
G1 X73.412 Y86.954 E.02028
G1 X72.848 Y87.13 E.02089
G1 X72.322 Y87.388 E.02069
G1 X71.845 Y87.723 E.02062
G1 X71.43 Y88.12 E.02028
G1 X71.07 Y88.589 E.02089
G1 X70.789 Y89.102 E.02069
G1 X70.591 Y89.651 E.02062
G1 X70.479 Y90.224 E.02062
G1 X70.456 Y90.807 E.02062
G1 X70.522 Y91.386 E.02062
G1 X70.675 Y91.949 E.02062
G1 X70.913 Y92.482 E.02062
G1 X71.229 Y92.972 E.02062
G1 X71.793 Y93.607 E.02999
G1 X69.615 Y93.607 E.07696
G1 X69.615 Y44.629 E1.73116
G1 X68.535 Y44.527 E.03836
G1 X65.82 Y41.811 E.13572
G1 X65.816 Y38.997 E.09947
G1 X66.325 Y39.47 E.02455
G1 X66.796 Y39.784 E.01997
G1 X67.31 Y40.017 E.01997
G1 X67.846 Y40.163 E.01965
G1 X68.415 Y40.225 E.02022
G1 X68.981 Y40.193 E.02005
G1 X69.533 Y40.07 E.01997
G1 X70.058 Y39.861 E.01997
G1 X70.543 Y39.571 E.01997
G1 X70.968 Y39.212 E.01965
G1 X71.341 Y38.779 E.02022
G1 X71.636 Y38.295 E.02005
G1 X71.849 Y37.771 E.01997
G1 X71.976 Y37.22 E.01997
G1 X72.012 Y36.657 E.01997
G1 X71.957 Y36.094 E.01997
G1 X71.813 Y35.548 E.01997
G1 X71.583 Y35.032 E.01997
G1 X71.278 Y34.567 E.01965
G1 X70.893 Y34.143 E.02022
G1 X70.448 Y33.792 E.02005
G1 X69.954 Y33.518 E.01997
G1 X69.422 Y33.326 E.01997
G1 X68.867 Y33.222 E.01997
G1 X68.302 Y33.209 E.01997
G1 X67.751 Y33.285 E.01965
G1 X67.204 Y33.451 E.02022
G1 X66.696 Y33.703 E.02005
G1 X66.236 Y34.031 E.01997
G1 X65.811 Y34.452 E.02114
G1 X65.808 Y31.628 E.09983
G1 X68.51 Y28.926 E.13506
G1 X83.288 Y28.921 E.52232
G1 X85.094 Y29.065 E.06405
G1 X85.094 Y34.692 E.1989
G1 X84.906 Y34.755 E.00699
G1 X84.634 Y34.391 E.01607
G1 X84.228 Y34 E.01992
G1 X83.765 Y33.678 E.01992
G1 X83.257 Y33.435 E.01992
G1 X82.714 Y33.276 E.01999
G1 X82.147 Y33.207 E.02017
G1 X81.593 Y33.227 E.0196
G1 X81.041 Y33.337 E.01992
G1 X80.513 Y33.534 E.01992
G1 X80.023 Y33.813 E.01992
G1 X79.584 Y34.167 E.01992
G1 X79.207 Y34.587 E.01994
G1 X78.9 Y35.067 E.02015
G1 X78.674 Y35.591 E.02018
G1 X78.536 Y36.145 E.02018
G1 X78.49 Y36.714 E.02018
G1 X78.536 Y37.283 E.02018
G1 X78.674 Y37.837 E.02018
G1 X78.9 Y38.361 E.02018
G1 X79.207 Y38.842 E.02015
G1 X79.584 Y39.262 E.01994
G1 X80.023 Y39.615 E.01992
G1 X80.513 Y39.894 E.01992
G1 X81.041 Y40.092 E.01992
G1 X81.593 Y40.202 E.01992
G1 X82.159 Y40.222 E.01999
G1 X82.725 Y40.149 E.02017
G1 X83.257 Y39.993 E.0196
G1 X83.765 Y39.75 E.01992
G1 X84.228 Y39.429 E.01992
G1 X84.634 Y39.038 E.01992
G1 X84.906 Y38.674 E.01607
G1 X85.094 Y38.736 E.00699
G1 X85.094 Y43.515 E.16892
G1 X81.973 Y43.515 E.11031
G1 X81.474 Y43.058 F21000
G1 F3000
G1 X81.495 Y47.378 E.15271
G1 X81.528 Y47.378 E.00116
G1 X81.528 Y47.578 E.00707
G1 X81.569 Y47.578 E.00143
G1 X81.569 Y93.149 E1.61073
G1 X77.728 Y93.149 E.13576
G1 X78.011 Y92.714 E.01836
G1 X78.28 Y92.118 E.0231
G1 X78.454 Y91.488 E.0231
G1 X78.53 Y90.839 E.0231
G1 X78.506 Y90.186 E.0231
G1 X78.383 Y89.544 E.0231
G1 X78.163 Y88.928 E.0231
G1 X77.857 Y88.362 E.02274
G1 X77.458 Y87.835 E.02337
G1 X76.986 Y87.379 E.0232
G1 X76.452 Y87.002 E.0231
G1 X75.867 Y86.711 E.0231
G1 X75.244 Y86.512 E.0231
G1 X74.598 Y86.411 E.0231
G1 X73.945 Y86.41 E.0231
G1 X73.309 Y86.507 E.02274
G1 X72.678 Y86.704 E.02337
G1 X72.089 Y86.994 E.0232
G1 X71.554 Y87.369 E.0231
G1 X71.089 Y87.814 E.02274
G1 X70.686 Y88.338 E.02337
G1 X70.371 Y88.914 E.0232
G1 X70.299 Y89.114 E.00751
G1 X70.072 Y89.074 E.00814
G1 X70.072 Y81.053 E.28353
G1 X70.289 Y81.006 E.00785
G1 X70.51 Y81.5 E.01912
G1 X70.864 Y82.05 E.0231
G1 X71.298 Y82.538 E.0231
G1 X71.802 Y82.955 E.0231
G1 X72.363 Y83.29 E.0231
G1 X72.969 Y83.536 E.0231
G1 X73.605 Y83.686 E.0231
G1 X74.256 Y83.737 E.0231
G1 X74.908 Y83.688 E.0231
G1 X75.545 Y83.54 E.0231
G1 X76.152 Y83.297 E.0231
G1 X76.714 Y82.964 E.0231
G1 X77.211 Y82.556 E.02274
G1 X77.653 Y82.064 E.02337
G1 X78.011 Y81.514 E.0232
G1 X78.28 Y80.918 E.0231
G1 X78.451 Y80.298 E.02274
G1 X78.53 Y79.641 E.02337
G1 X78.506 Y78.986 E.0232
G1 X78.383 Y78.344 E.0231
G1 X78.163 Y77.728 E.0231
G1 X77.857 Y77.162 E.02274
G1 X77.458 Y76.635 E.02337
G1 X76.986 Y76.179 E.0232
G1 X76.452 Y75.802 E.0231
G1 X75.867 Y75.511 E.0231
G1 X75.244 Y75.312 E.0231
G1 X74.598 Y75.211 E.0231
G1 X73.945 Y75.21 E.0231
G1 X73.309 Y75.307 E.02274
G1 X72.678 Y75.504 E.02337
G1 X72.089 Y75.794 E.0232
G1 X71.554 Y76.169 E.0231
G1 X71.082 Y76.621 E.0231
G1 X70.685 Y77.141 E.0231
G1 X70.371 Y77.714 E.0231
G1 X70.299 Y77.914 E.00751
G1 X70.072 Y77.874 E.00814
G1 X70.072 Y44.214 E1.18977
G1 X68.742 Y44.087 E.04724
G1 X66.276 Y41.622 E.12323
G1 X66.275 Y39.986 E.05783
G1 X66.573 Y40.184 E.01267
G1 X67.154 Y40.449 E.02258
G1 X67.761 Y40.614 E.02223
G1 X68.404 Y40.683 E.02283
G1 X69.044 Y40.647 E.02268
G1 X69.668 Y40.509 E.02258
G1 X70.262 Y40.272 E.02258
G1 X70.81 Y39.944 E.02258
G1 X71.29 Y39.538 E.02223
G1 X71.712 Y39.049 E.02283
G1 X72.046 Y38.501 E.02268
G1 X72.287 Y37.909 E.02258
G1 X72.429 Y37.287 E.02258
G1 X72.47 Y36.649 E.02258
G1 X72.408 Y36.013 E.02258
G1 X72.245 Y35.395 E.02258
G1 X71.985 Y34.812 E.02258
G1 X71.64 Y34.286 E.02223
G1 X71.206 Y33.808 E.02283
G1 X70.702 Y33.41 E.02268
G1 X70.144 Y33.1 E.02258
G1 X69.543 Y32.883 E.02258
G1 X68.915 Y32.766 E.02258
G1 X68.276 Y32.751 E.02258
G1 X67.653 Y32.837 E.02223
G1 X67.035 Y33.025 E.02283
G1 X66.267 Y33.404 E.03027
G1 X66.266 Y31.817 E.0561
G1 X68.703 Y29.38 E.12185
G1 X83.269 Y29.379 E.51486
G1 X84.637 Y29.487 E.04848
G1 X84.637 Y33.727 E.14985
G1 X83.995 Y33.282 E.0276
G1 X83.421 Y33.007 E.02252
G1 X82.806 Y32.827 E.02262
G1 X82.167 Y32.749 E.02277
G1 X81.54 Y32.771 E.02217
G1 X80.915 Y32.896 E.02252
G1 X80.318 Y33.119 E.02252
G1 X79.765 Y33.434 E.02252
G1 X79.269 Y33.834 E.02252
G1 X78.842 Y34.309 E.02255
G1 X78.495 Y34.852 E.02278
G1 X78.239 Y35.445 E.02281
G1 X78.083 Y36.071 E.02281
G1 X78.031 Y36.714 E.02281
G1 X78.083 Y37.358 E.02281
G1 X78.239 Y37.984 E.02281
G1 X78.495 Y38.577 E.02281
G1 X78.843 Y39.119 E.02278
G1 X79.269 Y39.594 E.02256
G1 X79.765 Y39.994 E.02252
G1 X80.318 Y40.31 E.02252
G1 X80.915 Y40.533 E.02252
G1 X81.54 Y40.657 E.02252
G1 X82.18 Y40.68 E.02262
G1 X82.819 Y40.598 E.02277
G1 X83.421 Y40.422 E.02218
G1 X83.995 Y40.147 E.02252
G1 X84.637 Y39.702 E.0276
G1 X84.637 Y43.058 E.11863
G1 X81.514 Y43.058 E.11039
G1 X81.014 Y42.601 F21000
G1 F3000
G1 X81.041 Y47.835 E.18502
G1 X81.071 Y47.835 E.00108
G1 X81.071 Y48.035 E.00707
G1 X81.112 Y48.035 E.00143
G1 X81.112 Y92.692 E1.57842
M73 P2 R24
G1 X78.522 Y92.692 E.09153
G1 X78.711 Y92.274 E.01623
G1 X78.904 Y91.576 E.02558
G1 X78.988 Y90.857 E.02558
G1 X78.962 Y90.134 E.02558
G1 X78.825 Y89.423 E.02558
G1 X78.582 Y88.741 E.02558
G1 X78.242 Y88.114 E.02519
G1 X77.802 Y87.531 E.02585
G1 X77.279 Y87.026 E.0257
G1 X76.687 Y86.608 E.02558
G1 X76.039 Y86.286 E.02558
G1 X75.35 Y86.066 E.02558
G1 X74.634 Y85.954 E.02559
G1 X73.911 Y85.953 E.02558
G1 X73.206 Y86.061 E.0252
G1 X72.508 Y86.278 E.02585
G1 X71.855 Y86.599 E.0257
G1 X71.263 Y87.015 E.02558
G1 X70.529 Y87.718 E.03591
G1 X70.529 Y82.361 E.18934
G1 X70.98 Y82.868 E.02397
G1 X71.537 Y83.33 E.02558
G1 X72.159 Y83.701 E.02558
G1 X72.83 Y83.972 E.02559
G1 X73.534 Y84.139 E.02558
G1 X74.256 Y84.195 E.02558
G1 X74.977 Y84.141 E.02558
G1 X75.682 Y83.978 E.02558
G1 X76.354 Y83.708 E.02558
G1 X76.977 Y83.339 E.02558
G1 X77.528 Y82.887 E.02519
G1 X78.017 Y82.343 E.02585
G1 X78.413 Y81.734 E.0257
G1 X78.711 Y81.074 E.02558
G1 X78.901 Y80.387 E.0252
G1 X78.988 Y79.66 E.02585
G1 X78.962 Y78.934 E.0257
G1 X78.825 Y78.223 E.02558
G1 X78.582 Y77.541 E.02558
G1 X78.242 Y76.914 E.0252
G1 X77.802 Y76.331 E.02585
G1 X77.279 Y75.826 E.0257
G1 X76.687 Y75.408 E.02558
G1 X76.039 Y75.086 E.02558
G1 X75.35 Y74.866 E.02558
G1 X74.634 Y74.754 E.02558
G1 X73.911 Y74.753 E.02558
G1 X73.206 Y74.861 E.0252
G1 X72.508 Y75.078 E.02585
G1 X71.855 Y75.399 E.0257
G1 X71.263 Y75.815 E.02558
G1 X70.529 Y76.518 E.03591
G1 X70.529 Y43.798 E1.15652
G1 X68.949 Y43.648 E.05612
G1 X66.733 Y41.432 E.11074
G1 X66.733 Y40.759 E.0238
G1 X66.999 Y40.88 E.01034
G1 X67.676 Y41.064 E.02482
G1 X68.392 Y41.142 E.02544
G1 X69.107 Y41.101 E.02532
G1 X69.803 Y40.947 E.02519
G1 X70.465 Y40.683 E.02519
G1 X71.076 Y40.317 E.02519
G1 X71.613 Y39.864 E.02482
G1 X72.083 Y39.319 E.02544
G1 X72.455 Y38.707 E.02531
G1 X72.724 Y38.047 E.02519
G1 X72.883 Y37.353 E.02519
G1 X72.929 Y36.641 E.02519
G1 X72.86 Y35.932 E.02519
G1 X72.678 Y35.243 E.02519
G1 X72.388 Y34.592 E.02519
G1 X72.003 Y34.005 E.02482
G1 X71.518 Y33.473 E.02544
G1 X70.956 Y33.029 E.02531
G1 X70.333 Y32.683 E.02519
G1 X69.663 Y32.441 E.02519
G1 X68.962 Y32.31 E.02519
G1 X68.25 Y32.293 E.02519
G1 X67.554 Y32.389 E.02482
G1 X66.724 Y32.642 E.0307
G1 X66.723 Y32.006 E.02245
G1 X68.894 Y29.835 E.10852
G1 X83.251 Y29.836 E.50748
G1 X84.18 Y29.91 E.03292
G1 X84.18 Y32.863 E.1044
G1 X83.585 Y32.579 E.02332
G1 X82.899 Y32.378 E.02525
