; generated by SuperSlicer 2.5.59 on 2023-05-28 at 19:23:33 UTC


;
;

;
;
; 

; external perimeters extrusion width = 0.40mm
; perimeters extrusion width = 0.46mm
; infill extrusion width = 0.64mm
; solid infill extrusion width = 0.56mm
; top infill extrusion width = 0.40mm
; first layer extrusion width = 0.50mm

; object:{"name":"Z chain Mount-Editeed","id":"Z chain Mount-Editeed.stl id:0 copy 0","object_center":[60.000061,59.999313,0.000000],"boundingbox_center":[60.000061,59.999313,2.504399],"boundingbox_size":[69.828755,20.001928,5.008798]}
EXCLUDE_OBJECT_DEFINE NAME=Z_chain_Mount_Editeed_stl_id_0_copy_0 CENTER=60.000061,59.999313 POLYGON=[[25.085686,65.850396],[25.085690,65.705324],[25.086036,54.146056],[25.086044,53.998244],[25.190582,53.893692],[25.293168,53.791108],[28.879056,50.205428],[28.981626,50.102872],[29.086156,49.998368],[29.233990,49.998352],[29.379050,49.998348],[94.914352,50.000316],[94.914448,50.001780],[94.914448,51.002268],[94.914016,65.002352],[94.913952,66.001776],[44.885648,70.000272],[29.378558,69.999816],[29.233486,69.999800],[29.085644,69.999776],[28.981116,69.895264],[28.878552,69.792696],[25.292884,66.206812],[25.190308,66.104216],[25.085770,65.999656],[25.085686,65.998244],[25.085686,65.850396]]
; plater:{"center":[60.000061,59.999313,0.000000],"boundingbox_center":[60.000061,59.999313,2.504399],"boundingbox_size":[69.828755,20.001928,5.008798]}

M73 P0 R13
;TYPE:Custom
; custom gcode: start_gcode
START_PRINT T_BED=110 T_EXTRUDER=260
; custom gcode end: start_gcode
M107
G21 ; set units to millimeters
G90 ; use absolute coordinates
M82 ; use absolute distances for extrusion
G92 E0
; custom gcode: start_filament_gcode
; Filament gcode

    PRESSURE_ADVANCE_SELECT FILAMENT=ABS
; custom gcode end: start_filament_gcode
;_TOOLCHANGE 0
M104 S260 ; set temperature
M109 S260 ; set temperature and wait for it to be reached
M190 S110 ; set bed temperature and wait for it to be reached
;LAYER_CHANGE
;Z:0.2
;HEIGHT:0.2
G1 Z0.2 F12000
M73 P0 R13
G1 E-0.5 F3000
M204 S2000
G1 X27.66 Y47.835 F12000
G1 E0 F1800
;TYPE:Skirt
;WIDTH:0.52
G1 X26.696 Y48.56 E0.0443
G1 X23.412 Y51.866 E0.21549
G1 X22.923 Y52.569 E0.24696
G1 X22.581 Y53.363 E0.2787
G1 X22.378 Y54.669 E0.32727
G1 X22.372 Y65.325 E0.71869
G1 X22.54 Y66.519 E0.76299
G1 X22.86 Y67.322 E0.79475
G1 X23.404 Y68.13 E0.83052
G1 X26.95 Y71.68 E1.01485
G1 X27.654 Y72.169 E1.04633
G1 X28.449 Y72.51 E1.07809
G1 X29.756 Y72.714 E1.12669
G1 X45.113 Y72.703 E1.69082
G1 X95.11 Y68.711 E3.53322
M73 P1 R13
G1 X97.035 Y67.986 E3.60879
G1 X98.135 Y66.674 E3.6717
G1 X98.529 Y65.008 E3.7346
G1 X98.53 Y51.007 E4.2489
G1 X97.793 Y48.786 E4.33486
G1 X96.481 Y47.686 E4.39777
G1 X94.814 Y47.291 E4.46067
G1 X29.76 Y47.291 E6.85036
G1 X28.566 Y47.46 E6.89465
G1 X27.66 Y47.835 E6.93067
G1 X27.886 Y48.255 F12000
G1 F1800
G1 X27.034 Y48.897 E6.96987
G1 X23.779 Y52.17 E7.13941
G1 X23.343 Y52.795 E7.16743
G1 X23.038 Y53.5 E7.19564
G1 X22.855 Y54.67 E7.23912
G1 X22.849 Y65.325 E7.63053
G1 X22.997 Y66.382 E7.66974
G1 X23.28 Y67.097 E7.69797
G1 X23.771 Y67.826 E7.73029
G1 X27.254 Y71.312 E7.9113
G1 X27.881 Y71.748 E7.93933
G1 X28.586 Y72.054 E7.96757
G1 X29.756 Y72.237 E8.01106
G1 X45.075 Y72.227 E8.5738
G1 X95.072 Y68.236 E10.4162
M73 P1 R13
G1 X96.573 Y67.727 E10.47443
G1 X97.659 Y66.555 E10.5331
G1 X98.052 Y65.008 E10.59177
G1 X98.053 Y51.007 E11.10607
G1 X97.533 Y49.248 E11.17345
G1 X96.362 Y48.162 E11.23212
G1 X94.814 Y47.768 E11.29079
G1 X29.76 Y47.768 E13.68047
G1 X28.704 Y47.917 E13.71967
G1 X27.886 Y48.255 E13.75216
G92 E0
G1 E-0.5 F3000
; printing object Z chain Mount-Editeed.stl id:0 copy 0
EXCLUDE_OBJECT_START NAME=Z_chain_Mount_Editeed_stl_id_0_copy_0
G1 X27.107 Y60.86 F12000
G1 E0 F1800
;TYPE:Internal perimeter
;WIDTH:0.5
G1 X26.809 Y60.916 E0.01069
G1 X26.807 Y65.302 E0.16507
G1 X29.781 Y68.279 E0.31318
G1 X44.561 Y68.292 E0.83334
G1 X44.579 Y68.749 E0.84944
;TYPE:External perimeter
G1 X29.681 Y68.736 E1.37376
G1 X29.546 Y68.68 E1.3789
G1 X26.454 Y65.596 E1.53261
G1 X26.405 Y65.537 E1.53529
G1 X26.349 Y65.402 E1.54043
G1 X26.355 Y54.596 E1.92074
G1 X26.411 Y54.461 E1.92588
G1 X29.491 Y51.373 E2.07938
G1 X29.55 Y51.325 E2.08206
G1 X29.685 Y51.269 E2.08721
G1 X94.564 Y51.257 E4.37056
M73 P2 R12
G1 X94.564 Y52.741 E4.42281
G1 X94.564 Y64.777 E4.84638
G1 X45.035 Y68.731 E6.59503
;TYPE:Internal perimeter
G1 X45.017 Y68.274 E6.61113
G1 X94.107 Y64.355 E8.34427
G1 X94.107 Y51.943 E8.7811
;WIDTH:0.386712
G1 X93.65 Y52.4 E8.7987
;WIDTH:0.5
G1 X93.65 Y63.933 E9.20459
G1 X71.056 Y65.736 E10.00227
G1 X70.957 Y65.483 E10.01183
G1 X71.381 Y65.151 E10.03078
G1 X71.826 Y64.67 E10.05385
G1 X72.225 Y64.057 E10.07957
G1 X72.489 Y63.459 E10.1026
G1 X72.661 Y62.786 E10.12703
G1 X72.715 Y62.146 E10.14964
G1 X72.716 Y60.411 E10.21071
G1 X72.995 Y60.343 E10.22083
G1 X73.377 Y61.084 E10.25017
G1 X73.82 Y61.647 E10.2754
G1 X74.362 Y62.117 E10.30062
G1 X74.983 Y62.475 E10.32584
G1 X75.66 Y62.71 E10.35107
G1 X76.369 Y62.812 E10.37629
G1 X77.085 Y62.778 E10.40151
G1 X77.782 Y62.609 E10.42674
G1 X78.434 Y62.311 E10.45196
G1 X79.018 Y61.895 E10.47718
G1 X79.512 Y61.376 E10.50241
G1 X79.9 Y60.774 E10.52763
G1 X80.166 Y60.108 E10.55286
G1 X80.302 Y59.404 E10.57808
G1 X80.302 Y58.688 E10.6033
G1 X80.166 Y57.984 E10.62853
G1 X79.9 Y57.319 E10.65375
G1 X79.512 Y56.716 E10.67897
G1 X79.018 Y56.197 E10.7042
G1 X78.434 Y55.781 E10.72942
G1 X77.782 Y55.483 E10.75464
G1 X77.086 Y55.314 E10.77987
G1 X76.598 Y55.291 E10.79705
G1 X76.62 Y55.75 E10.81321
G1 X77.02 Y55.769 E10.82732
G1 X77.632 Y55.917 E10.84947
G1 X78.204 Y56.179 E10.87162
G1 X78.717 Y56.544 E10.89377
G1 X79.151 Y56.999 E10.91592
G1 X79.492 Y57.529 E10.93807
G1 X79.726 Y58.113 E10.96023
G1 X79.845 Y58.731 E10.98238
G1 X79.845 Y59.361 E11.00453
G1 X79.726 Y59.979 E11.02668
G1 X79.492 Y60.563 E11.04883
G1 X79.151 Y61.093 E11.07098
G1 X78.717 Y61.548 E11.09313
G1 X78.204 Y61.913 E11.11529
G1 X77.632 Y62.175 E11.13744
G1 X77.02 Y62.323 E11.15959
G1 X76.62 Y62.342 E11.1737
G1 X76.641 Y61.883 E11.18986
;TYPE:External perimeter
G1 X76.955 Y61.869 E11.20089
G1 X77.482 Y61.741 E11.21997
G1 X77.975 Y61.516 E11.23905
G1 X78.416 Y61.201 E11.25813
G1 X78.79 Y60.809 E11.27721
G1 X79.084 Y60.353 E11.29629
G1 X79.285 Y59.849 E11.31537
G1 X79.388 Y59.317 E11.33445
G1 X79.388 Y58.775 E11.35353
G1 X79.285 Y58.243 E11.37261
G1 X79.084 Y57.739 E11.39169
G1 X78.791 Y57.283 E11.41077
G1 X78.416 Y56.891 E11.42985
G1 X77.975 Y56.576 E11.44892
G1 X77.482 Y56.351 E11.468
G1 X76.955 Y56.223 E11.48708
G1 X76.413 Y56.198 E11.50616
G1 X75.877 Y56.275 E11.52524
G1 X75.364 Y56.452 E11.54432
G1 X74.895 Y56.723 E11.5634
G1 X74.485 Y57.078 E11.58248
G1 X74.15 Y57.504 E11.60156
G1 X73.902 Y57.986 E11.62064
G1 X73.749 Y58.506 E11.63972
G1 X73.697 Y59.046 E11.6588
G1 X73.749 Y59.586 E11.67788
G1 X73.902 Y60.106 E11.69696
G1 X74.15 Y60.588 E11.71604
G1 X74.485 Y61.014 E11.73512
G1 X74.895 Y61.369 E11.75419
G1 X75.364 Y61.64 E11.77327
G1 X75.877 Y61.817 E11.79235
M73 P3 R12
G1 X76.187 Y61.862 E11.80339
;TYPE:Internal perimeter
G1 X76.165 Y62.32 E11.81955
G1 X75.768 Y62.263 E11.83366
G1 X75.174 Y62.057 E11.85581
G1 X74.628 Y61.743 E11.87796
G1 X74.153 Y61.331 E11.90011
G1 X73.764 Y60.836 E11.92226
G1 X73.475 Y60.276 E11.94441
G1 X73.298 Y59.672 E11.96657
G1 X73.238 Y59.046 E11.98872
G1 X73.298 Y58.419 E12.01087
G1 X73.475 Y57.815 E12.03302
G1 X73.764 Y57.256 E12.05517
G1 X74.153 Y56.761 E12.07732
G1 X74.629 Y56.349 E12.09948
G1 X75.174 Y56.034 E12.12163
G1 X75.769 Y55.829 E12.14378
G1 X76.165 Y55.771 E12.15789
G1 X76.143 Y55.313 E12.17405
G1 X75.66 Y55.382 E12.19123
G1 X74.983 Y55.617 E12.21645
G1 X74.362 Y55.975 E12.24167
G1 X73.821 Y56.444 E12.2669
G1 X73.378 Y57.008 E12.29212
G1 X72.997 Y57.746 E12.32135
G1 X72.717 Y57.678 E12.33148
G1 X72.718 Y55.944 E12.3925
G1 X72.659 Y55.27 E12.41633
G1 X72.468 Y54.56 E12.44218
G1 X72.157 Y53.899 E12.4679
G1 X71.762 Y53.336 E12.49211
G1 X71.248 Y52.813 E12.51792
G1 X70.699 Y52.431 E12.54143
G1 X70.78 Y52.175 E12.55088
G1 X92.964 Y52.171 E13.33165
;WIDTH:0.489166
G1 X92.736 Y52.628 E13.34925
;WIDTH:0.5
G1 X71.711 Y52.632 E14.0892
G1 X72.115 Y53.042 E14.10945
G1 X72.553 Y53.669 E14.13639
G1 X72.899 Y54.402 E14.16491
G1 X73.111 Y55.189 E14.1936
G1 X73.175 Y55.924 E14.21956
G1 X73.175 Y56.399 E14.23626
G1 X74.096 Y55.601 E14.27914
G1 X74.792 Y55.199 E14.30743
G1 X75.552 Y54.936 E14.33573
G1 X76.348 Y54.822 E14.36402
G1 X77.151 Y54.86 E14.39232
G1 X77.932 Y55.05 E14.42062
G1 X78.664 Y55.384 E14.44891
G1 X79.319 Y55.85 E14.47721
G1 X79.873 Y56.432 E14.5055
G1 X80.308 Y57.108 E14.5338
G1 X80.607 Y57.855 E14.56209
G1 X80.759 Y58.644 E14.59039
G1 X80.759 Y59.448 E14.61869
G1 X80.607 Y60.238 E14.64698
G1 X80.308 Y60.984 E14.67528
G1 X79.873 Y61.66 E14.70357
G1 X79.318 Y62.242 E14.73187
G1 X78.663 Y62.709 E14.76016
G1 X77.932 Y63.042 E14.78846
G1 X77.151 Y63.232 E14.81676
G1 X76.348 Y63.27 E14.84505
G1 X75.552 Y63.156 E14.87335
G1 X74.792 Y62.893 E14.90164
G1 X74.096 Y62.491 E14.92994
G1 X73.172 Y61.691 E14.97294
G1 X73.172 Y62.165 E14.98965
G1 X73.113 Y62.863 E15.01428
G1 X72.922 Y63.608 E15.04137
G1 X72.628 Y64.276 E15.06703
G1 X72.026 Y65.2 E15.10587
G1 X92.965 Y63.529 E15.84514
;WIDTH:0.401852
G1 X92.508 Y63.107 E15.86274
;WIDTH:0.5
G1 X90.309 Y63.282 E15.94038
G1 X90.213 Y63.021 E15.95018
G1 X90.819 Y62.59 E15.97635
G1 X91.434 Y61.944 E16.00771
G1 X91.916 Y61.195 E16.03908
G1 X92.247 Y60.367 E16.07045
G1 X92.405 Y59.55 E16.09974
G1 X92.736 Y59.581 E16.11144
G1 X92.736 Y62.86 E16.22683
;WIDTH:0.401853
G1 X93.193 Y63.282 E16.24442
;WIDTH:0.5
G1 X93.193 Y53.085 E16.60328
;WIDTH:0.386712
G1 X92.736 Y53.543 E16.62088
;WIDTH:0.5
G1 X92.736 Y58.511 E16.79576
G1 X92.405 Y58.543 E16.80745
G1 X92.247 Y57.726 E16.83675
G1 X91.916 Y56.898 E16.86812
G1 X91.434 Y56.148 E16.89949
G1 X90.819 Y55.503 E16.93086
G1 X90.093 Y54.986 E16.96222
G1 X89.282 Y54.616 E16.99359
G1 X88.416 Y54.406 E17.02496
G1 X87.754 Y54.374 E17.04828
G1 X87.776 Y54.833 E17.06444
G1 X88.351 Y54.86 E17.08469
G1 X89.132 Y55.05 E17.11299
G1 X89.864 Y55.384 E17.14129
G1 X90.519 Y55.85 E17.16958
G1 X91.073 Y56.432 E17.19788
G1 X91.508 Y57.109 E17.22617
G1 X91.807 Y57.855 E17.25447
G1 X91.959 Y58.644 E17.28276
G1 X91.959 Y59.448 E17.31106
G1 X91.807 Y60.238 E17.33936
G1 X91.508 Y60.984 E17.36765
G1 X91.073 Y61.661 E17.39595
G1 X90.518 Y62.242 E17.42424
G1 X89.863 Y62.709 E17.45254
G1 X89.132 Y63.043 E17.48083
G1 X88.351 Y63.232 E17.50913
G1 X87.548 Y63.271 E17.53743
G1 X86.752 Y63.156 E17.56572
G1 X85.992 Y62.893 E17.59402
G1 X85.296 Y62.491 E17.62231
G1 X84.688 Y61.965 E17.65061
G1 X84.191 Y61.333 E17.6789
G1 X83.823 Y60.618 E17.7072
G1 X83.596 Y59.847 E17.7355
G1 X83.52 Y59.046 E17.76379
G1 X83.596 Y58.246 E17.79209
G1 X83.823 Y57.474 E17.82038
G1 X84.191 Y56.76 E17.84868
G1 X84.688 Y56.128 E17.87697
G1 X85.296 Y55.601 E17.90527
G1 X85.992 Y55.199 E17.93357
G1 X86.752 Y54.936 E17.96186
G1 X86.869 Y54.92 E17.96603
G1 X87.117 Y55.346 E17.98338
G1 X86.86 Y55.383 E17.99252
G1 X86.183 Y55.617 E18.01774
G1 X85.562 Y55.975 E18.04297
G1 X85.021 Y56.445 E18.06819
G1 X84.578 Y57.008 E18.09341
G1 X84.249 Y57.645 E18.11864
G1 X84.047 Y58.333 E18.14386
G1 X83.979 Y59.046 E18.16908
G1 X84.047 Y59.76 E18.19431
G1 X84.249 Y60.447 E18.21953
G1 X84.577 Y61.084 E18.24475
G1 X85.02 Y61.648 E18.26998
G1 X85.562 Y62.117 E18.2952
G1 X86.183 Y62.475 E18.32043
G1 X86.86 Y62.71 E18.34565
G1 X87.569 Y62.812 E18.37087
G1 X88.285 Y62.778 E18.3961
G1 X88.982 Y62.609 E18.42132
G1 X89.634 Y62.311 E18.44654
G1 X90.218 Y61.895 E18.47177
G1 X90.712 Y61.377 E18.49699
G1 X91.1 Y60.774 E18.52221
G1 X91.366 Y60.109 E18.54744
G1 X91.502 Y59.405 E18.57266
G1 X91.502 Y58.688 E18.59789
G1 X91.366 Y57.984 E18.62311
G1 X91.1 Y57.319 E18.64833
G1 X90.712 Y56.716 E18.67356
G1 X90.218 Y56.197 E18.69878
G1 X89.634 Y55.782 E18.724
G1 X88.982 Y55.484 E18.74923
G1 X88.286 Y55.315 E18.77445
G1 X88.026 Y55.302 E18.78359
G1 X88.048 Y55.761 E18.79975
G1 X88.22 Y55.769 E18.80581
G1 X88.832 Y55.918 E18.82796
G1 X89.404 Y56.179 E18.85012
G1 X89.917 Y56.544 E18.87227
G1 X90.351 Y57 E18.89442
G1 X90.692 Y57.529 E18.91657
G1 X90.926 Y58.114 E18.93872
G1 X91.045 Y58.732 E18.96087
G1 X91.045 Y59.361 E18.98302
G1 X90.926 Y59.979 E19.00518
G1 X90.692 Y60.563 E19.02733
G1 X90.351 Y61.093 E19.04948
G1 X89.917 Y61.548 E19.07163
G1 X89.404 Y61.914 E19.09378
G1 X88.832 Y62.175 E19.11593
G1 X88.22 Y62.323 E19.13808
G1 X87.82 Y62.342 E19.15219
G1 X87.841 Y61.884 E19.16835
;TYPE:External perimeter
G1 X88.155 Y61.869 E19.17939
G1 X88.682 Y61.741 E19.19847
G1 X89.175 Y61.516 E19.21755
G1 X89.616 Y61.201 E19.23663
G1 X89.99 Y60.809 E19.25571
G1 X90.284 Y60.353 E19.27479
G1 X90.485 Y59.85 E19.29387
G1 X90.588 Y59.317 E19.31294
G1 X90.588 Y58.775 E19.33202
G1 X90.485 Y58.243 E19.3511
G1 X90.284 Y57.74 E19.37018
G1 X89.991 Y57.284 E19.38926
G1 X89.616 Y56.891 E19.40834
M73 P4 R12
G1 X89.175 Y56.577 E19.42742
G1 X88.682 Y56.352 E19.4465
G1 X88.155 Y56.224 E19.46558
G1 X87.613 Y56.198 E19.48466
G1 X87.077 Y56.275 E19.50374
G1 X86.564 Y56.452 E19.52282
G1 X86.095 Y56.723 E19.5419
G1 X85.685 Y57.078 E19.56098
G1 X85.35 Y57.505 E19.58006
G1 X85.102 Y57.986 E19.59913
G1 X84.949 Y58.507 E19.61821
G1 X84.897 Y59.046 E19.63729
G1 X84.949 Y59.586 E19.65637
G1 X85.102 Y60.106 E19.67545
G1 X85.35 Y60.588 E19.69453
G1 X85.685 Y61.014 E19.71361
G1 X86.095 Y61.369 E19.73269
G1 X86.564 Y61.64 E19.75177
G1 X87.077 Y61.817 E19.77085
G1 X87.387 Y61.862 E19.78189
;TYPE:Internal perimeter
G1 X87.365 Y62.321 E19.79804
G1 X86.968 Y62.264 E19.81215
G1 X86.374 Y62.058 E19.8343
G1 X85.828 Y61.743 E19.85646
G1 X85.353 Y61.331 E19.87861
G1 X84.964 Y60.836 E19.90076
G1 X84.675 Y60.277 E19.92291
G1 X84.498 Y59.673 E19.94506
G1 X84.438 Y59.046 E19.96721
G1 X84.498 Y58.42 E19.98936
G1 X84.675 Y57.816 E20.01152
G1 X84.964 Y57.256 E20.03367
G1 X85.353 Y56.762 E20.05582
G1 X85.829 Y56.349 E20.07797
G1 X86.374 Y56.035 E20.10012
G1 X86.969 Y55.829 E20.12227
G1 X87.592 Y55.739 E20.14443
G1 X87.57 Y55.281 E20.16058
G1 X87.322 Y54.855 E20.17794
G1 X87.3 Y54.396 E20.1941
G1 X86.644 Y54.49 E20.21742
G1 X85.802 Y54.782 E20.24879
G1 X85.03 Y55.227 E20.28016
G1 X84.356 Y55.811 E20.31153
G1 X83.805 Y56.512 E20.34289
G1 X83.397 Y57.304 E20.37426
G1 X83.145 Y58.159 E20.40563
G1 X83.061 Y59.046 E20.437
G1 X83.145 Y59.933 E20.46837
G1 X83.397 Y60.789 E20.49973
G1 X83.805 Y61.581 E20.5311
G1 X84.356 Y62.281 E20.56247
G1 X85.029 Y62.865 E20.59384
G1 X85.913 Y63.375 E20.62975
G1 X85.854 Y63.638 E20.63922
G1 X72.955 Y64.668 E21.09462
G1 X73.356 Y63.758 E21.12959
G1 X73.616 Y62.742 E21.16652
G1 X74.601 Y63.31 E21.20655
G1 X75.444 Y63.602 E21.23792
G1 X76.326 Y63.729 E21.26929
G1 X77.216 Y63.686 E21.30066
G1 X78.082 Y63.476 E21.33202
G1 X78.893 Y63.106 E21.36339
G1 X79.619 Y62.589 E21.39476
G1 X80.234 Y61.944 E21.42613
G1 X80.716 Y61.194 E21.4575
G1 X81.047 Y60.367 E21.48886
G1 X81.216 Y59.492 E21.52023
G1 X81.216 Y58.6 E21.5516
G1 X81.047 Y57.725 E21.58297
G1 X80.716 Y56.898 E21.61433
G1 X80.234 Y56.148 E21.6457
G1 X79.619 Y55.503 E21.67707
G1 X78.893 Y54.986 E21.70844
G1 X78.082 Y54.616 E21.73981
G1 X77.216 Y54.405 E21.77117
G1 X76.326 Y54.363 E21.80254
G1 X75.444 Y54.49 E21.83391
G1 X74.602 Y54.781 E21.86528
G1 X73.626 Y55.344 E21.90491
G1 X73.329 Y54.244 E21.94502
G1 X72.95 Y53.439 E21.97634
G1 X72.705 Y53.089 E21.99137
G1 X92.736 Y53.085 E22.69632
;WIDTH:0.386712
G1 X93.193 Y52.628 E22.71392
;WIDTH:0.489166
G1 X93.422 Y52.171 E22.73151
;WIDTH:0.386712
G1 X93.879 Y51.714 E22.74911
;WIDTH:0.5
G1 X29.785 Y51.726 E25.00482
G1 X26.812 Y54.696 E25.15273
G1 X26.81 Y59.038 E25.30551
G1 X27.095 Y59.102 E25.31581
G1 X27.409 Y58.439 E25.34161
G1 X27.776 Y57.953 E25.36305
G1 X28.233 Y57.55 E25.3845
G1 X28.761 Y57.247 E25.40594
G1 X29.34 Y57.057 E25.42738
G1 X29.718 Y57.013 E25.44078
G1 X29.712 Y56.554 E25.45695
G1 X29.242 Y56.608 E25.47362
G1 X28.575 Y56.827 E25.49834
G1 X27.965 Y57.176 E25.52305
G1 X27.268 Y57.791 E25.55579
G1 X27.269 Y54.886 E25.65805
G1 X29.974 Y52.183 E25.79264
G1 X48.641 Y52.179 E26.4496
G1 X48.722 Y52.434 E26.45901
G1 X48.187 Y52.813 E26.48209
G1 X47.7 Y53.3 E26.50632
