; generated by SuperSlicer 2.5.59 on 2023-05-28 at 20:39:13 UTC


;
;

;
;
; 

; external perimeters extrusion width = 0.40mm
; perimeters extrusion width = 0.46mm
; infill extrusion width = 0.64mm
; solid infill extrusion width = 0.56mm
; top infill extrusion width = 0.40mm
; first layer extrusion width = 0.50mm

; object:{"name":"Z chain Mount-Edited","id":"Z chain Mount-Edited.stl id:0 copy 0","object_center":[60.000000,60.000000,0.000000],"boundingbox_center":[60.000000,60.000000,2.500000],"boundingbox_size":[22.800007,68.199997,5.000000]}
EXCLUDE_OBJECT_DEFINE NAME=Z_chain_Mount_Edited_stl_id_0_copy_0 CENTER=60.000000,60.000000 POLYGON=[[48.600000,29.900002],[48.807116,29.692882],[52.495460,26.004532],[52.599992,25.900002],[68.399992,25.900002],[71.400008,26.140004],[71.400008,44.107880],[68.331952,94.098768],[53.307116,94.100000],[48.600000,41.899996],[48.600000,29.900002]]
; plater:{"center":[60.000000,60.000000,0.000000],"boundingbox_center":[60.000000,60.000000,2.500000],"boundingbox_size":[22.800007,68.199997,5.000000]}

M73 P0 R12
;TYPE:Custom
; custom gcode: start_gcode
START_PRINT T_BED=110 T_EXTRUDER=260
; custom gcode end: start_gcode
M107
G21 ; set units to millimeters
G90 ; use absolute coordinates
M82 ; use absolute distances for extrusion
G92 E0
; custom gcode: start_filament_gcode
; Filament gcode

    PRESSURE_ADVANCE_SELECT FILAMENT=ABS
; custom gcode end: start_filament_gcode
;_TOOLCHANGE 0
M104 S260 ; set temperature
M109 S260 ; set temperature and wait for it to be reached
M190 S110 ; set bed temperature and wait for it to be reached
;LAYER_CHANGE
;Z:0.2
;HEIGHT:0.2
G1 Z0.2 F12000
M73 P0 R12
G1 E-0.5 F3000
M204 S2000
G1 X46.429 Y28.47 F12000
G1 E0 F1800
;TYPE:Skirt
;WIDTH:0.52
G1 X46.053 Y29.376 E0.03603
G1 X45.884 Y30.57 E0.08034
G1 X45.894 Y41.497 E0.48171
G1 X49.701 Y94.267 E2.42521
M73 P0 R12
G1 X50.429 Y96.221 E2.5018
G1 X51.741 Y97.321 E2.5647
G1 X53.407 Y97.716 E2.62761
G1 X68.232 Y97.714 E3.17218
G1 X70.267 Y97.108 E3.25016
G1 X71.445 Y95.865 E3.31307
G1 X71.941 Y94.226 E3.37597
G1 X75.009 Y44.135 E5.21945
G1 X75.016 Y27.136 E5.84388
G1 X74.446 Y25.159 E5.91948
G1 X73.225 Y23.958 E5.98238
G1 X71.595 Y23.432 E6.04529
G1 X68.335 Y23.184 E6.16539
G1 X53.27 Y23.184 E6.71876
G1 X52.076 Y23.353 E6.76307
G1 X51.273 Y23.673 E6.79482
G1 X50.466 Y24.217 E6.83058
G1 X47.154 Y27.506 E7.00203
G1 X46.429 Y28.47 E7.04634
G1 X46.849 Y28.696 F12000
G1 F1800
G1 X46.51 Y29.513 E7.07884
G1 X46.361 Y30.57 E7.11806
G1 X46.37 Y41.463 E7.51817
G1 X50.177 Y94.233 E9.46167
M73 P1 R12
G1 X50.688 Y95.759 E9.52079
G1 X51.86 Y96.845 E9.57946
G1 X53.407 Y97.239 E9.63813
G1 X68.232 Y97.237 E10.1827
G1 X69.821 Y96.82 E10.24305
G1 X70.977 Y95.718 E10.30172
G1 X71.464 Y94.197 E10.36039
G1 X74.532 Y44.106 E12.20387
G1 X74.539 Y27.136 E12.82723
G1 X74.15 Y25.599 E12.88548
G1 X73.069 Y24.423 E12.94415
G1 X71.557 Y23.908 E13.00282
G1 X68.335 Y23.662 E13.12154
G1 X53.27 Y23.661 E13.6749
G1 X52.213 Y23.81 E13.71412
G1 X51.499 Y24.093 E13.74234
G1 X50.77 Y24.585 E13.77465
G1 X47.491 Y27.843 E13.94444
G1 X46.849 Y28.696 E13.98365
G92 E0
G1 E-0.5 F3000
; printing object Z chain Mount-Edited.stl id:0 copy 0
EXCLUDE_OBJECT_START NAME=Z_chain_Mount_Edited_stl_id_0_copy_0
G1 X50.623 Y35.048 F12000
G1 E0 F1800
;TYPE:Internal perimeter
;WIDTH:0.5
G1 X50.703 Y34.789 E0.00957
G1 X50.912 Y34.365 E0.02619
G1 X51.184 Y33.979 E0.04281
G1 X51.513 Y33.64 E0.05944
G1 X51.891 Y33.357 E0.07606
G1 X52.308 Y33.136 E0.09268
G1 X52.755 Y32.984 E0.1093
G1 X53.221 Y32.903 E0.12592
G1 X53.693 Y32.897 E0.14254
G1 X54.16 Y32.964 E0.15916
G1 X54.611 Y33.103 E0.17578
G1 X55.035 Y33.312 E0.1924
G1 X55.421 Y33.584 E0.20902
G1 X55.76 Y33.913 E0.22564
G1 X56.043 Y34.291 E0.24226
G1 X56.264 Y34.708 E0.25888
G1 X56.416 Y35.155 E0.2755
G1 X56.497 Y35.621 E0.29212
G1 X56.503 Y36.093 E0.30874
G1 X56.436 Y36.56 E0.32536
G1 X56.297 Y37.011 E0.34198
G1 X56.088 Y37.435 E0.3586
G1 X55.816 Y37.821 E0.37523
G1 X55.487 Y38.16 E0.39185
G1 X55.104 Y38.447 E0.40869
G1 X54.603 Y38.694 E0.42836
G1 X54.245 Y38.816 E0.44168
G1 X53.779 Y38.897 E0.4583
G1 X53.536 Y38.9 E0.46688
G1 X53.565 Y38.443 E0.48301
;TYPE:External perimeter
G1 X53.737 Y38.44 E0.48906
G1 X54.131 Y38.372 E0.50315
G1 X54.428 Y38.271 E0.51416
G1 X54.864 Y38.056 E0.53129
G1 X55.185 Y37.816 E0.54538
G1 X55.464 Y37.529 E0.55947
G1 X55.694 Y37.201 E0.57356
G1 X55.871 Y36.842 E0.58765
G1 X55.989 Y36.46 E0.60173
G1 X56.046 Y36.063 E0.61582
G1 X56.04 Y35.663 E0.62991
G1 X55.972 Y35.269 E0.644
G1 X55.843 Y34.89 E0.65809
G1 X55.656 Y34.536 E0.67218
G1 X55.416 Y34.215 E0.68626
G1 X55.129 Y33.936 E0.70035
G1 X54.801 Y33.706 E0.71444
G1 X54.442 Y33.529 E0.72853
G1 X54.06 Y33.411 E0.74262
G1 X53.663 Y33.354 E0.75671
G1 X53.263 Y33.36 E0.7708
G1 X52.869 Y33.428 E0.78488
G1 X52.49 Y33.557 E0.79897
G1 X52.136 Y33.744 E0.81306
G1 X51.815 Y33.984 E0.82715
G1 X51.536 Y34.271 E0.84124
G1 X51.306 Y34.599 E0.85533
G1 X51.129 Y34.958 E0.86942
G1 X51.011 Y35.34 E0.8835
G1 X50.954 Y35.737 E0.89759
G1 X50.96 Y36.137 E0.91168
G1 X51.028 Y36.531 E0.92577
G1 X51.157 Y36.91 E0.93986
G1 X51.344 Y37.264 E0.95395
G1 X51.584 Y37.585 E0.96803
G1 X51.871 Y37.864 E0.98212
G1 X52.199 Y38.094 E0.99621
G1 X52.558 Y38.271 E1.0103
G1 X52.94 Y38.389 E1.02439
G1 X53.11 Y38.413 E1.03043
;TYPE:Internal perimeter
G1 X53.081 Y38.871 E1.04657
G1 X52.84 Y38.836 E1.05515
G1 X52.389 Y38.697 E1.07177
G1 X51.965 Y38.488 E1.08839
G1 X51.579 Y38.216 E1.10501
G1 X51.24 Y37.887 E1.12163
G1 X50.957 Y37.509 E1.13825
G1 X50.736 Y37.092 E1.15487
G1 X50.62 Y36.75 E1.16757
G1 X50.314 Y36.801 E1.17849
G1 X50.319 Y41.205 E1.33347
G1 X53.146 Y44.032 E1.47418
;WIDTH:0.48237
G1 X52.997 Y44.528 E1.49178
;TYPE:External perimeter
;WIDTH:0.5
G1 X49.966 Y41.499 E1.6426
G1 X49.918 Y41.44 E1.64529
G1 X49.862 Y41.305 E1.65043
G1 X49.85 Y30.594 E2.02738
G1 X49.881 Y30.431 E2.03323
G1 X49.975 Y30.293 E2.03909
G1 X53.001 Y27.266 E2.18973
G1 X53.06 Y27.218 E2.19242
G1 X53.197 Y27.161 E2.19765
G1 X68.325 Y27.15 E2.73003
G1 X71.05 Y27.367 E2.82625
M73 P2 R12
G1 X71.05 Y43.658 E3.39958
G1 X67.894 Y43.658 E3.51065
G1 X67.902 Y45.15 E3.56317
G1 X67.941 Y45.15 E3.56457
G1 X67.941 Y45.35 E3.57161
G1 X67.982 Y45.35 E3.57304
G1 X67.982 Y93.749 E5.27638
G1 X53.657 Y93.75 E5.78052
G1 X53.657 Y44.686 E7.50729
G1 X53.421 Y44.663 E7.51563
;TYPE:Internal perimeter
G1 X53.535 Y44.215 E7.53191
G1 X54.114 Y44.27 E7.55238
G1 X54.114 Y93.293 E9.27769
G1 X58.15 Y93.293 E9.41972
G1 X58.214 Y93.006 E9.43004
G1 X57.644 Y92.739 E9.45219
G1 X57.241 Y92.473 E9.46919
G1 X56.881 Y92.15 E9.4862
G1 X56.572 Y91.779 E9.5032
G1 X56.32 Y91.366 E9.5202
G1 X56.131 Y90.922 E9.53721
G1 X56.009 Y90.454 E9.55421
G1 X55.956 Y89.974 E9.57121
G1 X55.974 Y89.491 E9.58821
G1 X56.061 Y89.016 E9.60522
G1 X56.217 Y88.559 E9.62222
G1 X56.438 Y88.129 E9.63922
G1 X56.719 Y87.737 E9.65623
G1 X57.055 Y87.389 E9.67323
G1 X57.437 Y87.093 E9.69023
G1 X57.858 Y86.857 E9.70723
G1 X58.31 Y86.684 E9.72424
G1 X58.781 Y86.579 E9.74124
G1 X59.263 Y86.544 E9.75824
G1 X59.745 Y86.579 E9.77524
G1 X60.216 Y86.684 E9.79225
G1 X60.668 Y86.857 E9.80925
G1 X61.089 Y87.093 E9.82625
G1 X61.471 Y87.389 E9.84326
G1 X61.807 Y87.737 E9.86026
G1 X62.088 Y88.129 E9.87726
G1 X62.309 Y88.559 E9.89426
G1 X62.465 Y89.016 E9.91127
G1 X62.552 Y89.491 E9.92827
G1 X62.57 Y89.974 E9.94527
G1 X62.517 Y90.454 E9.96228
G1 X62.395 Y90.922 E9.97928
G1 X62.206 Y91.366 E9.99628
G1 X61.954 Y91.779 E10.01328
G1 X61.645 Y92.15 E10.03029
G1 X61.286 Y92.473 E10.04729
G1 X60.883 Y92.739 E10.06429
G1 X60.52 Y92.909 E10.07839
G1 X60.488 Y92.419 E10.09567
;TYPE:External perimeter
G1 X60.658 Y92.34 E10.10227
G1 X61.006 Y92.11 E10.11692
G1 X61.316 Y91.832 E10.13157
G1 X61.582 Y91.512 E10.14622
G1 X61.799 Y91.157 E10.16086
G1 X61.961 Y90.774 E10.17551
G1 X62.067 Y90.371 E10.19016
G1 X62.112 Y89.957 E10.20481
G1 X62.097 Y89.542 E10.21946
G1 X62.021 Y89.132 E10.23411
G1 X61.887 Y88.738 E10.24875
G1 X61.697 Y88.368 E10.2634
G1 X61.454 Y88.03 E10.27805
M73 P3 R12
G1 X61.166 Y87.73 E10.2927
G1 X60.836 Y87.476 E10.30735
G1 X60.473 Y87.272 E10.32199
G1 X60.084 Y87.123 E10.33664
G1 X59.678 Y87.033 E10.35129
G1 X59.263 Y87.002 E10.36594
G1 X58.848 Y87.033 E10.38059
G1 X58.442 Y87.123 E10.39523
G1 X58.053 Y87.272 E10.40988
G1 X57.69 Y87.476 E10.42453
G1 X57.361 Y87.73 E10.43918
G1 X57.072 Y88.03 E10.45383
G1 X56.83 Y88.368 E10.46847
G1 X56.639 Y88.738 E10.48312
G1 X56.505 Y89.132 E10.49777
G1 X56.429 Y89.542 E10.51242
G1 X56.414 Y89.957 E10.52707
G1 X56.46 Y90.371 E10.54171
G1 X56.565 Y90.774 E10.55636
G1 X56.728 Y91.157 E10.57101
G1 X56.944 Y91.512 E10.58566
G1 X57.211 Y91.832 E10.60031
G1 X57.521 Y92.11 E10.61495
G1 X57.868 Y92.34 E10.6296
G1 X58.245 Y92.516 E10.64425
G1 X58.643 Y92.636 E10.6589
G1 X59.055 Y92.697 E10.67355
G1 X59.471 Y92.697 E10.68819
G1 X59.883 Y92.636 E10.70284
G1 X60.063 Y92.582 E10.70945
;TYPE:Internal perimeter
;WIDTH:0.350417
G1 X60.363 Y93.229 E10.72704
;WIDTH:0.5
G1 X60.377 Y93.292 E10.72932
G1 X67.525 Y93.292 E10.98088
G1 X67.525 Y45.807 E12.65205
G1 X67.484 Y45.807 E12.65348
G1 X67.484 Y45.607 E12.66052
G1 X67.447 Y45.607 E12.66184
G1 X67.435 Y43.201 E12.74653
G1 X70.593 Y43.201 E12.85768
G1 X70.593 Y27.789 E13.40007
G1 X68.535 Y27.625 E13.47274
G1 X68.516 Y28.082 E13.48884
G1 X70.136 Y28.211 E13.54602
G1 X70.136 Y42.744 E14.05746
G1 X66.975 Y42.744 E14.16869
G1 X66.992 Y46.064 E14.28556
G1 X67.027 Y46.064 E14.2868
G1 X67.027 Y46.264 E14.29384
G1 X67.068 Y46.264 E14.29526
G1 X67.068 Y92.835 E15.93426
G1 X61.566 Y92.835 E16.12789
G1 X61.975 Y92.468 E16.14724
G1 X62.327 Y92.046 E16.1666
G1 X62.614 Y91.576 E16.18596
G1 X62.829 Y91.07 E16.20531
G1 X62.968 Y90.538 E16.22467
G1 X63.028 Y89.991 E16.24403
G1 X63.008 Y89.441 E16.26339
G1 X62.908 Y88.9 E16.28274
G1 X62.731 Y88.38 E16.3021
G1 X62.479 Y87.891 E16.32146
G1 X62.159 Y87.443 E16.34082
G1 X61.777 Y87.047 E16.36017
G1 X61.342 Y86.711 E16.37953
G1 X60.862 Y86.442 E16.39889
G1 X60.349 Y86.246 E16.41825
G1 X59.812 Y86.126 E16.4376
G1 X59.263 Y86.086 E16.45696
G1 X58.715 Y86.126 E16.47632
G1 X58.178 Y86.246 E16.49568
G1 X57.664 Y86.442 E16.51503
G1 X57.184 Y86.711 E16.53439
G1 X56.749 Y87.047 E16.55375
G1 X56.367 Y87.443 E16.57311
G1 X56.047 Y87.891 E16.59246
G1 X55.796 Y88.38 E16.61182
G1 X55.618 Y88.9 E16.63118
G1 X55.518 Y89.441 E16.65054
G1 X55.498 Y89.991 E16.66989
G1 X55.558 Y90.538 E16.68925
G1 X55.697 Y91.07 E16.70861
G1 X55.823 Y91.366 E16.71992
G1 X55.416 Y91.575 E16.73605
G1 X55.321 Y91.353 E16.74455
G1 X55.028 Y91.413 E16.75507
G1 X55.028 Y92.379 E16.78907
G1 X55.867 Y92.379 E16.81857
G1 X55.624 Y91.981 E16.83498
G1 X56.032 Y91.771 E16.85111
G1 X56.199 Y92.046 E16.86242
G1 X56.551 Y92.468 E16.88178
G1 X56.961 Y92.836 E16.90115
G1 X54.571 Y92.836 E16.98524
G1 X54.571 Y43.854 E18.70909
M73 P4 R12
G1 X53.514 Y43.754 E18.74646
G1 X50.776 Y41.015 E18.88276
G1 X50.772 Y38.07 E18.9864
G1 X51.286 Y38.569 E19.0116
G1 X51.731 Y38.883 E19.03075
G1 X52.219 Y39.123 E19.0499
G1 X52.739 Y39.284 E19.06906
G1 X53.278 Y39.361 E19.08821
G1 X53.822 Y39.353 E19.10736
G1 X54.358 Y39.26 E19.12651
G1 X54.778 Y39.117 E19.14214
G1 X55.344 Y38.838 E19.16433
G1 X55.79 Y38.504 E19.18394
G1 X56.169 Y38.114 E19.20309
G1 X56.483 Y37.669 E19.22225
G1 X56.723 Y37.181 E19.2414
G1 X56.884 Y36.661 E19.26055
G1 X56.961 Y36.122 E19.2797
G1 X56.953 Y35.578 E19.29886
G1 X56.86 Y35.042 E19.31801
G1 X56.685 Y34.527 E19.33716
G1 X56.431 Y34.045 E19.35632
G1 X56.104 Y33.61 E19.37547
G1 X55.714 Y33.231 E19.39462
G1 X55.269 Y32.917 E19.41377
G1 X54.781 Y32.677 E19.43293
G1 X54.261 Y32.516 E19.45208
G1 X53.722 Y32.439 E19.47123
G1 X53.178 Y32.447 E19.49038
G1 X52.642 Y32.54 E19.50954
G1 X52.127 Y32.715 E19.52869
G1 X51.645 Y32.969 E19.54784
G1 X51.21 Y33.296 E19.56699
G1 X50.768 Y33.751 E19.58933
G1 X50.764 Y30.796 E19.69331
G1 X53.486 Y28.075 E19.82876
G1 X67.603 Y28.065 E20.3256
;WIDTH:0.496926
G1 X67.814 Y28.522 E20.3432
;WIDTH:0.5
G1 X53.675 Y28.532 E20.84078
G1 X51.222 Y30.985 E20.9629
G1 X51.224 Y32.675 E21.02237
G1 X51.945 Y32.294 E21.05109
G1 X52.528 Y32.096 E21.07278
G1 X53.135 Y31.99 E21.09446
G1 X53.752 Y31.982 E21.11615
G1 X54.361 Y32.069 E21.13783
G1 X54.95 Y32.251 E21.15951
G1 X55.503 Y32.523 E21.1812
G1 X56.007 Y32.878 E21.20288
G1 X56.449 Y33.307 E21.22457
G1 X56.818 Y33.8 E21.24625
G1 X57.106 Y34.345 E21.26794
G1 X57.304 Y34.928 E21.28962
G1 X57.41 Y35.535 E21.31131
G1 X57.418 Y36.152 E21.33299
G1 X57.331 Y36.761 E21.35468
G1 X57.149 Y37.35 E21.37636
G1 X56.877 Y37.903 E21.39805
G1 X56.522 Y38.407 E21.41973
G1 X56.093 Y38.849 E21.44142
G1 X55.584 Y39.23 E21.46378
G1 X54.954 Y39.54 E21.48851
G1 X54.472 Y39.704 E21.50644
G1 X53.865 Y39.81 E21.52813
G1 X53.248 Y39.818 E21.54981
G1 X52.639 Y39.731 E21.5715
G1 X52.05 Y39.549 E21.59318
G1 X51.231 Y39.146 E21.6253
G1 X51.233 Y40.826 E21.6844
G1 X53.721 Y43.314 E21.80827
G1 X55.028 Y43.438 E21.85448
G1 X55.028 Y77.061 E23.03779
G1 X55.308 Y77.129 E23.04791
G1 X55.656 Y76.452 E23.0747
G1 X56.015 Y75.95 E23.09641
G1 X56.443 Y75.506 E23.11812
G1 X56.931 Y75.129 E23.13983
G1 X57.469 Y74.827 E23.16155
G1 X58.046 Y74.607 E23.18326
G1 X58.648 Y74.473 E23.20497
G1 X59.035 Y74.444 E23.21864
G1 X59.035 Y74.903 E23.23477
G1 X58.715 Y74.926 E23.24608
G1 X58.178 Y75.046 E23.26544
G1 X57.664 Y75.242 E23.2848
G1 X57.184 Y75.511 E23.30416
G1 X56.749 Y75.847 E23.32351
G1 X56.367 Y76.243 E23.34287
G1 X56.047 Y76.691 E23.36223
G1 X55.796 Y77.18 E23.38159
G1 X55.618 Y77.7 E23.40094
G1 X55.518 Y78.241 E23.4203
G1 X55.498 Y78.791 E23.43966
G1 X55.558 Y79.338 E23.45902
G1 X55.697 Y79.87 E23.47837
G1 X55.912 Y80.376 E23.49773
G1 X56.199 Y80.846 E23.51709
G1 X56.551 Y81.268 E23.53645
G1 X56.96 Y81.635 E23.5558
G1 X57.419 Y81.939 E23.57516
G1 X57.917 Y82.172 E23.59452
G1 X58.444 Y82.331 E23.61388
G1 X58.988 Y82.411 E23.63323
G1 X59.538 Y82.411 E23.65259
G1 X60.082 Y82.331 E23.67195
G1 X60.609 Y82.172 E23.69131
G1 X61.107 Y81.939 E23.71066
G1 X61.566 Y81.635 E23.73002
G1 X61.975 Y81.268 E23.74938
G1 X62.327 Y80.846 E23.76874
G1 X62.614 Y80.376 E23.78809
G1 X62.829 Y79.87 E23.80745
G1 X62.968 Y79.338 E23.82681
G1 X63.028 Y78.791 E23.84617
G1 X63.008 Y78.241 E23.86552
G1 X62.908 Y77.7 E23.88488
G1 X62.731 Y77.18 E23.90424
G1 X62.479 Y76.691 E23.9236
G1 X62.159 Y76.243 E23.94295
G1 X61.777 Y75.847 E23.96231
G1 X61.342 Y75.511 E23.98167
G1 X60.862 Y75.242 E24.00103
G1 X60.349 Y75.046 E24.02038
G1 X59.944 Y74.955 E24.03497
G1 X59.719 Y75.377 E24.0518
G1 X60.216 Y75.484 E24.06971
G1 X60.668 Y75.657 E24.08671
G1 X61.089 Y75.893 E24.10372
G1 X61.471 Y76.189 E24.12072
G1 X61.807 Y76.537 E24.13772
G1 X62.088 Y76.929 E24.15473
G1 X62.309 Y77.359 E24.17173
G1 X62.465 Y77.816 E24.18873
G1 X62.552 Y78.291 E24.20573
G1 X62.57 Y78.774 E24.22274
G1 X62.517 Y79.254 E24.23974
G1 X62.395 Y79.722 E24.25674
G1 X62.206 Y80.166 E24.27375
G1 X61.954 Y80.579 E24.29075
G1 X61.645 Y80.95 E24.30775
G1 X61.286 Y81.273 E24.32475
G1 X60.883 Y81.539 E24.34176
G1 X60.445 Y81.744 E24.35876
G1 X59.983 Y81.883 E24.37576
G1 X59.731 Y81.92 E24.38472
G1 X59.697 Y81.463 E24.40085
;TYPE:External perimeter
G1 X59.883 Y81.436 E24.40746
G1 X60.282 Y81.316 E24.4221
G1 X60.658 Y81.14 E24.43675
G1 X61.006 Y80.91 E24.4514
G1 X61.316 Y80.632 E24.46605
G1 X61.582 Y80.312 E24.4807
G1 X61.799 Y79.957 E24.49534
G1 X61.961 Y79.574 E24.50999
G1 X62.067 Y79.171 E24.52464
G1 X62.112 Y78.757 E24.53929
G1 X62.097 Y78.342 E24.55394
G1 X62.021 Y77.932 E24.56858
G1 X61.887 Y77.538 E24.58323
G1 X61.697 Y77.168 E24.59788
G1 X61.454 Y76.83 E24.61253
G1 X61.166 Y76.53 E24.62718
G1 X60.836 Y76.276 E24.64182
G1 X60.473 Y76.072 E24.65647
G1 X60.084 Y75.923 E24.67112
G1 X59.678 Y75.833 E24.68577
G1 X59.263 Y75.802 E24.70042
G1 X58.848 Y75.833 E24.71506
G1 X58.442 Y75.923 E24.72971
G1 X58.053 Y76.072 E24.74436
G1 X57.69 Y76.276 E24.75901
G1 X57.361 Y76.53 E24.77366
G1 X57.072 Y76.83 E24.7883
G1 X56.83 Y77.168 E24.80295
G1 X56.639 Y77.538 E24.8176
G1 X56.505 Y77.932 E24.83225
G1 X56.429 Y78.342 E24.8469
G1 X56.414 Y78.757 E24.86154
G1 X56.46 Y79.171 E24.87619
G1 X56.565 Y79.574 E24.89084
G1 X56.728 Y79.957 E24.90549
G1 X56.944 Y80.312 E24.92014
G1 X57.211 Y80.632 E24.93478
