; HEADER_BLOCK_START
; generated by OrcaSlicer 1.6.4-beta2 on 2023-08-12 at 11:06:04
; total layer number: 25
; HEADER_BLOCK_END

; THUMBNAIL_BLOCK_START
; THUMBNAIL_BLOCK_END

; external perimeters extrusion width = 0.40mm
; perimeters extrusion width = 0.46mm
; infill extrusion width = 0.64mm
; solid infill extrusion width = 0.56mm
; top infill extrusion width = 0.40mm
; support material extrusion width = 0.46mm
; first layer extrusion width = 0.50mm

; external perimeters extrusion width = 0.40mm
; perimeters extrusion width = 0.46mm
; infill extrusion width = 0.64mm
; solid infill extrusion width = 0.56mm
; top infill extrusion width = 0.40mm
; support material extrusion width = 0.46mm
; first layer extrusion width = 0.50mm

; EXECUTABLE_BLOCK_START
EXCLUDE_OBJECT_DEFINE NAME=Z_chain_Mount-Edited.stl_id_0_copy_0 CENTER=60.8142,75.0009 POLYGON=[[26.7142,67.6009],[26.7142,67.6009],[30.6097,63.7055],[30.7142,63.6009],[42.7142,63.6009],[94.9142,68.308],[94.913,83.3329],[44.9221,86.4009],[26.9542,86.4009],[26.7142,83.4009],[26.7142,67.6009]]
EXCLUDE_OBJECT_DEFINE NAME=Z_chain_Mount-Editeed.stl_id_1_copy_0 CENTER=60,43.6 POLYGON=[[25.0856,49.599],[25.0856,49.4511],[25.0856,49.306],[25.086,37.8918],[25.086,37.599],[25.1905,37.4944],[25.2931,37.3918],[28.879,33.8061],[28.9816,33.7036],[29.0861,33.5991],[29.2339,33.5991],[29.379,33.5991],[94.9143,33.601],[94.9144,33.6025],[94.9144,34.603],[94.914,48.6031],[94.9139,49.6025],[44.8856,53.601],[29.3785,53.6005],[29.2334,53.6005],[29.0856,53.6005],[28.9811,53.496],[28.8785,53.3934],[25.2928,49.8075],[25.1903,49.7049],[25.0857,49.6004],[25.0856,49.599]]
M73 P0 R25
;TYPE:Custom
START_PRINT T_BED=105 T_EXTRUDER=260
G90
G21
M83 ; use relative distances for extrusion
; Filament gcode
M106 S0
;LAYER_CHANGE
;Z:0.2
;HEIGHT:0.2
;BEFORE_LAYER_CHANGE
;0.2
G92 E0

;AFTER_LAYER_CHANGE
;0.2
SET_VELOCITY_LIMIT ACCEL=1000 ACCEL_TO_DECEL=500
SET_VELOCITY_LIMIT SQUARE_CORNER_VELOCITY=9
G1 E-.5 F3000
G1 Z.2 F21000
G1 X27.508 Y32.378
G1 E.5 F1800
;TYPE:Skirt
;WIDTH:0.5
G1 F3000
G1 X28.105 Y31.993 E.02511
G1 X28.646 Y31.769 E.02071
G1 X29.755 Y31.593 E.0397
G1 X94.914 Y31.593 E2.3031
G1 X96.376 Y31.986 E.0535
G1 X97.443 Y33.06 E.0535
G1 X97.828 Y34.507 E.05295
G1 X97.827 Y83.333 E1.72579
G1 X97.434 Y84.795 E.0535
G1 X96.36 Y85.862 E.0535
G1 X95.078 Y86.242 E.04729
G1 X40.715 Y89.315 E1.92457
M73 P0 R24
G1 X27.858 Y89.315 E.45443
G1 X26.396 Y88.922 E.0535
G1 X25.329 Y87.849 E.0535
G1 X24.953 Y86.632 E.045
G1 X24.703 Y83.474 E.11197
G1 X23.077 Y49.07 E1.21742
G1 X23.079 Y38.266 E.38188
G1 X23.256 Y37.156 E.03972
G1 X23.48 Y36.615 E.02072
G1 X23.866 Y36.018 E.02511
G1 X27.479 Y32.407 E.18057
G1 X27.799 Y32.731 F21000
G1 F3000
G1 X28.778 Y32.207 E.03924
G1 X29.755 Y32.05 E.035
G1 X94.914 Y32.05 E2.3031
G1 X96.245 Y32.442 E.04905
G1 X97.152 Y33.493 E.04905
G1 X97.371 Y34.507 E.03669
G1 X97.37 Y83.333 E1.72578
G1 X96.978 Y84.664 E.04905
G1 X95.927 Y85.571 E.04905
G1 X95.052 Y85.786 E.03187
G1 X40.715 Y88.858 E1.92366
G1 X27.858 Y88.858 E.45443
G1 X26.527 Y88.466 E.04905
G1 X25.62 Y87.416 E.04905
G1 X25.409 Y86.596 E.02992
G1 X25.16 Y83.453 E.11145
G1 X23.533 Y49.048 E1.21742
G1 X23.536 Y38.266 E.38111
G1 X23.693 Y37.288 E.03502
G1 X24.218 Y36.309 E.03925
G1 X27.77 Y32.759 E.17751
; printing object Z chain Mount-Edited.stl id:0 copy 0
EXCLUDE_OBJECT_START NAME=Z_chain_Mount-Edited.stl_id_0_copy_0
G1 E-.5
G1 Z.4 F21000
G1 X40.365 Y82.899
G1 Z.2
G1 E.5 F1800
;TYPE:Outer wall
G1 F3000
G1 X40.365 Y86.051 E.11142
G1 X28.181 Y86.051 E.43063
G1 X27.964 Y83.323 E.09673
G1 X27.964 Y68.283 E.53159
G1 X27.971 Y68.208 E.00269
G1 X28.028 Y68.071 E.00521
G1 X31.116 Y64.967 E.15477
G1 X31.174 Y64.919 E.00268
G1 X31.309 Y64.863 E.00516
G1 X42.121 Y64.862 E.38216
G1 X42.175 Y64.877 E.00198
G1 X42.321 Y64.976 E.00623
G1 X45.339 Y67.994 E.15087
G1 X45.44 Y68.143 E.00635
G1 X45.456 Y68.195 E.00192
G1 X45.5 Y68.658 E.01645
G1 X94.564 Y68.658 E1.73422
G1 X94.563 Y82.983 E.50632
G1 X49.513 Y82.983 E1.59232
M73 P1 R24
G1 X49.513 Y82.942 E.00143
G1 X41.164 Y82.942 E.29511
G1 X41.164 Y82.902 E.00142
G1 X40.405 Y82.899 E.02684
G1 E-.5
G1 Z.4 F21000
G1 X41.636 Y82.607
G1 X80.08 Y77.392
G1 X80.55 Y77.262
G1 X80.995 Y77.062
G1 X87.925 Y72.64
G1 X88.205 Y72.24
G1 X88.542 Y71.888
G1 X88.93 Y71.591
G1 X89.358 Y71.358
G1 X89.818 Y71.191
G1 X90.305 Y71.098
G1 X90.784 Y71.078
G1 X91.269 Y71.134
G1 X91.74 Y71.262
G1 X92.185 Y71.461
G1 X92.593 Y71.729
G1 X92.854 Y72.152
G1 X93.051 Y72.582
G1 X93.232 Y73.024
G1 Z.2
G1 E.5 F1800
G1 F3000
G1 X93.384 Y73.399 E.0143
G1 X93.484 Y73.824 E.01543
G1 X93.519 Y74.259 E.01543
G1 X93.486 Y74.694 E.01543
G1 X93.387 Y75.119 E.01543
G1 X93.225 Y75.525 E.01543
G1 X93.002 Y75.9 E.01543
G1 X92.725 Y76.238 E.01545
G1 X92.393 Y76.533 E.0157
G1 X92.034 Y76.766 E.01514
G1 X91.636 Y76.946 E.01543
G1 X91.215 Y77.062 E.01543
G1 X90.782 Y77.113 E.01543
G1 X90.346 Y77.097 E.01543
G1 X89.917 Y77.014 E.01543
G1 X89.506 Y76.868 E.01543
G1 X89.122 Y76.66 E.01543
G1 X88.775 Y76.396 E.01543
G1 X88.471 Y76.082 E.01545
G1 X88.216 Y75.718 E.0157
G1 X88.025 Y75.335 E.01514
G1 X87.893 Y74.919 E.01543
G1 X87.825 Y74.487 E.01543
G1 X87.825 Y74.051 E.01543
G1 X87.89 Y73.619 E.01543
G1 X88.021 Y73.203 E.01543
G1 X88.214 Y72.811 E.01543
G1 X88.465 Y72.454 E.01543
G1 X88.767 Y72.139 E.01543
G1 X89.114 Y71.874 E.01543
G1 X89.497 Y71.665 E.01543
G1 X89.908 Y71.516 E.01545
G1 X90.344 Y71.432 E.0157
G1 X90.772 Y71.415 E.01514
G1 X91.205 Y71.464 E.01543
G1 X91.626 Y71.579 E.01543
G1 X92.025 Y71.757 E.01543
G1 X92.392 Y71.994 E.01543
G1 X92.718 Y72.283 E.01543
G1 X92.997 Y72.62 E.01545
G1 X93.215 Y72.988 E.01512
G1 E-.5
G1 Z.4 F21000
G1 X93.051 Y72.582
G1 X92.854 Y72.152
G1 X92.593 Y71.729
G1 X92.185 Y71.461
G1 X91.74 Y71.262
G1 X91.269 Y71.134
G1 X90.784 Y71.078
G1 X90.305 Y71.098
G1 X89.818 Y71.191
G1 X89.358 Y71.358
G1 X82.548 Y75.049
G1 X82.508 Y75.22
G1 X82.327 Y75.673
G1 X82.078 Y76.093
G1 X81.768 Y76.47
G1 X81.405 Y76.796
G1 X80.995 Y77.062
G1 X80.55 Y77.262
G1 X80.08 Y77.392
G1 X41.636 Y82.607
G1 X40.402 Y82.936
G1 X38.2 Y84.358
G1 X37.771 Y84.489
G1 X37.346 Y84.572
G1 X36.924 Y84.612
G1 X36.504 Y84.612
G1 X36.082 Y84.572
G1 X35.657 Y84.489
G1 X35.299 Y84.379
G1 X35.365 Y84.165
G1 Z.2
G1 E.5 F1800
G1 F3000
G1 X35.354 Y84.159 E.00042
G1 X35.026 Y83.914 E.01447
G1 X34.742 Y83.619 E.01447
G1 X34.508 Y83.283 E.01447
G1 X34.332 Y82.913 E.01447
G1 X34.219 Y82.528 E.0142
G1 X34.166 Y82.115 E.01472
G1 X34.18 Y81.705 E.01449
G1 X34.26 Y81.303 E.01447
G1 X34.404 Y80.92 E.01447
G1 X34.603 Y80.57 E.0142
G1 X34.863 Y80.245 E.01472
G1 X35.168 Y79.972 E.0145
G1 X35.517 Y79.748 E.01465
G1 X35.898 Y79.584 E.01466
G1 X36.301 Y79.483 E.01466
G1 X36.707 Y79.45 E.01439
G1 X37.127 Y79.483 E.01491
G1 X37.53 Y79.584 E.01468
G1 X37.911 Y79.748 E.01466
G1 X38.26 Y79.971 E.01465
G1 X38.565 Y80.245 E.01448
G1 X38.822 Y80.564 E.01447
G1 X39.021 Y80.913 E.0142
G1 X39.168 Y81.303 E.01472
G1 X39.248 Y81.705 E.01449
G1 X39.263 Y82.114 E.01447
G1 X39.212 Y82.52 E.01447
G1 X39.099 Y82.906 E.0142
G1 X38.92 Y83.282 E.01472
G1 X38.687 Y83.619 E.01449
G1 X38.402 Y83.914 E.01447
G1 X38.074 Y84.159 E.01447
G1 X37.712 Y84.349 E.01447
G1 X37.323 Y84.478 E.01447
G1 X36.919 Y84.544 E.01447
G1 X36.509 Y84.544 E.01447
G1 X36.105 Y84.478 E.01447
G1 X35.717 Y84.349 E.01447
G1 X35.4 Y84.183 E.01264
G1 E-.5
G1 Z.4 F21000
G1 X35.336 Y84.391
G1 X35.229 Y84.358
G1 X34.803 Y84.166
G1 X34.482 Y83.833
G1 X34.217 Y83.452
G1 X34.017 Y83.034
G1 X33.889 Y82.597
G1 X33.829 Y82.13
G1 X33.846 Y81.666
G1 X35.299 Y71.015
G1 X35.483 Y70.734
G1 Z.2
G1 E.5 F1800
G1 F3000
G1 X35.148 Y70.515 E.01413
G1 X34.846 Y70.238 E.01451
G1 X34.591 Y69.915 E.01451
G1 X34.392 Y69.557 E.01451
G1 X34.252 Y69.17 E.01451
G1 X34.177 Y68.767 E.01451
G1 X34.167 Y68.356 E.01451
G1 X34.223 Y67.95 E.01451
G1 X34.344 Y67.557 E.01451
G1 X34.526 Y67.189 E.01451
G1 X34.765 Y66.855 E.01451
G1 X35.054 Y66.564 E.01451
G1 X35.386 Y66.323 E.01451
G1 X35.753 Y66.138 E.01453
G1 X36.152 Y66.013 E.01476
G1 X36.551 Y65.955 E.01424
G1 X36.961 Y65.962 E.01451
G1 X37.365 Y66.034 E.01451
G1 X37.753 Y66.171 E.01451
G1 X38.113 Y66.367 E.01451
G1 X38.437 Y66.619 E.01451
G1 X38.717 Y66.92 E.01451
G1 X38.944 Y67.262 E.01451
G1 X39.114 Y67.636 E.01451
G1 X39.222 Y68.032 E.01453
G1 X39.264 Y68.448 E.01476
G1 X39.241 Y68.85 E.01424
G1 X39.153 Y69.251 E.01451
G1 X39.001 Y69.632 E.01451
G1 X38.79 Y69.984 E.01451
G1 X38.525 Y70.298 E.01451
G1 X38.213 Y70.565 E.01451
G1 X37.862 Y70.779 E.01451
G1 X37.482 Y70.934 E.01451
G1 X37.082 Y71.025 E.01451
G1 X36.672 Y71.052 E.01451
G1 X36.264 Y71.012 E.01451
G1 X35.867 Y70.907 E.01451
G1 X35.518 Y70.752 E.01348
G1 E-.5
G1 Z.4 F21000
G1 X39.864 Y82.396
G1 Z.2
G1 E.5 F1800
;TYPE:Inner wall
G1 F3000
G1 X39.731 Y82.395 E.00467
G1 X39.764 Y82.136 E.00924
G1 X39.746 Y81.647 E.01732
G1 X39.65 Y81.165 E.01737
G1 X39.475 Y80.7 E.01757
G1 X39.237 Y80.281 E.01702
G1 X38.929 Y79.9 E.01732
G1 X38.564 Y79.572 E.01734
G1 X38.146 Y79.305 E.01753
G1 X37.691 Y79.108 E.01754
G1 X37.208 Y78.988 E.01759
G1 X36.706 Y78.949 E.01779
G1 X36.22 Y78.988 E.01724
G1 X35.738 Y79.108 E.01754
G1 X35.282 Y79.305 E.01754
G1 X34.865 Y79.572 E.01753
G1 X34.499 Y79.901 E.01738
G1 X34.188 Y80.289 E.01757
G1 X33.949 Y80.707 E.01702
G1 X33.778 Y81.166 E.01732
G1 X33.682 Y81.647 E.01732
G1 X33.664 Y82.138 E.01737
G1 X33.728 Y82.63 E.01757
G1 X33.863 Y83.093 E.01702
G1 X34.075 Y83.535 E.01732
G1 X34.354 Y83.937 E.01732
G1 X34.694 Y84.29 E.01732
G1 X35.086 Y84.584 E.01732
G1 X35.521 Y84.811 E.01732
G1 X35.986 Y84.965 E.01732
G1 X36.469 Y85.044 E.01732
G1 X36.959 Y85.044 E.01732
G1 X37.443 Y84.965 E.01732
G1 X37.908 Y84.811 E.01732
G1 X38.342 Y84.584 E.01732
G1 X38.734 Y84.29 E.01732
G1 X39.074 Y83.937 E.01732
G1 X39.355 Y83.534 E.01737
G1 X39.567 Y83.085 E.01757
G1 X39.629 Y82.873 E.00779
G1 X39.865 Y82.907 E.0084
G1 X39.865 Y85.551 E.09345
G1 X28.643 Y85.551 E.39664
G1 X28.464 Y83.303 E.07971
G1 X28.464 Y68.342 E.52881
G1 X31.428 Y65.363 E.14852
G1 X35.777 Y65.362 E.15375
G1 X35.813 Y65.595 E.00833
G1 X35.565 Y65.673 E.00917
G1 X35.125 Y65.894 E.01741
G1 X34.728 Y66.183 E.01737
G1 X34.382 Y66.532 E.01736
G1 X34.096 Y66.931 E.01736
G1 X33.878 Y67.372 E.01737
G1 X33.734 Y67.841 E.01736
G1 X33.666 Y68.328 E.01737
G1 X33.678 Y68.819 E.01737
G1 X33.768 Y69.302 E.01736
G1 X33.935 Y69.764 E.01737
G1 X34.174 Y70.194 E.01736
G1 X34.478 Y70.579 E.01737
G1 X34.84 Y70.911 E.01736
G1 X35.251 Y71.18 E.01737
G1 X35.7 Y71.38 E.01737
G1 X36.175 Y71.506 E.01737
G1 X36.664 Y71.553 E.01737
G1 X37.154 Y71.522 E.01736
G1 X37.633 Y71.412 E.01737
G1 X38.088 Y71.227 E.01737
G1 X38.508 Y70.971 E.01737
G1 X38.881 Y70.652 E.01737
G1 X39.198 Y70.276 E.01736
G1 X39.45 Y69.855 E.01737
G1 X39.632 Y69.398 E.01737
G1 X39.738 Y68.919 E.01736
G1 X39.766 Y68.437 E.01707
G1 X39.715 Y67.941 E.01761
G1 X39.586 Y67.465 E.01741
G1 X39.383 Y67.018 E.01736
G1 X39.11 Y66.609 E.01737
G1 X38.776 Y66.249 E.01737
G1 X38.388 Y65.948 E.01737
G1 X37.957 Y65.713 E.01737
G1 X37.609 Y65.59 E.01302
G1 X37.648 Y65.362 E.00818
G1 X42 Y65.362 E.15382
G1 X44.966 Y68.328 E.14827
G1 X45.045 Y69.158 E.02948
G1 X94.064 Y69.158 E1.73262
G1 X94.064 Y73.154 E.14125
G1 X93.842 Y73.197 E.00799
G1 X93.673 Y72.779 E.01594
G1 X93.407 Y72.331 E.01841
G1 X93.079 Y71.935 E.01819
G1 X92.695 Y71.594 E.01814
G1 X92.264 Y71.316 E.01814
G1 X91.795 Y71.107 E.01814
G1 X91.3 Y70.972 E.01814
G1 X90.79 Y70.914 E.01814
G1 X90.286 Y70.934 E.01783
G1 X89.775 Y71.033 E.01841
G1 X89.291 Y71.207 E.01819
G1 X88.84 Y71.453 E.01814
G1 X88.433 Y71.765 E.01814
G1 X88.077 Y72.136 E.01814
G1 X87.783 Y72.556 E.01814
G1 X87.556 Y73.016 E.01814
G1 X87.402 Y73.506 E.01814
G1 X87.324 Y74.013 E.01814
G1 X87.325 Y74.527 E.01814
G1 X87.405 Y75.034 E.01814
G1 X87.56 Y75.523 E.01814
G1 X87.785 Y75.974 E.01783
G1 X88.084 Y76.401 E.01841
G1 X88.442 Y76.771 E.01819
G1 X88.85 Y77.081 E.01814
G1 X89.302 Y77.326 E.01814
G1 X89.785 Y77.498 E.01814
G1 X90.289 Y77.595 E.01814
G1 X90.802 Y77.614 E.01814
G1 X91.312 Y77.554 E.01814
G1 X91.806 Y77.417 E.01814
G1 X92.274 Y77.206 E.01814
G1 X92.697 Y76.931 E.01783
G1 X93.086 Y76.585 E.01841
G1 X93.413 Y76.188 E.01819
G1 X93.675 Y75.746 E.01814
G1 X93.841 Y75.33 E.01584
G1 X94.064 Y75.373 E.008
G1 X94.063 Y82.483 E.25129
G1 X50.013 Y82.483 E1.55697
G1 X50.013 Y82.442 E.00143
G1 X41.664 Y82.442 E.29511
G1 X41.664 Y82.405 E.00133
G1 X39.904 Y82.396 E.06223
G1 E-.5
G1 Z.4 F21000
G1 X38.674 Y84.906
G1 Z.2
G1 E.5 F1800
G1 F3000
G1 X39.038 Y84.634 E.01607
G1 X39.408 Y84.25 E.01884
G1 X39.408 Y85.094 E.02983
G1 X38.736 Y85.094 E.02374
G1 X38.686 Y84.944 E.00558
G1 E-.5
G1 Z.4 F21000
G1 X40.213 Y81.905
G1 Z.2
G1 E.5 F1800
G1 F3000
G1 X40.202 Y81.593 E.01104
G1 X40.091 Y81.039 E.01999
G1 X39.89 Y80.505 E.02017
G1 X39.615 Y80.023 E.0196
G1 X39.262 Y79.584 E.01992
G1 X38.842 Y79.207 E.01995
G1 X38.361 Y78.9 E.02015
G1 X37.837 Y78.674 E.02018
G1 X37.281 Y78.535 E.02025
G1 X36.705 Y78.49 E.02043
G1 X36.145 Y78.536 E.01985
G1 X35.591 Y78.674 E.02018
G1 X35.067 Y78.9 E.02018
G1 X34.587 Y79.207 E.02015
G1 X34.165 Y79.586 E.02002
G1 X33.809 Y80.031 E.02017
G1 X33.534 Y80.513 E.0196
G1 X33.337 Y81.041 E.01992
G1 X33.227 Y81.593 E.01992
G1 X33.206 Y82.159 E.01999
G1 X33.279 Y82.724 E.02017
G1 X33.435 Y83.257 E.0196
G1 X33.678 Y83.765 E.01992
G1 X34 Y84.228 E.01992
G1 X34.391 Y84.634 E.01992
G1 X34.755 Y84.906 E.01607
G1 X34.692 Y85.094 E.00699
G1 X29.065 Y85.094 E.1989
G1 X28.921 Y83.285 E.06415
G1 X28.921 Y68.53 E.5215
G1 X31.618 Y65.82 E.13514
G1 X34.444 Y65.82 E.09992
G1 X34.031 Y66.236 E.02073
G1 X33.703 Y66.696 E.01997
G1 X33.452 Y67.202 E.01997
G1 X33.286 Y67.742 E.01997
G1 X33.209 Y68.302 E.01997
G1 X33.222 Y68.867 E.01997
G1 X33.326 Y69.422 E.01997
G1 X33.518 Y69.954 E.01997
G1 X33.792 Y70.448 E.01997
G1 X34.142 Y70.891 E.01997
G1 X34.559 Y71.273 E.01997
G1 X35.032 Y71.583 E.01997
G1 X35.548 Y71.813 E.01997
G1 X36.094 Y71.957 E.01997
G1 X36.656 Y72.012 E.01997
G1 X37.22 Y71.976 E.01997
G1 X37.771 Y71.849 E.01997
G1 X38.295 Y71.636 E.01997
G1 X38.777 Y71.342 E.01997
G1 X39.206 Y70.975 E.01997
G1 X39.571 Y70.543 E.01997
G1 X39.861 Y70.058 E.01997
G1 X40.07 Y69.533 E.01997
G1 X40.193 Y68.981 E.01997
G1 X40.224 Y68.426 E.01965
G1 X40.166 Y67.857 E.02022
G1 X40.017 Y67.31 E.02005
G1 X39.784 Y66.796 E.01997
G1 X39.47 Y66.325 E.01997
G1 X39 Y65.819 E.02443
G1 X41.811 Y65.819 E.09935
G1 X44.527 Y68.535 E.13576
G1 X44.629 Y69.615 E.03836
G1 X93.607 Y69.615 E1.73116
G1 X93.607 Y71.792 E.07696
G1 X92.972 Y71.229 E.02999
G1 X92.482 Y70.913 E.02062
G1 X91.949 Y70.675 E.02062
G1 X91.386 Y70.522 E.02062
G1 X90.807 Y70.456 E.02062
G1 X90.233 Y70.479 E.02028
G1 X89.653 Y70.59 E.02089
G1 X89.102 Y70.789 E.02069
G1 X88.59 Y71.069 E.02062
G1 X88.127 Y71.423 E.02062
G1 X87.723 Y71.845 E.02062
G1 X87.388 Y72.322 E.02062
G1 X87.13 Y72.846 E.02062
G1 X86.955 Y73.402 E.02062
G1 X86.867 Y73.979 E.02062
G1 X86.868 Y74.563 E.02062
G1 X86.958 Y75.139 E.02062
G1 X87.135 Y75.695 E.02062
G1 X87.391 Y76.209 E.02028
G1 X87.73 Y76.693 E.02089
G1 X88.137 Y77.114 E.02069
G1 X88.602 Y77.466 E.02062
G1 X89.115 Y77.744 E.02062
G1 X89.664 Y77.941 E.02062
G1 X90.237 Y78.051 E.02062
G1 X90.82 Y78.072 E.02062
G1 X91.4 Y78.004 E.02062
G1 X91.962 Y77.848 E.02062
G1 X92.494 Y77.609 E.02062
G1 X92.975 Y77.296 E.02028
G1 X93.606 Y76.735 E.02986
G1 X93.606 Y82.026 E.18702
G1 X50.471 Y82.026 E1.52466
G1 X50.471 Y81.985 E.00143
G1 X42.121 Y81.985 E.29511
G1 X42.121 Y81.95 E.00125
G1 X40.219 Y81.941 E.06724
G1 E-.5
G1 Z.4 F21000
G1 X78.618 Y71.191
G1 X79.105 Y71.098
G1 X79.584 Y71.078
G1 X93.15 Y70.8
G1 Z.2
G1 E.5 F1800
G1 F3000
G1 X92.7 Y70.51 E.0189
G1 X92.206 Y70.289 E.01912
G1 X92.253 Y70.072 E.00785
G1 X93.15 Y70.072 E.03171
G1 X93.15 Y70.76 E.0243
M73 P2 R24
G1 E-.5
G1 Z.4 F21000
G1 X90.305 Y71.098
G1 X89.818 Y71.191
G1 X89.358 Y71.358
G1 X82.619 Y74.745
G1 X82.508 Y75.22
G1 X82.327 Y75.673
G1 X82.078 Y76.093
G1 X81.768 Y76.47
G1 X81.405 Y76.796
G1 X80.995 Y77.062
G1 X80.55 Y77.262
G1 X80.08 Y77.392
G1 X79.595 Y77.449
G1 X79.108 Y77.431
G1 X78.628 Y77.339
G1 X78.169 Y77.175
G1 X77.74 Y76.943
G1 X77.35 Y76.647
G1 X77.007 Y76.289
G1 X76.756 Y75.934
