; HEADER_BLOCK_START
; generated by OrcaSlicer 1.6.3-beta on 2023-05-25 at 21:49:17
; total layer number: 125
; HEADER_BLOCK_END

; THUMBNAIL_BLOCK_START
; THUMBNAIL_BLOCK_END

; external perimeters extrusion width = 0.40mm
; perimeters extrusion width = 0.45mm
; infill extrusion width = 0.45mm
; solid infill extrusion width = 0.40mm
; top infill extrusion width = 0.40mm
; support material extrusion width = 0.40mm
; first layer extrusion width = 0.40mm

; EXECUTABLE_BLOCK_START
EXCLUDE_OBJECT_DEFINE NAME=Z_Lead_screw_upper_bracket.stl_id_0_copy_0 CENTER=60,60 POLYGON=[[26.9686,28.0988],[93.0314,28.0988],[92.1087,31.0054],[75.2212,84.2044],[75.1215,84.4732],[74.9966,84.7313],[74.8476,84.9763],[74.6759,85.2059],[74.4831,85.4181],[68.8787,91.0225],[68.6605,91.2202],[68.4241,91.3956],[68.1715,91.5469],[67.9054,91.6728],[67.6282,91.772],[67.3426,91.8435],[67.0514,91.8867],[66.7574,91.9012],[53.2426,91.9012],[52.9486,91.8867],[52.6574,91.8435],[52.3718,91.772],[52.0946,91.6728],[51.8285,91.5469],[51.5759,91.3956],[51.3395,91.2202],[51.1213,91.0225],[45.5169,85.4181],[45.3241,85.2059],[45.1524,84.9763],[45.0034,84.7313],[44.8785,84.4732],[44.7788,84.2044],[27.8913,31.0054],[26.9686,28.0988]]
M73 P0 R27
;TYPE:Custom
START_PRINT T_BED=110 T_EXTRUDER=260
G90
G21
M83 ; use relative distances for extrusion
; Filament gcode

    PRESSURE_ADVANCE_SELECT FILAMENT=ABS
M106 S0
;LAYER_CHANGE
;Z:0.2
;HEIGHT:0.2
;BEFORE_LAYER_CHANGE
;0.2
G92 E0

;AFTER_LAYER_CHANGE
;0.2
SET_VELOCITY_LIMIT ACCEL_TO_DECEL=500
M204 S1000
G1 E-.5 F3000
G1 Z.2 F21000
G1 X30.921 Y31.585
G1 E.5 F1800
;TYPE:Skirt
;WIDTH:0.4
G1 F3000
G1 X32.036 Y30.603 E.04085
G1 X33.423 Y29.84 E.04354
G1 X34.85 Y29.425 E.04085
G1 X36.43 Y29.326 E.04354
G1 X37.422 Y29.447 E.02747
G1 X85.985 Y39.38 E1.36284
G1 X86.753 Y39.651 E.02239
G1 X87.438 Y40.103 E.02258
G1 X87.852 Y40.531 E.01637
G1 X88.285 Y41.234 E.0227
G1 X88.459 Y41.726 E.01434
G1 X88.572 Y42.483 E.02105
G1 X88.522 Y43.219 E.02029
G1 X88.395 Y43.741 E.01477
G1 X75.434 Y84.535 E1.17685
G1 X75.169 Y85.055 E.01606
G1 X74.705 Y85.64 E.02052
G1 X69.101 Y91.245 E.21791
G1 X68.54 Y91.693 E.01975
G1 X68.066 Y91.945 E.01474
G1 X67.511 Y92.127 E.01606
G1 X66.757 Y92.215 E.02087
G1 X53.243 Y92.215 E.37158
G1 X52.429 Y92.112 E.02255
G1 X51.571 Y91.761 E.0255
G1 X50.899 Y91.245 E.02329
G1 X45.295 Y85.64 E.21791
G1 X44.831 Y85.055 E.02052
G1 X44.595 Y84.604 E.01401
G1 X29.428 Y38.479 E1.33498
G1 X29.15 Y37.27 E.03409
G1 X29.104 Y35.785 E.04085
G1 X29.4 Y34.23 E.04354
G1 X29.991 Y32.866 E.04085
G1 X30.886 Y31.634 E.04189
G1 X31.174 Y31.843 F21000
G1 F3000
G1 X31.189 Y31.821 E.00073
G1 X32.236 Y30.898 E.03839
G1 X33.565 Y30.168 E.04169
G1 X34.906 Y29.778 E.03839
G1 X36.419 Y29.683 E.04169
G1 X37.35 Y29.797 E.0258
G1 X85.9 Y39.727 E1.36245
G1 X86.598 Y39.973 E.02036
G1 X87.203 Y40.372 E.01993
G1 X87.577 Y40.758 E.01477
G1 X87.957 Y41.377 E.01996
G1 X88.116 Y41.823 E.01303
G1 X88.215 Y42.491 E.01855
G1 X88.055 Y43.633 E.03172
G1 X75.105 Y84.397 E1.17598
G1 X74.864 Y84.87 E.01458
G1 X74.453 Y85.388 E.01818
G1 X68.848 Y90.992 E.21791
G1 X68.265 Y91.443 E.02027
G1 X67.511 Y91.759 E.02246
G1 X66.757 Y91.858 E.02091
G1 X53.243 Y91.858 E.37158
G1 X52.511 Y91.765 E.02027
G1 X51.755 Y91.455 E.02246
G1 X51.152 Y90.992 E.02092
G1 X45.547 Y85.388 E.21791
G1 X45.09 Y84.795 E.02058
G1 X44.827 Y84.214 E.01754
G1 X29.768 Y38.367 E1.32678
G1 X29.503 Y37.214 E.03252
G1 X29.459 Y35.819 E.03839
G1 X29.743 Y34.329 E.04169
G1 X30.298 Y33.048 E.03839
G1 X31.138 Y31.891 E.03931
; printing object Z Lead screw upper bracket.stl id:0 copy 0
EXCLUDE_OBJECT_START NAME=Z_Lead_screw_upper_bracket.stl_id_0_copy_0
G1 E-.5
G1 Z.4 F21000
G1 X33.218 Y33.625
G1 Z.2
G1 E.5 F1800
;TYPE:Support
G1 F3000
G1 X33.392 Y33.45 E.00677
G1 X33.771 Y33.137 E.01354
G1 X33.975 Y32.998 E.00677
G1 X34.407 Y32.761 E.01354
G1 X34.633 Y32.663 E.00677
G1 X35.101 Y32.511 E.01354
G1 X35.585 Y32.418 E.01354
G1 X36.076 Y32.388 E.01354
G1 X36.323 Y32.395 E.00677
G1 X36.568 Y32.418 E.00677
G1 X37.052 Y32.511 E.01354
G1 X37.52 Y32.663 E.01354
G1 X37.746 Y32.761 E.00677
G1 X37.966 Y32.873 E.00677
G1 X38.382 Y33.137 E.01354
G1 X38.761 Y33.45 E.01354
G1 X38.935 Y33.625 E.00677
G1 X39.249 Y34.004 E.01354
G1 X39.388 Y34.208 E.00677
G1 X39.625 Y34.64 E.01354
G1 X39.723 Y34.866 E.00677
G1 X39.875 Y35.334 E.01354
G1 X39.967 Y35.818 E.01354
G1 X39.998 Y36.309 E.01354
G1 X39.99 Y36.556 E.00677
G1 X39.967 Y36.801 E.00677
G1 X39.875 Y37.285 E.01354
G1 X39.723 Y37.753 E.01354
G1 X39.625 Y37.979 E.00677
G1 X39.513 Y38.199 E.00677
G1 X39.249 Y38.614 E.01354
G1 X38.935 Y38.994 E.01354
G1 X38.761 Y39.168 E.00677
G1 X38.382 Y39.482 E.01354
G1 X38.178 Y39.621 E.00677
G1 X37.746 Y39.858 E.01354
G1 X37.52 Y39.956 E.00677
G1 X37.052 Y40.108 E.01354
G1 X36.568 Y40.2 E.01354
G1 X36.076 Y40.231 E.01354
G1 X35.83 Y40.223 E.00677
G1 X35.585 Y40.2 E.00677
G1 X35.101 Y40.108 E.01354
G1 X34.633 Y39.956 E.01354
G1 X34.407 Y39.858 E.00677
G1 X34.187 Y39.746 E.00677
G1 X33.771 Y39.482 E.01354
G1 X33.392 Y39.168 E.01354
G1 X33.218 Y38.994 E.00677
G1 X32.904 Y38.614 E.01354
G1 X32.765 Y38.411 E.00677
G1 X32.528 Y37.979 E.01354
G1 X32.43 Y37.753 E.00677
G1 X32.278 Y37.285 E.01354
G1 X32.186 Y36.801 E.01354
G1 X32.155 Y36.309 E.01354
G1 X32.162 Y36.063 E.00677
G1 X32.186 Y35.818 E.00677
G1 X32.278 Y35.334 E.01354
G1 X32.43 Y34.866 E.01354
G1 X32.528 Y34.64 E.00677
G1 X32.64 Y34.42 E.00677
G1 X32.904 Y34.004 E.01354
G1 X33.179 Y33.671 E.01189
G1 X32.905 Y33.444 F21000
G1 F3000
G1 X32.957 Y33.38 E.00227
G1 X33.147 Y33.19 E.00739
G1 X33.349 Y33.012 E.00739
G1 X33.784 Y32.696 E.01477
G1 X34.015 Y32.56 E.00739
G1 X34.501 Y32.331 E.01477
G1 X35.012 Y32.165 E.01477
G1 X35.54 Y32.064 E.01477
G1 X36.076 Y32.03 E.01477
G1 X36.345 Y32.039 E.00739
G1 X36.613 Y32.064 E.00739
G1 X37.141 Y32.165 E.01477
G1 X37.652 Y32.331 E.01477
G1 X37.898 Y32.438 E.00739
G1 X38.138 Y32.56 E.00739
G1 X38.592 Y32.848 E.01477
G1 X39.006 Y33.19 E.01477
G1 X39.196 Y33.38 E.00739
G1 X39.373 Y33.582 E.00739
G1 X39.689 Y34.016 E.01477
G1 X39.826 Y34.248 E.00739
G1 X40.055 Y34.734 E.01477
G1 X40.221 Y35.245 E.01477
G1 X40.322 Y35.773 E.01477
G1 X40.355 Y36.309 E.01477
G1 X40.347 Y36.578 E.00739
G1 X40.322 Y36.846 E.00739
G1 X40.221 Y37.373 E.01477
G1 X40.055 Y37.885 E.01477
G1 X39.948 Y38.131 E.00739
G1 X39.826 Y38.371 E.00739
G1 X39.538 Y38.824 E.01477
G1 X39.196 Y39.238 E.01477
G1 X39.006 Y39.429 E.00739
G1 X38.804 Y39.606 E.00739
G1 X38.369 Y39.922 E.01477
G1 X38.138 Y40.059 E.00739
G1 X37.652 Y40.288 E.01477
G1 X37.141 Y40.454 E.01477
G1 X36.613 Y40.555 E.01477
G1 X36.076 Y40.588 E.01477
G1 X35.808 Y40.58 E.00739
G1 X35.54 Y40.555 E.00739
G1 X35.012 Y40.454 E.01477
G1 X34.501 Y40.288 E.01477
G1 X34.255 Y40.181 E.00739
G1 X34.015 Y40.059 E.00739
G1 X33.561 Y39.771 E.01477
G1 X33.147 Y39.429 E.01477
G1 X32.957 Y39.238 E.00739
G1 X32.779 Y39.037 E.00739
G1 X32.464 Y38.602 E.01477
G1 X32.327 Y38.371 E.00739
G1 X32.098 Y37.885 E.01477
G1 X31.932 Y37.373 E.01477
G1 X31.831 Y36.846 E.01477
G1 X31.797 Y36.309 E.01477
G1 X31.806 Y36.041 E.00739
G1 X31.831 Y35.773 E.00739
G1 X31.932 Y35.245 E.01477
G1 X32.098 Y34.734 E.01477
G1 X32.205 Y34.487 E.00739
G1 X32.327 Y34.248 E.00739
G1 X32.615 Y33.794 E.01477
G1 X32.866 Y33.49 E.01086
G1 X33.416 Y33.944 F21000
G1 F3000
G1 X33.478 Y33.869 E.00268
G1 X33.636 Y33.711 E.00616
G1 X33.981 Y33.426 E.01231
G1 X34.167 Y33.3 E.00616
G1 X34.559 Y33.084 E.01231
G1 X34.764 Y32.995 E.00616
G1 X35.19 Y32.857 E.01231
G1 X35.63 Y32.773 E.01231
G1 X36.076 Y32.745 E.01231
G1 X36.3 Y32.752 E.00616
G1 X36.523 Y32.773 E.00616
G1 X36.963 Y32.857 E.01231
G1 X37.178 Y32.919 E.00616
G1 X37.594 Y33.084 E.01231
G1 X37.986 Y33.3 E.01231
G1 X38.172 Y33.426 E.00616
G1 X38.517 Y33.711 E.01231
G1 X38.675 Y33.869 E.00616
G1 X38.96 Y34.214 E.01231
G1 X39.086 Y34.399 E.00616
G1 X39.302 Y34.792 E.01231
G1 X39.391 Y34.997 E.00616
G1 X39.529 Y35.423 E.01231
G1 X39.613 Y35.863 E.01231
G1 X39.641 Y36.309 E.01231
G1 X39.634 Y36.533 E.00616
G1 X39.613 Y36.756 E.00616
G1 X39.529 Y37.196 E.01231
G1 X39.466 Y37.411 E.00616
G1 X39.302 Y37.827 E.01231
G1 X39.086 Y38.219 E.01231
G1 X38.96 Y38.404 E.00616
G1 X38.675 Y38.749 E.01231
G1 X38.517 Y38.908 E.00616
G1 X38.172 Y39.193 E.01231
G1 X37.986 Y39.319 E.00616
G1 X37.594 Y39.535 E.01231
G1 X37.389 Y39.623 E.00616
G1 X36.963 Y39.762 E.01231
G1 X36.523 Y39.846 E.01231
G1 X36.076 Y39.874 E.01231
G1 X35.853 Y39.867 E.00616
G1 X35.63 Y39.846 E.00616
G1 X35.19 Y39.762 E.01231
G1 X34.975 Y39.699 E.00616
G1 X34.559 Y39.535 E.01231
G1 X34.167 Y39.319 E.01231
G1 X33.981 Y39.193 E.00616
G1 X33.636 Y38.908 E.01231
G1 X33.478 Y38.749 E.00616
G1 X33.193 Y38.404 E.01231
G1 X33.067 Y38.219 E.00616
G1 X32.851 Y37.827 E.01231
G1 X32.762 Y37.621 E.00616
G1 X32.624 Y37.196 E.01231
G1 X32.54 Y36.756 E.01231
G1 X32.512 Y36.309 E.01231
G1 X32.519 Y36.085 E.00616
G1 X32.54 Y35.863 E.00616
G1 X32.624 Y35.423 E.01231
G1 X32.686 Y35.208 E.00616
G1 X32.851 Y34.792 E.01231
G1 X33.067 Y34.399 E.01231
G1 X33.193 Y34.214 E.00616
G1 X33.378 Y33.991 E.00798
G1 X33.652 Y34.218 F21000
G1 F3000
G1 X33.738 Y34.114 E.00372
G1 X33.881 Y33.971 E.00554
G1 X34.191 Y33.715 E.01107
G1 X34.358 Y33.601 E.00554
G1 X34.711 Y33.407 E.01107
G1 X35.085 Y33.259 E.01107
G1 X35.279 Y33.203 E.00554
G1 X35.674 Y33.127 E.01107
G1 X36.076 Y33.102 E.01107
G1 X36.278 Y33.108 E.00554
G1 X36.677 Y33.159 E.01107
G1 X36.874 Y33.203 E.00554
G1 X37.068 Y33.259 E.00554
G1 X37.442 Y33.407 E.01107
G1 X37.795 Y33.601 E.01107
G1 X37.962 Y33.715 E.00554
G1 X38.272 Y33.971 E.01107
G1 X38.414 Y34.114 E.00554
G1 X38.671 Y34.424 E.01107
G1 X38.784 Y34.591 E.00554
G1 X38.978 Y34.944 E.01107
G1 X39.127 Y35.318 E.01107
G1 X39.183 Y35.512 E.00554
G1 X39.258 Y35.907 E.01107
G1 X39.284 Y36.309 E.01107
G1 X39.277 Y36.511 E.00554
G1 X39.227 Y36.91 E.01107
G1 X39.183 Y37.107 E.00554
G1 X39.127 Y37.3 E.00554
G1 X38.978 Y37.675 E.01107
G1 X38.784 Y38.028 E.01107
G1 X38.671 Y38.194 E.00554
G1 X38.414 Y38.505 E.01107
G1 X38.272 Y38.647 E.00554
G1 X37.962 Y38.904 E.01107
G1 X37.795 Y39.017 E.00554
G1 X37.442 Y39.211 E.01107
G1 X37.068 Y39.36 E.01107
G1 X36.874 Y39.416 E.00554
G1 X36.478 Y39.491 E.01107
G1 X36.076 Y39.517 E.01107
G1 X35.875 Y39.51 E.00554
G1 X35.475 Y39.46 E.01107
G1 X35.279 Y39.416 E.00554
G1 X35.085 Y39.36 E.00554
G1 X34.711 Y39.211 E.01107
G1 X34.358 Y39.017 E.01107
G1 X34.191 Y38.904 E.00554
G1 X33.881 Y38.647 E.01107
G1 X33.738 Y38.505 E.00554
G1 X33.482 Y38.194 E.01107
G1 X33.368 Y38.028 E.00554
G1 X33.174 Y37.675 E.01107
G1 X33.026 Y37.3 E.01107
G1 X32.97 Y37.107 E.00554
G1 X32.894 Y36.711 E.01107
G1 X32.869 Y36.309 E.01107
G1 X32.876 Y36.108 E.00554
G1 X32.926 Y35.708 E.01107
G1 X32.97 Y35.512 E.00554
G1 X33.026 Y35.318 E.00554
G1 X33.174 Y34.944 E.01107
G1 X33.368 Y34.591 E.01107
G1 X33.482 Y34.424 E.00554
G1 X33.614 Y34.264 E.00571
G1 X33.886 Y34.504 F21000
G1 F3000
G1 X34.125 Y34.232 E.00997
G1 X34.549 Y33.903 E.01475
G1 X34.863 Y33.731 E.00984
G1 X35.196 Y33.599 E.00984
G1 X35.719 Y33.482 E.01475
G1 X36.255 Y33.465 E.01475
G1 X36.785 Y33.549 E.01475
G1 X37.29 Y33.731 E.01475
G1 X37.752 Y34.004 E.01475
G1 X38.154 Y34.358 E.01475
G1 X38.483 Y34.782 E.01475
G1 X38.655 Y35.096 E.00984
G1 X38.787 Y35.429 E.00984
G1 X38.904 Y35.952 E.01475
G1 X38.921 Y36.488 E.01475
G1 X38.837 Y37.018 E.01475
G1 X38.655 Y37.523 E.01475
G1 X38.382 Y37.984 E.01475
G1 X38.027 Y38.387 E.01475
G1 X37.604 Y38.716 E.01475
G1 X37.29 Y38.888 E.00984
G1 X36.957 Y39.02 E.00984
G1 X36.434 Y39.137 E.01475
G1 X35.897 Y39.154 E.01475
G1 X35.368 Y39.07 E.01475
G1 X34.863 Y38.888 E.01475
G1 X34.401 Y38.615 E.01475
G1 X33.999 Y38.26 E.01475
G1 X33.67 Y37.836 E.01475
G1 X33.498 Y37.523 E.00984
G1 X33.366 Y37.19 E.00984
G1 X33.249 Y36.666 E.01475
G1 X33.232 Y36.13 E.01475
G1 X33.316 Y35.601 E.01475
G1 X33.498 Y35.096 E.01475
G1 X33.771 Y34.634 E.01475
G1 X33.846 Y34.549 E.00313
G1 X34.113 Y34.784 F21000
G1 F3000
G1 X34.37 Y34.492 E.01069
G1 X34.741 Y34.205 E.0129
G1 X35.015 Y34.054 E.00861
G1 X35.306 Y33.939 E.00861
G1 X35.764 Y33.836 E.0129
G1 X36.233 Y33.821 E.0129
G1 X36.696 Y33.895 E.0129
G1 X37.138 Y34.054 E.0129
G1 X37.542 Y34.293 E.0129
G1 X37.894 Y34.603 E.0129
G1 X38.181 Y34.974 E.0129
G1 X38.332 Y35.248 E.00861
G1 X38.447 Y35.539 E.00861
G1 X38.55 Y35.997 E.0129
G1 X38.564 Y36.466 E.0129
G1 X38.491 Y36.929 E.0129
G1 X38.332 Y37.371 E.0129
G1 X38.093 Y37.775 E.0129
G1 X37.783 Y38.126 E.0129
G1 X37.412 Y38.414 E.0129
G1 X37.138 Y38.565 E.00861
G1 X36.847 Y38.68 E.00861
G1 X36.389 Y38.782 E.0129
G1 X35.92 Y38.797 E.0129
G1 X35.457 Y38.724 E.0129
G1 X35.015 Y38.565 E.0129
G1 X34.611 Y38.326 E.0129
G1 X34.259 Y38.016 E.0129
G1 X33.972 Y37.645 E.0129
G1 X33.821 Y37.371 E.00861
G1 X33.706 Y37.08 E.00861
G1 X33.603 Y36.622 E.0129
G1 X33.589 Y36.153 E.0129
G1 X33.662 Y35.689 E.0129
G1 X33.821 Y35.248 E.0129
G1 X34.06 Y34.844 E.0129
G1 X34.073 Y34.829 E.00056
G1 X34.349 Y35.054 F21000
G1 F3000
G1 X34.615 Y34.753 E.01105
G1 X34.932 Y34.506 E.01105
G1 X35.167 Y34.377 E.00737
G1 X35.417 Y34.278 E.00737
G1 X35.809 Y34.191 E.01105
G1 X36.211 Y34.178 E.01105
G1 X36.608 Y34.241 E.01105
G1 X36.986 Y34.377 E.01105
G1 X37.332 Y34.582 E.01105
G1 X37.633 Y34.847 E.01105
G1 X37.88 Y35.165 E.01105
G1 X38.009 Y35.4 E.00737
G1 X38.107 Y35.649 E.00737
G1 X38.195 Y36.042 E.01105
G1 X38.208 Y36.443 E.01105
G1 X38.145 Y36.84 E.01105
G1 X38.009 Y37.219 E.01105
G1 X37.804 Y37.565 E.01105
G1 X37.538 Y37.866 E.01105
G1 X37.221 Y38.112 E.01105
G1 X36.986 Y38.242 E.00737
G1 X36.736 Y38.34 E.00737
G1 X36.344 Y38.428 E.01105
G1 X35.942 Y38.441 E.01105
G1 X35.545 Y38.378 E.01105
G1 X35.167 Y38.242 E.01105
G1 X34.821 Y38.037 E.01105
G1 X34.52 Y37.771 E.01105
G1 X34.273 Y37.454 E.01105
G1 X34.144 Y37.219 E.00737
G1 X34.046 Y36.969 E.00737
G1 X33.958 Y36.577 E.01105
G1 X33.945 Y36.175 E.01105
G1 X34.008 Y35.778 E.01105
G1 X34.144 Y35.4 E.01105
G1 X34.318 Y35.106 E.0094
G1 X34.616 Y35.308 F21000
G1 F3000
G1 X34.706 Y35.176 E.0044
G1 X34.943 Y34.939 E.0092
G1 X35.22 Y34.751 E.0092
G1 X35.527 Y34.618 E.0092
G1 X35.854 Y34.545 E.0092
G1 X36.188 Y34.535 E.0092
G1 X36.41 Y34.563 E.00614
G1 X36.626 Y34.618 E.00614
G1 X36.933 Y34.751 E.0092
G1 X37.21 Y34.939 E.0092
G1 X37.447 Y35.176 E.0092
G1 X37.635 Y35.453 E.0092
G1 X37.768 Y35.76 E.0092
G1 X37.841 Y36.086 E.0092
G1 X37.851 Y36.421 E.0092
G1 X37.823 Y36.643 E.00614
G1 X37.768 Y36.859 E.00614
G1 X37.635 Y37.166 E.0092
G1 X37.447 Y37.443 E.0092
G1 X37.21 Y37.679 E.0092
G1 X36.933 Y37.868 E.0092
G1 X36.626 Y38 E.0092
G1 X36.299 Y38.074 E.0092
G1 X35.965 Y38.084 E.0092
G1 X35.743 Y38.056 E.00614
G1 X35.527 Y38 E.00614
G1 X35.22 Y37.868 E.0092
G1 X34.943 Y37.679 E.0092
G1 X34.706 Y37.443 E.0092
G1 X34.518 Y37.166 E.0092
G1 X34.385 Y36.859 E.0092
G1 X34.312 Y36.532 E.0092
G1 X34.302 Y36.198 E.0092
G1 X34.33 Y35.976 E.00614
G1 X34.385 Y35.76 E.00614
G1 X34.518 Y35.453 E.0092
G1 X34.583 Y35.358 E.00315
G1 X34.877 Y35.558 F21000
G1 F3000
G1 X34.982 Y35.404 E.00513
G1 X35.171 Y35.214 E.00735
G1 X35.392 Y35.064 E.00735
G1 X35.637 Y34.958 E.00735
G1 X35.898 Y34.9 E.00735
G1 X36.166 Y34.891 E.00735
G1 X36.516 Y34.958 E.00979
G1 X36.761 Y35.064 E.00735
G1 X36.982 Y35.214 E.00735
G1 X37.171 Y35.404 E.00735
G1 X37.322 Y35.625 E.00735
G1 X37.428 Y35.87 E.00735
G1 X37.486 Y36.131 E.00735
G1 X37.495 Y36.399 E.00735
G1 X37.428 Y36.748 E.00979
G1 X37.322 Y36.994 E.00735
G1 X37.171 Y37.215 E.00735
G1 X36.982 Y37.404 E.00735
G1 X36.761 Y37.555 E.00735
G1 X36.516 Y37.661 E.00735
G1 X36.255 Y37.719 E.00735
G1 X35.987 Y37.727 E.00735
G1 X35.637 Y37.661 E.00979
G1 X35.392 Y37.555 E.00735
G1 X35.171 Y37.404 E.00735
G1 X34.982 Y37.215 E.00735
G1 X34.831 Y36.994 E.00735
G1 X34.725 Y36.748 E.00735
G1 X34.667 Y36.487 E.00735
G1 X34.658 Y36.22 E.00735
G1 X34.725 Y35.87 E.00979
G1 X34.831 Y35.625 E.00735
G1 X34.843 Y35.607 E.00058
G1 X35.144 Y35.797 F21000
G1 F3000
G1 X35.257 Y35.631 E.00551
G1 X35.398 Y35.49 E.0055
G1 X35.564 Y35.377 E.00551
G1 X35.748 Y35.298 E.0055
G1 X35.943 Y35.254 E.00551
G1 X36.143 Y35.248 E.00551
G1 X36.405 Y35.298 E.00733
G1 X36.589 Y35.377 E.0055
G1 X36.755 Y35.49 E.00551
G1 X36.896 Y35.631 E.0055
