; HEADER_BLOCK_START
; generated by OrcaSlicer 1.6.3-beta on 2023-05-25 at 21:49:39
; total layer number: 85
; HEADER_BLOCK_END

; THUMBNAIL_BLOCK_START
; THUMBNAIL_BLOCK_END

; external perimeters extrusion width = 0.40mm
; perimeters extrusion width = 0.45mm
; infill extrusion width = 0.45mm
; solid infill extrusion width = 0.40mm
; top infill extrusion width = 0.40mm
; support material extrusion width = 0.40mm
; first layer extrusion width = 0.40mm

; EXECUTABLE_BLOCK_START
EXCLUDE_OBJECT_DEFINE NAME=Z_Lead_screw_lower_bracket.stl_id_0_copy_0 CENTER=60,60 POLYGON=[[33.1836,80.6682],[33.184,80.6246],[33.188,80.5831],[33.1949,80.5442],[33.2067,80.4999],[33.3921,79.916],[33.5296,79.4829],[38.8796,62.6293],[44.7788,44.0456],[44.8785,43.7768],[45.0034,43.5187],[45.1524,43.2737],[45.3241,43.0441],[45.5169,42.8319],[51.1213,37.2275],[51.3395,37.0298],[51.5759,36.8544],[51.8285,36.7031],[52.0946,36.5772],[52.3718,36.478],[52.6574,36.4065],[52.9486,36.3633],[53.2426,36.3488],[66.7574,36.3488],[67.0514,36.3633],[67.3426,36.4065],[67.6282,36.478],[67.9054,36.5772],[68.1715,36.7031],[68.4241,36.8544],[68.6605,37.0298],[68.8787,37.2275],[74.4831,42.8319],[74.6759,43.0441],[74.8476,43.2737],[74.9966,43.5187],[75.1215,43.7768],[75.2212,44.0456],[81.1204,62.6293],[86.4704,79.4829],[86.6079,79.916],[86.7933,80.4999],[86.8051,80.5442],[86.812,80.5831],[86.816,80.6246],[86.8164,80.6682],[86.8137,80.7057],[86.8062,80.7529],[86.3167,83.6512],[33.6833,83.6512],[33.1938,80.7529],[33.1863,80.7057],[33.1836,80.6682]]
M73 P0 R24
;TYPE:Custom
START_PRINT T_BED=110 T_EXTRUDER=260
G90
G21
M83 ; use relative distances for extrusion
; Filament gcode

    PRESSURE_ADVANCE_SELECT FILAMENT=ABS
M106 S0
;LAYER_CHANGE
;Z:0.2
;HEIGHT:0.2
;BEFORE_LAYER_CHANGE
;0.2
G92 E0

;AFTER_LAYER_CHANGE
;0.2
SET_VELOCITY_LIMIT ACCEL_TO_DECEL=500
M204 S1000
G1 E-.5 F3000
G1 Z.2 F21000
G1 X45.295 Y42.61
G1 E.5 F1800
;TYPE:Skirt
;WIDTH:0.4
G1 F3000
G1 X50.899 Y37.005 E.21791
G1 X51.54 Y36.507 E.02231
G1 X52.422 Y36.139 E.02629
G1 X53.243 Y36.035 E.02274
G1 X66.77 Y36.035 E.37191
G1 X67.907 Y36.243 E.0318
G1 X68.491 Y36.526 E.01784
G1 X68.934 Y36.852 E.01513
G1 X74.705 Y42.61 E.22412
G1 X75.185 Y43.221 E.02136
G1 X75.419 Y43.677 E.01409
G1 X86.876 Y79.723 E1.03992
G1 X87.01 Y80.415 E.01939
G1 X87.007 Y80.921 E.01391
G1 X86.911 Y81.459 E.015
G1 X86.572 Y82.248 E.02362
G1 X85.995 Y82.95 E.02498
G1 X85.198 Y83.494 E.02653
G1 X84.385 Y83.776 E.02365
G1 X83.581 Y83.865 E.02224
G1 X36.419 Y83.865 E1.2967
G1 X35.5 Y83.748 E.02545
G1 X34.486 Y83.317 E.0303
G1 X33.69 Y82.618 E.02914
G1 X33.244 Y81.892 E.02342
G1 X32.993 Y80.921 E.02757
G1 X33.068 Y79.927 E.02742
G1 X44.479 Y43.951 E1.03771
G1 X44.831 Y43.195 E.02292
G1 X45.257 Y42.657 E.01887
G1 X45.535 Y42.877 F21000
G1 F3000
G1 X45.547 Y42.862 E.00053
G1 X51.152 Y37.258 E.21791
G1 X51.726 Y36.812 E.02
G1 X52.506 Y36.486 E.02323
G1 X53.243 Y36.392 E.02042
G1 X66.769 Y36.392 E.37191
G1 X67.779 Y36.576 E.0282
G1 X68.704 Y37.125 E.02958
G1 X74.453 Y42.862 E.22331
G1 X74.878 Y43.403 E.01891
G1 X75.087 Y43.81 E.01259
G1 X86.536 Y79.831 E1.03919
G1 X86.654 Y80.44 E.01706
G1 X86.651 Y80.894 E.01246
G1 X86.565 Y81.368 E.01325
G1 X86.264 Y82.066 E.02091
G1 X85.751 Y82.69 E.0222
G1 X85.044 Y83.172 E.02352
G1 X84.302 Y83.429 E.0216
G1 X83.581 Y83.508 E.01993
G1 X36.419 Y83.508 E1.2967
G1 X35.581 Y83.401 E.02321
G1 X34.673 Y83.013 E.02716
G1 X33.967 Y82.393 E.02583
G1 X33.569 Y81.745 E.02092
G1 X33.349 Y80.894 E.02416
G1 X33.415 Y80.008 E.02441
G1 X44.82 Y44.059 E1.03694
G1 X45.136 Y43.38 E.02058
G1 X45.498 Y42.924 E.016
; printing object Z Lead screw lower bracket.stl id:0 copy 0
EXCLUDE_OBJECT_START NAME=Z_Lead_screw_lower_bracket.stl_id_0_copy_0
G1 E-.5
G1 Z.4 F21000
G1 X56.633 Y42.118
G1 Z.2
G1 E.5 F1800
;TYPE:Inner wall
G1 F3000
G1 X56.671 Y42.104 E.00111
G1 X57.262 Y41.931 E.01691
G1 X57.824 Y41.8 E.01589
G1 X58.464 Y41.687 E.01786
G1 X59.078 Y41.616 E.017
G1 X59.692 Y41.581 E.01692
G1 X60.308 Y41.581 E.01691
G1 X60.884 Y41.614 E.01589
G1 X61.53 Y41.686 E.01785
G1 X62.139 Y41.791 E.017
G1 X62.738 Y41.931 E.01692
G1 X63.329 Y42.104 E.01691
G1 X63.908 Y42.311 E.01692
G1 X64.44 Y42.536 E.01588
G1 X65.024 Y42.82 E.01786
G1 X65.563 Y43.124 E.017
G1 X66.08 Y43.457 E.01691
G1 X66.578 Y43.818 E.01691
G1 X67.054 Y44.208 E.01692
G1 X67.507 Y44.624 E.01691
G1 X67.936 Y45.065 E.01692
G1 X68.339 Y45.53 E.01691
G1 X68.715 Y46.017 E.01692
G1 X69.062 Y46.525 E.01691
G1 X69.38 Y47.052 E.01691
G1 X69.667 Y47.596 E.01692
G1 X69.922 Y48.156 E.01691
G1 X70.146 Y48.729 E.01692
G1 X70.336 Y49.314 E.01692
G1 X70.492 Y49.909 E.01691
G1 X70.614 Y50.512 E.01692
G1 X70.702 Y51.121 E.01691
G1 X70.754 Y51.734 E.01692
G1 X70.772 Y52.349 E.01691
G1 X70.755 Y52.926 E.01589
G1 X70.702 Y53.574 E.01786
G1 X70.614 Y54.186 E.017
G1 X70.492 Y54.789 E.01692
G1 X70.336 Y55.384 E.01691
G1 X70.146 Y55.969 E.01692
G1 X69.922 Y56.542 E.01692
G1 X69.667 Y57.102 E.01691
G1 X69.38 Y57.646 E.01691
G1 X69.062 Y58.173 E.01691
G1 X68.715 Y58.68 E.01692
G1 X68.362 Y59.138 E.01589
G1 X67.938 Y59.63 E.01785
G1 X67.507 Y60.074 E.017
G1 X67.054 Y60.49 E.01691
G1 X66.578 Y60.879 E.01692
G1 X66.08 Y61.241 E.01691
G1 X65.563 Y61.573 E.01691
G1 X65.06 Y61.858 E.01589
G1 X64.478 Y62.146 E.01785
G1 X63.908 Y62.387 E.017
G1 X63.329 Y62.594 E.01692
G1 X62.738 Y62.767 E.01691
G1 X62.139 Y62.906 E.01692
G1 X61.533 Y63.011 E.01692
G1 X60.922 Y63.081 E.01691
G1 X60.308 Y63.116 E.01692
G1 X59.692 Y63.116 E.01691
G1 X59.078 Y63.081 E.01692
G1 X58.467 Y63.011 E.01691
G1 X57.861 Y62.906 E.01691
G1 X57.262 Y62.767 E.01692
G1 X56.671 Y62.594 E.01691
G1 X56.092 Y62.387 E.01692
G1 X55.525 Y62.147 E.01691
G1 X55.007 Y61.892 E.01589
G1 X54.44 Y61.575 E.01786
G1 X53.92 Y61.241 E.017
G1 X53.422 Y60.879 E.01692
G1 X52.946 Y60.49 E.01691
G1 X52.52 Y60.099 E.01589
G1 X52.066 Y59.635 E.01785
G1 X51.661 Y59.168 E.017
G1 X51.285 Y58.68 E.01691
G1 X50.938 Y58.173 E.01692
G1 X50.62 Y57.646 E.01691
G1 X50.333 Y57.102 E.01692
G1 X50.078 Y56.542 E.01691
G1 X49.854 Y55.969 E.01692
G1 X49.664 Y55.384 E.01692
G1 X49.508 Y54.789 E.01691
G1 X49.386 Y54.186 E.01692
G1 X49.298 Y53.577 E.01691
G1 X49.246 Y52.964 E.01692
G1 X49.228 Y52.349 E.01691
G1 X49.245 Y51.771 E.01589
G1 X49.298 Y51.124 E.01786
G1 X49.386 Y50.512 E.017
G1 X49.508 Y49.909 E.01692
G1 X49.664 Y49.314 E.01691
G1 X49.855 Y48.729 E.01692
G1 X50.078 Y48.156 E.01691
G1 X50.333 Y47.596 E.01691
G1 X50.62 Y47.052 E.01692
G1 X50.938 Y46.525 E.01691
G1 X51.285 Y46.017 E.01691
G1 X51.638 Y45.56 E.01589
G1 X52.062 Y45.067 E.01786
G1 X52.493 Y44.624 E.017
G1 X52.946 Y44.208 E.01691
G1 X53.422 Y43.818 E.01692
G1 X53.92 Y43.457 E.01691
G1 X54.437 Y43.124 E.01691
G1 X54.94 Y42.84 E.01589
G1 X55.522 Y42.552 E.01785
G1 X56.092 Y42.311 E.017
G1 X56.577 Y42.138 E.01416
G1 X56.753 Y42.454 F21000
M73 P0 R23
G1 F3000
G1 X56.782 Y42.444 E.00084
G1 X57.352 Y42.276 E.01635
G1 X57.896 Y42.15 E.01534
G1 X58.515 Y42.04 E.01729
G1 X59.109 Y41.972 E.01642
G1 X59.703 Y41.938 E.01636
G1 X60.297 Y41.938 E.01635
G1 X60.855 Y41.97 E.01534
G1 X61.48 Y42.04 E.01729
G1 X62.068 Y42.142 E.01642
G1 X62.648 Y42.276 E.01636
G1 X63.218 Y42.444 E.01635
G1 X63.779 Y42.644 E.01635
G1 X64.293 Y42.861 E.01534
G1 X64.858 Y43.136 E.0173
G1 X65.378 Y43.43 E.01642
G1 X65.879 Y43.752 E.01635
G1 X66.36 Y44.101 E.01635
G1 X66.82 Y44.478 E.01635
G1 X67.258 Y44.88 E.01635
G1 X67.673 Y45.307 E.01635
G1 X68.062 Y45.756 E.01635
G1 X68.426 Y46.227 E.01635
G1 X68.761 Y46.718 E.01635
G1 X69.069 Y47.228 E.01635
G1 X69.346 Y47.754 E.01636
G1 X69.593 Y48.295 E.01635
G1 X69.809 Y48.849 E.01635
G1 X69.993 Y49.415 E.01635
G1 X70.144 Y49.99 E.01635
G1 X70.262 Y50.573 E.01635
G1 X70.347 Y51.162 E.01635
G1 X70.398 Y51.754 E.01635
G1 X70.415 Y52.349 E.01635
G1 X70.399 Y52.907 E.01534
G1 X70.347 Y53.534 E.0173
G1 X70.262 Y54.125 E.01642
G1 X70.144 Y54.708 E.01635
G1 X69.993 Y55.283 E.01635
G1 X69.809 Y55.849 E.01635
G1 X69.593 Y56.403 E.01635
G1 X69.346 Y56.944 E.01635
G1 X69.069 Y57.47 E.01635
G1 X68.761 Y57.979 E.01635
G1 X68.426 Y58.47 E.01636
G1 X68.085 Y58.912 E.01534
G1 X67.675 Y59.389 E.01729
G1 X67.258 Y59.818 E.01642
G1 X66.82 Y60.22 E.01635
G1 X66.36 Y60.596 E.01635
G1 X65.879 Y60.946 E.01635
G1 X65.378 Y61.267 E.01635
G1 X64.892 Y61.542 E.01534
G1 X64.329 Y61.821 E.01729
G1 X63.779 Y62.054 E.01642
G1 X63.218 Y62.254 E.01635
G1 X62.648 Y62.421 E.01635
G1 X62.068 Y62.556 E.01635
G1 X61.482 Y62.658 E.01635
G1 X60.891 Y62.725 E.01635
G1 X60.297 Y62.759 E.01636
G1 X59.703 Y62.759 E.01635
G1 X59.109 Y62.725 E.01636
G1 X58.518 Y62.658 E.01635
G1 X57.932 Y62.556 E.01635
G1 X57.352 Y62.421 E.01636
G1 X56.782 Y62.254 E.01635
G1 X56.221 Y62.054 E.01635
G1 X55.674 Y61.822 E.01635
G1 X55.173 Y61.576 E.01534
G1 X54.624 Y61.269 E.0173
G1 X54.121 Y60.946 E.01642
G1 X53.64 Y60.596 E.01635
G1 X53.18 Y60.22 E.01635
G1 X52.769 Y59.842 E.01534
G1 X52.329 Y59.393 E.01729
G1 X51.938 Y58.941 E.01642
G1 X51.574 Y58.47 E.01635
G1 X51.239 Y57.979 E.01636
G1 X50.931 Y57.47 E.01635
G1 X50.654 Y56.944 E.01636
G1 X50.407 Y56.403 E.01635
G1 X50.191 Y55.849 E.01635
G1 X50.007 Y55.283 E.01635
G1 X49.856 Y54.708 E.01635
G1 X49.738 Y54.125 E.01635
G1 X49.653 Y53.536 E.01635
G1 X49.602 Y52.943 E.01636
G1 X49.585 Y52.349 E.01635
G1 X49.601 Y51.791 E.01534
G1 X49.653 Y51.164 E.0173
G1 X49.738 Y50.573 E.01642
G1 X49.856 Y49.99 E.01635
G1 X50.007 Y49.415 E.01635
G1 X50.191 Y48.849 E.01636
G1 X50.407 Y48.295 E.01635
G1 X50.654 Y47.754 E.01635
G1 X50.931 Y47.228 E.01635
G1 X51.239 Y46.718 E.01635
G1 X51.574 Y46.227 E.01635
G1 X51.915 Y45.785 E.01534
G1 X52.325 Y45.308 E.01729
G1 X52.742 Y44.88 E.01642
G1 X53.18 Y44.478 E.01635
G1 X53.64 Y44.101 E.01635
G1 X54.121 Y43.752 E.01635
G1 X54.622 Y43.43 E.01635
G1 X55.108 Y43.156 E.01534
G1 X55.671 Y42.876 E.01729
G1 X56.221 Y42.644 E.01642
G1 X56.696 Y42.474 E.01387
G1 X56.873 Y42.791 F21000
G1 F3000
G1 X56.892 Y42.784 E.00057
G1 X57.443 Y42.622 E.01579
G1 X57.967 Y42.5 E.0148
G1 X58.567 Y42.394 E.01673
G1 X59.139 Y42.328 E.01584
G1 X59.713 Y42.295 E.01579
G1 X60.287 Y42.295 E.01579
G1 X60.825 Y42.326 E.0148
G1 X61.429 Y42.393 E.01673
G1 X61.997 Y42.492 E.01584
G1 X62.557 Y42.622 E.01579
G1 X63.108 Y42.784 E.01579
G1 X63.649 Y42.977 E.01579
G1 X64.145 Y43.186 E.0148
G1 X64.692 Y43.453 E.01673
G1 X65.194 Y43.736 E.01584
G1 X65.677 Y44.047 E.01579
G1 X66.142 Y44.384 E.01579
G1 X66.586 Y44.748 E.01579
G1 X67.009 Y45.136 E.01579
G1 X67.41 Y45.548 E.01579
G1 X67.786 Y45.982 E.01579
G1 X68.137 Y46.437 E.01579
G1 X68.461 Y46.911 E.01579
G1 X68.758 Y47.403 E.01579
G1 X69.026 Y47.911 E.01579
G1 X69.264 Y48.434 E.01579
G1 X69.473 Y48.969 E.01579
G1 X69.65 Y49.515 E.01579
G1 X69.796 Y50.071 E.01579
G1 X69.91 Y50.634 E.01579
G1 X69.992 Y51.202 E.01579
G1 X70.041 Y51.775 E.01579
G1 X70.058 Y52.349 E.01579
G1 X70.042 Y52.887 E.0148
G1 X69.992 Y53.493 E.01673
G1 X69.91 Y54.064 E.01584
G1 X69.796 Y54.627 E.01579
G1 X69.65 Y55.182 E.01579
G1 X69.473 Y55.729 E.01579
G1 X69.264 Y56.264 E.01579
G1 X69.026 Y56.786 E.01579
G1 X68.758 Y57.294 E.01579
G1 X68.461 Y57.786 E.01579
G1 X68.137 Y58.26 E.01579
G1 X67.808 Y58.687 E.0148
G1 X67.411 Y59.148 E.01673
G1 X67.009 Y59.561 E.01584
G1 X66.586 Y59.95 E.01579
G1 X66.142 Y60.313 E.01579
G1 X65.677 Y60.651 E.01579
G1 X65.194 Y60.962 E.01579
G1 X64.725 Y61.226 E.0148
G1 X64.18 Y61.497 E.01673
G1 X63.649 Y61.721 E.01584
G1 X63.108 Y61.914 E.01579
G1 X62.557 Y62.076 E.01579
G1 X61.997 Y62.206 E.01579
G1 X61.431 Y62.304 E.01579
G1 X60.861 Y62.369 E.01579
G1 X60.287 Y62.402 E.01579
G1 X59.713 Y62.402 E.01579
G1 X59.139 Y62.369 E.01579
G1 X58.569 Y62.304 E.01579
G1 X58.003 Y62.206 E.01579
G1 X57.443 Y62.076 E.01579
G1 X56.892 Y61.914 E.01579
G1 X56.351 Y61.721 E.01579
G1 X55.822 Y61.497 E.01579
G1 X55.339 Y61.26 E.0148
G1 X54.808 Y60.963 E.01673
G1 X54.323 Y60.651 E.01584
G1 X53.858 Y60.313 E.01579
G1 X53.414 Y59.95 E.01579
G1 X53.017 Y59.586 E.0148
G1 X52.591 Y59.151 E.01673
G1 X52.214 Y58.715 E.01585
G1 X51.863 Y58.26 E.01579
G1 X51.539 Y57.786 E.01579
G1 X51.242 Y57.294 E.01579
G1 X50.974 Y56.786 E.01579
G1 X50.736 Y56.264 E.01579
G1 X50.527 Y55.729 E.01579
G1 X50.35 Y55.182 E.01579
G1 X50.204 Y54.627 E.01579
G1 X50.09 Y54.064 E.01579
G1 X50.008 Y53.495 E.01579
G1 X49.959 Y52.923 E.01579
G1 X49.942 Y52.349 E.01579
G1 X49.958 Y51.811 E.0148
G1 X50.008 Y51.204 E.01673
G1 X50.09 Y50.634 E.01584
G1 X50.204 Y50.071 E.01579
G1 X50.35 Y49.515 E.01579
G1 X50.527 Y48.969 E.01579
G1 X50.736 Y48.434 E.01579
G1 X50.974 Y47.911 E.01579
G1 X51.242 Y47.403 E.01579
G1 X51.539 Y46.911 E.01579
G1 X51.863 Y46.437 E.01579
G1 X52.192 Y46.011 E.0148
G1 X52.589 Y45.55 E.01673
G1 X52.991 Y45.136 E.01584
G1 X53.414 Y44.748 E.01579
G1 X53.858 Y44.384 E.01579
G1 X54.323 Y44.047 E.01579
G1 X54.806 Y43.736 E.01579
G1 X55.275 Y43.471 E.0148
G1 X55.82 Y43.201 E.01673
G1 X56.351 Y42.977 E.01584
G1 X56.816 Y42.811 E.01357
G1 X56.992 Y43.127 F21000
G1 F3000
G1 X57.002 Y43.123 E.0003
G1 X57.534 Y42.967 E.01523
G1 X58.039 Y42.85 E.01426
G1 X58.618 Y42.747 E.01617
G1 X59.17 Y42.684 E.01527
G1 X59.723 Y42.652 E.01523
G1 X60.277 Y42.652 E.01523
G1 X60.795 Y42.682 E.01426
G1 X61.379 Y42.747 E.01617
G1 X61.926 Y42.842 E.01527
G1 X62.466 Y42.967 E.01523
G1 X62.998 Y43.123 E.01523
G1 X63.519 Y43.309 E.01523
G1 X63.997 Y43.511 E.01425
G1 X64.526 Y43.769 E.01617
G1 X65.009 Y44.042 E.01527
G1 X65.475 Y44.342 E.01523
G1 X65.923 Y44.667 E.01523
G1 X66.352 Y45.018 E.01523
G1 X66.76 Y45.392 E.01523
G1 X67.147 Y45.79 E.01523
G1 X67.509 Y46.208 E.01523
G1 X67.848 Y46.647 E.01523
G1 X68.16 Y47.104 E.01523
G1 X68.446 Y47.579 E.01523
G1 X68.705 Y48.069 E.01523
G1 X68.935 Y48.573 E.01523
G1 X69.136 Y49.089 E.01523
G1 X69.307 Y49.616 E.01523
G1 X69.448 Y50.152 E.01523
G1 X69.558 Y50.695 E.01523
G1 X69.637 Y51.243 E.01523
G1 X69.684 Y51.795 E.01523
G1 X69.7 Y52.349 E.01523
G1 X69.685 Y52.867 E.01426
G1 X69.637 Y53.453 E.01617
G1 X69.558 Y54.003 E.01527
G1 X69.448 Y54.546 E.01523
G1 X69.307 Y55.082 E.01523
G1 X69.136 Y55.609 E.01523
G1 X68.935 Y56.125 E.01523
G1 X68.705 Y56.629 E.01523
G1 X68.446 Y57.119 E.01523
G1 X68.16 Y57.593 E.01523
G1 X67.848 Y58.051 E.01523
G1 X67.531 Y58.461 E.01426
G1 X67.147 Y58.907 E.01617
G1 X66.76 Y59.305 E.01527
G1 X66.352 Y59.68 E.01523
G1 X65.923 Y60.031 E.01523
G1 X65.475 Y60.356 E.01523
G1 X65.009 Y60.656 E.01523
G1 X64.558 Y60.911 E.01426
G1 X64.031 Y61.172 E.01617
G1 X63.519 Y61.388 E.01527
G1 X62.998 Y61.574 E.01523
G1 X62.466 Y61.73 E.01523
G1 X61.926 Y61.856 E.01523
G1 X61.38 Y61.95 E.01523
G1 X60.83 Y62.014 E.01523
G1 X60.277 Y62.045 E.01523
G1 X59.723 Y62.045 E.01523
G1 X59.17 Y62.014 E.01523
G1 X58.619 Y61.95 E.01523
G1 X58.074 Y61.856 E.01523
G1 X57.534 Y61.73 E.01523
G1 X57.002 Y61.574 E.01523
G1 X56.481 Y61.388 E.01523
G1 X55.97 Y61.173 E.01523
G1 X55.505 Y60.944 E.01426
G1 X54.992 Y60.656 E.01617
G1 X54.525 Y60.356 E.01526
G1 X54.077 Y60.031 E.01523
G1 X53.648 Y59.68 E.01523
G1 X53.266 Y59.329 E.01426
G1 X52.854 Y58.909 E.01617
G1 X52.491 Y58.489 E.01527
G1 X52.152 Y58.051 E.01523
G1 X51.84 Y57.593 E.01523
G1 X51.554 Y57.119 E.01523
G1 X51.295 Y56.629 E.01523
G1 X51.065 Y56.125 E.01523
G1 X50.864 Y55.609 E.01523
G1 X50.693 Y55.082 E.01523
G1 X50.552 Y54.546 E.01523
G1 X50.442 Y54.003 E.01523
G1 X50.363 Y53.455 E.01523
G1 X50.316 Y52.903 E.01523
G1 X50.3 Y52.349 E.01523
G1 X50.315 Y51.831 E.01426
G1 X50.363 Y51.244 E.01617
G1 X50.442 Y50.695 E.01527
G1 X50.552 Y50.152 E.01523
G1 X50.693 Y49.616 E.01523
G1 X50.864 Y49.089 E.01523
G1 X51.065 Y48.573 E.01523
G1 X51.295 Y48.069 E.01523
G1 X51.554 Y47.579 E.01523
G1 X51.84 Y47.104 E.01523
G1 X52.152 Y46.647 E.01523
G1 X52.469 Y46.237 E.01426
G1 X52.853 Y45.791 E.01617
G1 X53.24 Y45.392 E.01527
G1 X53.648 Y45.018 E.01523
G1 X54.077 Y44.667 E.01523
G1 X54.525 Y44.342 E.01523
G1 X54.991 Y44.042 E.01523
G1 X55.442 Y43.787 E.01426
G1 X55.969 Y43.526 E.01617
G1 X56.481 Y43.309 E.01527
G1 X56.936 Y43.147 E.01328
G1 X57.124 Y43.504 F21000
;TYPE:Outer wall
G1 F3000
G1 X57.126 Y43.504 E.00005
G1 X57.636 Y43.354 E.0146
G1 X58.119 Y43.242 E.01365
G1 X58.676 Y43.143 E.01554
G1 X59.204 Y43.083 E.01462
G1 X59.734 Y43.052 E.0146
G1 X60.266 Y43.052 E.0146
