; HEADER_BLOCK_START
; generated by OrcaSlicer 1.6.4-beta2 on 2023-08-12 at 16:53:56
; total layer number: 46
; HEADER_BLOCK_END

; THUMBNAIL_BLOCK_START
; THUMBNAIL_BLOCK_END

; external perimeters extrusion width = 0.40mm
; perimeters extrusion width = 0.46mm
; infill extrusion width = 0.64mm
; solid infill extrusion width = 0.56mm
; top infill extrusion width = 0.40mm
; support material extrusion width = 0.46mm
; first layer extrusion width = 0.50mm

; external perimeters extrusion width = 0.40mm
; perimeters extrusion width = 0.46mm
; infill extrusion width = 0.64mm
; solid infill extrusion width = 0.56mm
; top infill extrusion width = 0.40mm
; support material extrusion width = 0.46mm
; first layer extrusion width = 0.50mm

; EXECUTABLE_BLOCK_START
EXCLUDE_OBJECT_DEFINE NAME=Z_Lower_rod_mount_clamp-10mm.stl_id_0_copy_0 CENTER=63.1481,72.0704 POLYGON=[[48.1311,68.3549],[48.1742,68.3441],[72.0921,62.3405],[75.2731,64.8648],[75.4296,64.9956],[75.5793,65.1343],[75.7217,65.2804],[75.8564,65.4335],[75.9832,65.5934],[76.1016,65.7595],[76.2114,65.9314],[76.3123,66.1087],[78.1652,69.5659],[57.5717,80.6026],[55.4242,81.7535],[55.3369,81.8003],[48.1311,68.3549]]
EXCLUDE_OBJECT_DEFINE NAME=Z_Lower_rod_mount_clamp-10mm.stl_id_1_copy_0 CENTER=57.0267,47.6778 POLYGON=[[42.0097,43.9623],[42.0527,43.9515],[65.9707,37.9479],[69.1517,40.4722],[69.3082,40.603],[69.4578,40.7417],[69.6002,40.8878],[69.735,41.0409],[69.8617,41.2008],[69.9802,41.3668],[70.09,41.5387],[70.1909,41.716],[72.0437,45.1733],[51.4503,56.21],[49.3028,57.3609],[49.2155,57.4077],[42.0097,43.9623]]
M73 P0 R12
;TYPE:Custom
START_PRINT T_BED=105 T_EXTRUDER=260
G90
G21
M83 ; use relative distances for extrusion
; Filament gcode
M106 S0
;LAYER_CHANGE
;Z:0.2
;HEIGHT:0.2
;BEFORE_LAYER_CHANGE
;0.2
G92 E0

;AFTER_LAYER_CHANGE
;0.2
SET_VELOCITY_LIMIT ACCEL=1000 ACCEL_TO_DECEL=500
SET_VELOCITY_LIMIT SQUARE_CORNER_VELOCITY=9
G1 E-.5 F3000
G1 Z.2 F21000
G1 X40.428 Y42.679
G1 E.5 F1800
;TYPE:Skirt
;WIDTH:0.5
G1 F3000
G1 X41.739 Y41.954 E.05294
G1 X64.711 Y36.187 E.83718
G1 X65.757 Y36.082 E.03715
G1 X66.602 Y36.221 E.03027
G1 X67.651 Y36.721 E.04106
G1 X70.984 Y39.421 E.15164
G1 X71.837 Y40.537 E.04964
G1 X73.819 Y44.222 E.14788
G1 X74.077 Y44.889 E.02529
G1 X80.198 Y69.282 E.88891
G1 X80.173 Y70.795 E.0535
G1 X79.392 Y72.092 E.0535
G1 X78.748 Y72.56 E.02811
G1 X56.713 Y84.369 E.88365
G1 X55.239 Y84.713 E.0535
G1 X53.792 Y84.271 E.0535
G1 X52.768 Y83.177 E.05295
G1 X46.001 Y70.549 E.50639
G1 X45.743 Y69.882 E.02529
G1 X39.621 Y45.49 E.88891
G1 X39.647 Y43.976 E.0535
G1 X40.408 Y42.714 E.05209
G1 X40.817 Y43.002 F21000
G1 F3000
G1 X40.919 Y42.857 E.00627
G1 X41.85 Y42.397 E.03669
G1 X64.822 Y36.631 E.83718
G1 X65.741 Y36.538 E.03263
G1 X66.479 Y36.661 E.02644
G1 X67.386 Y37.094 E.03552
G1 X70.651 Y39.734 E.1484
G1 X71.441 Y40.765 E.0459
G1 X73.416 Y44.438 E.14742
G1 X73.634 Y45 E.02132
G1 X79.755 Y69.393 E.88891
G1 X79.699 Y70.779 E.04905
G1 X78.533 Y72.157 E.06379
G1 X56.498 Y83.966 E.88365
G1 X55.139 Y84.249 E.04905
G1 X53.844 Y83.752 E.04905
G1 X53.171 Y82.961 E.03669
G1 X46.404 Y70.333 E.50639
G1 X46.186 Y69.771 E.02132
G1 X40.065 Y45.378 E.88891
G1 X40.121 Y43.992 E.04905
G1 X40.794 Y43.034 E.04136
; printing object Z Lower rod mount clamp-10mm.stl id:0 copy 0
EXCLUDE_OBJECT_START NAME=Z_Lower_rod_mount_clamp-10mm.stl_id_0_copy_0
G1 E-.5
G1 Z.4 F21000
G1 X61.785 Y77.722
G1 Z.2
G1 E.5 F1800
;TYPE:Outer wall
G1 F3000
G1 X61.86 Y77.907 E.00707
G1 X55.48 Y81.326 E.25585
G1 X49.09 Y69.403 E.47815
G1 X71.605 Y63.751 E.82052
M73 P1 R12
G1 X71.754 Y63.739 E.00526
G1 X71.82 Y63.752 E.00237
G1 X71.954 Y63.827 E.00546
G1 X74.486 Y65.836 E.11424
G1 X74.854 Y66.186 E.01793
G1 X75.046 Y66.431 E.01099
G1 X75.215 Y66.707 E.01144
G1 X76.898 Y69.848 E.12597
G1 X71.223 Y72.889 E.22758
G1 X71.111 Y72.724 E.00707
G1 X70.771 Y72.314 E.01882
G1 X70.392 Y71.939 E.01885
G1 X69.977 Y71.604 E.01885
G1 X69.531 Y71.311 E.01885
G1 X69.058 Y71.065 E.01885
G1 X68.565 Y70.868 E.01874
G1 X68.305 Y70.786 E.00965
G1 X67.789 Y70.664 E.01874
G1 X67.26 Y70.594 E.01885
G1 X66.727 Y70.578 E.01885
G1 X66.195 Y70.614 E.01885
G1 X65.669 Y70.703 E.01885
G1 X65.155 Y70.844 E.01885
G1 X64.66 Y71.035 E.01875
G1 X64.408 Y71.154 E.00984
G1 X63.952 Y71.413 E.01854
G1 X63.517 Y71.722 E.01885
G1 X63.115 Y72.072 E.01885
G1 X62.75 Y72.46 E.01885
G1 X62.425 Y72.883 E.01885
G1 X62.144 Y73.337 E.01885
G1 X61.91 Y73.813 E.01874
G1 X61.809 Y74.066 E.00965
G1 X61.649 Y74.572 E.01874
G1 X61.539 Y75.099 E.01904
G1 X61.483 Y75.624 E.01866
G1 X61.48 Y76.157 E.01885
G1 X61.529 Y76.688 E.01885
G1 X61.631 Y77.212 E.01885
G1 X61.773 Y77.684 E.01741
G1 X61.247 Y77.669 F21000
;TYPE:Inner wall
G1 F3000
G1 X55.685 Y80.65 E.22305
G1 X49.833 Y69.732 E.43782
G1 X71.681 Y64.248 E.79616
G1 X74.158 Y66.214 E.11178
G1 X74.483 Y66.523 E.01584
G1 X74.634 Y66.716 E.00868
G1 X74.781 Y66.956 E.00992
G1 X76.221 Y69.643 E.10779
G1 X71.364 Y72.246 E.19477
G1 X71.14 Y71.976 E.01242
G1 X70.725 Y71.566 E.02062
G1 X70.272 Y71.199 E.02061
G1 X69.784 Y70.879 E.02061
G1 X69.267 Y70.61 E.02062
G1 X68.734 Y70.397 E.02028
G1 X68.438 Y70.303 E.01097
G1 X67.879 Y70.172 E.02028
G1 X67.301 Y70.095 E.02061
G1 X66.718 Y70.077 E.02062
G1 X66.136 Y70.117 E.02061
G1 X65.561 Y70.214 E.02061
G1 X64.999 Y70.368 E.02061
G1 X64.463 Y70.575 E.0203
G1 X64.177 Y70.71 E.01116
G1 X63.684 Y70.991 E.02008
G1 X63.208 Y71.328 E.02061
G1 X62.768 Y71.711 E.02061
G1 X62.368 Y72.136 E.02062
G1 X62.013 Y72.599 E.02061
G1 X61.706 Y73.094 E.02062
G1 X61.453 Y73.61 E.02028
G1 X61.338 Y73.898 E.01097
G1 X61.165 Y74.445 E.02029
G1 X61.045 Y75.022 E.02081
G1 X60.983 Y75.596 E.02041
G1 X60.98 Y76.179 E.02061
G1 X61.034 Y76.76 E.02062
G1 X61.145 Y77.332 E.02062
G1 X61.235 Y77.63 E.01101
G1 X60.701 Y77.442 F21000
G1 F3000
G1 X55.872 Y80.031 E.19368
G1 X50.513 Y70.033 E.40095
G1 X71.573 Y64.746 E.76748
G1 X73.858 Y66.559 E.10308
G1 X74.144 Y66.831 E.01394
G1 X74.258 Y66.977 E.00657
G1 X74.384 Y67.183 E.00853
G1 X75.602 Y69.456 E.09117
G1 X71.478 Y71.667 E.1654
G1 X71.03 Y71.224 E.02224
G1 X70.541 Y70.829 E.02223
G1 X70.015 Y70.485 E.02223
G1 X69.458 Y70.194 E.02223
G1 X68.888 Y69.966 E.02169
G1 X68.559 Y69.862 E.01218
G1 X67.962 Y69.722 E.0217
G1 X67.338 Y69.639 E.02223
G1 X66.71 Y69.62 E.02223
G1 X66.082 Y69.662 E.02223
G1 X65.462 Y69.767 E.02223
G1 X64.856 Y69.934 E.02223
G1 X64.282 Y70.154 E.02172
G1 X63.966 Y70.304 E.01238
G1 X63.438 Y70.605 E.02148
G1 X62.925 Y70.969 E.02222
G1 X62.451 Y71.381 E.02223
G1 X62.02 Y71.84 E.02223
G1 X61.637 Y72.338 E.02223
G1 X61.305 Y72.873 E.02223
G1 X61.035 Y73.424 E.02169
G1 X60.907 Y73.744 E.01218
G1 X60.722 Y74.329 E.02171
G1 X60.593 Y74.951 E.02242
G1 X60.527 Y75.57 E.02202
G1 X60.522 Y76.199 E.02222
G1 X60.581 Y76.825 E.02223
G1 X60.693 Y77.403 E.02083
G1 X60.188 Y77.199 F21000
G1 F3000
G1 X56.059 Y79.412 E.1656
G1 X51.193 Y70.333 E.36408
G1 X71.466 Y65.245 E.73879
G1 X73.558 Y66.905 E.09439
G1 X73.804 Y67.139 E.01203
G1 X73.987 Y67.41 E.01157
G1 X74.984 Y69.269 E.07455
G1 X71.559 Y71.105 E.13732
G1 X71.335 Y70.883 E.01113
G1 X70.811 Y70.459 E.02384
G1 X70.247 Y70.09 E.02384
G1 X69.649 Y69.778 E.02384
G1 X69.042 Y69.535 E.0231
G1 X68.68 Y69.421 E.01339
G1 X68.044 Y69.272 E.02311
G1 X67.375 Y69.183 E.02384
G1 X66.701 Y69.162 E.02384
G1 X66.028 Y69.208 E.02384
G1 X65.363 Y69.321 E.02384
G1 X64.713 Y69.499 E.02384
G1 X64.102 Y69.734 E.02314
G1 X63.755 Y69.899 E.01359
G1 X63.192 Y70.219 E.02288
G1 X62.642 Y70.609 E.02383
G1 X62.133 Y71.052 E.02384
G1 X61.671 Y71.543 E.02384
G1 X61.26 Y72.078 E.02384
G1 X60.905 Y72.651 E.02384
G1 X60.617 Y73.238 E.02311
G1 X60.476 Y73.59 E.01339
G1 X60.279 Y74.214 E.02313
G1 X60.141 Y74.88 E.02404
G1 X60.07 Y75.544 E.02362
G1 X60.065 Y76.218 E.02383
G1 X60.128 Y76.89 E.02384
G1 X60.18 Y77.16 E.00971
G1 X59.675 Y76.955 F21000
G1 F3000
G1 X56.245 Y78.793 E.13752
G1 X51.873 Y70.634 E.32721
G1 X71.358 Y65.743 E.71011
G1 X73.257 Y67.25 E.0857
G1 X73.465 Y67.447 E.01013
G1 X73.591 Y67.638 E.00807
G1 X74.365 Y69.082 E.05793
G1 X71.641 Y70.542 E.10924
G1 X71.08 Y70.09 E.02546
G1 X70.478 Y69.695 E.02545
G1 X69.84 Y69.362 E.02545
G1 X69.196 Y69.105 E.02452
G1 X68.802 Y68.98 E.0146
G1 X68.127 Y68.821 E.02452
G1 X67.413 Y68.727 E.02545
G1 X66.693 Y68.704 E.02545
G1 X65.975 Y68.753 E.02545
G1 X65.265 Y68.874 E.02545
G1 X64.57 Y69.064 E.02545
G1 X63.922 Y69.314 E.02456
G1 X63.543 Y69.493 E.0148
G1 X62.946 Y69.833 E.02428
G1 X62.359 Y70.249 E.02544
G1 X61.816 Y70.722 E.02545
G1 X61.323 Y71.247 E.02546
G1 X60.884 Y71.818 E.02545
G1 X60.504 Y72.429 E.02545
G1 X60.199 Y73.052 E.02452
G1 X60.046 Y73.436 E.0146
G1 X59.837 Y74.098 E.02454
G1 X59.688 Y74.808 E.02565
G1 X59.613 Y75.518 E.02523
G1 X59.608 Y76.238 E.02544
G1 X59.671 Y76.916 E.02405
G1 E-.5
G1 Z.4 F21000
G1 X61.85 Y73.174
G1 X61.993 Y72.93
G1 X62.149 Y72.692
G1 X62.316 Y72.463
G1 X62.494 Y72.243
G1 X62.683 Y72.032
G1 X62.882 Y71.83
G1 X63.091 Y71.639
G1 X63.31 Y71.458
G1 X63.537 Y71.288
G1 X63.772 Y71.13
G1 X71.781 Y66.254
G1 Z.2
G1 E.5 F1800
;TYPE:Bottom surface
;WIDTH:0.506685
G1 F6300
G1 X73.208 Y67.68 E.07236
G1 X73.296 Y67.814 E.00572
G1 X73.901 Y68.942 E.04593
G1 X73.844 Y68.972 E.00229
G1 X71.046 Y66.175 E.14191
M73 P2 R12
G1 X70.522 Y66.306 E.01939
G1 X73.417 Y69.201 E.14684
G1 X72.99 Y69.43 E.01737
G1 X69.998 Y66.438 E.15177
G1 X69.474 Y66.569 E.01939
G1 X72.563 Y69.659 E.1567
G1 X72.136 Y69.888 E.01737
G1 X68.949 Y66.701 E.16164
G1 X68.425 Y66.832 E.01938
G1 X71.709 Y70.117 E.16657
G1 X71.679 Y70.133 E.00122
G1 X71.283 Y69.812 E.01829
G1 X70.652 Y69.399 E.02705
G1 X69.992 Y69.055 E.02669
G1 X67.901 Y66.964 E.10604
G1 X67.377 Y67.096 E.01939
G1 X68.948 Y68.667 E.07968
G1 X68.097 Y68.472 E.03131
G1 X66.852 Y67.227 E.06311
G1 X66.328 Y67.359 E.01939
G1 X67.351 Y68.382 E.0519
G1 X66.675 Y68.362 E.02426
G1 X65.804 Y67.49 E.0442
G1 X65.279 Y67.622 E.01939
G1 X66.061 Y68.404 E.03965
G1 X65.489 Y68.488 E.02073
G1 X64.755 Y67.754 E.03724
G1 X64.231 Y67.885 E.01939
G1 X64.95 Y68.604 E.03648
G1 X64.438 Y68.748 E.01909
G1 X63.707 Y68.017 E.03707
G1 X63.182 Y68.148 E.01938
G1 X63.964 Y68.93 E.03964
G1 X63.508 Y69.13 E.01785
G1 X62.658 Y68.28 E.04312
G1 X62.134 Y68.412 E.01939
G1 X63.083 Y69.361 E.04814
G1 X62.673 Y69.606 E.01715
G1 X61.61 Y68.543 E.05393
G1 X61.085 Y68.675 E.01938
G1 X62.289 Y69.879 E.06105
G1 X61.926 Y70.171 E.01673
G1 X60.561 Y68.806 E.06923
G1 X60.037 Y68.938 E.01939
G1 X61.576 Y70.477 E.07805
G1 X61.258 Y70.815 E.01664
G1 X59.513 Y69.07 E.08852
G1 X58.988 Y69.201 E.01939
G1 X60.953 Y71.165 E.09962
G1 X60.668 Y71.536 E.01677
G1 X58.464 Y69.333 E.11176
G1 X57.94 Y69.464 E.01938
G1 X60.409 Y71.933 E.12522
G1 X60.164 Y72.345 E.01716
G1 X57.415 Y69.596 E.13941
G1 X56.891 Y69.728 E.01939
G1 X59.948 Y72.785 E.15506
G1 X59.753 Y73.245 E.01793
G1 X56.367 Y69.859 E.17172
G1 X55.843 Y69.991 E.01939
G1 X59.591 Y73.739 E.19008
G1 X59.504 Y74.011 E.01025
G1 X59.453 Y74.257 E.00901
G1 X55.318 Y70.122 E.20971
G1 X54.794 Y70.254 E.01939
G1 X59.344 Y74.804 E.23077
G1 X59.281 Y75.397 E.02137
G1 X54.27 Y70.386 E.25415
G1 X53.746 Y70.517 E.01939
G1 X59.266 Y76.038 E.28
G1 X59.265 Y76.253 E.00771
G1 X59.31 Y76.738 E.01746
G1 X53.221 Y70.649 E.30881
G1 X52.697 Y70.78 E.01939
G1 X58.899 Y76.982 E.31455
G1 X58.472 Y77.211 E.01737
G1 X52.685 Y71.424 E.2935
G1 X53.443 Y72.838 E.0575
G1 X58.045 Y77.44 E.23342
G1 X57.618 Y77.669 E.01737
G1 X54.2 Y74.251 E.17335
G1 X54.957 Y75.664 E.0575
G1 X57.191 Y77.898 E.11328
G1 X56.764 Y78.126 E.01737
G1 X55.212 Y76.575 E.07871
; stop printing object Z Lower rod mount clamp-10mm.stl id:0 copy 0
EXCLUDE_OBJECT_END NAME=Z_Lower_rod_mount_clamp-10mm.stl_id_0_copy_0
; printing object Z Lower rod mount clamp-10mm.stl id:1 copy 0
EXCLUDE_OBJECT_START NAME=Z_Lower_rod_mount_clamp-10mm.stl_id_1_copy_0
G1 E-.5 F3000
G1 Z.4 F21000
G1 X55.663 Y53.329
G1 Z.2
G1 E.5 F1800
;TYPE:Outer wall
;WIDTH:0.5
G1 F3000
G1 X55.739 Y53.515 E.00707
G1 X49.359 Y56.934 E.25585
G1 X42.968 Y45.01 E.47815
G1 X65.484 Y39.359 E.82052
G1 X65.632 Y39.346 E.00526
G1 X65.698 Y39.359 E.00237
G1 X65.833 Y39.434 E.00546
G1 X68.365 Y41.443 E.11424
G1 X68.732 Y41.793 E.01793
G1 X68.924 Y42.038 E.01099
G1 X69.093 Y42.314 E.01144
G1 X70.777 Y45.455 E.12597
G1 X65.102 Y48.497 E.22758
G1 X64.989 Y48.331 E.00707
G1 X64.649 Y47.921 E.01882
G1 X64.27 Y47.546 E.01885
G1 X63.855 Y47.211 E.01885
G1 X63.409 Y46.919 E.01885
G1 X62.936 Y46.672 E.01885
G1 X62.444 Y46.475 E.01874
G1 X62.184 Y46.393 E.00965
G1 X61.668 Y46.272 E.01874
G1 X61.139 Y46.202 E.01885
G1 X60.606 Y46.185 E.01885
G1 X60.074 Y46.221 E.01885
G1 X59.548 Y46.31 E.01885
G1 X59.033 Y46.451 E.01885
G1 X58.538 Y46.642 E.01875
G1 X58.287 Y46.761 E.00984
G1 X57.831 Y47.021 E.01854
G1 X57.396 Y47.329 E.01885
G1 X56.994 Y47.679 E.01885
G1 X56.628 Y48.068 E.01885
G1 X56.303 Y48.491 E.01885
G1 X56.022 Y48.944 E.01885
G1 X55.789 Y49.42 E.01874
G1 X55.687 Y49.674 E.00965
G1 X55.528 Y50.179 E.01874
G1 X55.418 Y50.707 E.01904
G1 X55.362 Y51.231 E.01866
G1 X55.358 Y51.765 E.01885
G1 X55.408 Y52.296 E.01885
G1 X55.51 Y52.819 E.01885
G1 X55.652 Y53.291 E.01741
G1 X55.125 Y53.276 F21000
;TYPE:Inner wall
G1 F3000
G1 X49.563 Y56.257 E.22305
M73 P3 R12
G1 X43.712 Y45.339 E.43782
G1 X65.559 Y39.855 E.79616
G1 X68.036 Y41.821 E.11178
G1 X68.361 Y42.13 E.01584
G1 X68.513 Y42.324 E.00868
G1 X68.659 Y42.563 E.00992
G1 X70.1 Y45.251 E.10779
G1 X65.243 Y47.854 E.19477
G1 X65.019 Y47.583 E.01242
G1 X64.604 Y47.173 E.02062
G1 X64.15 Y46.806 E.02061
G1 X63.662 Y46.487 E.02061
G1 X63.145 Y46.217 E.02062
G1 X62.612 Y46.004 E.02028
G1 X62.316 Y45.911 E.01097
G1 X61.758 Y45.779 E.02028
G1 X61.18 Y45.703 E.02061
G1 X60.597 Y45.684 E.02062
G1 X60.015 Y45.724 E.02061
G1 X59.44 Y45.822 E.02061
G1 X58.877 Y45.976 E.02061
G1 X58.341 Y46.182 E.0203
G1 X58.056 Y46.318 E.01116
G1 X57.562 Y46.598 E.02008
G1 X57.086 Y46.936 E.02061
G1 X56.646 Y47.319 E.02061
G1 X56.247 Y47.743 E.02062
G1 X55.892 Y48.206 E.02061
G1 X55.584 Y48.702 E.02062
G1 X55.332 Y49.217 E.02028
G1 X55.216 Y49.505 E.01097
G1 X55.043 Y50.053 E.02029
G1 X54.923 Y50.629 E.02081
G1 X54.862 Y51.203 E.02041
G1 X54.858 Y51.786 E.02061
G1 X54.912 Y52.367 E.02062
G1 X55.024 Y52.94 E.02062
G1 X55.114 Y53.238 E.01101
G1 X54.58 Y53.05 F21000
G1 F3000
G1 X49.75 Y55.638 E.19368
G1 X44.392 Y45.64 E.40095
G1 X65.452 Y40.354 E.76748
G1 X67.736 Y42.167 E.10308
G1 X68.022 Y42.438 E.01394
G1 X68.137 Y42.585 E.00657
G1 X68.263 Y42.79 E.00853
G1 X69.481 Y45.064 E.09117
G1 X65.357 Y47.274 E.1654
G1 X64.909 Y46.832 E.02224
G1 X64.42 Y46.437 E.02223
G1 X63.894 Y46.092 E.02223
G1 X63.336 Y45.801 E.02223
G1 X62.766 Y45.573 E.02169
G1 X62.438 Y45.47 E.01218
G1 X61.84 Y45.329 E.0217
G1 X61.217 Y45.247 E.02223
G1 X60.588 Y45.227 E.02223
G1 X59.961 Y45.27 E.02223
G1 X59.341 Y45.375 E.02223
G1 X58.734 Y45.541 E.02223
G1 X58.161 Y45.762 E.02172
G1 X57.845 Y45.912 E.01238
G1 X57.316 Y46.212 E.02148
G1 X56.803 Y46.576 E.02222
G1 X56.329 Y46.989 E.02223
G1 X55.898 Y47.447 E.02223
G1 X55.515 Y47.946 E.02223
G1 X55.184 Y48.48 E.02223
G1 X54.914 Y49.031 E.02169
G1 X54.786 Y49.351 E.01218
G1 X54.601 Y49.937 E.02171
G1 X54.471 Y50.558 E.02242
G1 X54.405 Y51.177 E.02202
G1 X54.401 Y51.806 E.02222
G1 X54.459 Y52.432 E.02223
G1 X54.572 Y53.011 E.02083
G1 X54.067 Y52.806 F21000
G1 F3000
G1 X49.937 Y55.019 E.1656
G1 X45.071 Y45.941 E.36408
G1 X65.344 Y40.852 E.73879
G1 X67.436 Y42.512 E.09439
G1 X67.683 Y42.746 E.01203
G1 X67.866 Y43.018 E.01157
G1 X68.862 Y44.877 E.07455
G1 X65.438 Y46.712 E.13732
G1 X65.214 Y46.491 E.01113
G1 X64.689 Y46.067 E.02384
G1 X64.125 Y45.697 E.02384
G1 X63.527 Y45.385 E.02384
G1 X62.92 Y45.143 E.0231
G1 X62.559 Y45.029 E.01339
G1 X61.923 Y44.879 E.02311
G1 X61.254 Y44.791 E.02384
G1 X60.58 Y44.769 E.02384
G1 X59.907 Y44.815 E.02384
G1 X59.242 Y44.928 E.02384
G1 X58.591 Y45.106 E.02384
G1 X57.981 Y45.341 E.02314
G1 X57.633 Y45.506 E.01359
G1 X57.071 Y45.826 E.02288
G1 X56.52 Y46.216 E.02383
G1 X56.012 Y46.659 E.02384
G1 X55.55 Y47.15 E.02384
G1 X55.139 Y47.685 E.02384
G1 X54.783 Y48.258 E.02384
G1 X54.496 Y48.845 E.02311
G1 X54.355 Y49.197 E.01339
G1 X54.158 Y49.821 E.02313
G1 X54.019 Y50.487 E.02404
