; HEADER_BLOCK_START
; generated by OrcaSlicer 1.6.3 on 2023-07-21 at 17:29:43
; total layer number: 68
; HEADER_BLOCK_END

; THUMBNAIL_BLOCK_START
; THUMBNAIL_BLOCK_END

; external perimeters extrusion width = 0.40mm
; perimeters extrusion width = 0.45mm
; infill extrusion width = 0.45mm
; solid infill extrusion width = 0.40mm
; top infill extrusion width = 0.40mm
; support material extrusion width = 0.40mm
; first layer extrusion width = 0.50mm

; external perimeters extrusion width = 0.40mm
; perimeters extrusion width = 0.45mm
; infill extrusion width = 0.45mm
; solid infill extrusion width = 0.40mm
; top infill extrusion width = 0.40mm
; support material extrusion width = 0.40mm
; first layer extrusion width = 0.50mm

; external perimeters extrusion width = 0.40mm
; perimeters extrusion width = 0.45mm
; infill extrusion width = 0.45mm
; solid infill extrusion width = 0.40mm
; top infill extrusion width = 0.40mm
; support material extrusion width = 0.40mm
; first layer extrusion width = 0.50mm

; external perimeters extrusion width = 0.40mm
; perimeters extrusion width = 0.45mm
; infill extrusion width = 0.45mm
; solid infill extrusion width = 0.40mm
; top infill extrusion width = 0.40mm
; support material extrusion width = 0.40mm
; first layer extrusion width = 0.50mm

; EXECUTABLE_BLOCK_START
EXCLUDE_OBJECT_DEFINE NAME=Z_Lower_rod_mount_clamp-8mm.stl_id_0_copy_0 CENTER=75.75,70.3493 POLYGON=[[62.8,62.722],[62.8431,62.7328],[79.8437,67.0024],[86.7602,68.7394],[86.8303,68.9016],[88.3716,72.4669],[88.4478,72.6562],[88.5142,72.849],[88.5706,73.0451],[88.617,73.2437],[88.6533,73.4445],[88.6792,73.6468],[88.6948,73.8502],[88.7,74.0541],[88.7,77.9765],[62.8,77.9765],[62.8,62.722]]
EXCLUDE_OBJECT_DEFINE NAME=Z_Lower_rod_mount_clamp-8mm.stl_id_1_copy_0 CENTER=75.75,49.8727 POLYGON=[[62.8,42.2454],[62.8431,42.2562],[79.8437,46.5258],[86.7602,48.2628],[86.8303,48.425],[88.3716,51.9904],[88.4478,52.1796],[88.5142,52.3725],[88.5706,52.5685],[88.617,52.7672],[88.6533,52.9679],[88.6792,53.1702],[88.6948,53.3736],[88.7,53.5776],[88.7,57.5],[62.8,57.5],[62.8,42.2454]]
EXCLUDE_OBJECT_DEFINE NAME=Z_upper_Rod_Mount_clamp-8mm.stl_id_2_copy_0 CENTER=44.55,71.3771 POLYGON=[[31.3,64.9273],[57.8,64.9273],[57.8,68.7549],[57.7942,68.9695],[57.777,69.1835],[57.7482,69.3963],[57.7081,69.6072],[57.6568,69.8157],[57.5943,70.0211],[57.5209,70.2229],[57.4367,70.4205],[55.8247,73.9403],[48.65,75.0774],[33.9069,77.4138],[31.3,77.827],[31.3,64.9273]]
EXCLUDE_OBJECT_DEFINE NAME=Z_upper_Rod_Mount_clamp-8mm.stl_id_3_copy_0 CENTER=44.55,53.3278 POLYGON=[[31.3,46.878],[57.8,46.878],[57.8,50.7056],[57.7942,50.9202],[57.777,51.1342],[57.7482,51.347],[57.7081,51.558],[57.6568,51.7664],[57.5943,51.9719],[57.5209,52.1736],[57.4367,52.3712],[55.8247,55.8911],[48.65,57.0281],[33.9069,59.3645],[31.3,59.7777],[31.3,46.878]]
M73 P0 R31
;TYPE:Custom
START_PRINT T_BED=110 T_EXTRUDER=260
G90
G21
M83 ; use relative distances for extrusion
; Filament gcode

    PRESSURE_ADVANCE_SELECT FILAMENT=ABS
M106 S0
;LAYER_CHANGE
;Z:0.2
;HEIGHT:0.2
;BEFORE_LAYER_CHANGE
;0.2
G92 E0

;AFTER_LAYER_CHANGE
;0.2
SET_VELOCITY_LIMIT ACCEL_TO_DECEL=500
M204 S1000
G1 E-.5 F3000
G1 Z.2 F21000
G1 X32.786 Y40.203
G1 E.5 F1800
;TYPE:Skirt
;WIDTH:0.5
G1 F3000
G1 X33.698 Y39.935 E.03343
G1 X62.041 Y36.48 E1.00488
G1 X74.821 Y36.459 E.44981
G1 X75.528 Y36.546 E.02506
G1 X86.956 Y39.403 E.41459
G1 X88.31 Y40.169 E.05475
G1 X91.167 Y43.027 E.1422
G1 X92.021 Y45.087 E.0785
G1 X92.021 Y70.662 E.90009
G1 X91.61 Y78.138 E.26351
G1 X90.917 Y79.868 E.06557
G1 X88.467 Y82.74 E.13288
G1 X87.219 Y83.597 E.05327
G1 X86.312 Y83.762 E.03246
G1 X37.969 Y84.79 E1.70174
G1 X31.193 Y84.791 E.23847
G1 X29.731 Y84.398 E.05327
G1 X28.664 Y83.324 E.05327
G1 X28.279 Y81.877 E.05272
G1 X28.279 Y59.491 E.78785
G1 X28.386 Y46.853 E.44478
G1 X28.889 Y45.241 E.05945
G1 X31.64 Y41.191 E.17229
G1 X32.741 Y40.242 E.05116
G1 X33.081 Y40.799 F21000
G1 F3000
G1 X33.753 Y40.389 E.02772
G1 X62.096 Y36.934 E1.00488
G1 X74.821 Y36.916 E.44786
G1 X75.417 Y36.989 E.02113
G1 X86.846 Y39.846 E.41459
G1 X87.987 Y40.493 E.04617
G1 X90.844 Y43.35 E.1422
G1 X91.564 Y45.087 E.06618
G1 X91.564 Y70.662 E.90009
G1 X91.153 Y78.113 E.26261
G1 X90.569 Y79.571 E.05528
G1 X88.119 Y82.444 E.13288
G1 X86.302 Y83.305 E.07078
G1 X37.959 Y84.333 E1.70174
G1 X31.193 Y84.334 E.23813
G1 X29.862 Y83.942 E.04884
G1 X28.955 Y82.891 E.04884
G1 X28.736 Y81.877 E.03653
G1 X28.736 Y59.491 E.78785
G1 X28.843 Y46.857 E.44464
G1 X29.267 Y45.498 E.05013
G1 X32.018 Y41.448 E.17229
G1 X33.029 Y40.831 E.04171
; printing object Z Lower rod mount clamp-8mm.stl id:1 copy 0
EXCLUDE_OBJECT_START NAME=Z_Lower_rod_mount_clamp-8mm.stl_id_1_copy_0
G1 E-.5
G1 Z.4 F21000
G1 X65.358 Y58.1
G1 Z.2
G1 E.5 F1800
;TYPE:Support
G1 F3000
G1 X71.941 Y58.1 E.23165
G1 X71.964 Y58.078 E.00113
G1 X71.964 Y60.372 E.08074
G1 X65.25 Y60.372 E.23629
G1 X65.25 Y57.992 E.08378
G1 X65.31 Y58.052 E.00297
G1 X71.553 Y58.511 F21000
G1 F3000
G1 X71.553 Y59.961 E.05102
G1 X65.662 Y59.961 E.20733
G1 X65.662 Y58.511 E.05102
G1 X71.553 Y58.511 E.20733
G1 E-.5
G1 Z.4 F21000
G1 X71.21 Y56.752
G1 X73.429 Y45.534
G1 X74.546 Y45.814
G1 X74.821 Y44.646
G1 Z.2
G1 E.5 F1800
G1 F3000
G1 X65.471 Y42.298 E.33928
G1 X65.01 Y42.658 E.02062
G1 X65.009 Y46.087 E.12068
G1 X62.393 Y46.087 E.09206
G1 X62.393 Y39.373 E.23629
G1 X74.821 Y39.373 E.43739
G1 X74.821 Y44.577 E.18316
G1 X74.41 Y44.118 F21000
G1 F3000
G1 X65.377 Y41.85 E.32778
G1 X64.598 Y42.457 E.03475
G1 X64.598 Y45.676 E.11327
G1 X62.805 Y45.676 E.0631
G1 X62.805 Y39.784 E.20733
G1 X74.41 Y39.784 E.40844
G1 X74.41 Y44.118 E.15253
G1 X73.902 Y43.467 F21000
G1 F3000
G1 X65.26 Y41.297 E.31359
G1 X64.09 Y42.209 E.05221
G1 X64.09 Y45.168 E.10413
G1 X63.312 Y45.168 E.02736
G1 X63.312 Y40.292 E.17159
G1 X73.902 Y40.292 E.37269
G1 X73.902 Y43.467 E.11174
G1 X73.394 Y42.816 F21000
G1 F3000
G1 X66.964 Y41.201 E.23333
G1 X67.014 Y40.8 E.01422
G1 X73.394 Y40.8 E.22456
G1 X73.394 Y42.816 E.07095
G1 X72.886 Y42.165 F21000
G1 F3000
G1 X71.071 Y41.709 E.06587
G1 X71.121 Y41.308 E.01422
G1 X72.886 Y41.308 E.06214
G1 X72.886 Y42.165 E.03016
G1 X64.676 Y41.109 F21000
G1 F3000
G1 X63.82 Y41.776 E.03817
G1 X63.82 Y40.8 E.03433
G1 X64.57 Y40.8 E.02637
G1 X64.676 Y41.109 E.01148
G1 E-.5
G1 Z.4 F21000
G1 X86.25 Y45.087
G1 Z.2
G1 E.5 F1800
G1 F3000
G1 X89.107 Y45.087 E.10055
G1 X89.107 Y50.186 E.17944
G1 X88.316 Y50.349 E.02842
G1 X87.255 Y47.896 E.09406
G1 X87.042 Y47.715 E.00985
G1 X76.679 Y45.112 E.37606
G1 X76.679 Y42.23 E.10144
G1 X86.25 Y42.23 E.33684
G1 X86.25 Y45.019 E.09814
G1 X77.09 Y44.791 F21000
G1 F3000
G1 X77.09 Y42.641 E.07567
G1 X85.838 Y42.641 E.30789
G1 X85.838 Y45.499 E.10055
G1 X88.695 Y45.499 E.10055
G1 X88.695 Y49.851 E.15318
G1 X88.561 Y49.879 E.00484
G1 X87.595 Y47.645 E.08565
G1 X87.235 Y47.339 E.01661
G1 X77.09 Y44.791 E.36814
G1 X85.659 Y46.006 F21000
G1 F3000
G1 X88.188 Y46.006 E.08899
G1 X88.188 Y47.482 E.05193
G1 X87.474 Y46.876 E.03295
G1 X85.609 Y46.407 E.06766
G1 X85.659 Y46.006 E.01422
G1 X85.33 Y46.337 F21000
G1 F3000
G1 X77.598 Y44.395 E.28059
G1 X77.598 Y43.149 E.04385
G1 X85.33 Y43.149 E.27214
G1 X85.33 Y46.337 E.1122
G1 X84.823 Y45.686 F21000
G1 F3000
G1 X78.34 Y44.058 E.23522
G1 X78.39 Y43.657 E.01422
G1 X84.823 Y43.657 E.22639
M73 P1 R31
G1 X84.823 Y45.686 E.07141
G1 X84.315 Y45.035 F21000
G1 F3000
G1 X82.448 Y44.566 E.06775
G1 X82.497 Y44.165 E.01422
G1 X84.315 Y44.165 E.06397
G1 X84.315 Y45.035 E.03062
G1 E-.5
G1 Z.4 F21000
G1 X84.736 Y48.373
G1 X85.812 Y56.9
G1 X86.25 Y60.372
G1 Z.2
G1 E.5 F1800
G1 F3000
G1 X79.536 Y60.372 E.23629
G1 X79.536 Y58.1 E.07997
G1 X86.25 Y58.1 E.23629
G1 X86.25 Y60.304 E.07756
G1 X79.947 Y58.511 F21000
G1 F3000
G1 X85.838 Y58.511 E.20733
G1 X85.838 Y59.961 E.05102
G1 X79.947 Y59.961 E.20733
G1 X79.947 Y58.511 E.05102
G1 E-.5
G1 Z.4 F21000
G1 X79.984 Y56.995
G1 Z.2
G1 E.5 F1800
;TYPE:Outer wall
G1 F3000
G1 X79.874 Y56.523 E.01707
G1 X79.712 Y56.068 E.01697
G1 X79.496 Y55.625 E.01734
G1 X79.238 Y55.218 E.01697
G1 X78.933 Y54.84 E.0171
G1 X78.589 Y54.497 E.0171
G1 X78.211 Y54.198 E.01697
G1 X78.003 Y54.059 E.0088
G1 X77.583 Y53.828 E.01685
G1 X77.355 Y53.727 E.0088
G1 X76.899 Y53.568 E.01697
G1 X76.429 Y53.461 E.01698
G1 X76.177 Y53.426 E.00897
G1 X75.7 Y53.4 E.0168
G1 X75.215 Y53.427 E.0171
G1 X74.736 Y53.508 E.0171
G1 X74.272 Y53.641 E.01697
G1 X74.039 Y53.729 E.0088
G1 X73.607 Y53.936 E.01685
G1 X73.391 Y54.063 E.0088
G1 X73 Y54.339 E.01685
G1 X72.809 Y54.5 E.0088
G1 X72.467 Y54.84 E.01697
G1 X72.162 Y55.218 E.0171
G1 X71.904 Y55.625 E.01697
G1 X71.788 Y55.847 E.0088
G1 X71.603 Y56.289 E.01686
G1 X71.524 Y56.531 E.00897
G1 X71.416 Y56.995 E.01677
G1 X71.396 Y57.15 E.0055
G1 X65.957 Y57.15 E.19142
G1 X65.959 Y43.4 E.48392
G1 X66.998 Y43.661 E.03769
G1 X86.507 Y48.56 E.70794
G1 X88.047 Y52.122 E.13657
G1 X88.18 Y52.478 E.01337
G1 X88.274 Y52.838 E.0131
G1 X88.331 Y53.206 E.0131
G1 X88.35 Y53.585 E.01337
G1 X88.35 Y57.15 E.12546
G1 X80.004 Y57.15 E.29373
G1 X79.992 Y57.054 E.00339
G1 X80.014 Y56.92
G1 E-.5
G1 Z.4 F21000
G1 X87.127 Y50.339
G1 Z.2
G1 E.5 F1800
;TYPE:Bottom surface
;WIDTH:0.504661
G1 F6300
G1 X85.432 Y48.643 E.08525
G1 X84.56 Y48.424 E.03196
G1 X87.23 Y51.094 E.13425
G1 X87.727 Y52.245 E.04455
G1 X83.688 Y48.205 E.20309
G1 X82.816 Y47.986 E.03196
G1 X87.974 Y53.145 E.25939
G1 X88.007 Y53.831 E.02441
G1 X81.944 Y47.767 E.30487
G1 X81.072 Y47.548 E.03196
G1 X88.007 Y54.484 E.34872
G1 X88.007 Y55.137 E.02322
G1 X80.2 Y47.329 E.39256
G1 X79.328 Y47.111 E.03196
G1 X88.007 Y55.79 E.4364
G1 X88.007 Y56.443 E.02322
G1 X78.456 Y46.892 E.48025
G1 X77.584 Y46.673 E.03196
G1 X87.718 Y56.807 E.50956
G1 X87.065 Y56.807 E.02322
G1 X76.712 Y46.454 E.52057
G1 X75.84 Y46.235 E.03196
G1 X86.412 Y56.807 E.53159
G1 X85.759 Y56.807 E.02322
G1 X74.968 Y46.016 E.5426
G1 X74.096 Y45.797 E.03196
G1 X85.106 Y56.807 E.55361
G1 X84.453 Y56.807 E.02322
G1 X73.224 Y45.578 E.56462
G1 X72.352 Y45.359 E.03196
G1 X83.8 Y56.807 E.57563
G1 X83.147 Y56.807 E.02322
G1 X71.48 Y45.14 E.58664
G1 X70.608 Y44.921 E.03196
G1 X82.494 Y56.807 E.59765
G1 X81.841 Y56.807 E.02322
G1 X69.736 Y44.702 E.60866
G1 X68.864 Y44.483 E.03196
G1 X81.188 Y56.807 E.61967
G1 X80.535 Y56.807 E.02322
G1 X79.891 Y56.163 E.03238
G1 E-.5 F3000
G1 Z.4 F21000
G1 X77.286 Y53.557
G1 Z.2
G1 E.5 F1800
G1 F6300
G1 X67.992 Y44.264 E.46729
G1 X67.12 Y44.045 E.03196
G1 X76.157 Y53.082 E.45438
G1 X75.7 Y53.056 E.01627
G1 X75.49 Y53.068 E.00747
G1 X66.302 Y43.88 E.46196
G1 X66.302 Y44.533 E.02321
G1 X74.901 Y53.132 E.43236
G1 X74.66 Y53.173 E.0087
G1 X74.372 Y53.256 E.01066
G1 X66.302 Y45.186 E.40574
G1 X66.302 Y45.839 E.02321
G1 X73.886 Y53.423 E.38132
G1 X73.444 Y53.634 E.0174
G1 X66.302 Y46.492 E.35913
G1 X66.302 Y47.144 E.02321
G1 X73.045 Y53.888 E.33905
G1 X72.671 Y54.167 E.01659
G1 X66.301 Y47.797 E.32028
G1 X66.301 Y48.45 E.02321
G1 X72.337 Y54.485 E.30345
G1 X72.211 Y54.61 E.00627
G1 X72.032 Y54.833 E.0102
G1 X66.301 Y49.103 E.28812
G1 X66.301 Y49.756 E.02321
G1 X71.759 Y55.214 E.27442
G1 X71.517 Y55.625 E.01696
G1 X66.301 Y50.409 E.26227
M73 P1 R30
G1 X66.301 Y51.062 E.02321
G1 X71.319 Y56.08 E.25229
G1 X71.162 Y56.576 E.0185
G1 X66.301 Y51.715 E.2444
G1 X66.301 Y52.368 E.02321
G1 X70.74 Y56.807 E.22322
G1 X70.087 Y56.807 E.02322
G1 X66.301 Y53.02 E.19039
G1 X66.3 Y53.673 E.02321
G1 X69.434 Y56.807 E.15757
G1 X68.781 Y56.807 E.02322
G1 X66.3 Y54.326 E.12474
G1 X66.3 Y54.979 E.02321
G1 X68.128 Y56.807 E.09191
G1 X67.475 Y56.807 E.02322
G1 X66.3 Y55.632 E.05909
G1 X66.3 Y56.285 E.02321
G1 X67.028 Y57.013 E.0366
; stop printing object Z Lower rod mount clamp-8mm.stl id:1 copy 0
EXCLUDE_OBJECT_END NAME=Z_Lower_rod_mount_clamp-8mm.stl_id_1_copy_0
; printing object Z Lower rod mount clamp-8mm.stl id:0 copy 0
EXCLUDE_OBJECT_START NAME=Z_Lower_rod_mount_clamp-8mm.stl_id_0_copy_0
G1 E-.5 F3000
G1 Z.4 F21000
G1 X74.821 Y65.122
G1 Z.2
G1 E.5 F1800
;TYPE:Support
;WIDTH:0.5
G1 F3000
G1 X65.471 Y62.774 E.33928
G1 X65.01 Y63.135 E.02062
G1 X65.009 Y66.564 E.12068
G1 X62.393 Y66.564 E.09206
G1 X62.393 Y59.85 E.23629
G1 X74.821 Y59.85 E.43739
G1 X74.821 Y65.054 E.18316
G1 X74.41 Y64.595 F21000
G1 F3000
G1 X65.377 Y62.326 E.32778
G1 X64.598 Y62.934 E.03475
G1 X64.598 Y66.152 E.11327
G1 X62.805 Y66.152 E.0631
G1 X62.805 Y60.261 E.20733
G1 X74.41 Y60.261 E.40844
G1 X74.41 Y64.595 E.15253
G1 X73.902 Y63.944 F21000
G1 F3000
G1 X65.26 Y61.773 E.31359
G1 X64.09 Y62.686 E.05221
G1 X64.09 Y65.644 E.10413
G1 X63.312 Y65.644 E.02736
G1 X63.312 Y60.769 E.17159
G1 X73.902 Y60.769 E.37269
G1 X73.902 Y63.944 E.11174
G1 X73.394 Y63.293 F21000
G1 F3000
G1 X66.964 Y61.678 E.23333
G1 X67.014 Y61.277 E.01422
G1 X73.394 Y61.277 E.22456
G1 X73.394 Y63.293 E.07095
G1 X72.886 Y62.641 F21000
G1 F3000
G1 X71.071 Y62.186 E.06587
G1 X71.121 Y61.785 E.01422
G1 X72.886 Y61.785 E.06214
G1 X72.886 Y62.641 E.03016
G1 X64.676 Y61.585 F21000
G1 F3000
G1 X63.82 Y62.252 E.03817
G1 X63.82 Y61.277 E.03433
G1 X64.57 Y61.277 E.02637
G1 X64.676 Y61.585 E.01148
G1 E-.5
G1 Z.4 F21000
G1 X65.358 Y78.577
G1 Z.2
G1 E.5 F1800
G1 F3000
G1 X71.941 Y78.577 E.23165
G1 X71.964 Y78.555 E.00113
G1 X71.964 Y80.849 E.08074
G1 X65.25 Y80.849 E.23629
G1 X65.25 Y78.468 E.08378
G1 X65.31 Y78.528 E.00297
G1 X71.553 Y78.988 F21000
G1 F3000
G1 X71.553 Y80.438 E.05102
G1 X65.662 Y80.438 E.20733
G1 X65.662 Y78.988 E.05102
G1 X71.553 Y78.988 E.20733
M73 P2 R30
G1 E-.5
G1 Z.4 F21000
G1 X86.25 Y80.849
G1 Z.2
G1 E.5 F1800
G1 F3000
G1 X79.536 Y80.849 E.23629
G1 X79.536 Y78.577 E.07997
G1 X86.25 Y78.577 E.23629
G1 X86.25 Y80.78 E.07756
G1 X79.947 Y78.988 F21000
G1 F3000
G1 X85.838 Y78.988 E.20733
G1 X85.838 Y80.438 E.05102
G1 X79.947 Y80.438 E.20733
G1 X79.947 Y78.988 E.05102
G1 E-.5
G1 Z.4 F21000
G1 X80.704 Y77.376
G1 X84.71 Y68.843
G1 X86.25 Y65.564
G1 Z.2
G1 E.5 F1800
G1 F3000
G1 X89.107 Y65.564 E.10055
G1 X89.107 Y70.662 E.17944
G1 X88.316 Y70.826 E.02842
G1 X87.255 Y68.373 E.09406
G1 X87.042 Y68.192 E.00985
G1 X76.679 Y65.589 E.37606
G1 X76.679 Y62.707 E.10144
G1 X86.25 Y62.707 E.33684
G1 X86.25 Y65.495 E.09814
G1 X77.09 Y65.268 F21000
G1 F3000
G1 X77.09 Y63.118 E.07567
G1 X85.838 Y63.118 E.30789
G1 X85.838 Y65.975 E.10055
G1 X88.695 Y65.975 E.10055
G1 X88.695 Y70.327 E.15318
G1 X88.561 Y70.355 E.00484
G1 X87.595 Y68.122 E.08565
G1 X87.235 Y67.816 E.01661
G1 X77.09 Y65.268 E.36814
G1 X85.659 Y66.483 F21000
G1 F3000
G1 X88.188 Y66.483 E.08899
G1 X88.188 Y67.959 E.05193
G1 X87.474 Y67.352 E.03295
G1 X85.609 Y66.884 E.06766
G1 X85.659 Y66.483 E.01422
G1 X85.33 Y66.814 F21000
G1 F3000
G1 X77.598 Y64.872 E.28059
G1 X77.598 Y63.626 E.04385
G1 X85.33 Y63.626 E.27214
G1 X85.33 Y66.814 E.1122
G1 X84.823 Y66.163 F21000
G1 F3000
G1 X78.34 Y64.535 E.23522
G1 X78.39 Y64.134 E.01422
G1 X84.823 Y64.134 E.22639
G1 X84.823 Y66.163 E.07141
G1 X84.315 Y65.512 F21000
G1 F3000
G1 X82.448 Y65.043 E.06775
G1 X82.497 Y64.642 E.01422
G1 X84.315 Y64.642 E.06397
G1 X84.315 Y65.512 E.03062
G1 E-.5
G1 Z.4 F21000
G1 X83.242 Y68.475
G1 X80.212 Y77.337
G1 X79.984 Y77.471
G1 Z.2
G1 E.5 F1800
;TYPE:Outer wall
G1 F3000
G1 X79.874 Y76.999 E.01707
G1 X79.712 Y76.545 E.01697
G1 X79.496 Y76.102 E.01734
G1 X79.238 Y75.695 E.01697
G1 X78.933 Y75.316 E.0171
G1 X78.589 Y74.974 E.0171
G1 X78.211 Y74.674 E.01697
G1 X78.003 Y74.536 E.0088
G1 X77.583 Y74.305 E.01685
G1 X77.355 Y74.203 E.0088
G1 X76.899 Y74.045 E.01697
G1 X76.429 Y73.938 E.01698
G1 X76.177 Y73.903 E.00897
G1 X75.7 Y73.876 E.0168
G1 X75.215 Y73.903 E.0171
G1 X74.736 Y73.984 E.0171
G1 X74.272 Y74.117 E.01697
G1 X74.039 Y74.206 E.0088
G1 X73.607 Y74.413 E.01685
G1 X73.391 Y74.539 E.0088
G1 X73 Y74.815 E.01685
G1 X72.809 Y74.976 E.0088
G1 X72.467 Y75.316 E.01697
G1 X72.162 Y75.695 E.0171
G1 X71.904 Y76.102 E.01697
G1 X71.788 Y76.324 E.0088
G1 X71.603 Y76.765 E.01686
G1 X71.524 Y77.008 E.00897
G1 X71.416 Y77.471 E.01677
G1 X71.396 Y77.627 E.0055
G1 X65.957 Y77.627 E.19142
G1 X65.959 Y63.876 E.48392
G1 X66.998 Y64.137 E.03769
G1 X86.507 Y69.037 E.70794
G1 X88.047 Y72.599 E.13657
G1 X88.18 Y72.955 E.01337
G1 X88.274 Y73.315 E.0131
G1 X88.331 Y73.682 E.0131
G1 X88.35 Y74.062 E.01337
G1 X88.35 Y77.627 E.12546
