; HEADER_BLOCK_START
; generated by OrcaSlicer 1.6.3-beta on 2023-05-25 at 21:50:12
; total layer number: 46
; HEADER_BLOCK_END

; THUMBNAIL_BLOCK_START
; THUMBNAIL_BLOCK_END

; external perimeters extrusion width = 0.40mm
; perimeters extrusion width = 0.45mm
; infill extrusion width = 0.45mm
; solid infill extrusion width = 0.40mm
; top infill extrusion width = 0.40mm
; support material extrusion width = 0.40mm
; first layer extrusion width = 0.40mm

; external perimeters extrusion width = 0.40mm
; perimeters extrusion width = 0.45mm
; infill extrusion width = 0.45mm
; solid infill extrusion width = 0.40mm
; top infill extrusion width = 0.40mm
; support material extrusion width = 0.40mm
; first layer extrusion width = 0.40mm

; external perimeters extrusion width = 0.40mm
; perimeters extrusion width = 0.45mm
; infill extrusion width = 0.45mm
; solid infill extrusion width = 0.40mm
; top infill extrusion width = 0.40mm
; support material extrusion width = 0.40mm
; first layer extrusion width = 0.40mm

; external perimeters extrusion width = 0.40mm
; perimeters extrusion width = 0.45mm
; infill extrusion width = 0.45mm
; solid infill extrusion width = 0.40mm
; top infill extrusion width = 0.40mm
; support material extrusion width = 0.40mm
; first layer extrusion width = 0.40mm

; EXECUTABLE_BLOCK_START
EXCLUDE_OBJECT_DEFINE NAME=Z_Lower_rod_mount_clamp-8mm.stl_id_0_copy_0 CENTER=77.95,73.0712 POLYGON=[[65,65.444],[65.0431,65.4548],[82.0437,69.7244],[88.9602,71.4614],[89.0303,71.6235],[90.5716,75.1889],[90.6478,75.3781],[90.7142,75.571],[90.7706,75.767],[90.817,75.9657],[90.8533,76.1664],[90.8792,76.3688],[90.8948,76.5722],[90.9,76.7761],[90.9,80.6985],[65,80.6985],[65,65.444]]
EXCLUDE_OBJECT_DEFINE NAME=Z_Lower_rod_mount_clamp-8mm.stl_id_1_copy_0 CENTER=77.95,47.3727 POLYGON=[[65,39.7454],[65.0431,39.7562],[82.0437,44.0258],[88.9602,45.7628],[89.0303,45.925],[90.5716,49.4904],[90.6478,49.6796],[90.7142,49.8725],[90.7706,50.0685],[90.817,50.2672],[90.8533,50.4679],[90.8792,50.6703],[90.8948,50.8736],[90.9,51.0776],[90.9,55],[65,55],[65,39.7454]]
EXCLUDE_OBJECT_DEFINE NAME=Z_Lower_rod_mount_clamp-8mm.stl_id_2_copy_0 CENTER=42.05,47.3727 POLYGON=[[29.1,39.7454],[29.1431,39.7562],[46.1437,44.0258],[53.0602,45.7628],[53.1303,45.925],[54.6716,49.4904],[54.7478,49.6796],[54.8142,49.8725],[54.8706,50.0685],[54.917,50.2672],[54.9533,50.4679],[54.9792,50.6703],[54.9948,50.8736],[55,51.0776],[55,55],[29.1,55],[29.1,39.7454]]
EXCLUDE_OBJECT_DEFINE NAME=Z_Lower_rod_mount_clamp-8mm.stl_id_3_copy_0 CENTER=42.05,73.0712 POLYGON=[[29.1,65.444],[29.1431,65.4548],[46.1437,69.7244],[53.0602,71.4614],[53.1303,71.6235],[54.6716,75.1889],[54.7478,75.3781],[54.8142,75.571],[54.8706,75.767],[54.917,75.9657],[54.9533,76.1664],[54.9792,76.3688],[54.9948,76.5722],[55,76.7761],[55,80.6985],[29.1,80.6985],[29.1,65.444]]
M73 P0 R26
;TYPE:Custom
START_PRINT T_BED=110 T_EXTRUDER=260
G90
G21
M83 ; use relative distances for extrusion
; Filament gcode

    PRESSURE_ADVANCE_SELECT FILAMENT=ABS
M106 S0
;LAYER_CHANGE
;Z:0.2
;HEIGHT:0.2
;BEFORE_LAYER_CHANGE
;0.2
G92 E0

;AFTER_LAYER_CHANGE
;0.2
SET_VELOCITY_LIMIT ACCEL_TO_DECEL=500
M204 S1000
G1 E-.5 F3000
G1 Z.2 F21000
G1 X30.653 Y38.045
G1 E.5 F1800
;TYPE:Skirt
;WIDTH:0.4
G1 F3000
G1 X31.909 Y37.737 E.03558
G1 X67.809 Y37.737 E.98704
G1 X68.47 Y37.819 E.01831
G1 X89.621 Y43.13 E.59958
G1 X90.889 Y43.854 E.04014
G1 X91.452 Y44.686 E.02761
G1 X93.214 Y48.796 E.12296
G1 X93.488 Y49.785 E.02822
G1 X93.608 Y50.804 E.02822
G1 X93.614 Y80.699 E.82191
G1 X93.222 Y82.105 E.04014
G1 X92.157 Y83.104 E.04014
G1 X90.9 Y83.413 E.03559
G1 X31.907 Y83.413 E1.62196
G1 X30.501 Y83.02 E.04014
G1 X29.502 Y81.956 E.04014
G1 X29.193 Y80.699 E.03559
G1 X29.195 Y40.451 E1.10658
G1 X29.588 Y39.044 E.04014
G1 X30.609 Y38.086 E.03849
G1 X30.86 Y38.388 F21000
G1 F3000
G1 X30.989 Y38.281 E.00461
G1 X31.909 Y38.094 E.02583
G1 X67.809 Y38.094 E.98704
G1 X68.384 Y38.165 E.0159
G1 X89.534 Y43.477 E.59958
G1 X90.701 Y44.173 E.03735
G1 X91.124 Y44.828 E.02142
G1 X92.876 Y48.912 E.12221
G1 X93.137 Y49.849 E.02672
G1 X93.251 Y50.814 E.02672
G1 X93.257 Y80.699 E.82166
G1 X92.866 Y81.999 E.03735
G1 X91.821 Y82.868 E.03735
G1 X90.9 Y83.056 E.02584
G1 X31.907 Y83.056 E1.62196
G1 X30.606 Y82.664 E.03735
G1 X29.737 Y81.62 E.03735
G1 X29.55 Y80.699 E.02584
G1 X29.552 Y40.451 E1.10658
G1 X29.944 Y39.15 E.03735
G1 X30.814 Y38.427 E.0311
; printing object Z Lower rod mount clamp-8mm.stl id:3 copy 0
EXCLUDE_OBJECT_START NAME=Z_Lower_rod_mount_clamp-8mm.stl_id_3_copy_0
G1 E-.5
G1 Z.4 F21000
G1 X47.4 Y78.927
G1 Z.2
G1 E.5 F1800
;TYPE:Inner wall
G1 F3000
G1 X47.188 Y78.419 E.01512
G1 X47.028 Y78.113 E.00951
G1 X46.695 Y77.588 E.01708
G1 X46.291 Y77.086 E.01773
G1 X45.834 Y76.631 E.01772
G1 X45.347 Y76.245 E.01709
G1 X45.04 Y76.041 E.01015
G1 X44.516 Y75.753 E.01644
G1 X44.179 Y75.603 E.01015
G1 X43.592 Y75.398 E.01708
G1 X42.985 Y75.26 E.01711
G1 X42.614 Y75.209 E.01029
G1 X42 Y75.175 E.01692
G1 X41.356 Y75.211 E.01772
G1 X40.721 Y75.318 E.01773
G1 X40.123 Y75.49 E.01708
G1 X39.778 Y75.621 E.01015
G1 X39.239 Y75.879 E.01644
G1 X38.921 Y76.066 E.01015
G1 X38.432 Y76.411 E.01644
G1 X38.149 Y76.648 E.01015
G1 X37.709 Y77.086 E.01708
G1 X37.305 Y77.588 E.01773
G1 X36.972 Y78.113 E.01708
G1 X36.801 Y78.44 E.01015
G1 X36.596 Y78.927 E.01453
G1 X33.679 Y78.927 E.08022
G1 X33.68 Y68.421 E.28888
G1 X51.781 Y72.966 E.51312
G1 X53.028 Y75.851 E.08642
G1 X53.123 Y76.105 E.00745
G1 X53.18 Y76.325 E.00624
G1 X53.215 Y76.549 E.00624
G1 X53.229 Y76.82 E.00745
G1 X53.229 Y78.927 E.05794
G1 X47.46 Y78.927 E.15861
G1 X47.148 Y79.284 F21000
G1 F3000
G1 X47 Y78.868 E.01215
G1 X46.867 Y78.576 E.00882
G1 X46.719 Y78.292 E.00882
G1 X46.405 Y77.796 E.01612
G1 X46.026 Y77.325 E.01663
G1 X45.597 Y76.899 E.01663
G1 X45.137 Y76.534 E.01612
G1 X44.855 Y76.347 E.00933
G1 X44.357 Y76.073 E.01562
G1 X44.047 Y75.935 E.00933
G1 X43.493 Y75.742 E.01612
G1 X42.921 Y75.612 E.01614
G1 X42.58 Y75.565 E.00946
G1 X42 Y75.532 E.01597
G1 X41.396 Y75.566 E.01662
G1 X40.8 Y75.667 E.01663
G1 X40.236 Y75.829 E.01612
G1 X39.919 Y75.949 E.00933
G1 X39.407 Y76.195 E.01562
G1 X39.114 Y76.366 E.00933
G1 X38.65 Y76.694 E.01562
G1 X38.39 Y76.912 E.00933
G1 X37.974 Y77.325 E.01612
G1 X37.595 Y77.796 E.01663
G1 X37.281 Y78.292 E.01612
G1 X37.124 Y78.592 E.00932
G1 X36.85 Y79.284 E.02047
G1 X33.321 Y79.284 E.09701
G1 X33.323 Y67.963 E.31128
G1 X52.039 Y72.663 E.53055
M73 P0 R25
G1 X53.36 Y75.718 E.09151
G1 X53.464 Y75.998 E.0082
G1 X53.531 Y76.253 E.00724
G1 X53.571 Y76.513 E.00724
G1 X53.586 Y76.811 E.0082
G1 X53.586 Y79.284 E.06801
G1 X47.208 Y79.284 E.17536
G1 X46.881 Y79.641 F21000
G1 F3000
G1 X46.668 Y79.002 E.01853
G1 X46.546 Y78.732 E.00813
G1 X46.409 Y78.47 E.00814
G1 X46.114 Y78.005 E.01516
G1 X45.76 Y77.564 E.01553
G1 X45.359 Y77.166 E.01553
G1 X44.927 Y76.824 E.01516
G1 X44.669 Y76.652 E.0085
G1 X44.198 Y76.393 E.01479
G1 X43.915 Y76.267 E.0085
G1 X43.395 Y76.086 E.01516
G1 X42.856 Y75.964 E.01518
G1 X42.545 Y75.92 E.00864
G1 X42 Y75.89 E.01501
G1 X41.436 Y75.921 E.01553
G1 X40.879 Y76.016 E.01553
G1 X40.349 Y76.168 E.01516
G1 X40.06 Y76.278 E.0085
G1 X39.575 Y76.51 E.01479
G1 X39.308 Y76.667 E.0085
G1 X38.868 Y76.977 E.01479
G1 X38.631 Y77.176 E.0085
G1 X38.24 Y77.564 E.01516
G1 X37.886 Y78.005 E.01553
G1 X37.591 Y78.47 E.01516
G1 X37.448 Y78.744 E.0085
G1 X37.239 Y79.241 E.01481
G1 X37.119 Y79.641 E.0115
G1 X32.964 Y79.641 E.11422
G1 X32.966 Y67.505 E.33369
G1 X33.126 Y67.545 E.00452
G1 X52.297 Y72.36 E.54346
G1 X53.691 Y75.585 E.09661
G1 X53.805 Y75.89 E.00895
G1 X53.881 Y76.18 E.00825
G1 X53.926 Y76.477 E.00825
G1 X53.943 Y76.802 E.00895
G1 X53.943 Y79.641 E.07807
G1 X46.941 Y79.641 E.1925
G1 X46.598 Y79.999 F21000
G1 F3000
G1 X46.51 Y79.622 E.01062
G1 X46.337 Y79.136 E.0142
G1 X46.1 Y78.649 E.01489
G1 X45.823 Y78.213 E.0142
G1 X45.494 Y77.804 E.01443
G1 X45.122 Y77.434 E.01443
G1 X44.717 Y77.113 E.0142
G1 X44.484 Y76.958 E.00768
G1 X44.039 Y76.713 E.01397
G1 X43.784 Y76.6 E.00768
G1 X43.296 Y76.43 E.0142
G1 X42.792 Y76.315 E.01421
G1 X42.51 Y76.276 E.00781
G1 X42 Y76.248 E.01406
G1 X41.476 Y76.277 E.01443
G1 X40.958 Y76.364 E.01443
G1 X40.462 Y76.507 E.0142
G1 X40.201 Y76.606 E.00768
G1 X39.742 Y76.826 E.01397
G1 X39.502 Y76.967 E.00768
G1 X39.086 Y77.26 E.01397
G1 X38.872 Y77.44 E.00768
G1 X38.506 Y77.804 E.0142
G1 X38.177 Y78.213 E.01443
G1 X37.9 Y78.649 E.0142
G1 X37.771 Y78.896 E.00768
G1 X37.574 Y79.365 E.01398
G1 X37.487 Y79.636 E.00781
G1 X37.402 Y79.999 E.01025
G1 X32.607 Y79.999 E.13183
G1 X32.609 Y67.047 E.35609
G1 X33.213 Y67.199 E.0171
G1 X52.555 Y72.056 E.54831
G1 X54.023 Y75.451 E.1017
G1 X54.146 Y75.782 E.00971
G1 X54.231 Y76.108 E.00925
G1 X54.282 Y76.44 E.00925
G1 X54.3 Y76.793 E.00971
G1 X54.3 Y79.999 E.08814
G1 X46.658 Y79.999 E.21011
G1 X46.235 Y80.202 F21000
;TYPE:Outer wall
G1 F3000
G1 X46.126 Y79.735 E.01318
G1 X45.966 Y79.286 E.01313
G1 X45.753 Y78.849 E.01336
G1 X45.497 Y78.446 E.01313
G1 X45.196 Y78.072 E.0132
G1 X44.856 Y77.733 E.0132
G1 X44.481 Y77.437 E.01313
G1 X44.277 Y77.3 E.00676
G1 X43.861 Y77.072 E.01305
G1 X43.636 Y76.972 E.00676
G1 X43.186 Y76.815 E.01313
M73 P1 R25
G1 X42.72 Y76.709 E.01313
G1 X42.472 Y76.674 E.00689
G1 X42 Y76.648 E.01299
G1 X41.521 Y76.675 E.0132
G1 X41.047 Y76.755 E.0132
G1 X40.588 Y76.887 E.01312
G1 X40.358 Y76.974 E.00676
G1 X39.93 Y77.179 E.01305
G1 X39.718 Y77.304 E.00676
G1 X39.331 Y77.577 E.01305
G1 X39.142 Y77.735 E.00676
G1 X38.804 Y78.072 E.01313
G1 X38.503 Y78.446 E.0132
G1 X38.247 Y78.849 E.01313
G1 X38.133 Y79.067 E.00676
G1 X37.949 Y79.505 E.01305
G1 X37.872 Y79.743 E.00689
G1 X37.765 Y80.202 E.01297
G1 X37.74 Y80.399 E.00544
G1 X32.207 Y80.399 E.15213
G1 X32.209 Y66.534 E.38119
G1 X33.31 Y66.811 E.0312
G1 X52.844 Y71.716 E.55373
G1 X54.394 Y75.302 E.10741
G1 X54.528 Y75.662 E.01055
G1 X54.623 Y76.027 E.01037
G1 X54.68 Y76.399 E.01037
G1 X54.7 Y76.782 E.01055
G1 X54.7 Y80.399 E.09942
G1 X46.26 Y80.399 E.23205
G1 X46.243 Y80.262 E.00379
G1 X46.265 Y80.128
G1 E-.5
G1 Z.4 F21000
G1 X50.729 Y72.813
G1 Z.2
G1 E.5 F1800
;TYPE:Bottom surface
;WIDTH:0.400155
G1 F6300
G1 X51.951 Y74.035 E.04753
G1 X52.336 Y74.925 E.02667
G1 X50.276 Y72.864 E.08013
G1 X49.601 Y72.695 E.01913
G1 X52.721 Y75.814 E.12134
G1 X52.867 Y76.186 E.01099
G1 X52.943 Y76.542 E.01
G1 X48.927 Y72.526 E.15623
G1 X48.252 Y72.356 E.01913
G1 X52.961 Y77.065 E.18318
G1 X52.961 Y77.57 E.0139
G1 X47.577 Y72.187 E.20942
G1 X46.903 Y72.017 E.01913
G1 X52.961 Y78.076 E.23566
G1 X52.961 Y78.581 E.0139
G1 X46.228 Y71.848 E.26191
G1 X45.553 Y71.678 E.01913
G1 X52.534 Y78.66 E.27156
G1 X52.029 Y78.66 E.0139
G1 X44.879 Y71.509 E.27815
G1 X44.204 Y71.34 E.01913
G1 X51.524 Y78.66 E.28474
G1 X51.019 Y78.66 E.0139
G1 X43.53 Y71.17 E.29133
G1 X42.855 Y71.001 E.01913
G1 X50.514 Y78.66 E.29792
G1 X50.008 Y78.66 E.0139
G1 X42.18 Y70.831 E.30451
G1 X41.506 Y70.662 E.01913
G1 X49.503 Y78.66 E.3111
G1 X48.998 Y78.66 E.0139
G1 X40.831 Y70.492 E.31769
G1 X40.156 Y70.323 E.01913
G1 X48.493 Y78.66 E.32428
G1 X47.988 Y78.66 E.0139
G1 X47.179 Y77.851 E.03144
G1 X46.913 Y77.432 E.01365
G1 X46.491 Y76.906 E.01856
G1 X46.012 Y76.431 E.01856
G1 X45.505 Y76.029 E.01781
G1 X45.093 Y75.765 E.01346
G1 X39.482 Y70.154 E.21826
G1 X38.807 Y69.984 E.01913
G1 X44.123 Y75.3 E.20677
G1 X43.666 Y75.141 E.01331
G1 X43.397 Y75.08 E.00757
G1 X38.132 Y69.815 E.2048
G1 X37.458 Y69.645 E.01913
G1 X42.773 Y74.961 E.20676
G1 X42.226 Y74.919 E.01508
G1 X36.783 Y69.476 E.21174
G1 X36.109 Y69.306 E.01913
G1 X41.724 Y74.922 E.21844
G1 X41.253 Y74.956 E.01298
G1 X35.434 Y69.137 E.22637
G1 X34.759 Y68.968 E.01913
G1 X40.821 Y75.03 E.23581
G1 X40.414 Y75.128 E.01152
G1 X34.085 Y68.798 E.24621
G1 X33.948 Y68.764 E.00387
G1 X33.948 Y69.167 E.01108
G1 X40.023 Y75.241 E.2363
G1 X39.658 Y75.381 E.01076
G1 X33.948 Y69.672 E.2221
G1 X33.948 Y70.177 E.01389
G1 X39.316 Y75.545 E.20882
G1 X38.984 Y75.718 E.0103
G1 X33.948 Y70.682 E.1959
G1 X33.948 Y71.187 E.01389
G1 X38.673 Y75.913 E.18382
G1 X38.377 Y76.122 E.00997
G1 X33.948 Y71.692 E.1723
G1 X33.947 Y72.197 E.01389
G1 X38.094 Y76.344 E.16131
G1 X37.831 Y76.586 E.00983
G1 X33.947 Y72.703 E.15108
G1 X33.947 Y73.208 E.01389
G1 X37.578 Y76.838 E.14122
G1 X37.345 Y77.111 E.00986
G1 X33.947 Y73.713 E.13217
G1 X33.947 Y74.218 E.01389
G1 X37.12 Y77.391 E.12342
G1 X36.919 Y77.696 E.01003
G1 X33.947 Y74.723 E.11563
G1 X33.947 Y75.228 E.01389
G1 X36.725 Y78.007 E.10807
G1 X36.553 Y78.339 E.01031
G1 X33.947 Y75.733 E.10137
G1 X33.947 Y76.238 E.01389
G1 X36.368 Y78.66 E.09418
G1 X35.863 Y78.66 E.0139
G1 X33.947 Y76.744 E.07453
G1 X33.947 Y77.249 E.01389
G1 X35.357 Y78.66 E.05488
G1 X34.852 Y78.66 E.0139
G1 X33.947 Y77.754 E.03523
G1 X33.946 Y78.259 E.01389
G1 X34.508 Y78.82 E.02183
; stop printing object Z Lower rod mount clamp-8mm.stl id:3 copy 0
EXCLUDE_OBJECT_END NAME=Z_Lower_rod_mount_clamp-8mm.stl_id_3_copy_0
; printing object Z Lower rod mount clamp-8mm.stl id:2 copy 0
EXCLUDE_OBJECT_START NAME=Z_Lower_rod_mount_clamp-8mm.stl_id_2_copy_0
G1 E-.5 F3000
G1 Z.4 F21000
G1 X47.4 Y53.229
G1 Z.2
G1 E.5 F1800
;TYPE:Inner wall
;WIDTH:0.4
G1 F3000
G1 X47.188 Y52.721 E.01512
G1 X47.028 Y52.414 E.00951
G1 X46.695 Y51.89 E.01708
G1 X46.291 Y51.387 E.01773
G1 X45.834 Y50.933 E.01772
G1 X45.347 Y50.547 E.01709
G1 X45.04 Y50.342 E.01015
G1 X44.516 Y50.054 E.01644
G1 X44.179 Y49.904 E.01015
G1 X43.592 Y49.7 E.01708
G1 X42.985 Y49.562 E.01711
G1 X42.614 Y49.51 E.01029
G1 X42 Y49.476 E.01692
G1 X41.356 Y49.512 E.01772
G1 X40.721 Y49.62 E.01773
G1 X40.123 Y49.791 E.01708
G1 X39.778 Y49.922 E.01015
G1 X39.239 Y50.18 E.01644
G1 X38.921 Y50.367 E.01015
G1 X38.432 Y50.712 E.01644
G1 X38.149 Y50.949 E.01015
G1 X37.709 Y51.387 E.01708
G1 X37.305 Y51.89 E.01773
G1 X36.972 Y52.414 E.01708
G1 X36.801 Y52.742 E.01015
G1 X36.596 Y53.229 E.01453
G1 X33.679 Y53.229 E.08022
G1 X33.68 Y42.722 E.28888
G1 X51.781 Y47.268 E.51312
G1 X53.028 Y50.153 E.08642
G1 X53.123 Y50.407 E.00745
G1 X53.18 Y50.626 E.00624
G1 X53.215 Y50.851 E.00624
G1 X53.229 Y51.121 E.00745
G1 X53.229 Y53.229 E.05794
G1 X47.46 Y53.229 E.15861
G1 X47.148 Y53.586 F21000
G1 F3000
G1 X47 Y53.17 E.01215
G1 X46.867 Y52.877 E.00882
G1 X46.719 Y52.593 E.00882
G1 X46.405 Y52.098 E.01612
G1 X46.026 Y51.626 E.01663
G1 X45.597 Y51.2 E.01663
G1 X45.137 Y50.836 E.01612
G1 X44.855 Y50.648 E.00933
G1 X44.357 Y50.375 E.01562
G1 X44.047 Y50.237 E.00933
G1 X43.493 Y50.044 E.01612
G1 X42.921 Y49.914 E.01614
G1 X42.58 Y49.866 E.00946
G1 X42 Y49.834 E.01597
G1 X41.396 Y49.868 E.01662
G1 X40.8 Y49.968 E.01663
G1 X40.236 Y50.13 E.01612
G1 X39.919 Y50.251 E.00933
G1 X39.407 Y50.496 E.01562
G1 X39.114 Y50.668 E.00933
G1 X38.65 Y50.995 E.01562
G1 X38.39 Y51.213 E.00933
G1 X37.974 Y51.626 E.01612
G1 X37.595 Y52.098 E.01663
G1 X37.281 Y52.593 E.01612
G1 X37.124 Y52.894 E.00932
G1 X36.85 Y53.586 E.02047
G1 X33.321 Y53.586 E.09701
G1 X33.323 Y42.264 E.31128
G1 X52.039 Y46.964 E.53055
G1 X53.36 Y50.02 E.09151
G1 X53.464 Y50.299 E.0082
G1 X53.531 Y50.554 E.00724
G1 X53.571 Y50.814 E.00724
G1 X53.586 Y51.112 E.0082
G1 X53.586 Y53.586 E.06801
G1 X47.208 Y53.586 E.17536
G1 X46.881 Y53.943 F21000
G1 F3000
G1 X46.668 Y53.303 E.01853
G1 X46.546 Y53.034 E.00813
G1 X46.409 Y52.772 E.00814
G1 X46.114 Y52.306 E.01516
G1 X45.76 Y51.866 E.01553
G1 X45.359 Y51.468 E.01553
G1 X44.927 Y51.125 E.01516
G1 X44.669 Y50.954 E.0085
G1 X44.198 Y50.695 E.01479
G1 X43.915 Y50.569 E.0085
G1 X43.395 Y50.387 E.01516
G1 X42.856 Y50.265 E.01518
G1 X42.545 Y50.222 E.00864
G1 X42 Y50.191 E.01501
G1 X41.436 Y50.223 E.01553
G1 X40.879 Y50.317 E.01553
G1 X40.349 Y50.469 E.01516
G1 X40.06 Y50.579 E.0085
G1 X39.575 Y50.812 E.01479
G1 X39.308 Y50.968 E.0085
G1 X38.868 Y51.278 E.01479
G1 X38.631 Y51.477 E.0085
G1 X38.24 Y51.866 E.01516
G1 X37.886 Y52.306 E.01553
G1 X37.591 Y52.772 E.01516
G1 X37.448 Y53.046 E.0085
G1 X37.239 Y53.542 E.01481
G1 X37.119 Y53.943 E.0115
G1 X32.964 Y53.943 E.11422
G1 X32.966 Y41.806 E.33369
G1 X33.126 Y41.846 E.00452
G1 X52.297 Y46.661 E.54346
G1 X53.691 Y49.886 E.09661
G1 X53.805 Y50.191 E.00895
G1 X53.881 Y50.482 E.00825
G1 X53.926 Y50.778 E.00825
