; HEADER_BLOCK_START
; generated by OrcaSlicer 1.6.3-beta on 2023-05-25 at 21:52:04
; total layer number: 55
; HEADER_BLOCK_END

; THUMBNAIL_BLOCK_START
; THUMBNAIL_BLOCK_END

; external perimeters extrusion width = 0.40mm
; perimeters extrusion width = 0.45mm
; infill extrusion width = 0.45mm
; solid infill extrusion width = 0.40mm
; top infill extrusion width = 0.40mm
; support material extrusion width = 0.40mm
; first layer extrusion width = 0.40mm

; external perimeters extrusion width = 0.40mm
; perimeters extrusion width = 0.45mm
; infill extrusion width = 0.45mm
; solid infill extrusion width = 0.40mm
; top infill extrusion width = 0.40mm
; support material extrusion width = 0.40mm
; first layer extrusion width = 0.40mm

; external perimeters extrusion width = 0.40mm
; perimeters extrusion width = 0.45mm
; infill extrusion width = 0.45mm
; solid infill extrusion width = 0.40mm
; top infill extrusion width = 0.40mm
; support material extrusion width = 0.40mm
; first layer extrusion width = 0.40mm

; external perimeters extrusion width = 0.40mm
; perimeters extrusion width = 0.45mm
; infill extrusion width = 0.45mm
; solid infill extrusion width = 0.40mm
; top infill extrusion width = 0.40mm
; support material extrusion width = 0.40mm
; first layer extrusion width = 0.40mm

; EXECUTABLE_BLOCK_START
EXCLUDE_OBJECT_DEFINE NAME=Z_upper_Rod_Mount_clamp-8mm.stl_id_0_copy_0 CENTER=78.25,83.0493 POLYGON=[[65,76.5994],[91.5,76.5994],[91.5,80.427],[91.4942,80.6417],[91.477,80.8557],[91.4482,81.0685],[91.4081,81.2794],[91.3568,81.4879],[91.2943,81.6933],[91.2209,81.8951],[91.1367,82.0926],[89.5246,85.6125],[82.35,86.7495],[67.6069,89.086],[65,89.4991],[65,76.5994]]
EXCLUDE_OBJECT_DEFINE NAME=Z_upper_Rod_Mount_clamp-8mm.stl_id_1_copy_0 CENTER=78.25,59.8504 POLYGON=[[65,53.4006],[91.5,53.4006],[91.5,57.2282],[91.4942,57.4428],[91.477,57.6568],[91.4482,57.8696],[91.4081,58.0805],[91.3568,58.289],[91.2943,58.4944],[91.2209,58.6962],[91.1367,58.8937],[89.5246,62.4136],[82.35,63.5506],[67.6069,65.8871],[65,66.3002],[65,53.4006]]
EXCLUDE_OBJECT_DEFINE NAME=Z_upper_Rod_Mount_clamp-8mm.stl_id_2_copy_0 CENTER=78.25,36.6515 POLYGON=[[65,30.2017],[91.5,30.2017],[91.5,34.0293],[91.4942,34.2439],[91.477,34.4579],[91.4482,34.6707],[91.4081,34.8817],[91.3568,35.0901],[91.2943,35.2956],[91.2209,35.4973],[91.1367,35.6949],[89.5246,39.2147],[82.35,40.3518],[67.6069,42.6882],[65,43.1014],[65,30.2017]]
EXCLUDE_OBJECT_DEFINE NAME=Z_upper_Rod_Mount_clamp-8mm.stl_id_3_copy_0 CENTER=41.75,59.8504 POLYGON=[[28.5,53.4006],[55,53.4006],[55,57.2282],[54.9942,57.4428],[54.977,57.6568],[54.9482,57.8696],[54.9081,58.0805],[54.8568,58.289],[54.7943,58.4944],[54.7209,58.6962],[54.6367,58.8937],[53.0246,62.4136],[45.85,63.5506],[31.1069,65.8871],[28.5,66.3002],[28.5,53.4006]]
M73 P0 R25
;TYPE:Custom
START_PRINT T_BED=110 T_EXTRUDER=260
G90
G21
M83 ; use relative distances for extrusion
; Filament gcode

    PRESSURE_ADVANCE_SELECT FILAMENT=ABS
M106 S0
;LAYER_CHANGE
;Z:0.2
;HEIGHT:0.2
;BEFORE_LAYER_CHANGE
;0.2
G92 E0

;AFTER_LAYER_CHANGE
;0.2
SET_VELOCITY_LIMIT ACCEL_TO_DECEL=500
M204 S1000
G1 E-.5 F3000
G1 Z.2 F21000
G1 X30.919 Y48.647
G1 E.5 F1800
;TYPE:Skirt
;WIDTH:0.4
G1 F3000
G1 X63.544 Y27.911 E1.06284
G1 X65 Y27.488 E.04169
G1 X90.6 Y27.488 E.70385
G1 X92.006 Y27.88 E.04014
G1 X93.005 Y28.944 E.04014
G1 X93.314 Y30.202 E.03559
G1 X93.312 Y80.532 E1.38378
G1 X93.157 Y81.767 E.03425
G1 X92.786 Y82.848 E.03141
G1 X91.375 Y85.929 E.09318
G1 X90.432 Y87.044 E.04014
G1 X89.332 Y87.48 E.03254
G1 X65.425 Y91.269 E.66551
G1 X63.544 Y90.879 E.05281
G1 X27.044 Y67.68 E1.18908
G1 X26.068 Y66.594 E.04014
G1 X25.786 Y65.389 E.03403
G1 X25.786 Y53.401 E.32961
G1 X26.178 Y51.994 E.04014
G1 X27.044 Y51.11 E.03403
G1 X30.869 Y48.679 E.12459
G1 X31.06 Y48.98 F21000
G1 F3000
G1 X63.736 Y28.212 E1.06449
G1 X65 Y27.845 E.0362
G1 X90.6 Y27.845 E.70385
G1 X91.901 Y28.236 E.03735
G1 X92.77 Y29.281 E.03735
G1 X92.957 Y30.202 E.02584
G1 X92.955 Y80.521 E1.38348
G1 X92.808 Y81.691 E.03244
G1 X92.461 Y82.699 E.0293
G1 X91.05 Y85.781 E.09318
G1 X90.153 Y86.8 E.03735
G1 X89.276 Y87.127 E.02572
G1 X65.369 Y90.916 E.66551
G1 X63.736 Y90.577 E.04586
G1 X27.236 Y67.378 E1.18908
G1 X26.348 Y66.35 E.03735
G1 X26.143 Y65.389 E.02702
G1 X26.143 Y53.401 E.32961
G1 X26.534 Y52.1 E.03735
G1 X27.236 Y51.411 E.02702
G1 X31.01 Y49.013 E.12294
; printing object Z upper Rod Mount clamp-8mm.stl id:3 copy 0
EXCLUDE_OBJECT_START NAME=Z_upper_Rod_Mount_clamp-8mm.stl_id_3_copy_0
G1 E-.5
G1 Z.4 F21000
G1 X47.081 Y55.172
G1 Z.2
G1 E.5 F1800
;TYPE:Inner wall
G1 F3000
G1 X52.329 Y55.172 E.14428
G1 X52.316 Y57.383 E.0608
G1 X52.289 Y57.532 E.00417
G1 X52.176 Y57.852 E.00932
G1 X51.192 Y59.999 E.06495
G1 X30.271 Y63.315 E.58238
G1 X30.271 Y55.172 E.22389
G1 X36.315 Y55.172 E.16617
G1 X36.534 Y55.679 E.01518
G1 X36.85 Y56.234 E.01758
G1 X37.227 Y56.751 E.01758
G1 X37.642 Y57.206 E.01694
G1 X37.91 Y57.455 E.01006
G1 X38.377 Y57.821 E.0163
G1 X38.683 Y58.022 E.01006
G1 X39.204 Y58.306 E.0163
G1 X39.539 Y58.453 E.01006
G1 X40.1 Y58.647 E.01633
G1 X40.46 Y58.738 E.01021
G1 X41.062 Y58.839 E.01678
G1 X41.7 Y58.874 E.01757
G1 X42.338 Y58.839 E.01758
G1 X42.969 Y58.733 E.01758
G1 X43.562 Y58.565 E.01694
G1 X43.883 Y58.444 E.00943
G1 X44.196 Y58.306 E.00943
G1 X44.717 Y58.022 E.0163
G1 X45.023 Y57.821 E.01007
G1 X45.508 Y57.441 E.01694
G1 X45.948 Y57.009 E.01694
G1 X46.187 Y56.732 E.01007
G1 X46.55 Y56.234 E.01694
G1 X46.855 Y55.699 E.01694
G1 X47.057 Y55.227 E.01411
G1 X46.832 Y54.815 F21000
G1 F3000
G1 X52.686 Y54.815 E.16095
G1 X52.685 Y57.207 E.06577
G1 X52.672 Y57.427 E.00607
G1 X52.635 Y57.625 E.00553
G1 X52.507 Y57.986 E.01052
G1 X51.437 Y60.322 E.07066
G1 X29.914 Y63.733 E.59914
G1 X29.914 Y54.815 E.2452
G1 X36.566 Y54.815 E.18289
G1 X36.623 Y54.985 E.00494
G1 X36.854 Y55.519 E.01599
G1 X37.151 Y56.04 E.01649
G1 X37.504 Y56.525 E.01649
G1 X37.896 Y56.954 E.01599
G1 X38.142 Y57.183 E.00925
G1 X38.586 Y57.531 E.01549
G1 X38.867 Y57.715 E.00925
G1 X39.361 Y57.985 E.01549
G1 X39.669 Y58.121 E.00925
G1 X40.202 Y58.305 E.01551
G1 X40.533 Y58.389 E.00939
G1 X41.101 Y58.484 E.01583
G1 X41.7 Y58.517 E.01648
G1 X42.299 Y58.484 E.01649
G1 X42.89 Y58.384 E.01649
G1 X43.45 Y58.225 E.01599
G1 X43.748 Y58.113 E.00875
G1 X44.039 Y57.985 E.00875
G1 X44.533 Y57.715 E.01549
G1 X44.814 Y57.531 E.00925
G1 X45.272 Y57.172 E.01599
G1 X45.687 Y56.765 E.01599
G1 X45.907 Y56.51 E.00925
G1 X46.249 Y56.04 E.01599
G1 X46.537 Y55.535 E.01599
G1 X46.679 Y55.23 E.00925
G1 X46.811 Y54.871 E.01051
G1 X46.567 Y54.458 F21000
G1 F3000
G1 X53.043 Y54.458 E.17803
G1 X53.042 Y57.218 E.07589
G1 X53.027 Y57.471 E.00698
G1 X52.981 Y57.717 E.00689
G1 X52.839 Y58.12 E.01173
G1 X51.682 Y60.645 E.07636
G1 X29.557 Y64.151 E.6159
G1 X29.557 Y54.458 E.26652
G1 X36.83 Y54.458 E.19996
G1 X36.863 Y54.579 E.00346
G1 X36.957 Y54.857 E.00807
G1 X37.174 Y55.359 E.01504
G1 X37.451 Y55.846 E.0154
G1 X37.781 Y56.299 E.0154
G1 X38.149 Y56.703 E.01503
G1 X38.374 Y56.911 E.00843
G1 X38.794 Y57.24 E.01467
G1 X39.051 Y57.409 E.00843
G1 X39.519 Y57.664 E.01467
G1 X39.8 Y57.788 E.00843
G1 X40.305 Y57.962 E.01469
G1 X40.607 Y58.039 E.00857
G1 X41.141 Y58.128 E.01488
G1 X41.7 Y58.159 E.0154
G1 X42.259 Y58.128 E.0154
G1 X42.812 Y58.035 E.0154
G1 X43.338 Y57.886 E.01504
G1 X43.881 Y57.664 E.01613
G1 X44.349 Y57.409 E.01467
G1 X44.606 Y57.24 E.00843
G1 X45.036 Y56.903 E.01504
G1 X45.427 Y56.52 E.01504
G1 X45.627 Y56.288 E.00843
G1 X45.949 Y55.846 E.01504
G1 X46.22 Y55.371 E.01504
G1 X46.349 Y55.093 E.00843
G1 X46.548 Y54.514 E.01681
G1 X46.287 Y54.101 F21000
G1 F3000
G1 X53.4 Y54.101 E.19555
G1 X53.399 Y57.229 E.08602
G1 X53.382 Y57.515 E.00788
G1 X53.326 Y57.81 E.00825
G1 X53.17 Y58.254 E.01293
G1 X51.927 Y60.968 E.08207
G1 X29.2 Y64.569 E.63266
M73 P1 R25
G1 X29.2 Y54.101 E.28783
G1 X37.112 Y54.101 E.21753
G1 X37.134 Y54.216 E.00322
G1 X37.291 Y54.729 E.01477
G1 X37.494 Y55.2 E.01408
G1 X37.752 Y55.652 E.01431
G1 X38.058 Y56.073 E.01431
G1 X38.403 Y56.451 E.01408
G1 X38.606 Y56.639 E.00762
G1 X39.003 Y56.95 E.01386
G1 X39.234 Y57.102 E.00762
G1 X39.677 Y57.343 E.01385
G1 X39.93 Y57.455 E.00762
G1 X40.407 Y57.62 E.01387
G1 X40.68 Y57.689 E.00775
G1 X41.18 Y57.773 E.01394
G1 X41.7 Y57.802 E.01431
G1 X42.22 Y57.773 E.01431
G1 X42.733 Y57.687 E.01431
G1 X43.226 Y57.547 E.01408
G1 X43.477 Y57.452 E.00739
G1 X43.723 Y57.343 E.00739
G1 X44.166 Y57.102 E.01385
G1 X44.397 Y56.95 E.00762
G1 X44.8 Y56.634 E.01408
G1 X45.166 Y56.276 E.01408
G1 X45.347 Y56.066 E.00762
G1 X45.648 Y55.652 E.01408
G1 X45.902 Y55.207 E.01408
G1 X46.019 Y54.956 E.00761
G1 X46.196 Y54.475 E.01409
G1 X46.273 Y54.159 E.00894
G1 X45.927 Y53.891 F21000
;TYPE:Outer wall
G1 F3000
G1 X45.953 Y53.701 E.00528
G1 X53.8 Y53.701 E.21574
G1 X53.799 Y57.242 E.09736
G1 X53.779 Y57.565 E.0089
G1 X53.714 Y57.914 E.00977
G1 X53.541 Y58.404 E.01428
G1 X52.201 Y61.329 E.08847
G1 X28.8 Y65.038 E.65143
G1 X28.8 Y53.701 E.31171
G1 X37.444 Y53.701 E.23765
G1 X37.524 Y54.125 E.01188
G1 X37.665 Y54.586 E.01325
G1 X37.852 Y55.021 E.01302
G1 X38.088 Y55.434 E.01309
G1 X38.368 Y55.819 E.01309
G1 X38.687 Y56.169 E.01301
G1 X38.866 Y56.335 E.0067
G1 X39.237 Y56.625 E.01294
G1 X39.44 Y56.759 E.0067
G1 X39.854 Y56.984 E.01294
G1 X40.077 Y57.083 E.0067
G1 X40.522 Y57.236 E.01295
G1 X40.763 Y57.297 E.00684
G1 X41.225 Y57.375 E.01288
G1 X41.7 Y57.401 E.01309
G1 X42.175 Y57.375 E.01309
G1 X42.645 Y57.296 E.01309
G1 X43.101 Y57.166 E.01302
G1 X43.326 Y57.081 E.00662
G1 X43.546 Y56.984 E.00662
G1 X43.96 Y56.759 E.01294
G1 X44.163 Y56.625 E.0067
G1 X44.536 Y56.333 E.01302
G1 X44.874 Y56.002 E.01302
G1 X45.033 Y55.817 E.0067
G1 X45.312 Y55.434 E.01302
G1 X45.547 Y55.023 E.01302
G1 X45.649 Y54.802 E.0067
G1 X45.813 Y54.358 E.01302
G1 X45.913 Y53.949 E.01156
G1 X45.963 Y53.878
G1 E-.5
G1 Z.4 F21000
G1 X51.498 Y55.279
G1 Z.2
G1 E.5 F1800
;TYPE:Bottom surface
;WIDTH:0.4004
G1 F6300
G1 X52.057 Y55.838 E.02175
G1 X52.054 Y56.341 E.01384
G1 X51.153 Y55.44 E.03507
G1 X50.648 Y55.44 E.01392
G1 X52.052 Y56.843 E.05465
G1 X52.049 Y57.346 E.01384
G1 X50.142 Y55.44 E.07422
G1 X49.637 Y55.44 E.01392
G1 X51.933 Y57.736 E.08938
G1 X51.775 Y58.084 E.01051
G1 X49.131 Y55.44 E.10292
G1 X48.626 Y55.44 E.01392
G1 X51.616 Y58.43 E.11642
G1 X51.458 Y58.777 E.0105
G1 X48.12 Y55.44 E.12992
G1 X47.614 Y55.44 E.01392
G1 X51.299 Y59.124 E.14341
G1 X51.14 Y59.471 E.0105
G1 X47.213 Y55.543 E.15287
G1 X47.054 Y55.89 E.0105
G1 X50.933 Y59.769 E.151
G1 X50.497 Y59.839 E.01216
G1 X46.87 Y56.212 E.14116
G1 X46.673 Y56.52 E.01007
G1 X50.06 Y59.908 E.13187
G1 X49.624 Y59.977 E.01216
G1 X46.46 Y56.813 E.12317
G1 X46.232 Y57.09 E.00989
G1 X49.188 Y60.046 E.11506
G1 X48.751 Y60.115 E.01216
G1 X45.984 Y57.348 E.1077
G1 X45.729 Y57.599 E.00984
G1 X48.315 Y60.184 E.10064
G1 X47.878 Y60.253 E.01216
G1 X45.451 Y57.826 E.0945
G1 X45.166 Y58.047 E.00992
G1 X47.442 Y60.323 E.08858
G1 X47.006 Y60.392 E.01216
G1 X44.861 Y58.248 E.08347
G1 X44.535 Y58.426 E.01025
G1 X46.569 Y60.461 E.0792
G1 X46.133 Y60.53 E.01216
G1 X44.199 Y58.597 E.07526
G1 X43.842 Y58.745 E.01065
G1 X45.696 Y60.599 E.07217
G1 X45.26 Y60.668 E.01216
G1 X43.463 Y58.871 E.06996
G1 X43.069 Y58.983 E.01126
G1 X44.824 Y60.738 E.06829
G1 X44.387 Y60.807 E.01216
G1 X42.64 Y59.06 E.068
G1 X42.19 Y59.115 E.01248
G1 X43.951 Y60.876 E.06853
G1 X43.514 Y60.945 E.01216
G1 X41.711 Y59.142 E.07019
G1 X41.177 Y59.114 E.01472
G1 X43.078 Y61.014 E.07398
G1 X42.642 Y61.083 E.01216
G1 X40.59 Y59.032 E.07987
G1 X40.405 Y59.001 E.00516
G1 X39.921 Y58.869 E.0138
G1 X42.205 Y61.153 E.0889
G1 X41.769 Y61.222 E.01216
G1 X39.099 Y58.552 E.10392
G1 X38.545 Y58.252 E.01735
G1 X38.221 Y58.038 E.01069
G1 X37.736 Y57.659 E.01693
G1 X37.452 Y57.395 E.01069
G1 X37.019 Y56.921 E.01767
G1 X36.625 Y56.38 E.01842
G1 X36.254 Y55.707 E.02114
G1 X35.987 Y55.44 E.01042
G1 X35.481 Y55.44 E.01392
G1 X41.332 Y61.291 E.22777
G1 X40.896 Y61.36 E.01216
G1 X34.976 Y55.44 E.23046
G1 X34.47 Y55.44 E.01392
G1 X40.46 Y61.429 E.23315
G1 X40.023 Y61.498 E.01216
G1 X33.965 Y55.44 E.23584
G1 X33.459 Y55.44 E.01392
G1 X39.587 Y61.567 E.23854
G1 X39.15 Y61.637 E.01216
G1 X32.953 Y55.44 E.24123
G1 X32.448 Y55.44 E.01392
G1 X38.714 Y61.706 E.24392
G1 X38.278 Y61.775 E.01216
G1 X31.942 Y55.44 E.24661
G1 X31.437 Y55.44 E.01392
G1 X37.841 Y61.844 E.2493
G1 X37.405 Y61.913 E.01216
G1 X30.931 Y55.44 E.252
G1 X30.539 Y55.44 E.01079
G1 X30.539 Y55.553 E.00312
G1 X36.969 Y61.982 E.25028
G1 X36.532 Y62.052 E.01216
G1 X30.539 Y56.059 E.23329
G1 X30.539 Y56.564 E.01392
G1 X36.096 Y62.121 E.2163
G1 X35.659 Y62.19 E.01216
G1 X30.539 Y57.07 E.19931
G1 X30.539 Y57.575 E.01392
G1 X35.223 Y62.259 E.18233
G1 X34.787 Y62.328 E.01216
G1 X30.539 Y58.081 E.16534
G1 X30.539 Y58.586 E.01392
G1 X34.35 Y62.397 E.14835
G1 X33.914 Y62.467 E.01216
G1 X30.539 Y59.092 E.13137
G1 X30.539 Y59.597 E.01392
G1 X33.477 Y62.536 E.11438
G1 X33.041 Y62.605 E.01216
G1 X30.539 Y60.103 E.09739
G1 X30.539 Y60.608 E.01392
G1 X32.605 Y62.674 E.0804
G1 X32.168 Y62.743 E.01216
G1 X30.539 Y61.114 E.06342
G1 X30.539 Y61.62 E.01392
G1 X31.732 Y62.812 E.04643
G1 X31.295 Y62.882 E.01216
G1 X30.539 Y62.125 E.02944
G1 X30.539 Y62.631 E.01392
G1 X30.999 Y63.091 E.01792
; stop printing object Z upper Rod Mount clamp-8mm.stl id:3 copy 0
EXCLUDE_OBJECT_END NAME=Z_upper_Rod_Mount_clamp-8mm.stl_id_3_copy_0
; printing object Z upper Rod Mount clamp-8mm.stl id:0 copy 0
EXCLUDE_OBJECT_START NAME=Z_upper_Rod_Mount_clamp-8mm.stl_id_0_copy_0
G1 E-.5 F3000
G1 Z.4 F21000
G1 X83.581 Y78.371
G1 Z.2
G1 E.5 F1800
;TYPE:Inner wall
;WIDTH:0.4
G1 F3000
G1 X88.829 Y78.371 E.14428
G1 X88.816 Y80.582 E.0608
G1 X88.789 Y80.731 E.00417
G1 X88.676 Y81.051 E.00932
G1 X87.692 Y83.198 E.06495
G1 X66.771 Y86.514 E.58238
G1 X66.771 Y78.371 E.22389
G1 X72.815 Y78.371 E.16617
G1 X73.034 Y78.877 E.01518
G1 X73.35 Y79.433 E.01758
G1 X73.727 Y79.95 E.01758
G1 X74.142 Y80.405 E.01694
G1 X74.41 Y80.654 E.01006
G1 X74.877 Y81.02 E.0163
G1 X75.183 Y81.221 E.01006
G1 X75.704 Y81.504 E.0163
G1 X76.039 Y81.652 E.01006
G1 X76.6 Y81.846 E.01633
G1 X76.96 Y81.937 E.01021
G1 X77.562 Y82.038 E.01678
G1 X78.2 Y82.073 E.01757
G1 X78.838 Y82.038 E.01758
G1 X79.469 Y81.932 E.01758
G1 X80.062 Y81.764 E.01694
G1 X80.383 Y81.643 E.00943
G1 X80.696 Y81.504 E.00943
G1 X81.217 Y81.221 E.0163
G1 X81.523 Y81.02 E.01007
G1 X82.008 Y80.64 E.01694
G1 X82.448 Y80.208 E.01694
G1 X82.687 Y79.931 E.01007
G1 X83.05 Y79.433 E.01694
G1 X83.355 Y78.898 E.01694
G1 X83.557 Y78.426 E.01411
G1 X83.332 Y78.014 F21000
G1 F3000
G1 X89.186 Y78.014 E.16095
G1 X89.185 Y80.406 E.06577
G1 X89.172 Y80.626 E.00607
G1 X89.135 Y80.824 E.00553
G1 X89.007 Y81.184 E.01052
G1 X87.937 Y83.521 E.07066
G1 X66.414 Y86.932 E.59914
G1 X66.414 Y78.014 E.2452
G1 X73.066 Y78.014 E.18289
G1 X73.123 Y78.184 E.00494
G1 X73.354 Y78.718 E.01599
G1 X73.651 Y79.239 E.01649
G1 X74.004 Y79.724 E.01649
G1 X74.396 Y80.153 E.01599
G1 X74.642 Y80.382 E.00925
G1 X75.086 Y80.73 E.01549
G1 X75.367 Y80.914 E.00925
G1 X75.861 Y81.184 E.01549
G1 X76.169 Y81.319 E.00925
G1 X76.702 Y81.504 E.01551
G1 X77.033 Y81.587 E.00939
G1 X77.601 Y81.682 E.01583
G1 X78.2 Y81.716 E.01648
G1 X78.799 Y81.682 E.01649
G1 X79.39 Y81.583 E.01649
G1 X79.95 Y81.424 E.01599
G1 X80.248 Y81.312 E.00875
G1 X80.539 Y81.184 E.00875
G1 X81.033 Y80.914 E.01549
G1 X81.314 Y80.73 E.00925
G1 X81.772 Y80.371 E.01599
G1 X82.187 Y79.964 E.01599
G1 X82.407 Y79.709 E.00925
G1 X82.749 Y79.239 E.01599
G1 X83.037 Y78.734 E.01599
G1 X83.179 Y78.429 E.00925
G1 X83.311 Y78.07 E.01051
G1 X83.067 Y77.657 F21000
G1 F3000
G1 X89.543 Y77.657 E.17803
G1 X89.542 Y80.417 E.07589
G1 X89.527 Y80.67 E.00698
G1 X89.481 Y80.916 E.00689
G1 X89.339 Y81.318 E.01173
G1 X88.182 Y83.844 E.07636
G1 X66.057 Y87.35 E.6159
M73 P2 R25
G1 X66.057 Y77.657 E.26652
G1 X73.33 Y77.657 E.19996
G1 X73.363 Y77.778 E.00346
G1 X73.457 Y78.056 E.00807
G1 X73.674 Y78.558 E.01504
G1 X73.951 Y79.045 E.0154
G1 X74.281 Y79.498 E.0154
G1 X74.649 Y79.902 E.01503
G1 X74.874 Y80.11 E.00843
G1 X75.294 Y80.439 E.01467
G1 X75.551 Y80.608 E.00843
G1 X76.019 Y80.863 E.01467
G1 X76.3 Y80.987 E.00843
G1 X76.805 Y81.161 E.01469
