; HEADER_BLOCK_START
; generated by OrcaSlicer 1.6.2 on 2023-05-21 at 11:11:12
; total layer number: 100
; HEADER_BLOCK_END

; THUMBNAIL_BLOCK_START
; THUMBNAIL_BLOCK_END

; external perimeters extrusion width = 0.40mm
; perimeters extrusion width = 0.45mm
; infill extrusion width = 0.45mm
; solid infill extrusion width = 0.40mm
; top infill extrusion width = 0.40mm
; first layer extrusion width = 0.50mm

; EXECUTABLE_BLOCK_START
EXCLUDE_OBJECT_DEFINE NAME=z-rod_support_upper.stl_id_0_copy_0 CENTER=60,60 POLYGON=[[31.6,39.8358],[39.4912,37.8698],[39.5549,37.855],[39.652,37.8406],[39.75,37.8358],[43.45,37.8358],[43.548,37.8406],[43.6451,37.855],[43.7088,37.8698],[51.6,39.8358],[87.4,73.1642],[88.4,74.1642],[88.4,81.1642],[87.4,82.1642],[58.1442,82.1642],[57.6097,82.1356],[57.4915,82.1214],[56.9077,82.0089],[56.8501,81.9938],[56.2308,81.7836],[55.6442,81.4944],[55.5929,81.4643],[55.1004,81.131],[55.0069,81.0574],[54.627,80.7162],[54.6087,80.6997],[39.6384,65.7295],[33.0645,59.1556],[32.7068,58.7574],[32.6333,58.6639],[32.3,58.1714],[32.2699,58.12],[31.9806,57.5334],[31.7704,56.9141],[31.7553,56.8565],[31.6428,56.2726],[31.6287,56.1545],[31.6,55.62],[31.6,39.8358]]
M73 P0 R36
;TYPE:Custom
START_PRINT T_BED=105 T_EXTRUDER=260
G90
G21
M83 ; use relative distances for extrusion
; Filament gcode
M106 S0
;LAYER_CHANGE
;Z:0.2
;HEIGHT:0.2
;BEFORE_LAYER_CHANGE
;0.2
G92 E0

;AFTER_LAYER_CHANGE
;0.2
M204 S500
G1 E-.8 F1800
G1 Z.2 F21000
G1 X30.152 Y37.307
G1 E.8 F1800
;TYPE:Skirt
;WIDTH:0.5
G1 F3000
G1 X30.896 Y37.008 E.02819
G1 X38.788 Y35.042 E.28626
G1 X39.75 Y34.922 E.03412
G1 X43.452 Y34.922 E.13029
G1 X44.412 Y35.042 E.03405
G1 X52.304 Y37.008 E.28626
G1 X53.654 Y37.768 E.05451
G1 X88.21 Y72.097 E1.71427
G1 X88.97 Y73.406 E.05327
G1 X89.071 Y74.164 E.02692
G1 X89.071 Y81.164 E.24636
G1 X88.678 Y82.626 E.05327
G1 X88.103 Y83.333 E.03205
G1 X86.99 Y84.333 E.05268
G1 X85.043 Y85.078 E.07337
G1 X58.144 Y85.078 E.94666
G1 X56.915 Y84.978 E.0434
G1 X55.294 Y84.543 E.05906
G1 X54.024 Y83.917 E.04985
G1 X53.177 Y83.321 E.03643
G1 X52.548 Y82.761 E.02964
G1 X30.874 Y61.077 E1.079
G1 X29.847 Y59.74 E.05932
G1 X29.367 Y58.822 E.03646
G1 X29.011 Y57.85 E.03644
G1 X28.735 Y56.462 E.04981
G1 X28.686 Y39.836 E.58514
G1 X29.079 Y38.374 E.05327
G1 X30.11 Y37.349 E.05116
G1 X30.462 Y37.841 F21000
G1 F3000
G1 X31.006 Y37.452 E.02355
G1 X38.899 Y35.485 E.28626
G1 X39.75 Y35.379 E.0302
G1 X43.452 Y35.379 E.13029
G1 X44.302 Y35.485 E.03013
G1 X52.194 Y37.452 E.28626
G1 X53.332 Y38.093 E.04596
G1 X87.888 Y72.421 E1.71427
G1 X88.614 Y74.164 E.06645
G1 X88.614 Y81.164 E.24636
G1 X87.798 Y82.993 E.07046
G1 X86.684 Y83.993 E.05268
G1 X85.043 Y84.621 E.06186
G1 X58.144 Y84.621 E.94666
G1 X57.004 Y84.53 E.04024
G1 X55.441 Y84.11 E.05696
G1 X54.278 Y83.537 E.04565
G1 X53.479 Y82.977 E.03433
G1 X52.871 Y82.437 E.02859
G1 X31.217 Y60.776 E1.07795
G1 X30.227 Y59.486 E.05722
G1 X29.777 Y58.62 E.03436
G1 X29.444 Y57.703 E.03433
G1 X29.191 Y56.432 E.04561
G1 X29.143 Y39.836 E.58409
G1 X29.535 Y38.505 E.04884
G1 X30.413 Y37.876 E.03801
; printing object z-rod_support_upper.stl id:0 copy 0
EXCLUDE_OBJECT_START NAME=z-rod_support_upper.stl_id_0_copy_0
G1 E-.8 F1800
G1 Z.4 F21000
G1 X44.071 Y41.92
G1 Z.2
G1 E.8 F1800
;TYPE:Inner wall
;WIDTH:0.57511
G1 F3000
G1 X44.152 Y41.945 E.00346
;WIDTH:0.612665
G1 X44.29 Y41.989 E.00637
;WIDTH:0.65022
G1 X44.429 Y42.032 E.00679
;WIDTH:0.65396
G1 X44.773 Y42.034 E.0162
;WIDTH:0.676685
G1 X45.296 Y42.045 E.02551
G1 X45.384 Y42.026 E.00443
;WIDTH:0.637346
G1 X45.473 Y42.006 E.00416
;WIDTH:0.598007
G1 X45.562 Y41.986 E.00388
;WIDTH:0.558668
G1 X45.651 Y41.967 E.00361
;WIDTH:0.519329
G1 X45.959 Y41.957 E.01132
;WIDTH:0.499999
G1 X46.406 Y41.893 E.01588
G1 X46.737 Y41.755 E.01262
G1 X47.122 Y41.457 E.01714
G1 X49.979 Y41.457 E.10056
G1 X49.979 Y45.758 E.15136
;WIDTH:0.520615
G1 X49.968 Y46.284 E.01937
;WIDTH:0.559698
G1 X49.949 Y46.372 E.00359
;WIDTH:0.598781
G1 X49.929 Y46.46 E.00386
;WIDTH:0.637864
G1 X49.91 Y46.548 E.00413
;WIDTH:0.676947
G1 X49.89 Y46.636 E.0044
G1 X49.908 Y47.446 E.03952
;WIDTH:0.648561
G1 X49.951 Y48.099 E.03054
;WIDTH:0.654316
G1 X50.045 Y48.661 E.02682
G1 X50.204 Y49.298 E.03092
;WIDTH:0.652962
G1 X50.459 Y49.998 E.03497
;WIDTH:0.648577
G1 X50.861 Y50.777 E.04086
;WIDTH:0.650816
G1 X51.358 Y51.498 E.041
;WIDTH:0.685916
G1 X51.852 Y52.083 E.0379
G1 X51.933 Y52.137 E.00484
;WIDTH:0.647546
G1 X52.015 Y52.191 E.00455
;WIDTH:0.609176
G1 X52.096 Y52.246 E.00426
;WIDTH:0.570806
G1 X52.177 Y52.3 E.00397
;WIDTH:0.532435
G1 X52.541 Y52.641 E.01878
;WIDTH:0.499999
G1 X60.666 Y60.766 E.4044
;WIDTH:0.544225
G1 X60.806 Y60.937 E.00852
;WIDTH:0.58845
G1 X60.946 Y61.108 E.00928
;WIDTH:0.632676
G1 X61.085 Y61.279 E.01003
;WIDTH:0.676901
G1 X61.225 Y61.45 E.01078
G1 X61.728 Y61.934 E.03406
;WIDTH:0.650227
G1 X71.209 Y71.415 E.62699
;WIDTH:0.654286
G1 X71.334 Y71.543 E.00845
;WIDTH:0.679046
G1 X71.712 Y71.938 E.02675
G1 X71.791 Y71.988 E.0046
;WIDTH:0.637887
G1 X71.87 Y72.038 E.0043
;WIDTH:0.596728
G1 X71.949 Y72.088 E.004
;WIDTH:0.555569
G1 X72.029 Y72.139 E.0037
;WIDTH:0.51441
G1 X72.696 Y72.796 E.03399
;WIDTH:0.499999
G1 X73.481 Y73.477 E.03659
G1 X74.028 Y73.842 E.02315
G1 X74.516 Y74.098 E.01939
G1 X74.992 Y74.318 E.01846
G1 X75.816 Y74.584 E.03046
G1 X76.669 Y74.739 E.03051
G1 X77.428 Y74.785 E.02675
G1 X84.422 Y74.785 E.24615
G1 X84.535 Y74.887 E.00537
G1 X84.535 Y74.97 E.00289
G1 X84.535 Y80.441 E.19256
G1 X84.422 Y80.543 E.00538
G1 X69.097 Y80.543 E.53932
;WIDTH:0.544747
G1 X68.869 Y80.521 E.00887
;WIDTH:0.589494
G1 X68.641 Y80.498 E.00966
;WIDTH:0.634241
G1 X68.412 Y80.476 E.01045
;WIDTH:0.678988
G1 X68.184 Y80.453 E.01124
G1 X67.459 Y80.468 E.03552
;WIDTH:0.65022
G1 X58.191 Y80.467 E.43337
;WIDTH:0.652169
G1 X57.688 Y80.43 E.02367
G1 X57.148 Y80.306 E.02595
;WIDTH:0.645862
G1 X56.627 Y80.09 E.02622
;WIDTH:0.652355
G1 X56.152 Y79.792 E.02632
G1 X55.762 Y79.454 E.02418
;WIDTH:0.650216
G1 X49.985 Y73.677 E.38207
;WIDTH:0.653983
G1 X49.864 Y73.553 E.00813
;WIDTH:0.676745
G1 X49.503 Y73.176 E.02545
G1 X49.427 Y73.128 E.00439
;WIDTH:0.637825
G1 X49.351 Y73.08 E.00412
;WIDTH:0.598904
G1 X49.276 Y73.032 E.00385
;WIDTH:0.559984
G1 X49.2 Y72.983 E.00358
;WIDTH:0.521063
G1 X48.816 Y72.615 E.01959
;WIDTH:0.499999
G1 X40.443 Y64.241 E.41675
;WIDTH:0.544235
G1 X40.303 Y64.07 E.00853
;WIDTH:0.58847
G1 X40.163 Y63.899 E.00928
;WIDTH:0.632705
G1 X40.023 Y63.728 E.01004
;WIDTH:0.67694
G1 X39.883 Y63.557 E.01079
G1 X39.38 Y63.072 E.03412
;WIDTH:0.650222
G1 X34.303 Y57.995 E.33572
;WIDTH:0.652354
G1 X33.972 Y57.612 E.02374
G1 X33.674 Y57.137 E.02632
;WIDTH:0.645867
G1 X33.458 Y56.616 E.0262
;WIDTH:0.652334
G1 X33.333 Y56.069 E.02631
G1 X33.296 Y55.565 E.02375
;WIDTH:0.650239
G1 X33.296 Y47.335 E.38483
;WIDTH:0.65401
G1 X33.298 Y47.162 E.00813
;WIDTH:0.676964
G1 X33.31 Y46.636 E.02567
G1 X33.29 Y46.548 E.0044
;WIDTH:0.63789
G1 X33.271 Y46.46 E.00413
;WIDTH:0.598816
G1 X33.251 Y46.372 E.00386
;WIDTH:0.559742
G1 X33.232 Y46.284 E.00359
;WIDTH:0.520667
G1 X33.221 Y45.758 E.01937
;WIDTH:0.499999
G1 X33.221 Y41.457 E.15136
G1 X36.034 Y41.457 E.09899
G1 X36.303 Y41.653 E.0117
G1 X36.799 Y41.895 E.01943
G1 X37.241 Y41.957 E.01572
;WIDTH:0.544171
G1 X37.407 Y41.979 E.00646
;WIDTH:0.588342
G1 X37.573 Y42.001 E.00702
;WIDTH:0.632513
G1 X37.739 Y42.023 E.00759
;WIDTH:0.676684
G1 X37.904 Y42.045 E.00816
G1 X38.427 Y42.034 E.02551
;WIDTH:0.665211
G1 X39.062 Y42.014 E.03045
G1 X39.129 Y41.977 E.00365
;WIDTH:0.627432
G1 X39.195 Y41.939 E.00343
;WIDTH:0.589653
G1 X39.262 Y41.902 E.00321
;WIDTH:0.551874
G1 X39.328 Y41.865 E.00299
;WIDTH:0.514094
G1 X39.785 Y41.595 E.01927
;WIDTH:0.499999
G1 X40.104 Y41.243 E.0167
G1 X40.33 Y40.72 E.02003
G1 X40.371 Y40.357 E.01286
G1 X40.371 Y39.457 E.03168
G1 X42.829 Y39.457 E.08649
G1 X42.829 Y40.357 E.03168
G1 X42.87 Y40.72 E.01286
G1 X43.096 Y41.243 E.02003
G1 X43.415 Y41.595 E.0167
G1 X43.874 Y41.858 E.01865
;WIDTH:0.537555
G1 X44.013 Y41.902 E.00553
;WIDTH:0.57511
G1 X44.014 Y41.902 E.00003
G1 X44.272 Y41.472 F21000
;WIDTH:0.499999
G1 F3000
G1 X44.429 Y41.5 E.00561
G1 X46.083 Y41.493 E.05822
G1 X46.514 Y41.356 E.01594
G1 X46.932 Y41 E.01932
G1 X50.436 Y41 E.12331
G1 X50.438 Y47.411 E.22563
G1 X50.481 Y48.065 E.02305
G1 X50.569 Y48.557 E.0176
G1 X50.71 Y49.127 E.02066
G1 X50.936 Y49.763 E.02375
G1 X51.302 Y50.482 E.0284
G1 X51.758 Y51.147 E.02839
G1 X52.241 Y51.694 E.02567
G1 X73.125 Y72.574 E1.03934
G1 X73.735 Y73.097 E.02828
G1 X74.412 Y73.537 E.02841
G1 X75.139 Y73.885 E.02839
G1 X75.905 Y74.135 E.02836
G1 X76.699 Y74.283 E.02841
G1 X77.428 Y74.328 E.0257
G1 X84.597 Y74.328 E.25231
G1 X84.993 Y74.684 E.01871
G1 X84.993 Y74.97 E.01007
G1 X84.993 Y80.645 E.19973
G1 X84.597 Y81 E.01871
G1 X58.211 Y81 E.92861
G1 X57.691 Y80.967 E.01834
G1 X57.153 Y80.867 E.01927
G1 X56.677 Y80.706 E.01767
G1 X56.227 Y80.484 E.01767
G1 X55.81 Y80.205 E.01767
G1 X55.405 Y79.85 E.01893
G1 X33.915 Y58.359 E1.06962
G1 X33.559 Y57.954 E.01895
G1 X33.28 Y57.537 E.01767
G1 X33.058 Y57.087 E.01766
G1 X32.897 Y56.612 E.01766
G1 X32.799 Y56.119 E.01767
G1 X32.764 Y55.582 E.01895
G1 X32.764 Y41 E.5132
G1 X36.268 Y41 E.12331
G1 X36.571 Y41.283 E.01459
G1 X36.925 Y41.455 E.01388
G1 X37.241 Y41.5 E.01123
G1 X38.771 Y41.5 E.05386
G1 X39.167 Y41.429 E.01415
G1 X39.496 Y41.241 E.01332
G1 X39.723 Y40.99 E.01193
G1 X39.853 Y40.727 E.01031
G1 X39.914 Y40.357 E.01319
G1 X39.914 Y39 E.04777
G1 X43.286 Y39 E.11866
G1 X43.286 Y40.357 E.04777
G1 X43.316 Y40.616 E.00918
G1 X43.477 Y40.99 E.01431
G1 X43.704 Y41.241 E.01193
G1 X44.033 Y41.429 E.01332
G1 X44.213 Y41.461 E.00643
G1 X44.35 Y41.029 F21000
G1 F3000
G1 X44.429 Y41.043 E.0028
G1 X45.651 Y41.043 E.04301
G1 X46.15 Y41.016 E.01761
G1 X46.361 Y40.913 E.00826
G1 X46.743 Y40.543 E.0187
G1 X50.893 Y40.543 E.14606
G1 X50.894 Y47.381 E.24067
G1 X50.931 Y47.947 E.01996
G1 X51.017 Y48.468 E.01858
G1 X51.143 Y48.98 E.01855
G1 X51.346 Y49.561 E.02165
G1 X51.682 Y50.228 E.02629
G1 X52.102 Y50.846 E.02629
G1 X52.564 Y51.371 E.02462
G1 X73.067 Y71.874 E1.02047
G1 X73.426 Y72.231 E.01782
G1 X73.989 Y72.717 E.02618
G1 X74.614 Y73.127 E.0263
G1 X75.286 Y73.453 E.02629
G1 X75.994 Y73.687 E.02625
G1 X76.729 Y73.827 E.02631
G1 X77.428 Y73.871 E.02465
G1 X84.772 Y73.871 E.25847
G1 X85.45 Y74.48 E.03205
G1 X85.45 Y74.97 E.01725
G1 X85.45 Y80.849 E.20691
G1 X84.772 Y81.457 E.03205
G1 X58.168 Y81.457 E.9363
G1 X57.577 Y81.418 E.02085
G1 X57.034 Y81.31 E.01947
G1 X56.502 Y81.129 E.01978
G1 X55.998 Y80.88 E.01978
G1 X55.531 Y80.568 E.01978
G1 X55.093 Y80.184 E.02051
G1 X33.581 Y58.672 E1.07067
G1 X33.196 Y58.233 E.02053
G1 X32.884 Y57.766 E.01978
G1 X32.635 Y57.262 E.01977
G1 X32.455 Y56.73 E.01978
G1 X32.345 Y56.179 E.01978
G1 X32.307 Y55.597 E.02053
G1 X32.307 Y40.543 E.52981
G1 X36.457 Y40.543 E.14606
G1 X36.839 Y40.913 E.0187
G1 X37.052 Y41.016 E.00833
G1 X37.241 Y41.043 E.00674
G1 X38.89 Y41.033 E.05803
G1 X39.206 Y40.888 E.01224
G1 X39.342 Y40.737 E.00716
G1 X39.42 Y40.579 E.00618
G1 X39.457 Y40.357 E.00792
G1 X39.457 Y38.906 E.05109
G1 X39.473 Y38.763 E.00506
G1 X39.576 Y38.611 E.00645
G1 X39.796 Y38.543 E.0081
G1 X43.379 Y38.543 E.12609
G1 X43.523 Y38.558 E.0051
G1 X43.676 Y38.663 E.00653
G1 X43.743 Y38.883 E.00808
G1 X43.748 Y40.441 E.05486
G1 X43.858 Y40.737 E.01108
G1 X43.994 Y40.888 E.00716
G1 X44.191 Y41 E.00799
G1 X44.291 Y41.018 E.00357
G1 X44.429 Y40.586 F21000
;TYPE:Outer wall
G1 F3000
G1 X45.959 Y40.586 E.05386
G1 X46.121 Y40.519 E.00616
G1 X46.554 Y40.086 E.02155
G1 X51.35 Y40.086 E.16881
G1 X51.35 Y47.351 E.2557
G1 X51.397 Y48.035 E.0241
G1 X51.575 Y48.833 E.02879
G1 X51.756 Y49.359 E.01955
G1 X52.062 Y49.974 E.02419
G1 X52.445 Y50.544 E.02419
G1 X52.887 Y51.048 E.02357
G1 X73.728 Y71.887 E1.03724
M73 P1 R36
G1 X74.243 Y72.337 E.02408
G1 X74.816 Y72.718 E.0242
G1 X75.433 Y73.02 E.02419
G1 X76.084 Y73.239 E.02415
G1 X76.759 Y73.371 E.02421
G1 X77.428 Y73.414 E.0236
G1 X84.947 Y73.414 E.26463
G1 X85.907 Y74.276 E.04539
G1 X85.907 Y74.97 E.02442
G1 X85.907 Y81.053 E.21408
G1 X84.947 Y81.914 E.04539
G1 X58.153 Y81.914 E.943
G1 X57.517 Y81.872 E.02243
G1 X56.916 Y81.752 E.02156
G1 X56.327 Y81.552 E.02189
G1 X55.769 Y81.277 E.02189
G1 X55.252 Y80.931 E.02189
G1 X54.78 Y80.517 E.02209
G1 X33.247 Y58.985 E1.07172
G1 X32.833 Y58.512 E.02211
G1 X32.487 Y57.995 E.02189
G1 X32.212 Y57.438 E.02188
G1 X32.012 Y56.849 E.02189
G1 X31.891 Y56.239 E.02188
G1 X31.85 Y55.612 E.02211
G1 X31.85 Y40.086 E.54642
G1 X36.646 Y40.086 E.16881
G1 X37.08 Y40.519 E.02156
G1 X37.241 Y40.586 E.00616
G1 X38.811 Y40.582 E.05525
G1 X38.962 Y40.484 E.00634
G1 X39 Y40.357 E.00465
G1 X39 Y38.906 E.05109
G1 X39.065 Y38.553 E.01262
G1 X39.219 Y38.31 E.01013
G1 X39.469 Y38.15 E.01043
G1 X39.766 Y38.086 E.01072
G1 X43.379 Y38.086 E.12714
G1 X43.733 Y38.151 E.01265
G1 X43.981 Y38.309 E.01037
G1 X44.134 Y38.549 E.01002
G1 X44.2 Y38.852 E.01091
G1 X44.202 Y40.385 E.05395
G1 X44.284 Y40.534 E.00598
G1 X44.372 Y40.566 E.0033
G1 X44.451 Y40.663
G1 E-.8 F1800
G1 Z.4 F21000
G1 X44.372 Y41.021
G1 X47.428 Y44.968
G1 X47.794 Y45.491
G1 X48.066 Y46.074
G1 X50.846 Y53.72
G1 X51.017 Y54.303
G1 X52.732 Y65.719
G1 X51.108 Y67.343
G1 X50.714 Y67.814
G1 X50.392 Y68.371
G1 X50.173 Y68.976
G1 X50.062 Y69.609
G1 X50.062 Y70.246
G1 X50.173 Y70.88
G1 X50.393 Y71.485
G1 X50.717 Y72.046
G1 X51.108 Y72.512
G1 X57.388 Y79.729
G1 Z.2
G1 E.8 F1800
;TYPE:Inner wall
;WIDTH:0.652348
G1 F3000
G1 X57.115 Y79.648 E.01337
G1 X56.614 Y79.377 E.02673
;WIDTH:0.650216
G1 X56.192 Y79.025 E.02572
G1 X50.414 Y73.247 E.38207
;WIDTH:0.676745
G1 X49.97 Y72.749 E.03258
G1 X49.945 Y72.679 E.00362
;WIDTH:0.637825
G1 X49.919 Y72.609 E.0034
;WIDTH:0.598904
G1 X49.894 Y72.539 E.00318
;WIDTH:0.559984
G1 X49.869 Y72.469 E.00295
;WIDTH:0.521063
G1 X49.612 Y72.004 E.01959
;WIDTH:0.499999
G1 X49.313 Y71.254 E.02841
G1 X49.15 Y70.465 E.02834
G1 X49.126 Y69.667 E.02812
G1 X49.241 Y68.871 E.02829
G1 X49.493 Y68.106 E.02834
G1 X49.874 Y67.397 E.02834
G1 X50.467 Y66.661 E.03326
G1 X54.712 Y62.416 E.21129
G1 X55.214 Y61.987 E.02325
G1 X55.823 Y61.606 E.02526
G1 X56.155 Y61.443 E.01301
G1 X56.65 Y61.263 E.01854
G1 X57.438 Y61.099 E.02832
G1 X58.242 Y61.075 E.02832
G1 X59.039 Y61.191 E.02833
G1 X59.803 Y61.443 E.02833
;WIDTH:0.534588
G1 X60.048 Y61.555 E.0102
;WIDTH:0.569177
G1 X60.293 Y61.667 E.01092
;WIDTH:0.603766
G1 X60.538 Y61.78 E.01163
;WIDTH:0.646011
G1 X60.611 Y61.801 E.00356
;WIDTH:0.688255
G1 X60.685 Y61.823 E.00381
G1 X61.192 Y62.263 E.03335
;WIDTH:0.653995
G1 X61.298 Y62.363 E.00688
;WIDTH:0.650227
G1 X70.779 Y71.844 E.62699
;WIDTH:0.679046
G1 X71.242 Y72.366 E.03418
G1 X71.268 Y72.439 E.00379
;WIDTH:0.637887
G1 X71.293 Y72.512 E.00354
;WIDTH:0.596728
G1 X71.319 Y72.585 E.0033
;WIDTH:0.555569
G1 X71.344 Y72.658 E.00305
;WIDTH:0.51441
G1 X71.607 Y73.138 E.01986
;WIDTH:0.499999
G1 X71.796 Y73.608 E.01782
G1 X71.961 Y74.131 E.01929
G1 X72.073 Y74.929 E.02837
G1 X72.056 Y75.577 E.02281
G1 X71.907 Y76.399 E.02941
G1 X71.611 Y77.181 E.02941
G1 X71.18 Y77.896 E.02941
G1 X70.626 Y78.522 E.02941
G1 X69.969 Y79.039 E.02941
G1 X69.23 Y79.428 E.0294
;WIDTH:0.547398
G1 X68.837 Y79.575 E.01629
;WIDTH:0.594796
G1 X68.445 Y79.723 E.01782
;WIDTH:0.642429
G1 X68.37 Y79.764 E.00394
;WIDTH:0.690062
G1 X68.295 Y79.806 E.00426
G1 X67.61 Y79.856 E.03422
;WIDTH:0.654276
G1 X67.459 Y79.861 E.00714
;WIDTH:0.650221
G1 X58.211 Y79.861 E.43242
G1 X57.661 Y79.81 E.02583
;WIDTH:0.652348
G1 X57.446 Y79.747 E.01054
G1 X57.465 Y79.206 F21000
;WIDTH:0.499999
G1 F3000
G1 X57.062 Y79.038 E.01537
G1 X56.615 Y78.695 E.01983
G1 X50.79 Y72.871 E.2899
G1 X50.388 Y72.398 E.02185
G1 X50.008 Y71.775 E.02569
G1 X49.743 Y71.098 E.02559
G1 X49.6 Y70.386 E.02554
G1 X49.583 Y69.667 E.02533
G1 X49.692 Y68.95 E.02551
G1 X49.923 Y68.262 E.02554
G1 X50.27 Y67.625 E.02553
G1 X50.723 Y67.058 E.02553
G1 X55.035 Y62.739 E.21482
G1 X55.508 Y62.337 E.02185
G1 X56.052 Y62.002 E.02246
G1 X56.806 Y61.693 E.02869
G1 X57.517 Y61.55 E.02552
G1 X58.242 Y61.532 E.02552
G1 X58.959 Y61.641 E.02553
G1 X59.647 Y61.873 E.02553
G1 X60.283 Y62.22 E.02553
G1 X60.922 Y62.739 E.02896
G1 X70.403 Y72.22 E.47189
G1 X70.822 Y72.716 E.02285
