; HEADER_BLOCK_START
; generated by OrcaSlicer 1.6.2 on 2023-05-21 at 11:10:50
; total layer number: 100
; HEADER_BLOCK_END

; THUMBNAIL_BLOCK_START
; THUMBNAIL_BLOCK_END

; external perimeters extrusion width = 0.40mm
; perimeters extrusion width = 0.45mm
; infill extrusion width = 0.45mm
; solid infill extrusion width = 0.40mm
; top infill extrusion width = 0.40mm
; first layer extrusion width = 0.50mm

; external perimeters extrusion width = 0.40mm
; perimeters extrusion width = 0.45mm
; infill extrusion width = 0.45mm
; solid infill extrusion width = 0.40mm
; top infill extrusion width = 0.40mm
; first layer extrusion width = 0.50mm

; external perimeters extrusion width = 0.40mm
; perimeters extrusion width = 0.45mm
; infill extrusion width = 0.45mm
; solid infill extrusion width = 0.40mm
; top infill extrusion width = 0.40mm
; first layer extrusion width = 0.50mm

; external perimeters extrusion width = 0.40mm
; perimeters extrusion width = 0.45mm
; infill extrusion width = 0.45mm
; solid infill extrusion width = 0.40mm
; top infill extrusion width = 0.40mm
; first layer extrusion width = 0.50mm

; external perimeters extrusion width = 0.40mm
; perimeters extrusion width = 0.45mm
; infill extrusion width = 0.45mm
; solid infill extrusion width = 0.40mm
; top infill extrusion width = 0.40mm
; first layer extrusion width = 0.50mm

; EXECUTABLE_BLOCK_START
EXCLUDE_OBJECT_DEFINE NAME=z-rod_support_lower.stl_id_0_copy_0 CENTER=48.1827,41.3 POLYGON=[[27.7827,47.55],[27.7834,47.5126],[27.7875,47.452],[27.7928,47.4077],[27.8001,47.3641],[27.8019,47.3549],[27.8232,47.2682],[29.7827,39.4],[47.1758,24.4123],[47.2298,24.3664],[47.4274,24.2093],[47.4988,24.1563],[47.6915,24.023],[47.7816,23.9651],[47.9672,23.8541],[48.0768,23.7935],[48.2532,23.7035],[48.3831,23.6426],[48.5483,23.5716],[48.6989,23.5128],[48.8513,23.459],[49.0228,23.405],[49.1609,23.3663],[49.3533,23.3194],[49.4759,23.2938],[49.6889,23.2567],[49.795,23.2418],[50.028,23.2169],[50.1167,23.2104],[50.369,23.2005],[50.4397,23.2],[65.5827,23.2],[65.8441,23.2114],[66.1036,23.2456],[66.3591,23.3022],[66.6087,23.3809],[66.8505,23.4811],[67.0827,23.6019],[67.3034,23.7425],[67.511,23.9018],[67.704,24.0787],[67.8808,24.2716],[68.0401,24.4792],[68.1807,24.7],[68.3016,24.9321],[68.4017,25.1739],[68.4804,25.4235],[68.5371,25.679],[68.5712,25.9385],[68.5827,26.2],[68.5827,33.2156],[68.5794,33.3972],[68.5728,33.5302],[68.5553,33.7378],[68.5431,33.8436],[68.5081,34.0759],[68.4937,34.1545],[68.4379,34.41],[68.4249,34.4617],[68.3451,34.7386],[68.3369,34.7639],[68.23,35.0601],[68.1048,35.3488],[68.0933,35.3729],[67.9616,35.6291],[67.9356,35.6757],[67.801,35.8999],[67.7576,35.967],[67.6237,36.1601],[67.5601,36.2455],[67.4304,36.4085],[67.344,36.5099],[67.2219,36.6443],[57.1341,47.3515],[53.3542,51.3635],[47.2631,57.8287],[47.0286,58.0616],[47.0219,58.0678],[46.7708,58.2854],[46.7651,58.29],[46.4983,58.4911],[46.4938,58.4943],[46.2124,58.6778],[46.2093,58.6796],[45.9128,58.8452],[45.6058,58.9904],[45.2897,59.1143],[44.9658,59.2165],[44.9623,59.2175],[44.6358,59.2965],[44.6304,59.2976],[44.301,59.3539],[44.2938,59.3549],[43.9632,59.3884],[43.9541,59.3891],[43.6238,59.4],[29.7827,59.4],[27.8232,51.5317],[27.8019,51.4451],[27.8001,51.4359],[27.7928,51.3923],[27.7875,51.348],[27.7834,51.2874],[27.7827,51.25],[27.7827,47.55]]
EXCLUDE_OBJECT_DEFINE NAME=z-limit_mount.stl_id_1_copy_0 CENTER=48.2258,80.8153 POLYGON=[[22.5037,64.8307],[42.5037,64.8307],[42.6053,64.832],[42.7915,64.841],[43.1983,64.8914],[43.4123,64.9355],[43.8718,65.0719],[44.0162,65.1277],[44.5037,65.3666],[44.5357,65.3856],[45.0305,65.7301],[45.0748,65.7665],[45.3683,66.0387],[72.948,92.8],[73.948,93.8],[73.948,95.8],[72.948,96.8],[46.5037,96.8],[45.8779,96.7508],[45.2676,96.6042],[44.6877,96.364],[44.1525,96.0361],[43.6752,95.6284],[43.2676,95.1511],[23.4395,67.4018],[23.0396,66.8307],[22.7449,66.1988],[22.5644,65.5253],[22.5037,64.8307]]
EXCLUDE_OBJECT_DEFINE NAME=x-limit_mount.stl_id_2_copy_0 CENTER=74.6317,62.7162 POLYGON=[[53.2119,58.8162],[88.312,56.2161],[95.0516,56.2161],[96.0516,57.2161],[96.0516,68.2163],[95.0516,69.2163],[88.312,69.2163],[53.2119,66.6162],[53.2119,58.8162]]
EXCLUDE_OBJECT_DEFINE NAME=y-limit_mount.stl_id_3_copy_0 CENTER=85.5827,41.2161 POLYGON=[[73.5827,32.2161],[74.5827,31.2161],[92.5827,31.2161],[93.5827,32.2161],[97.5826,43.6661],[97.5827,49.3161],[97.5827,50.8161],[97.1827,51.2161],[74.5827,51.2161],[73.5827,50.2161],[73.5827,32.2161]]
EXCLUDE_OBJECT_DEFINE NAME=x-limit_endstop.stl_id_4_copy_0 CENTER=77.7184,79.1448 POLYGON=[[69.2184,76.1448],[71.2184,74.1448],[86.2184,74.1448],[86.2184,84.1448],[71.2184,84.1448],[69.2184,82.1448],[69.2184,76.1448]]
M73 P0 R50
;TYPE:Custom
START_PRINT T_BED=105 T_EXTRUDER=260
G90
G21
M83 ; use relative distances for extrusion
; Filament gcode
M106 S0
;LAYER_CHANGE
;Z:0.2
;HEIGHT:0.2
;BEFORE_LAYER_CHANGE
;0.2
G92 E0

;AFTER_LAYER_CHANGE
;0.2
M204 S500
G1 E-.8 F1800
G1 Z.2 F21000
G1 X30.272 Y35.131
G1 E.8 F1800
;TYPE:Skirt
;WIDTH:0.5
G1 F3000
G1 X45.274 Y22.204 E.69693
G1 X46.171 Y21.537 E.03937
G1 X47.067 Y21.041 E.03602
G1 X48.504 Y20.527 E.0537
G1 X50.021 Y20.298 E.05398
G1 X65.585 Y20.286 E.54778
G1 X66.484 Y20.356 E.03173
G1 X67.201 Y20.512 E.02582
G1 X93.425 Y28.426 E.96402
G1 X94.643 Y29.155 E.04998
G1 X95.643 Y30.155 E.04977
G1 X96.334 Y31.255 E.0457
G1 X100.334 Y42.705 E.42685
G1 X100.497 Y43.666 E.03431
G1 X100.486 Y51.072 E.26063
G1 X98.955 Y68.472 E.61475
G1 X98.531 Y69.747 E.04729
G1 X88.698 Y85.676 E.6588
G1 X88.23 Y86.254 E.02619
G1 X74.959 Y98.909 E.64536
G1 X72.948 Y99.714 E.07624
G1 X46.504 Y99.714 E.93068
G1 X45.649 Y99.656 E.03014
G1 X44.587 Y99.438 E.03816
G1 X43.573 Y99.056 E.03815
G1 X42.63 Y98.521 E.03816
G1 X41.783 Y97.844 E.03815
G1 X40.897 Y96.845 E.047
G1 X21.052 Y69.073 E1.20128
G1 X20.398 Y68.062 E.04238
G1 X19.93 Y66.953 E.04237
G1 X19.75 Y66.28 E.02454
G1 X19.601 Y65.085 E.04238
G1 X19.702 Y64.029 E.03733
G1 X26.981 Y38.598 E.93095
G1 X27.88 Y37.192 E.05873
G1 X30.227 Y35.17 E.10902
G1 X30.525 Y35.516 F21000
G1 F3000
G1 X45.572 Y22.551 E.69904
M73 P0 R49
G1 X46.41 Y21.926 E.03677
G1 X47.254 Y21.459 E.03394
G1 X48.607 Y20.973 E.0506
G1 X50.035 Y20.755 E.05087
G1 X65.585 Y20.743 E.54726
G1 X66.424 Y20.81 E.02963
G1 X67.069 Y20.95 E.02321
G1 X93.293 Y28.864 E.96402
G1 X94.32 Y29.479 E.04214
G1 X95.32 Y30.479 E.04977
G1 X95.902 Y31.406 E.03853
G1 X99.902 Y42.856 E.42685
G1 X100.04 Y43.666 E.02892
G1 X100.03 Y51.031 E.25922
G1 X98.499 Y68.432 E.61475
G1 X98.142 Y69.507 E.03987
G1 X88.309 Y85.435 E.6588
G1 X87.914 Y85.923 E.02208
G1 X74.644 Y98.578 E.64536
G1 X72.948 Y99.257 E.06428
G1 X46.504 Y99.257 E.93068
G1 X45.685 Y99.2 E.02888
G1 X44.694 Y98.993 E.03563
G1 X43.747 Y98.634 E.03563
G1 X42.869 Y98.131 E.03564
G1 X42.08 Y97.497 E.03563
G1 X41.268 Y96.58 E.04309
G1 X21.427 Y68.811 E1.20113
G1 X20.813 Y67.869 E.03958
G1 X20.372 Y66.835 E.03957
G1 X20.117 Y65.739 E.03958
G1 X20.056 Y65.045 E.02454
G1 X20.141 Y64.155 E.03148
G1 X27.42 Y38.724 E.93095
G1 X28.179 Y37.539 E.04952
G1 X30.48 Y35.556 E.10691
; printing object z-rod_support_lower.stl id:0 copy 0
EXCLUDE_OBJECT_START NAME=z-rod_support_lower.stl_id_0_copy_0
G1 E-.8 F1800
G1 Z.4 F21000
G1 X31.232 Y50.956
G1 Z.2
G1 E.8 F1800
;TYPE:Inner wall
;WIDTH:0.499999
G1 F3000
G1 X31.105 Y50.843 E.006
G1 X30.621 Y50.66 E.0182
G1 X30.304 Y50.629 E.0112
G1 X29.404 Y50.629 E.03168
G1 X29.404 Y48.171 E.08649
G1 X30.501 Y48.159 E.0386
G1 X31.029 Y47.998 E.01943
G1 X31.445 Y47.693 E.01817
G1 X31.775 Y47.2 E.02089
G1 X31.815 Y46.886 E.01114
;WIDTH:0.450111
G1 X31.854 Y46.571 E.00992
;WIDTH:0.400223
G1 X31.854 Y45.041 E.0421
;WIDTH:0.431473
G1 X31.814 Y44.751 E.00876
;WIDTH:0.462722
G1 X31.775 Y44.461 E.00947
;WIDTH:0.509598
G1 X31.72 Y44.328 E.00517
;WIDTH:0.556473
G1 X31.665 Y44.194 E.00569
;WIDTH:0.603348
G1 X31.611 Y44.061 E.00621
;WIDTH:0.650223
G1 X31.556 Y43.928 E.00673
G1 X31.488 Y43.857 E.00459
G1 X31.479 Y43.726 E.00611
;WIDTH:0.653323
G1 X31.481 Y42.68 E.04917
;WIDTH:0.675246
G1 X31.492 Y42.126 E.02697
G1 X31.47 Y42.028 E.0049
;WIDTH:0.631992
G1 X31.448 Y41.93 E.00457
;WIDTH:0.588737
G1 X31.427 Y41.831 E.00423
;WIDTH:0.545483
G1 X31.405 Y41.733 E.0039
;WIDTH:0.502228
G1 X31.404 Y40.914 E.02896
;WIDTH:0.499999
G1 X31.404 Y40.143 E.02713
G1 X31.657 Y39.925 E.01174
;WIDTH:0.515991
G1 X32.286 Y39.393 E.03003
;WIDTH:0.565394
G1 X32.372 Y39.352 E.00382
;WIDTH:0.614797
G1 X32.457 Y39.311 E.00418
;WIDTH:0.6642
G1 X32.543 Y39.27 E.00454
;WIDTH:0.713602
G1 X32.629 Y39.229 E.0049
G1 X32.713 Y39.15 E.00596
;WIDTH:0.705209
G1 X33.104 Y38.796 E.02689
;WIDTH:0.677717
G1 X33.494 Y38.441 E.02577
;WIDTH:0.650225
G1 X41.704 Y31.367 E.50677
;WIDTH:0.652911
G1 X41.815 Y31.273 E.00686
;WIDTH:0.679437
G1 X42.189 Y30.968 E.02367
;WIDTH:0.705963
G1 X42.564 Y30.663 E.02465
G1 X42.686 Y30.53 E.00919
;WIDTH:0.664771
G1 X42.808 Y30.398 E.00862
;WIDTH:0.623578
G1 X42.93 Y30.265 E.00805
;WIDTH:0.582385
G1 X43.052 Y30.133 E.00748
;WIDTH:0.541192
G1 X43.174 Y30.001 E.00691
;WIDTH:0.499999
G1 X48.111 Y25.747 E.22935
G1 X48.585 Y25.38 E.02112
G1 X49.197 Y25.069 E.02413
G1 X49.763 Y24.895 E.02085
G1 X50.517 Y24.821 E.02667
G1 X65.514 Y24.821 E.52781
G1 X66.052 Y24.91 E.01918
G1 X66.465 Y25.149 E.01678
G1 X66.771 Y25.514 E.01678
G1 X66.903 Y25.846 E.01259
G1 X66.961 Y26.337 E.01739
G1 X66.952 Y33.248 E.24324
G1 X66.901 Y33.824 E.02034
G1 X66.709 Y34.484 E.02418
G1 X66.417 Y35.037 E.02201
G1 X66.007 Y35.57 E.02367
G1 X57.952 Y44.119 E.41338
;WIDTH:0.543809
G1 X57.72 Y44.334 E.01221
;WIDTH:0.587619
G1 X57.487 Y44.549 E.01328
;WIDTH:0.631429
G1 X57.255 Y44.764 E.01435
;WIDTH:0.675239
G1 X57.022 Y44.978 E.01542
G1 X56.521 Y45.528 E.03621
;WIDTH:0.650226
G1 X46.075 Y56.616 E.71233
G1 X45.815 Y56.86 E.01668
;WIDTH:0.647796
G1 X45.309 Y57.237 E.02937
G1 X44.774 Y57.478 E.02736
;WIDTH:0.648955
G1 X44.209 Y57.643 E.02744
G1 X43.626 Y57.695 E.02734
;WIDTH:0.647175
G1 X37.282 Y57.699 E.29515
;WIDTH:0.647979
G1 X37.204 Y57.699 E.00364
;WIDTH:0.665116
G1 X36.694 Y57.691 E.02442
;WIDTH:0.708305
G1 X36.147 Y57.669 E.02804
G1 X36.067 Y57.691 E.00426
;WIDTH:0.666085
G1 X35.986 Y57.712 E.00399
;WIDTH:0.623864
G1 X35.906 Y57.733 E.00372
;WIDTH:0.581643
G1 X35.825 Y57.754 E.00345
;WIDTH:0.539422
G1 X35.266 Y57.774 E.02137
;WIDTH:0.499999
G1 X31.404 Y57.777 E.13594
G1 X31.404 Y54.966 E.09895
G1 X31.662 Y54.605 E.01561
G1 X31.872 Y54.075 E.02007
G1 X31.904 Y53.759 E.01119
G1 X31.885 Y53.172 E.02067
;WIDTH:0.462174
G1 X31.866 Y52.585 E.01896
;WIDTH:0.424348
G1 X31.834 Y51.936 E.01908
;WIDTH:0.457877
G1 X31.707 Y51.599 E.0115
;WIDTH:0.499999
G1 X31.579 Y51.263 E.01266
G1 X31.277 Y50.996 E.01418
G1 E-.8 F1800
G1 Z.4 F21000
G1 X32.874 Y54.461
G1 Z.2
G1 E.8 F1800
G1 F3000
G1 X32.604 Y53.975 E.01955
G1 X32.489 Y53.678 E.01121
G1 X32.281 Y52.877 E.02914
;WIDTH:0.464196
G1 X32.254 Y52.545 E.01078
;WIDTH:0.437299
G1 X32.226 Y52.214 E.01009
;WIDTH:0.455201
G1 X32.194 Y51.641 E.01823
;WIDTH:0.499999
G1 X32.161 Y51.067 E.02021
G1 X32.161 Y47.279 E.13334
G1 X32.186 Y46.925 E.01247
;WIDTH:0.450111
G1 X32.211 Y46.571 E.01111
;WIDTH:0.400223
G1 X32.211 Y45.041 E.0421
;WIDTH:0.431473
G1 X32.196 Y44.712 E.00984
;WIDTH:0.462722
G1 X32.18 Y44.384 E.01064
;WIDTH:0.509598
G1 X32.157 Y44.219 E.00597
;WIDTH:0.556473
G1 X32.133 Y44.055 E.00656
;WIDTH:0.603348
G1 X32.11 Y43.891 E.00716
;WIDTH:0.650223
G1 X32.086 Y43.726 E.00776
G1 X32.086 Y42.837 E.0416
;WIDTH:0.675246
G1 X32.123 Y42.151 E.03342
G1 X32.158 Y42.076 E.00403
;WIDTH:0.631992
G1 X32.193 Y42.001 E.00376
;WIDTH:0.588737
G1 X32.229 Y41.926 E.00348
;WIDTH:0.545483
G1 X32.264 Y41.851 E.00321
;WIDTH:0.502228
G1 X32.487 Y41.063 E.02896
;WIDTH:0.499999
G1 X32.629 Y40.718 E.01315
;WIDTH:0.515991
G1 X33.023 Y39.994 E.03003
;WIDTH:0.565394
G1 X33.044 Y39.919 E.00312
;WIDTH:0.614797
G1 X33.065 Y39.844 E.00342
;WIDTH:0.6642
G1 X33.086 Y39.77 E.00371
;WIDTH:0.713602
G1 X33.107 Y39.695 E.00401
G1 X33.427 Y39.365 E.02373
;WIDTH:0.685311
G1 X33.747 Y39.036 E.02273
;WIDTH:0.65702
G1 X33.89 Y38.901 E.00928
;WIDTH:0.650225
G1 X42.1 Y31.827 E.50677
;WIDTH:0.674742
G1 X42.665 Y31.388 E.0348
;WIDTH:0.705963
G1 X42.925 Y31.212 E.01603
G1 X43.095 Y31.152 E.00919
;WIDTH:0.664771
G1 X43.265 Y31.093 E.00862
;WIDTH:0.623578
G1 X43.435 Y31.033 E.00805
;WIDTH:0.582385
G1 X43.605 Y30.973 E.00748
;WIDTH:0.541192
G1 X43.775 Y30.914 E.00691
;WIDTH:0.499999
G1 X44.618 Y30.654 E.03105
G1 X45.438 Y30.537 E.02917
G1 X46.267 Y30.543 E.02919
G1 X47.43 Y30.765 E.04167
G1 X48.259 Y31.082 E.03123
G1 X48.849 Y31.419 E.0239
G1 X49.168 Y31.632 E.0135
G1 X55.517 Y36.878 E.28984
G1 X56.034 Y37.369 E.02512
G1 X56.56 Y38.023 E.02952
G1 X56.981 Y38.744 E.0294
G1 X57.29 Y39.519 E.02936
G1 X57.48 Y40.326 E.02917
G1 X57.549 Y41.156 E.02933
G1 X57.495 Y41.989 E.02936
G1 X57.199 Y43.148 E.04212
;WIDTH:0.535086
G1 X57.029 Y43.528 E.01576
;WIDTH:0.570173
G1 X56.859 Y43.907 E.01688
;WIDTH:0.60526
G1 X56.689 Y44.286 E.018
;WIDTH:0.646437
G1 X56.669 Y44.359 E.00348
;WIDTH:0.687613
G1 X56.65 Y44.431 E.00372
G1 X56.162 Y45.019 E.0379
;WIDTH:0.652992
G1 X56.079 Y45.112 E.00587
;WIDTH:0.650234
G1 X45.633 Y56.2 E.71234
G1 X45.206 Y56.575 E.02657
;WIDTH:0.64784
G1 X44.82 Y56.809 E.02105
G1 X44.402 Y56.975 E.02095
;WIDTH:0.648981
G1 X43.853 Y57.08 E.02607
G1 X43.625 Y57.094 E.01064
;WIDTH:0.647175
G1 X37.282 Y57.095 E.29515
;WIDTH:0.665116
G1 X36.742 Y57.072 E.02586
;WIDTH:0.708305
G1 X36.199 Y57.008 E.02804
G1 X36.14 Y56.972 E.0035
;WIDTH:0.666085
G1 X36.082 Y56.937 E.00328
;WIDTH:0.623864
G1 X36.024 Y56.901 E.00306
;WIDTH:0.581643
G1 X35.965 Y56.866 E.00284
;WIDTH:0.539422
G1 X35.44 Y56.674 E.02137
;WIDTH:0.499999
G1 X34.428 Y56.142 E.04024
G1 X33.756 Y55.609 E.03021
G1 X33.022 Y54.727 E.04039
G1 X32.903 Y54.513 E.0086
G1 X33.264 Y54.23 F21000
G1 F3000
G1 X33.011 Y53.767 E.01853
G1 X32.704 Y52.757 E.03715
G1 X32.637 Y52.182 E.02039
G1 X32.619 Y51.067 E.03924
G1 X32.619 Y42.837 E.28966
G1 X32.666 Y42.194 E.02267
G1 X32.927 Y41.187 E.03662
G1 X33.429 Y40.22 E.03835
G1 X33.586 Y40.003 E.0094
G1 X34.238 Y39.305 E.03363
G1 X42.448 Y32.23 E.38141
G1 X42.989 Y31.825 E.02379
G1 X43.974 Y31.325 E.03889
G1 X44.739 Y31.095 E.02809
G1 X45.493 Y30.991 E.0268
G1 X46.255 Y30.999 E.02682
G1 X47.334 Y31.212 E.03871
G1 X48.082 Y31.504 E.02827
G1 X48.612 Y31.81 E.02153
G1 X48.877 Y31.985 E.01115
G1 X55.225 Y37.23 E.28984
G1 X55.717 Y37.698 E.02391
G1 X56.198 Y38.301 E.02713
G1 X56.581 Y38.966 E.02701
G1 X56.862 Y39.679 E.02698
G1 X57.033 Y40.421 E.02679
G1 X57.093 Y41.185 E.02695
G1 X57.04 Y41.949 E.02698
G1 X56.759 Y43.025 E.03913
G1 X56.24 Y44.044 E.04023
G1 X55.748 Y44.683 E.02839
G1 X45.198 Y55.885 E.54156
G1 X44.809 Y56.21 E.01783
G1 X44.354 Y56.432 E.01784
G1 X44.054 Y56.516 E.01094
G1 X43.625 Y56.564 E.01519
G1 X37.282 Y56.564 E.22326
G1 X36.827 Y56.539 E.01604
G1 X36.286 Y56.454 E.01925
G1 X35.581 Y56.24 E.02595
G1 X34.651 Y55.744 E.03707
G1 X34.053 Y55.261 E.02707
G1 X33.381 Y54.444 E.03724
G1 X33.292 Y54.282 E.00648
G1 X33.655 Y54.002 F21000
G1 F3000
G1 X33.419 Y53.56 E.01765
G1 X33.144 Y52.634 E.03401
G1 X33.082 Y52.011 E.02203
G1 X33.076 Y42.837 E.32287
G1 X33.122 Y42.23 E.0214
G1 X33.367 Y41.311 E.0335
G1 X33.829 Y40.442 E.03461
G1 X34.536 Y39.651 E.03736
G1 X42.746 Y32.576 E.38141
G1 X43.261 Y32.193 E.02261
G1 X44.174 Y31.736 E.03593
G1 X44.86 Y31.536 E.02514
G1 X45.548 Y31.445 E.02444
G1 X46.243 Y31.456 E.02445
G1 X47.238 Y31.659 E.03575
G1 X47.906 Y31.926 E.02531
G1 X48.585 Y32.337 E.02796
G1 X54.934 Y37.582 E.28984
G1 X55.401 Y38.028 E.0227
G1 X55.836 Y38.58 E.02475
G1 X56.182 Y39.188 E.02461
G1 X56.434 Y39.84 E.02459
G1 X56.586 Y40.517 E.02442
G1 X56.637 Y41.213 E.02458
G1 X56.584 Y41.91 E.02459
G1 X56.319 Y42.902 E.03614
G1 X55.838 Y43.826 E.03667
G1 X55.393 Y44.395 E.02542
G1 X44.865 Y55.572 E.54037
G1 X44.467 Y55.883 E.01778
G1 X43.992 Y56.063 E.01788
G1 X43.625 Y56.107 E.01301
G1 X37.282 Y56.107 E.22326
G1 X36.898 Y56.088 E.01352
G1 X36.358 Y56.002 E.01925
G1 X35.722 Y55.805 E.02343
G1 X34.875 Y55.345 E.03391
G1 X34.349 Y54.913 E.02394
G1 X33.74 Y54.161 E.03409
G1 X33.683 Y54.055 E.00422
G1 X34.048 Y53.781 F21000
;TYPE:Outer wall
G1 F3000
