; HEADER_BLOCK_START
; generated by OrcaSlicer 1.7.0-beta on 2023-10-03 at 15:39:07
; total layer number: 75
; HEADER_BLOCK_END

; THUMBNAIL_BLOCK_START
; THUMBNAIL_BLOCK_END

; external perimeters extrusion width = 0.40mm
; perimeters extrusion width = 0.46mm
; infill extrusion width = 0.64mm
; solid infill extrusion width = 0.56mm
; top infill extrusion width = 0.40mm
; first layer extrusion width = 0.50mm

; EXECUTABLE_BLOCK_START
EXCLUDE_OBJECT_DEFINE NAME=zzzzz.stl_id_0_copy_0 CENTER=60,60 POLYGON=[[38.375,36.875],[81.625,36.875],[81.625,83.125],[38.375,83.125],[38.375,36.875]]
M73 P0 R17
;TYPE:Custom
START_PRINT T_BED=110 T_EXTRUDER=260
G90
G21
M83 ; use relative distances for extrusion
; Filament gcode

    PRESSURE_ADVANCE_SELECT FILAMENT=ABS
M106 S0
;LAYER_CHANGE
;Z:0.2
;HEIGHT:0.2
;BEFORE_LAYER_CHANGE
;0.2
G92 E0

;AFTER_LAYER_CHANGE
;0.2
;_SET_FAN_SPEED_CHANGING_LAYER
SET_VELOCITY_LIMIT ACCEL=1000 ACCEL_TO_DECEL=500
SET_VELOCITY_LIMIT SQUARE_CORNER_VELOCITY=9
G1 E-.5 F3000
G1 Z.2 F21000
G1 X35.854 Y35.413
G1 Z.2
G1 E.5 F1800
;TYPE:Skirt
;WIDTH:0.5
G1 F3000
G1 X36.927 Y34.346 E.05327
G1 X38.375 Y33.961 E.05272
G1 X81.625 Y33.961 E1.52213
G1 X83.087 Y34.354 E.05327
G1 X84.154 Y35.427 E.05327
G1 X84.539 Y36.875 E.05272
G1 X84.539 Y83.125 E1.62772
G1 X84.146 Y84.587 E.05327
G1 X83.073 Y85.654 E.05327
G1 X81.625 Y86.039 E.05272
G1 X38.375 Y86.039 E1.52213
G1 X36.913 Y85.646 E.05327
G1 X35.846 Y84.573 E.05327
G1 X35.461 Y83.125 E.05272
G1 X35.461 Y36.875 E1.62772
G1 X35.844 Y35.452 E.05187
G1 X36.298 Y35.585 F21000
G1 F3000
G1 X36.31 Y35.544 E.00153
G1 X37.36 Y34.637 E.04884
G1 X38.375 Y34.418 E.03653
G1 X81.625 Y34.418 E1.52213
G1 X82.956 Y34.81 E.04884
G1 X83.863 Y35.86 E.04884
G1 X84.082 Y36.875 E.03653
G1 X84.082 Y83.125 E1.62772
G1 X83.69 Y84.456 E.04884
G1 X82.64 Y85.363 E.04884
G1 X81.625 Y85.582 E.03653
G1 X38.375 Y85.582 E1.52213
G1 X37.044 Y85.19 E.04884
G1 X36.137 Y84.14 E.04884
G1 X35.918 Y83.125 E.03653
G1 X35.918 Y36.875 E1.62772
G1 X36.286 Y35.624 E.0459
; printing object zzzzz.stl id:0 copy 0
G1 E-.5
EXCLUDE_OBJECT_START NAME=zzzzz.stl_id_0_copy_0
G1 Z.4 F21000
G1 X54.725 Y53.9 Z.4
G1 Z.2
G1 E.5 F1800
;TYPE:Outer wall
G1 F3000
G1 X38.725 Y53.9 E.5631
G1 X38.725 Y37.225 E.58686
G1 X81.275 Y37.225 E1.4975
M73 P1 R17
G1 X81.275 Y82.775 E1.60308
G1 X38.725 Y82.775 E1.4975
G1 X38.725 Y66.6 E.56926
G1 X54.725 Y66.6 E.5631
G1 X54.725 Y53.94 E.44555
G1 X55.225 Y53.4 F21000
;TYPE:Inner wall
G1 F3000
G1 X39.225 Y53.4 E.5631
G1 X39.225 Y37.725 E.55166
G1 X80.775 Y37.725 E1.4623
G1 X80.775 Y82.275 E1.56789
G1 X39.225 Y82.275 E1.4623
G1 X39.225 Y67.1 E.53407
G1 X55.225 Y67.1 E.5631
G1 X55.225 Y53.44 E.48075
G1 X55.682 Y52.943 F21000
G1 F3000
G1 X39.682 Y52.943 E.5631
G1 X39.682 Y38.182 E.51949
G1 X80.318 Y38.182 E1.43013
G1 X80.318 Y81.818 E1.53571
G1 X39.682 Y81.818 E1.43013
M73 P2 R17
G1 X39.682 Y67.557 E.50189
G1 X55.682 Y67.557 E.5631
G1 X55.682 Y52.983 E.51292
G1 X56.139 Y52.486 F21000
G1 F3000
G1 X40.139 Y52.486 E.5631
G1 X40.139 Y38.639 E.48732
G1 X79.861 Y38.639 E1.39796
M73 P2 R16
G1 X79.861 Y81.361 E1.50354
G1 X40.139 Y81.361 E1.39796
G1 X40.139 Y68.014 E.46972
G1 X56.139 Y68.014 E.5631
G1 X56.139 Y52.526 E.54509
G1 X56.596 Y52.029 F21000
G1 F3000
G1 X40.596 Y52.029 E.5631
G1 X40.596 Y39.096 E.45515
G1 X79.404 Y39.096 E1.36579
G1 X79.404 Y80.904 E1.47137
G1 X40.596 Y80.904 E1.36579
G1 X40.596 Y68.471 E.43755
G1 X56.596 Y68.471 E.5631
G1 X56.596 Y52.069 E.57727
G1 E-.5
G1 Z.4 F21000
G1 X78.343 Y39.233 Z.4
G1 Z.2
G1 E.5 F1800
;TYPE:Bottom surface
;WIDTH:0.500019
G1 F6300
G1 X79.061 Y39.952 E.03575
G1 X79.061 Y40.598 E.02275
G1 X77.902 Y39.439 E.05769
M73 P3 R16
G1 X77.255 Y39.439 E.02275
G1 X79.061 Y41.245 E.08987
G1 X79.061 Y41.891 E.02275
G1 X76.609 Y39.439 E.12204
G1 X75.963 Y39.439 E.02275
G1 X79.061 Y42.537 E.15422
G1 X79.061 Y43.184 E.02275
G1 X75.316 Y39.439 E.18639
G1 X74.67 Y39.439 E.02275
G1 X79.061 Y43.83 E.21857
G1 X79.061 Y44.477 E.02275
G1 X74.023 Y39.439 E.25074
G1 X73.377 Y39.439 E.02275
G1 X79.061 Y45.123 E.28292
G1 X79.061 Y45.77 E.02275
G1 X72.73 Y39.439 E.3151
G1 X72.084 Y39.439 E.02275
G1 X79.061 Y46.416 E.34727
G1 X79.061 Y47.062 E.02275
G1 X71.438 Y39.439 E.37945
G1 X70.791 Y39.439 E.02275
G1 X79.061 Y47.709 E.41162
G1 X79.061 Y48.355 E.02275
G1 X70.145 Y39.439 E.4438
G1 X69.498 Y39.439 E.02275
G1 X79.061 Y49.002 E.47597
G1 X79.061 Y49.648 E.02275
G1 X68.852 Y39.439 E.50815
G1 X68.205 Y39.439 E.02275
G1 X79.061 Y50.295 E.54032
G1 X79.061 Y50.941 E.02275
G1 X67.559 Y39.439 E.5725
G1 X66.912 Y39.439 E.02275
G1 X79.061 Y51.588 E.60468
G1 X79.061 Y52.234 E.02275
G1 X66.266 Y39.439 E.63685
G1 X65.62 Y39.439 E.02275
G1 X79.061 Y52.88 E.66903
G1 X79.061 Y53.527 E.02275
G1 X64.973 Y39.439 E.7012
G1 X64.327 Y39.439 E.02275
G1 X79.061 Y54.173 E.73338
G1 X79.061 Y54.82 E.02275
G1 X63.68 Y39.439 E.76555
G1 X63.034 Y39.439 E.02275
G1 X79.061 Y55.466 E.79773
G1 X79.061 Y56.113 E.02275
G1 X62.387 Y39.439 E.8299
G1 X61.741 Y39.439 E.02275
G1 X79.061 Y56.759 E.86208
G1 X79.061 Y57.405 E.02275
G1 X61.095 Y39.439 E.89426
G1 X60.448 Y39.439 E.02275
G1 X79.061 Y58.052 E.92643
G1 X79.061 Y58.698 E.02275
G1 X59.802 Y39.439 E.95861
G1 X59.155 Y39.439 E.02275
G1 X79.061 Y59.345 E.99078
G1 X79.061 Y59.991 E.02275
G1 X58.509 Y39.439 E1.02296
G1 X57.862 Y39.439 E.02275
G1 X79.061 Y60.638 E1.05513
G1 X79.061 Y61.284 E.02275
G1 X57.216 Y39.439 E1.08731
G1 X56.57 Y39.439 E.02275
G1 X79.061 Y61.93 E1.11948
G1 X79.061 Y62.577 E.02275
G1 X55.923 Y39.439 E1.15166
G1 X55.277 Y39.439 E.02275
G1 X79.061 Y63.223 E1.18383
G1 X79.061 Y63.87 E.02275
G1 X54.63 Y39.439 E1.21601
M73 P4 R16
G1 X53.984 Y39.439 E.02275
G1 X79.061 Y64.516 E1.24819
G1 X79.061 Y65.163 E.02275
G1 X53.337 Y39.439 E1.28036
G1 X52.691 Y39.439 E.02275
G1 X79.061 Y65.809 E1.31254
G1 X79.061 Y66.456 E.02275
G1 X52.044 Y39.439 E1.34471
G1 X51.398 Y39.439 E.02275
G1 X79.061 Y67.102 E1.37689
G1 X79.061 Y67.748 E.02275
G1 X50.752 Y39.439 E1.40906
G1 X50.105 Y39.439 E.02275
G1 X79.061 Y68.395 E1.44124
G1 X79.061 Y69.041 E.02275
G1 X49.459 Y39.439 E1.47341
G1 X48.812 Y39.439 E.02275
G1 X79.061 Y69.688 E1.50559
G1 X79.061 Y70.334 E.02275
G1 X48.166 Y39.439 E1.53777
G1 X47.519 Y39.439 E.02275
G1 X79.061 Y70.981 E1.56994
G1 X79.061 Y71.627 E.02275
G1 X46.873 Y39.439 E1.60212
G1 X46.227 Y39.439 E.02275
G1 X79.061 Y72.273 E1.63429
G1 X79.061 Y72.92 E.02275
G1 X45.58 Y39.439 E1.66647
G1 X44.934 Y39.439 E.02275
G1 X79.061 Y73.566 E1.69864
G1 X79.061 Y74.213 E.02275
G1 X44.287 Y39.439 E1.73082
G1 X43.641 Y39.439 E.02275
G1 X55.888 Y51.686 E.60958
G1 X55.241 Y51.686 E.02275
G1 X42.994 Y39.439 E.60958
G1 X42.348 Y39.439 E.02275
G1 X54.595 Y51.686 E.60958
G1 X53.948 Y51.686 E.02275
G1 X41.701 Y39.439 E.60958
G1 X41.055 Y39.439 E.02275
G1 X53.302 Y51.686 E.60958
G1 X52.656 Y51.686 E.02275
G1 X40.939 Y39.969 E.58317
M73 P5 R16
G1 X40.939 Y40.616 E.02275
G1 X52.009 Y51.686 E.551
G1 X51.363 Y51.686 E.02275
G1 X40.939 Y41.262 E.51882
G1 X40.939 Y41.909 E.02275
G1 X50.716 Y51.686 E.48665
G1 X50.07 Y51.686 E.02275
G1 X40.939 Y42.555 E.45447
G1 X40.939 Y43.202 E.02275
G1 X49.423 Y51.686 E.4223
G1 X48.777 Y51.686 E.02275
G1 X40.939 Y43.848 E.39012
G1 X40.939 Y44.494 E.02275
G1 X48.131 Y51.686 E.35795
G1 X47.484 Y51.686 E.02275
G1 X40.939 Y45.141 E.32577
G1 X40.939 Y45.787 E.02275
G1 X46.838 Y51.686 E.2936
G1 X46.191 Y51.686 E.02275
G1 X40.939 Y46.434 E.26142
G1 X40.939 Y47.08 E.02275
G1 X45.545 Y51.686 E.22924
G1 X44.898 Y51.686 E.02275
G1 X40.939 Y47.727 E.19707
G1 X40.939 Y48.373 E.02275
G1 X44.252 Y51.686 E.16489
G1 X43.605 Y51.686 E.02275
G1 X40.939 Y49.02 E.13272
G1 X40.939 Y49.666 E.02275
G1 X42.959 Y51.686 E.10054
G1 X42.313 Y51.686 E.02275
G1 X40.939 Y50.312 E.06837
G1 X40.939 Y50.959 E.02275
G1 X41.666 Y51.686 E.03619
G1 X41.02 Y51.686 E.02275
G1 X40.733 Y51.4 E.01425
G1 E-.5 F3000
G1 Z.4 F21000
G1 X56.733 Y52.532 Z.4
G1 Z.2
G1 E.5 F1800
G1 F6300
G1 X79.061 Y74.859 E1.11133
G1 X79.061 Y75.506 E.02275
G1 X56.939 Y53.384 E1.10109
G1 X56.939 Y54.03 E.02275
G1 X79.061 Y76.152 E1.10109
G1 X79.061 Y76.799 E.02275
G1 X56.939 Y54.677 E1.10109
G1 X56.939 Y55.323 E.02275
G1 X79.061 Y77.445 E1.10109
G1 X79.061 Y78.091 E.02275
G1 X56.939 Y55.969 E1.10109
G1 X56.939 Y56.616 E.02275
G1 X79.061 Y78.738 E1.10109
G1 X79.061 Y79.384 E.02275
G1 X56.939 Y57.262 E1.10109
G1 X56.939 Y57.909 E.02275
G1 X79.061 Y80.031 E1.10109
G1 X79.061 Y80.561 E.01866
G1 X78.945 Y80.561 E.00409
G1 X56.939 Y58.555 E1.09531
G1 X56.939 Y59.202 E.02275
G1 X78.298 Y80.561 E1.06313
G1 X77.652 Y80.561 E.02275
G1 X56.939 Y59.848 E1.03096
G1 X56.939 Y60.494 E.02275
G1 X77.006 Y80.561 E.99878
G1 X76.359 Y80.561 E.02275
G1 X56.939 Y61.141 E.96661
G1 X56.939 Y61.787 E.02275
G1 X75.713 Y80.561 E.93443
G1 X75.066 Y80.561 E.02275
G1 X56.939 Y62.434 E.90226
G1 X56.939 Y63.08 E.02275
G1 X74.42 Y80.561 E.87008
M73 P6 R16
G1 X73.773 Y80.561 E.02275
G1 X56.939 Y63.727 E.83791
G1 X56.939 Y64.373 E.02275
G1 X73.127 Y80.561 E.80573
G1 X72.48 Y80.561 E.02275
G1 X56.939 Y65.02 E.77356
G1 X56.939 Y65.666 E.02275
G1 X71.834 Y80.561 E.74138
G1 X71.188 Y80.561 E.02275
G1 X56.939 Y66.312 E.7092
G1 X56.939 Y66.959 E.02275
G1 X70.541 Y80.561 E.67703
G1 X69.895 Y80.561 E.02275
G1 X56.939 Y67.605 E.64485
G1 X56.939 Y68.252 E.02275
G1 X69.248 Y80.561 E.61268
G1 X68.602 Y80.561 E.02275
G1 X56.855 Y68.814 E.58469
G1 X56.208 Y68.814 E.02275
G1 X67.955 Y80.561 E.58469
G1 X67.309 Y80.561 E.02275
G1 X55.562 Y68.814 E.58469
G1 X54.916 Y68.814 E.02275
G1 X66.663 Y80.561 E.58469
G1 X66.016 Y80.561 E.02275
G1 X54.269 Y68.814 E.58469
G1 X53.623 Y68.814 E.02275
G1 X65.37 Y80.561 E.58469
G1 X64.723 Y80.561 E.02275
G1 X52.976 Y68.814 E.58469
G1 X52.33 Y68.814 E.02275
G1 X64.077 Y80.561 E.58469
G1 X63.43 Y80.561 E.02275
G1 X51.683 Y68.814 E.58469
G1 X51.037 Y68.814 E.02275
G1 X62.784 Y80.561 E.58469
G1 X62.137 Y80.561 E.02275
G1 X50.391 Y68.814 E.58469
G1 X49.744 Y68.814 E.02275
G1 X61.491 Y80.561 E.58469
G1 X60.845 Y80.561 E.02275
G1 X49.098 Y68.814 E.58469
G1 X48.451 Y68.814 E.02275
G1 X60.198 Y80.561 E.58469
G1 X59.552 Y80.561 E.02275
G1 X47.805 Y68.814 E.58469
G1 X47.158 Y68.814 E.02275
G1 X58.905 Y80.561 E.58469
G1 X58.259 Y80.561 E.02275
G1 X46.512 Y68.814 E.58469
G1 X45.866 Y68.814 E.02275
G1 X57.612 Y80.561 E.58469
G1 X56.966 Y80.561 E.02275
G1 X45.219 Y68.814 E.58469
G1 X44.573 Y68.814 E.02275
G1 X56.32 Y80.561 E.58469
G1 X55.673 Y80.561 E.02275
G1 X43.926 Y68.814 E.58469
G1 X43.28 Y68.814 E.02275
G1 X55.027 Y80.561 E.58469
G1 X54.38 Y80.561 E.02275
G1 X42.633 Y68.814 E.58469
G1 X41.987 Y68.814 E.02275
G1 X53.734 Y80.561 E.58469
G1 X53.087 Y80.561 E.02275
G1 X41.34 Y68.814 E.58469
G1 X40.939 Y68.814 E.01413
G1 X40.939 Y69.059 E.00862
G1 X52.441 Y80.561 E.57249
G1 X51.795 Y80.561 E.02275
G1 X40.939 Y69.705 E.54032
M73 P7 R16
G1 X40.939 Y70.352 E.02275
G1 X51.148 Y80.561 E.50814
G1 X50.502 Y80.561 E.02275
G1 X40.939 Y70.998 E.47597
G1 X40.939 Y71.645 E.02275
G1 X49.855 Y80.561 E.44379
G1 X49.209 Y80.561 E.02275
G1 X40.939 Y72.291 E.41162
G1 X40.939 Y72.938 E.02275
G1 X48.562 Y80.561 E.37944
G1 X47.916 Y80.561 E.02275
G1 X40.939 Y73.584 E.34727
G1 X40.939 Y74.231 E.02275
G1 X47.269 Y80.561 E.31509
G1 X46.623 Y80.561 E.02275
G1 X40.939 Y74.877 E.28291
G1 X40.939 Y75.523 E.02275
G1 X45.977 Y80.561 E.25074
G1 X45.33 Y80.561 E.02275
G1 X40.939 Y76.17 E.21856
G1 X40.939 Y76.816 E.02275
G1 X44.684 Y80.561 E.18639
G1 X44.037 Y80.561 E.02275
G1 X40.939 Y77.463 E.15421
G1 X40.939 Y78.109 E.02275
G1 X43.391 Y80.561 E.12204
G1 X42.744 Y80.561 E.02275
G1 X40.939 Y78.756 E.08986
G1 X40.939 Y79.402 E.02275
G1 X42.098 Y80.561 E.05769
G1 X41.452 Y80.561 E.02275
G1 X40.733 Y79.843 E.03575
; stop printing object zzzzz.stl id:0 copy 0
;LAYER_CHANGE
;Z:0.4
;HEIGHT:0.2
;BEFORE_LAYER_CHANGE
;0.4
G92 E0

EXCLUDE_OBJECT_END NAME=zzzzz.stl_id_0_copy_0
;AFTER_LAYER_CHANGE
;0.4
;_SET_FAN_SPEED_CHANGING_LAYER
SET_VELOCITY_LIMIT ACCEL=6000 ACCEL_TO_DECEL=3000
M140 S110 ; set bed temperature
; printing object zzzzz.stl id:0 copy 0
SET_VELOCITY_LIMIT ACCEL=4000 ACCEL_TO_DECEL=2000
SET_VELOCITY_LIMIT SQUARE_CORNER_VELOCITY=12
G1 E-.5 F3000
EXCLUDE_OBJECT_START NAME=zzzzz.stl_id_0_copy_0
G1 Z.4 F21000
G1 X55.001 Y66.876 Z.4
G1 X55.001 Y54.05
G1 X54.575 Y54.05
G1 E.5 F1800
SET_VELOCITY_LIMIT SQUARE_CORNER_VELOCITY=7
;TYPE:Outer wall
;WIDTH:0.4
G1 F6000
G1 X38.575 Y54.05 E.43991
G1 X38.575 Y37.075 E.46671
G1 X81.425 Y37.075 E1.17812
G1 X81.425 Y82.925 E1.26061
G1 X38.575 Y82.925 E1.17812
G1 X38.575 Y66.45 E.45297
G1 X54.575 Y66.45 E.43991
G1 X54.575 Y54.09 E.33983
SET_VELOCITY_LIMIT SQUARE_CORNER_VELOCITY=12
G1 X55.005 Y53.62 F21000
SET_VELOCITY_LIMIT ACCEL=6000 ACCEL_TO_DECEL=3000
SET_VELOCITY_LIMIT SQUARE_CORNER_VELOCITY=7
;TYPE:Inner wall
;WIDTH:0.46
G1 F8631.445
G1 X39.005 Y53.62 E.51382
G1 X39.005 Y37.505 E.51752
G1 X80.995 Y37.505 E1.34847
G1 X80.995 Y82.495 E1.44481
G1 X39.005 Y82.495 E1.34847
G1 X39.005 Y66.88 E.50146
G1 X55.005 Y66.88 E.51382
G1 X55.005 Y53.66 E.42455
SET_VELOCITY_LIMIT ACCEL=4000 ACCEL_TO_DECEL=2000
SET_VELOCITY_LIMIT SQUARE_CORNER_VELOCITY=12
G1 X55.422 Y53.203 F21000
SET_VELOCITY_LIMIT ACCEL=6000 ACCEL_TO_DECEL=3000
SET_VELOCITY_LIMIT SQUARE_CORNER_VELOCITY=7
G1 F8631.445
G1 X39.422 Y53.203 E.51382
G1 X39.422 Y37.922 E.49073
G1 X80.578 Y37.922 E1.32168
G1 X80.578 Y82.078 E1.41802
G1 X39.422 Y82.078 E1.32168
G1 X39.422 Y67.297 E.47467
G1 X55.422 Y67.297 E.51382
G1 X55.422 Y53.243 E.45133
SET_VELOCITY_LIMIT ACCEL=4000 ACCEL_TO_DECEL=2000
SET_VELOCITY_LIMIT SQUARE_CORNER_VELOCITY=12
G1 X55.839 Y52.786 F21000
SET_VELOCITY_LIMIT ACCEL=6000 ACCEL_TO_DECEL=3000
SET_VELOCITY_LIMIT SQUARE_CORNER_VELOCITY=7
G1 F8631.445
G1 X39.839 Y52.786 E.51382
G1 X39.839 Y38.339 E.46394
G1 X80.161 Y38.339 E1.29489
G1 X80.161 Y81.661 E1.39123
G1 X39.839 Y81.661 E1.29489
G1 X39.839 Y67.714 E.44788
M73 P7 R15
G1 X55.839 Y67.714 E.51382
G1 X55.839 Y52.826 E.47812
SET_VELOCITY_LIMIT ACCEL=4000 ACCEL_TO_DECEL=2000
SET_VELOCITY_LIMIT SQUARE_CORNER_VELOCITY=12
M73 P8 R15
G1 X56.256 Y52.369 F21000
SET_VELOCITY_LIMIT ACCEL=6000 ACCEL_TO_DECEL=3000
SET_VELOCITY_LIMIT SQUARE_CORNER_VELOCITY=7
G1 F8631.445
G1 X40.256 Y52.369 E.51382
G1 X40.256 Y38.756 E.43715
G1 X79.744 Y38.756 E1.2681
G1 X79.744 Y81.244 E1.36444
G1 X40.256 Y81.244 E1.2681
G1 X40.256 Y68.131 E.4211
G1 X56.256 Y68.131 E.51382
G1 X56.256 Y52.409 E.50491
SET_VELOCITY_LIMIT ACCEL=4000 ACCEL_TO_DECEL=2000
SET_VELOCITY_LIMIT SQUARE_CORNER_VELOCITY=12
G1 X79.626 Y80.075 F21000
SET_VELOCITY_LIMIT ACCEL=6000 ACCEL_TO_DECEL=3000
;TYPE:Internal solid infill
;WIDTH:0.562789
G1 F6000
G1 X78.808 Y80.893 E.04633
G1 X78.072 Y80.893 E.02943
G1 X79.393 Y79.572 E.07478
G1 X79.393 Y78.837 E.02943
G1 X77.337 Y80.893 E.1164
G1 X76.602 Y80.893 E.02943
G1 X79.393 Y78.102 E.15802
G1 X79.393 Y77.367 E.02943
G1 X75.867 Y80.893 E.19964
G1 X75.132 Y80.893 E.02943
G1 X79.393 Y76.632 E.24126
G1 X79.393 Y75.896 E.02943
G1 X74.396 Y80.893 E.28288
G1 X73.661 Y80.893 E.02943
G1 X79.393 Y75.161 E.3245
G1 X79.393 Y74.426 E.02943
G1 X72.926 Y80.893 E.36611
G1 X72.191 Y80.893 E.02943
G1 X79.393 Y73.691 E.40773
G1 X79.393 Y72.956 E.02943
G1 X71.456 Y80.893 E.44935
G1 X70.72 Y80.893 E.02943
G1 X79.393 Y72.22 E.49097
G1 X79.393 Y71.485 E.02943
G1 X69.985 Y80.893 E.53259
G1 X69.25 Y80.893 E.02943
G1 X79.393 Y70.75 E.57421
G1 X79.393 Y70.015 E.02943
G1 X68.515 Y80.893 E.61583
G1 X67.78 Y80.893 E.02943
G1 X79.393 Y69.28 E.65745
G1 X79.393 Y68.544 E.02943
G1 X67.044 Y80.893 E.69907
G1 X66.309 Y80.893 E.02943
G1 X79.393 Y67.809 E.74069
G1 X79.393 Y67.074 E.02943
G1 X65.574 Y80.893 E.78231
G1 X64.839 Y80.893 E.02943
G1 X79.393 Y66.339 E.82392
G1 X79.393 Y65.604 E.02943
G1 X64.104 Y80.893 E.86554
G1 X63.368 Y80.893 E.02943
G1 X79.393 Y64.868 E.90716
G1 X79.393 Y64.133 E.02943
G1 X62.633 Y80.893 E.94878
G1 X61.898 Y80.893 E.02943
G1 X79.393 Y63.398 E.9904
G1 X79.393 Y62.663 E.02943
G1 X61.163 Y80.893 E1.03202
G1 X60.428 Y80.893 E.02943
G1 X79.393 Y61.928 E1.07364
G1 X79.393 Y61.192 E.02943
G1 X59.692 Y80.893 E1.11526
G1 X58.957 Y80.893 E.02943
G1 X79.393 Y60.457 E1.15688
G1 X79.393 Y59.722 E.02943
G1 X58.222 Y80.893 E1.1985
